P3
400 225
255
204 226 255
204 226 255
204 226 255
204 226 255
204 226 255
204 226 255
204 226 255
204 226 255
204 226 255
204 226 255
204 226 255
204 226 255
204 226 255
204 226 255
204 226 255
203 226 255
203 226 255
203 226 255
203 226 255
203 226 255
203 226 255
203 226 255
203 226 255
203 225 255
203 225 255
203 225 255
203 225 255
203 225 255
203 225 255
203 225 255
203 225 255
203 225 255
202 225 255
202 225 255
202 225 255
202 225 255
202 225 255
202 225 255
202 225 255
202 225 255
202 225 255
202 225 255
202 225 255
202 225 255
202 225 255
202 225 255
202 225 255
202 225 255
201 225 255
201 225 255
201 225 255
201 225 255
201 224 255
201 224 255
201 224 255
201 224 255
201 224 255
201 224 255
201 224 255
201 224 255
201 224 255
201 224 255
201 224 255
200 224 255
200 224 255
200 224 255
200 224 255
200 224 255
200 224 255
200 224 255
200 224 255
200 224 255
200 224 255
200 224 255
200 224 255
200 224 255
200 224 255
200 224 255
199 224 255
199 224 255
199 223 255
199 223 255
199 223 255
199 223 255
199 223 255
199 223 255
199 223 255
199 223 255
199 223 255
199 223 255
199 223 255
199 223 255
198 223 255
198 223 255
198 223 255
198 223 255
198 223 255
198 223 255
198 223 255
198 223 255
198 223 255
198 223 255
198 223 255
198 223 255
198 223 255
198 223 255
197 222 255
197 222 255
197 222 255
197 222 255
197 222 255
197 222 255
197 222 255
197 222 255
197 222 255
197 222 255
197 222 255
197 222 255
197 222 255
197 222 255
197 222 255
196 222 255
196 222 255
196 222 255
196 222 255
196 222 255
196 222 255
196 222 255
196 222 255
196 222 255
196 222 255
196 222 255
196 222 255
196 222 255
196 222 255
196 221 255
196 221 255
195 221 255
195 221 255
195 221 255
195 221 255
195 221 255
195 221 255
195 221 255
195 221 255
195 221 255
195 221 255
195 221 255
195 221 255
195 221 255
195 221 255
195 221 255
195 221 255
195 221 255
195 221 255
194 221 255
194 221 255
194 221 255
194 221 255
194 221 255
194 221 255
194 221 255
194 221 255
194 221 255
194 221 255
194 221 255
194 221 255
194 221 255
194 221 255
194 221 255
194 221 255
194 221 255
194 221 255
194 221 255
194 221 255
194 221 255
194 221 255
194 220 255
194 220 255
194 220 255
194 220 255
194 220 255
194 220 255
194 220 255
194 220 255
194 220 255
193 220 255
193 220 255
193 220 255
193 220 255
193 220 255
193 220 255
193 220 255
193 220 255
193 220 255
193 220 255
193 220 255
193 220 255
193 220 255
193 220 255
193 220 255
193 220 255
193 220 255
193 220 255
193 220 255
193 220 255
193 220 255
193 220 255
193 220 255
193 220 255
193 220 255
193 220 255
193 220 255
193 220 255
194 220 255
194 220 255
194 220 255
194 220 255
194 220 255
194 220 255
194 220 255
194 220 255
194 220 255
194 221 255
194 221 255
194 221 255
194 221 255
194 221 255
194 221 255
194 221 255
194 221 255
194 221 255
194 221 255
194 221 255
194 221 255
194 221 255
194 221 255
194 221 255
194 221 255
194 221 255
194 221 255
194 221 255
194 221 255
194 221 255
194 221 255
195 221 255
195 221 255
195 221 255
195 221 255
195 221 255
195 221 255
195 221 255
195 221 255
195 221 255
195 221 255
195 221 255
195 221 255
195 221 255
195 221 255
195 221 255
195 221 255
195 221 255
195 221 255
196 221 255
196 221 255
196 222 255
196 222 255
196 222 255
196 222 255
196 222 255
196 222 255
196 222 255
196 222 255
196 222 255
196 222 255
196 222 255
196 222 255
196 222 255
196 222 255
197 222 255
197 222 255
197 222 255
197 222 255
197 222 255
197 222 255
197 222 255
197 222 255
197 222 255
197 222 255
197 222 255
197 222 255
197 222 255
197 222 255
197 223 255
198 223 255
198 223 255
198 223 255
198 223 255
198 223 255
198 223 255
198 223 255
198 223 255
198 223 255
198 223 255
198 223 255
198 223 255
198 223 255
198 223 255
199 223 255
199 223 255
199 223 255
199 223 255
199 223 255
199 223 255
199 223 255
199 223 255
199 223 255
199 223 255
199 223 255
199 223 255
199 224 255
199 224 255
200 224 255
200 224 255
200 224 255
200 224 255
200 224 255
200 224 255
200 224 255
200 224 255
200 224 255
200 224 255
200 224 255
200 224 255
200 224 255
200 224 255
200 224 255
201 224 255
201 224 255
201 224 255
201 224 255
201 224 255
201 224 255
201 224 255
201 224 255
201 224 255
201 224 255
201 224 255
201 225 255
201 225 255
201 225 255
201 225 255
202 225 255
202 225 255
202 225 255
202 225 255
202 225 255
202 225 255
202 225 255
202 225 255
202 225 255
202 225 255
202 225 255
202 225 255
202 225 255
202 225 255
202 225 255
202 225 255
203 225 255
203 225 255
203 225 255
203 225 255
203 225 255
203 225 255
203 225 255
203 225 255
203 225 255
203 226 255
203 226 255
203 226 255
203 226 255
203 226 255
203 226 255
203 226 255
203 226 255
204 226 255
204 226 255
204 226 255
204 226 255
204 226 255
204 226 255
204 226 255
204 226 255
204 226 255
204 226 255
204 226 255
204 226 255
204 226 255
204 226 255
204 226 255
204 226 255
204 226 255
204 226 255
204 226 255
204 226 255
204 226 255
204 226 255
204 226 255
204 226 255
204 226 255
204 226 255
204 226 255
204 226 255
204 226 255
204 226 255
204 226 255
204 226 255
204 226 255
203 226 255
203 226 255
203 226 255
203 226 255
203 226 255
203 226 255
203 226 255
203 225 255
203 225 255
203 225 255
203 225 255
203 225 255
203 225 255
203 225 255
203 225 255
203 225 255
202 225 255
202 225 255
202 225 255
202 225 255
202 225 255
202 225 255
202 225 255
202 225 255
202 225 255
202 225 255
202 225 255
202 225 255
202 225 255
202 225 255
202 225 255
202 225 255
201 225 255
201 225 255
201 225 255
201 225 255
201 225 255
201 224 255
201 224 255
201 224 255
201 224 255
201 224 255
201 224 255
201 224 255
201 224 255
201 224 255
201 224 255
200 224 255
200 224 255
200 224 255
200 224 255
200 224 255
200 224 255
200 224 255
200 224 255
200 224 255
200 224 255
200 224 255
200 224 255
200 224 255
200 224 255
200 224 255
199 224 255
199 224 255
199 223 255
199 223 255
199 223 255
199 223 255
199 223 255
199 223 255
199 223 255
199 223 255
199 223 255
199 223 255
199 223 255
199 223 255
198 223 255
198 223 255
198 223 255
198 223 255
198 223 255
198 223 255
198 223 255
198 223 255
198 223 255
198 223 255
198 223 255
198 223 255
198 223 255
198 223 255
197 223 255
197 222 255
197 222 255
197 222 255
197 222 255
197 222 255
197 222 255
197 222 255
197 222 255
197 222 255
197 222 255
197 222 255
197 222 255
197 222 255
197 222 255
196 222 255
196 222 255
196 222 255
196 222 255
196 222 255
196 222 255
196 222 255
196 222 255
196 222 255
196 222 255
196 222 255
196 222 255
196 222 255
196 222 255
196 222 255
196 221 255
195 221 255
195 221 255
195 221 255
195 221 255
195 221 255
195 221 255
195 221 255
195 221 255
195 221 255
195 221 255
195 221 255
195 221 255
195 221 255
195 221 255
195 221 255
195 221 255
195 221 255
195 221 255
195 221 255
194 221 255
194 221 255
194 221 255
194 221 255
194 221 255
194 221 255
194 221 255
194 221 255
194 221 255
194 221 255
194 221 255
194 221 255
194 221 255
194 221 255
194 221 255
194 221 255
194 221 255
194 221 255
194 221 255
194 221 255
194 221 255
194 221 255
194 221 255
194 221 255
194 221 255
194 220 255
194 220 255
194 220 255
194 220 255
194 220 255
194 220 255
194 220 255
194 220 255
194 220 255
194 220 255
194 220 255
194 220 255
194 220 255
194 220 255
194 220 255
194 220 255
194 220 255
194 220 255
194 220 255
194 220 255
194 220 255
194 220 255
194 220 255
194 220 255
194 220 255
194 220 255
194 220 255
194 220 255
194 220 255
194 220 255
194 220 255
194 220 255
194 220 255
194 220 255
194 221 255
194 221 255
194 221 255
194 221 255
194 221 255
194 221 255
194 221 255
194 221 255
194 221 255
194 221 255
194 221 255
194 221 255
194 221 255
194 221 255
194 221 255
194 221 255
194 221 255
194 221 255
194 221 255
194 221 255
194 221 255
194 221 255
194 221 255
194 221 255
194 221 255
195 221 255
195 221 255
195 221 255
195 221 255
195 221 255
195 221 255
195 221 255
195 221 255
195 221 255
195 221 255
195 221 255
195 221 255
195 221 255
195 221 255
195 221 255
195 221 255
195 221 255
195 221 255
195 221 255
196 221 255
196 222 255
196 222 255
196 222 255
196 222 255
196 222 255
196 222 255
196 222 255
196 222 255
196 222 255
196 222 255
196 222 255
196 222 255
196 222 255
196 222 255
196 222 255
197 222 255
197 222 255
197 222 255
197 222 255
197 222 255
197 222 255
197 222 255
197 222 255
197 222 255
197 222 255
197 222 255
197 222 255
197 222 255
197 222 255
197 223 255
198 223 255
198 223 255
198 223 255
198 223 255
198 223 255
198 223 255
198 223 255
198 223 255
198 223 255
198 223 255
198 223 255
198 223 255
198 223 255
198 223 255
199 223 255
199 223 255
199 223 255
199 223 255
199 223 255
199 223 255
199 223 255
199 223 255
199 223 255
199 223 255
199 223 255
199 223 255
199 224 255
199 224 255
200 224 255
200 224 255
200 224 255
200 224 255
200 224 255
200 224 255
200 224 255
200 224 255
200 224 255
200 224 255
200 224 255
200 224 255
200 224 255
200 224 255
200 224 255
201 224 255
201 224 255
201 224 255
201 224 255
201 224 255
201 224 255
201 224 255
201 224 255
201 224 255
201 224 255
201 225 255
201 225 255
201 225 255
201 225 255
201 225 255
202 225 255
202 225 255
202 225 255
202 225 255
202 225 255
202 225 255
202 225 255
202 225 255
202 225 255
202 225 255
202 225 255
202 225 255
202 225 255
202 225 255
202 225 255
202 225 255
203 225 255
203 225 255
203 225 255
203 225 255
203 225 255
203 225 255
203 225 255
203 225 255
203 225 255
203 226 255
203 226 255
203 226 255
203 226 255
203 226 255
203 226 255
203 226 255
204 226 255
204 226 255
204 226 255
204 226 255
204 226 255
204 226 255
204 226 255
204 226 255
204 226 255
204 226 255
204 226 255
204 226 255
204 226 255
204 226 255
204 226 255
204 226 255
204 226 255
204 226 255
205 226 255
205 226 255
204 226 255
204 226 255
204 226 255
204 226 255
204 226 255
204 226 255
204 226 255
204 226 255
204 226 255
204 226 255
204 226 255
204 226 255
204 226 255
204 226 255
204 226 255
204 226 255
204 226 255
204 226 255
203 226 255
203 226 255
203 226 255
203 226 255
203 226 255
203 226 255
203 226 255
203 225 255
203 225 255
203 225 255
203 225 255
203 225 255
203 225 255
203 225 255
203 225 255
203 225 255
203 225 255
202 225 255
202 225 255
202 225 255
202 225 255
202 225 255
202 225 255
202 225 255
202 225 255
202 225 255
202 225 255
202 225 255
202 225 255
202 225 255
202 225 255
202 225 255
201 225 255
201 225 255
201 225 255
201 225 255
201 225 255
201 224 255
201 224 255
201 224 255
201 224 255
201 224 255
201 224 255
201 224 255
201 224 255
201 224 255
201 224 255
200 224 255
200 224 255
200 224 255
200 224 255
200 224 255
200 224 255
200 224 255
200 224 255
200 224 255
200 224 255
200 224 255
200 224 255
200 224 255
200 224 255
200 224 255
199 224 255
199 224 255
199 223 255
199 223 255
199 223 255
199 223 255
199 223 255
199 223 255
199 223 255
199 223 255
199 223 255
199 223 255
199 223 255
199 223 255
198 223 255
198 223 255
198 223 255
198 223 255
198 223 255
198 223 255
198 223 255
198 223 255
198 223 255
198 223 255
198 223 255
198 223 255
198 223 255
198 223 255
197 223 255
197 222 255
197 222 255
197 222 255
197 222 255
197 222 255
197 222 255
197 222 255
197 222 255
197 222 255
197 222 255
197 222 255
197 222 255
197 222 255
197 222 255
196 222 255
196 222 255
196 222 255
196 222 255
196 222 255
196 222 255
196 222 255
196 222 255
196 222 255
196 222 255
196 222 255
196 222 255
196 222 255
196 222 255
196 222 255
196 221 255
195 221 255
195 221 255
195 221 255
195 221 255
195 221 255
195 221 255
195 221 255
195 221 255
195 221 255
195 221 255
195 221 255
195 221 255
195 221 255
195 221 255
195 221 255
195 221 255
195 221 255
195 221 255
195 221 255
195 221 255
195 221 255
194 221 255
194 221 255
194 221 255
194 221 255
194 221 255
194 221 255
194 221 255
194 221 255
194 221 255
194 221 255
194 221 255
194 221 255
194 221 255
194 221 255
194 221 255
194 221 255
194 221 255
194 221 255
194 221 255
194 221 255
194 221 255
194 221 255
194 221 255
194 221 255
194 221 255
194 221 255
194 221 255
194 221 255
194 221 255
194 221 255
194 220 255
194 220 255
194 220 255
194 220 255
194 220 255
194 220 255
194 220 255
194 220 255
194 220 255
194 220 255
194 220 255
194 220 255
194 220 255
194 220 255
194 220 255
194 221 255
194 221 255
194 221 255
194 221 255
194 221 255
194 221 255
194 221 255
194 221 255
194 221 255
194 221 255
194 221 255
194 221 255
194 221 255
194 221 255
194 221 255
194 221 255
194 221 255
194 221 255
194 221 255
194 221 255
194 221 255
194 221 255
194 221 255
194 221 255
194 221 255
194 221 255
194 221 255
194 221 255
194 221 255
194 221 255
194 221 255
194 221 255
195 221 255
195 221 255
195 221 255
195 221 255
195 221 255
195 221 255
195 221 255
195 221 255
195 221 255
195 221 255
195 221 255
195 221 255
195 221 255
195 221 255
195 221 255
195 221 255
195 221 255
195 221 255
195 221 255
195 221 255
196 221 255
196 222 255
196 222 255
196 222 255
196 222 255
196 222 255
196 222 255
196 222 255
196 222 255
196 222 255
196 222 255
196 222 255
196 222 255
196 222 255
196 222 255
196 222 255
197 222 255
197 222 255
197 222 255
197 222 255
197 222 255
197 222 255
197 222 255
197 222 255
197 222 255
197 222 255
197 222 255
197 222 255
197 222 255
197 222 255
197 223 255
198 223 255
198 223 255
198 223 255
198 223 255
198 223 255
198 223 255
198 223 255
198 223 255
198 223 255
198 223 255
198 223 255
198 223 255
198 223 255
198 223 255
199 223 255
199 223 255
199 223 255
199 223 255
199 223 255
199 223 255
199 223 255
199 223 255
199 223 255
199 223 255
199 223 255
199 223 255
199 224 255
199 224 255
200 224 255
200 224 255
200 224 255
200 224 255
200 224 255
200 224 255
200 224 255
200 224 255
200 224 255
200 224 255
200 224 255
200 224 255
200 224 255
200 224 255
200 224 255
201 224 255
201 224 255
201 224 255
201 224 255
201 224 255
201 224 255
201 224 255
201 224 255
201 224 255
201 224 255
201 225 255
201 225 255
201 225 255
201 225 255
201 225 255
202 225 255
202 225 255
202 225 255
202 225 255
202 225 255
202 225 255
202 225 255
202 225 255
202 225 255
202 225 255
202 225 255
202 225 255
202 225 255
202 225 255
202 225 255
203 225 255
203 225 255
203 225 255
203 225 255
203 225 255
203 225 255
203 225 255
203 225 255
203 225 255
203 225 255
203 226 255
203 226 255
203 226 255
203 226 255
203 226 255
203 226 255
203 226 255
204 226 255
204 226 255
204 226 255
204 226 255
204 226 255
204 226 255
204 226 255
204 226 255
204 226 255
204 226 255
204 226 255
204 226 255
204 226 255
204 226 255
204 226 255
204 226 255
204 226 255
204 226 255
205 226 255
205 226 255
205 226 255
205 226 255
205 226 255
205 226 255
204 226 255
204 226 255
204 226 255
204 226 255
204 226 255
204 226 255
204 226 255
204 226 255
204 226 255
204 226 255
204 226 255
204 226 255
204 226 255
204 226 255
204 226 255
204 226 255
204 226 255
204 226 255
203 226 255
203 226 255
203 226 255
203 226 255
203 226 255
203 226 255
203 226 255
203 226 255
203 225 255
203 225 255
203 225 255
203 225 255
203 225 255
203 225 255
203 225 255
203 225 255
203 225 255
202 225 255
202 225 255
202 225 255
202 225 255
202 225 255
202 225 255
202 225 255
202 225 255
202 225 255
202 225 255
202 225 255
202 225 255
202 225 255
202 225 255
202 225 255
201 225 255
201 225 255
201 225 255
201 225 255
201 225 255
201 224 255
201 224 255
201 224 255
201 224 255
201 224 255
201 224 255
201 224 255
201 224 255
201 224 255
201 224 255
200 224 255
200 224 255
200 224 255
200 224 255
200 224 255
200 224 255
200 224 255
200 224 255
200 224 255
200 224 255
200 224 255
200 224 255
200 224 255
200 224 255
200 224 255
199 224 255
199 224 255
199 223 255
199 223 255
199 223 255
199 223 255
199 223 255
199 223 255
199 223 255
199 223 255
199 223 255
199 223 255
199 223 255
199 223 255
198 223 255
198 223 255
198 223 255
198 223 255
198 223 255
198 223 255
198 223 255
198 223 255
198 223 255
198 223 255
198 223 255
198 223 255
198 223 255
198 223 255
197 223 255
197 222 255
197 222 255
197 222 255
197 222 255
197 222 255
197 222 255
197 222 255
197 222 255
197 222 255
197 222 255
197 222 255
197 222 255
197 222 255
197 222 255
196 222 255
196 222 255
196 222 255
196 222 255
196 222 255
196 222 255
196 222 255
196 222 255
196 222 255
196 222 255
196 222 255
196 222 255
196 222 255
196 222 255
196 222 255
196 222 255
196 221 255
195 221 255
195 221 255
195 221 255
195 221 255
195 221 255
195 221 255
195 221 255
195 221 255
195 221 255
195 221 255
195 221 255
195 221 255
195 221 255
195 221 255
195 221 255
195 221 255
195 221 255
195 221 255
195 221 255
195 221 255
195 221 255
194 221 255
194 221 255
194 221 255
194 221 255
194 221 255
194 221 255
194 221 255
194 221 255
194 221 255
194 221 255
194 221 255
194 221 255
194 221 255
194 221 255
194 221 255
194 221 255
194 221 255
194 221 255
194 221 255
194 221 255
194 221 255
194 221 255
194 221 255
194 221 255
194 221 255
194 221 255
194 221 255
194 221 255
194 221 255
194 221 255
194 221 255
194 221 255
194 221 255
194 221 255
194 221 255
194 221 255
194 221 255
194 221 255
194 221 255
194 221 255
194 221 255
194 221 255
194 221 255
194 221 255
194 221 255
194 221 255
194 221 255
194 221 255
194 221 255
194 221 255
194 221 255
194 221 255
194 221 255
194 221 255
194 221 255
194 221 255
194 221 255
194 221 255
194 221 255
194 221 255
194 221 255
194 221 255
194 221 255
194 221 255
194 221 255
194 221 255
194 221 255
194 221 255
194 221 255
194 221 255
195 221 255
195 221 255
195 221 255
195 221 255
195 221 255
195 221 255
195 221 255
195 221 255
195 221 255
195 221 255
195 221 255
195 221 255
195 221 255
195 221 255
195 221 255
195 221 255
195 221 255
195 221 255
195 221 255
195 221 255
195 221 255
196 221 255
196 222 255
196 222 255
196 222 255
196 222 255
196 222 255
196 222 255
196 222 255
196 222 255
196 222 255
196 222 255
196 222 255
196 222 255
196 222 255
196 222 255
196 222 255
196 222 255
197 222 255
197 222 255
197 222 255
197 222 255
197 222 255
197 222 255
197 222 255
197 222 255
197 222 255
197 222 255
197 222 255
197 222 255
197 222 255
197 222 255
197 223 255
198 223 255
198 223 255
198 223 255
198 223 255
198 223 255
198 223 255
198 223 255
198 223 255
198 223 255
198 223 255
198 223 255
198 223 255
198 223 255
198 223 255
199 223 255
199 223 255
199 223 255
199 223 255
199 223 255
199 223 255
199 223 255
199 223 255
199 223 255
199 223 255
199 223 255
199 223 255
199 224 255
199 224 255
200 224 255
200 224 255
200 224 255
200 224 255
200 224 255
200 224 255
200 224 255
200 224 255
200 224 255
200 224 255
200 224 255
200 224 255
200 224 255
200 224 255
200 224 255
201 224 255
201 224 255
201 224 255
201 224 255
201 224 255
201 224 255
201 224 255
201 224 255
201 224 255
201 224 255
201 225 255
201 225 255
201 225 255
201 225 255
201 225 255
202 225 255
202 225 255
202 225 255
202 225 255
202 225 255
202 225 255
202 225 255
202 225 255
202 225 255
202 225 255
202 225 255
202 225 255
202 225 255
202 225 255
202 225 255
203 225 255
203 225 255
203 225 255
203 225 255
203 225 255
203 225 255
203 225 255
203 225 255
203 225 255
203 226 255
203 226 255
203 226 255
203 226 255
203 226 255
203 226 255
203 226 255
203 226 255
204 226 255
204 226 255
204 226 255
204 226 255
204 226 255
204 226 255
204 226 255
204 226 255
204 226 255
204 226 255
204 226 255
204 226 255
204 226 255
204 226 255
204 226 255
204 226 255
204 226 255
204 226 255
205 226 255
205 226 255
205 226 255
205 226 255
205 226 255
205 226 255
205 226 255
205 226 255
205 226 255
205 226 255
205 226 255
204 226 255
204 226 255
204 226 255
204 226 255
204 226 255
204 226 255
204 226 255
204 226 255
204 226 255
204 226 255
204 226 255
204 226 255
204 226 255
204 226 255
204 226 255
204 226 255
204 226 255
203 226 255
203 226 255
203 226 255
203 226 255
203 226 255
203 226 255
203 226 255
203 226 255
203 225 255
203 225 255
203 225 255
203 225 255
203 225 255
203 225 255
203 225 255
203 225 255
203 225 255
202 225 255
202 225 255
202 225 255
202 225 255
202 225 255
202 225 255
202 225 255
202 225 255
202 225 255
202 225 255
202 225 255
202 225 255
202 225 255
202 225 255
202 225 255
201 225 255
201 225 255
201 225 255
201 225 255
201 225 255
201 224 255
201 224 255
201 224 255
201 224 255
201 224 255
201 224 255
201 224 255
201 224 255
201 224 255
201 224 255
200 224 255
200 224 255
200 224 255
200 224 255
200 224 255
200 224 255
200 224 255
200 224 255
200 224 255
200 224 255
200 224 255
200 224 255
200 224 255
200 224 255
200 224 255
199 224 255
199 224 255
199 223 255
199 223 255
199 223 255
199 223 255
199 223 255
199 223 255
199 223 255
199 223 255
199 223 255
199 223 255
199 223 255
199 223 255
198 223 255
198 223 255
198 223 255
198 223 255
198 223 255
198 223 255
198 223 255
198 223 255
198 223 255
198 223 255
198 223 255
198 223 255
198 223 255
198 223 255
197 223 255
197 222 255
197 222 255
197 222 255
197 222 255
197 222 255
197 222 255
197 222 255
197 222 255
197 222 255
197 222 255
197 222 255
197 222 255
197 222 255
197 222 255
197 222 255
196 222 255
196 222 255
196 222 255
196 222 255
196 222 255
196 222 255
196 222 255
196 222 255
196 222 255
196 222 255
196 222 255
196 222 255
196 222 255
196 222 255
196 222 255
196 221 255
196 221 255
195 221 255
195 221 255
195 221 255
195 221 255
195 221 255
195 221 255
195 221 255
195 221 255
195 221 255
195 221 255
195 221 255
195 221 255
195 221 255
195 221 255
195 221 255
195 221 255
195 221 255
195 221 255
195 221 255
195 221 255
195 221 255
195 221 255
194 221 255
194 221 255
194 221 255
194 221 255
194 221 255
194 221 255
194 221 255
194 221 255
194 221 255
194 221 255
194 221 255
194 221 255
194 221 255
194 221 255
194 221 255
194 221 255
194 221 255
194 221 255
194 221 255
194 221 255
194 221 255
194 221 255
194 221 255
194 221 255
194 221 255
194 221 255
194 221 255
194 221 255
194 221 255
194 221 255
194 221 255
194 221 255
194 221 255
194 221 255
194 221 255
194 221 255
194 221 255
194 221 255
194 221 255
194 221 255
194 221 255
194 221 255
194 221 255
194 221 255
194 221 255
194 221 255
194 221 255
194 221 255
194 221 255
194 221 255
194 221 255
194 221 255
194 221 255
194 221 255
194 221 255
194 221 255
194 221 255
194 221 255
194 221 255
194 221 255
194 221 255
194 221 255
195 221 255
195 221 255
195 221 255
195 221 255
195 221 255
195 221 255
195 221 255
195 221 255
195 221 255
195 221 255
195 221 255
195 221 255
195 221 255
195 221 255
195 221 255
195 221 255
195 221 255
195 221 255
195 221 255
195 221 255
195 221 255
195 221 255
196 221 255
196 221 255
196 222 255
196 222 255
196 222 255
196 222 255
196 222 255
196 222 255
196 222 255
196 222 255
196 222 255
196 222 255
196 222 255
196 222 255
196 222 255
196 222 255
196 222 255
197 222 255
197 222 255
197 222 255
197 222 255
197 222 255
197 222 255
197 222 255
197 222 255
197 222 255
197 222 255
197 222 255
197 222 255
197 222 255
197 222 255
197 222 255
198 223 255
198 223 255
198 223 255
198 223 255
198 223 255
198 223 255
198 223 255
198 223 255
198 223 255
198 223 255
198 223 255
198 223 255
198 223 255
198 223 255
198 223 255
199 223 255
199 223 255
199 223 255
199 223 255
199 223 255
199 223 255
199 223 255
199 223 255
199 223 255
199 223 255
199 223 255
199 223 255
199 224 255
199 224 255
200 224 255
200 224 255
200 224 255
200 224 255
200 224 255
200 224 255
200 224 255
200 224 255
200 224 255
200 224 255
200 224 255
200 224 255
200 224 255
200 224 255
200 224 255
201 224 255
201 224 255
201 224 255
201 224 255
201 224 255
201 224 255
201 224 255
201 224 255
201 224 255
201 224 255
201 225 255
201 225 255
201 225 255
201 225 255
201 225 255
202 225 255
202 225 255
202 225 255
202 225 255
202 225 255
202 225 255
202 225 255
202 225 255
202 225 255
202 225 255
202 225 255
202 225 255
202 225 255
202 225 255
202 225 255
203 225 255
203 225 255
203 225 255
203 225 255
203 225 255
203 225 255
203 225 255
203 225 255
203 225 255
203 226 255
203 226 255
203 226 255
203 226 255
203 226 255
203 226 255
203 226 255
203 226 255
204 226 255
204 226 255
204 226 255
204 226 255
204 226 255
204 226 255
204 226 255
204 226 255
204 226 255
204 226 255
204 226 255
204 226 255
204 226 255
204 226 255
204 226 255
204 226 255
204 226 255
205 226 255
205 226 255
205 226 255
205 226 255
205 226 255
205 226 255
205 226 255
205 227 255
205 227 255
205 226 255
205 226 255
205 226 255
205 226 255
205 226 255
205 226 255
205 226 255
204 226 255
204 226 255
204 226 255
204 226 255
204 226 255
204 226 255
204 226 255
204 226 255
204 226 255
204 226 255
204 226 255
204 226 255
204 226 255
204 226 255
204 226 255
204 226 255
204 226 255
204 226 255
203 226 255
203 226 255
203 226 255
203 226 255
203 226 255
203 226 255
203 226 255
203 225 255
203 225 255
203 225 255
203 225 255
203 225 255
203 225 255
203 225 255
203 225 255
203 225 255
202 225 255
202 225 255
202 225 255
202 225 255
202 225 255
202 225 255
202 225 255
202 225 255
202 225 255
202 225 255
202 225 255
202 225 255
202 225 255
202 225 255
202 225 255
202 225 255
201 225 255
201 225 255
201 225 255
201 225 255
201 224 255
201 224 255
201 224 255
201 224 255
201 224 255
201 224 255
201 224 255
201 224 255
201 224 255
201 224 255
200 224 255
200 224 255
200 224 255
200 224 255
200 224 255
200 224 255
200 224 255
200 224 255
200 224 255
200 224 255
200 224 255
200 224 255
200 224 255
200 224 255
200 224 255
199 224 255
199 224 255
199 223 255
199 223 255
199 223 255
199 223 255
199 223 255
199 223 255
199 223 255
199 223 255
199 223 255
199 223 255
199 223 255
199 223 255
198 223 255
198 223 255
198 223 255
198 223 255
198 223 255
198 223 255
198 223 255
198 223 255
198 223 255
198 223 255
198 223 255
198 223 255
198 223 255
198 223 255
198 223 255
197 222 255
197 222 255
197 222 255
197 222 255
197 222 255
197 222 255
197 222 255
197 222 255
197 222 255
197 222 255
197 222 255
197 222 255
197 222 255
197 222 255
197 222 255
196 222 255
196 222 255
196 222 255
196 222 255
196 222 255
196 222 255
196 222 255
196 222 255
196 222 255
196 222 255
196 222 255
196 222 255
196 222 255
196 222 255
196 222 255
196 222 255
196 221 255
196 221 255
195 221 255
195 221 255
195 221 255
195 221 255
195 221 255
195 221 255
195 221 255
195 221 255
195 221 255
195 221 255
195 221 255
195 221 255
195 221 255
195 221 255
195 221 255
195 221 255
195 221 255
195 221 255
195 221 255
195 221 255
195 221 255
195 221 255
195 221 255
194 221 255
194 221 255
194 221 255
194 221 255
194 221 255
194 221 255
194 221 255
194 221 255
194 221 255
194 221 255
194 221 255
194 221 255
194 221 255
194 221 255
194 221 255
194 221 255
194 221 255
194 221 255
194 221 255
194 221 255
194 221 255
194 221 255
194 221 255
194 221 255
194 221 255
194 221 255
194 221 255
194 221 255
194 221 255
194 221 255
194 221 255
194 221 255
194 221 255
194 221 255
194 221 255
194 221 255
194 221 255
194 221 255
194 221 255
194 221 255
194 221 255
194 221 255
194 221 255
194 221 255
194 221 255
194 221 255
194 221 255
194 221 255
194 221 255
194 221 255
194 221 255
194 221 255
194 221 255
194 221 255
195 221 255
195 221 255
195 221 255
195 221 255
195 221 255
195 221 255
195 221 255
195 221 255
195 221 255
195 221 255
195 221 255
195 221 255
195 221 255
195 221 255
195 221 255
195 221 255
195 221 255
195 221 255
195 221 255
195 221 255
195 221 255
195 221 255
195 221 255
195 221 255
196 221 255
196 222 255
196 222 255
196 222 255
196 222 255
196 222 255
196 222 255
196 222 255
196 222 255
196 222 255
196 222 255
196 222 255
196 222 255
196 222 255
196 222 255
196 222 255
196 222 255
197 222 255
197 222 255
197 222 255
197 222 255
197 222 255
197 222 255
197 222 255
197 222 255
197 222 255
197 222 255
197 222 255
197 222 255
197 222 255
197 222 255
197 222 255
198 223 255
198 223 255
198 223 255
198 223 255
198 223 255
198 223 255
198 223 255
198 223 255
198 223 255
198 223 255
198 223 255
198 223 255
198 223 255
198 223 255
198 223 255
199 223 255
199 223 255
199 223 255
199 223 255
199 223 255
199 223 255
199 223 255
199 223 255
199 223 255
199 223 255
199 223 255
199 223 255
199 224 255
199 224 255
200 224 255
200 224 255
200 224 255
200 224 255
200 224 255
200 224 255
200 224 255
200 224 255
200 224 255
200 224 255
200 224 255
200 224 255
200 224 255
200 224 255
200 224 255
201 224 255
201 224 255
201 224 255
201 224 255
201 224 255
201 224 255
201 224 255
201 224 255
201 224 255
201 224 255
201 225 255
201 225 255
201 225 255
201 225 255
201 225 255
202 225 255
202 225 255
202 225 255
202 225 255
202 225 255
202 225 255
202 225 255
202 225 255
202 225 255
202 225 255
202 225 255
202 225 255
202 225 255
202 225 255
202 225 255
203 225 255
203 225 255
203 225 255
203 225 255
203 225 255
203 225 255
203 225 255
203 225 255
203 225 255
203 226 255
203 226 255
203 226 255
203 226 255
203 226 255
203 226 255
203 226 255
204 226 255
204 226 255
204 226 255
204 226 255
204 226 255
204 226 255
204 226 255
204 226 255
204 226 255
204 226 255
204 226 255
204 226 255
204 226 255
204 226 255
204 226 255
204 226 255
204 226 255
204 226 255
205 226 255
205 226 255
205 226 255
205 226 255
205 226 255
205 226 255
205 226 255
205 227 255
205 227 255
205 227 255
205 227 255
205 227 255
205 227 255
205 226 255
205 226 255
205 226 255
205 226 255
205 226 255
205 226 255
205 226 255
205 226 255
204 226 255
204 226 255
204 226 255
204 226 255
204 226 255
204 226 255
204 226 255
204 226 255
204 226 255
204 226 255
204 226 255
204 226 255
204 226 255
204 226 255
204 226 255
204 226 255
204 226 255
203 226 255
203 226 255
203 226 255
203 226 255
203 226 255
203 226 255
203 226 255
203 225 255
203 225 255
203 225 255
203 225 255
203 225 255
203 225 255
203 225 255
203 225 255
203 225 255
202 225 255
202 225 255
202 225 255
202 225 255
202 225 255
202 225 255
202 225 255
202 225 255
202 225 255
202 225 255
202 225 255
202 225 255
202 225 255
202 225 255
202 225 255
202 225 255
201 225 255
201 225 255
201 225 255
201 225 255
201 224 255
201 224 255
201 224 255
201 224 255
201 224 255
201 224 255
201 224 255
201 224 255
201 224 255
201 224 255
201 224 255
200 224 255
200 224 255
200 224 255
200 224 255
200 224 255
200 224 255
200 224 255
200 224 255
200 224 255
200 224 255
200 224 255
200 224 255
200 224 255
200 224 255
199 224 255
199 224 255
199 223 255
199 223 255
199 223 255
199 223 255
199 223 255
199 223 255
199 223 255
199 223 255
199 223 255
199 223 255
199 223 255
199 223 255
198 223 255
198 223 255
198 223 255
198 223 255
198 223 255
198 223 255
198 223 255
198 223 255
198 223 255
198 223 255
198 223 255
198 223 255
198 223 255
198 223 255
198 223 255
197 222 255
197 222 255
197 222 255
197 222 255
197 222 255
197 222 255
197 222 255
197 222 255
197 222 255
197 222 255
197 222 255
197 222 255
197 222 255
197 222 255
197 222 255
196 222 255
196 222 255
196 222 255
196 222 255
196 222 255
196 222 255
196 222 255
196 222 255
196 222 255
196 222 255
196 222 255
196 222 255
196 222 255
196 222 255
196 222 255
196 222 255
196 222 255
196 221 255
195 221 255
195 221 255
195 221 255
195 221 255
195 221 255
195 221 255
195 221 255
195 221 255
195 221 255
195 221 255
195 221 255
195 221 255
195 221 255
195 221 255
195 221 255
195 221 255
195 221 255
195 221 255
195 221 255
195 221 255
195 221 255
195 221 255
195 221 255
195 221 255
195 221 255
195 221 255
194 221 255
194 221 255
194 221 255
194 221 255
194 221 255
194 221 255
194 221 255
194 221 255
194 221 255
194 221 255
194 221 255
194 221 255
194 221 255
194 221 255
194 221 255
194 221 255
194 221 255
194 221 255
194 221 255
194 221 255
194 221 255
194 221 255
194 221 255
194 221 255
194 221 255
194 221 255
194 221 255
194 221 255
194 221 255
194 221 255
194 221 255
194 221 255
194 221 255
194 221 255
194 221 255
194 221 255
194 221 255
194 221 255
194 221 255
194 221 255
194 221 255
194 221 255
194 221 255
194 221 255
195 221 255
195 221 255
195 221 255
195 221 255
195 221 255
195 221 255
195 221 255
195 221 255
195 221 255
195 221 255
195 221 255
195 221 255
195 221 255
195 221 255
195 221 255
195 221 255
195 221 255
195 221 255
195 221 255
195 221 255
195 221 255
195 221 255
195 221 255
195 221 255
195 221 255
195 221 255
196 221 255
196 222 255
196 222 255
196 222 255
196 222 255
196 222 255
196 222 255
196 222 255
196 222 255
196 222 255
196 222 255
196 222 255
196 222 255
196 222 255
196 222 255
196 222 255
196 222 255
196 222 255
197 222 255
197 222 255
197 222 255
197 222 255
197 222 255
197 222 255
197 222 255
197 222 255
197 222 255
197 222 255
197 222 255
197 222 255
197 222 255
197 222 255
197 222 255
198 223 255
198 223 255
198 223 255
198 223 255
198 223 255
198 223 255
198 223 255
198 223 255
198 223 255
198 223 255
198 223 255
198 223 255
198 223 255
198 223 255
198 223 255
199 223 255
199 223 255
199 223 255
199 223 255
199 223 255
199 223 255
199 223 255
199 223 255
199 223 255
199 223 255
199 223 255
199 223 255
199 224 255
199 224 255
200 224 255
200 224 255
200 224 255
200 224 255
200 224 255
200 224 255
200 224 255
200 224 255
200 224 255
200 224 255
200 224 255
200 224 255
200 224 255
200 224 255
200 224 255
201 224 255
201 224 255
201 224 255
201 224 255
201 224 255
201 224 255
201 224 255
201 224 255
201 224 255
201 224 255
201 225 255
201 225 255
201 225 255
201 225 255
202 225 255
202 225 255
202 225 255
202 225 255
202 225 255
202 225 255
202 225 255
202 225 255
202 225 255
202 225 255
202 225 255
202 225 255
202 225 255
202 225 255
202 225 255
202 225 255
203 225 255
203 225 255
203 225 255
203 225 255
203 225 255
203 225 255
203 225 255
203 225 255
203 225 255
203 226 255
203 226 255
203 226 255
203 226 255
203 226 255
203 226 255
203 226 255
204 226 255
204 226 255
204 226 255
204 226 255
204 226 255
204 226 255
204 226 255
204 226 255
204 226 255
204 226 255
204 226 255
204 226 255
204 226 255
204 226 255
204 226 255
204 226 255
204 226 255
204 226 255
205 226 255
205 226 255
205 226 255
205 226 255
205 226 255
205 226 255
205 226 255
205 227 255
205 227 255
205 227 255
205 227 255
205 227 255
205 227 255
205 227 255
205 227 255
205 227 255
205 227 255
205 227 255
205 226 255
205 226 255
205 226 255
205 226 255
205 226 255
205 226 255
205 226 255
204 226 255
204 226 255
204 226 255
204 226 255
204 226 255
204 226 255
204 226 255
204 226 255
204 226 255
204 226 255
204 226 255
204 226 255
204 226 255
204 226 255
204 226 255
204 226 255
204 226 255
203 226 255
203 226 255
203 226 255
203 226 255
203 226 255
203 226 255
203 226 255
203 226 255
203 225 255
203 225 255
203 225 255
203 225 255
203 225 255
203 225 255
203 225 255
203 225 255
203 225 255
202 225 255
202 225 255
202 225 255
202 225 255
202 225 255
202 225 255
202 225 255
202 225 255
202 225 255
202 225 255
202 225 255
202 225 255
202 225 255
202 225 255
202 225 255
201 225 255
201 225 255
201 225 255
201 225 255
201 224 255
201 224 255
201 224 255
201 224 255
201 224 255
201 224 255
201 224 255
201 224 255
201 224 255
201 224 255
201 224 255
200 224 255
200 224 255
200 224 255
200 224 255
200 224 255
200 224 255
200 224 255
200 224 255
200 224 255
200 224 255
200 224 255
200 224 255
200 224 255
200 224 255
199 224 255
199 224 255
199 223 255
199 223 255
199 223 255
199 223 255
199 223 255
199 223 255
199 223 255
199 223 255
199 223 255
199 223 255
199 223 255
199 223 255
198 223 255
198 223 255
198 223 255
198 223 255
198 223 255
198 223 255
198 223 255
198 223 255
198 223 255
198 223 255
198 223 255
198 223 255
198 223 255
198 223 255
198 223 255
197 223 255
197 222 255
197 222 255
197 222 255
197 222 255
197 222 255
197 222 255
197 222 255
197 222 255
197 222 255
197 222 255
197 222 255
197 222 255
197 222 255
197 222 255
197 222 255
196 222 255
196 222 255
196 222 255
196 222 255
196 222 255
196 222 255
196 222 255
196 222 255
196 222 255
196 222 255
196 222 255
196 222 255
196 222 255
196 222 255
196 222 255
196 222 255
196 222 255
196 221 255
195 221 255
195 221 255
195 221 255
195 221 255
195 221 255
195 221 255
195 221 255
195 221 255
195 221 255
195 221 255
195 221 255
195 221 255
195 221 255
195 221 255
195 221 255
195 221 255
195 221 255
195 221 255
195 221 255
195 221 255
195 221 255
195 221 255
195 221 255
195 221 255
195 221 255
195 221 255
195 221 255
195 221 255
195 221 255
195 221 255
194 221 255
194 221 255
194 221 255
194 221 255
194 221 255
194 221 255
194 221 255
194 221 255
194 221 255
194 221 255
194 221 255
194 221 255
194 221 255
194 221 255
194 221 255
194 221 255
194 221 255
194 221 255
194 221 255
194 221 255
194 221 255
194 221 255
194 221 255
194 221 255
194 221 255
194 221 255
194 221 255
194 221 255
194 221 255
194 221 255
195 221 255
195 221 255
195 221 255
195 221 255
195 221 255
195 221 255
195 221 255
195 221 255
195 221 255
195 221 255
195 221 255
195 221 255
195 221 255
195 221 255
195 221 255
195 221 255
195 221 255
195 221 255
195 221 255
195 221 255
195 221 255
195 221 255
195 221 255
195 221 255
195 221 255
195 221 255
195 221 255
195 221 255
195 221 255
195 221 255
196 221 255
196 222 255
196 222 255
196 222 255
196 222 255
196 222 255
196 222 255
196 222 255
196 222 255
196 222 255
196 222 255
196 222 255
196 222 255
196 222 255
196 222 255
196 222 255
196 222 255
196 222 255
197 222 255
197 222 255
197 222 255
197 222 255
197 222 255
197 222 255
197 222 255
197 222 255
197 222 255
197 222 255
197 222 255
197 222 255
197 222 255
197 222 255
197 222 255
197 223 255
198 223 255
198 223 255
198 223 255
198 223 255
198 223 255
198 223 255
198 223 255
198 223 255
198 223 255
198 223 255
198 223 255
198 223 255
198 223 255
198 223 255
198 223 255
199 223 255
199 223 255
199 223 255
199 223 255
199 223 255
199 223 255
199 223 255
199 223 255
199 223 255
199 223 255
199 223 255
199 223 255
199 224 255
199 224 255
200 224 255
200 224 255
200 224 255
200 224 255
200 224 255
200 224 255
200 224 255
200 224 255
200 224 255
200 224 255
200 224 255
200 224 255
200 224 255
200 224 255
201 224 255
201 224 255
201 224 255
201 224 255
201 224 255
201 224 255
201 224 255
201 224 255
201 224 255
201 224 255
201 224 255
201 225 255
201 225 255
201 225 255
201 225 255
202 225 255
202 225 255
202 225 255
202 225 255
202 225 255
202 225 255
202 225 255
202 225 255
202 225 255
202 225 255
202 225 255
202 225 255
202 225 255
202 225 255
202 225 255
202 225 255
203 225 255
203 225 255
203 225 255
203 225 255
203 225 255
203 225 255
203 225 255
203 225 255
203 226 255
203 226 255
203 226 255
203 226 255
203 226 255
203 226 255
203 226 255
203 226 255
204 226 255
204 226 255
204 226 255
204 226 255
204 226 255
204 226 255
204 226 255
204 226 255
204 226 255
204 226 255
204 226 255
204 226 255
204 226 255
204 226 255
204 226 255
204 226 255
204 226 255
205 226 255
205 226 255
205 226 255
205 226 255
205 226 255
205 226 255
205 226 255
205 227 255
205 227 255
205 227 255
205 227 255
205 227 255
205 227 255
205 227 255
205 227 255
205 227 255
205 227 255
205 227 255
205 227 255
205 227 255
205 227 255
205 227 255
205 227 255
205 226 255
205 226 255
205 226 255
205 226 255
205 226 255
205 226 255
205 226 255
204 226 255
204 226 255
204 226 255
204 226 255
204 226 255
204 226 255
204 226 255
204 226 255
204 226 255
204 226 255
204 226 255
204 226 255
204 226 255
204 226 255
204 226 255
204 226 255
204 226 255
204 226 255
203 226 255
203 226 255
203 226 255
203 226 255
203 226 255
203 226 255
203 226 255
203 225 255
203 225 255
203 225 255
203 225 255
203 225 255
203 225 255
203 225 255
203 225 255
203 225 255
202 225 255
202 225 255
202 225 255
202 225 255
202 225 255
202 225 255
202 225 255
202 225 255
202 225 255
202 225 255
202 225 255
202 225 255
202 225 255
202 225 255
202 225 255
201 225 255
201 225 255
201 225 255
201 225 255
201 225 255
201 224 255
201 224 255
201 224 255
201 224 255
201 224 255
201 224 255
201 224 255
201 224 255
201 224 255
201 224 255
200 224 255
200 224 255
200 224 255
200 224 255
200 224 255
200 224 255
200 224 255
200 224 255
200 224 255
200 224 255
200 224 255
200 224 255
200 224 255
200 224 255
199 224 255
199 224 255
199 223 255
199 223 255
199 223 255
199 223 255
199 223 255
199 223 255
199 223 255
199 223 255
199 223 255
199 223 255
199 223 255
199 223 255
199 223 255
198 223 255
198 223 255
198 223 255
198 223 255
198 223 255
198 223 255
198 223 255
198 223 255
198 223 255
198 223 255
198 223 255
198 223 255
198 223 255
198 223 255
197 223 255
197 222 255
197 222 255
197 222 255
197 222 255
197 222 255
197 222 255
197 222 255
197 222 255
197 222 255
197 222 255
197 222 255
197 222 255
197 222 255
197 222 255
197 222 255
196 222 255
196 222 255
196 222 255
196 222 255
196 222 255
196 222 255
196 222 255
196 222 255
196 222 255
196 222 255
196 222 255
196 222 255
196 222 255
196 222 255
196 222 255
196 222 255
196 222 255
196 222 255
196 221 255
196 221 255
195 221 255
195 221 255
195 221 255
195 221 255
195 221 255
195 221 255
195 221 255
195 221 255
195 221 255
195 221 255
195 221 255
195 221 255
195 221 255
195 221 255
195 221 255
195 221 255
195 221 255
195 221 255
195 221 255
195 221 255
195 221 255
195 221 255
195 221 255
195 221 255
195 221 255
195 221 255
195 221 255
195 221 255
195 221 255
195 221 255
195 221 255
195 221 255
195 221 255
195 221 255
195 221 255
195 221 255
195 221 255
195 221 255
195 221 255
195 221 255
195 221 255
195 221 255
195 221 255
195 221 255
195 221 255
195 221 255
195 221 255
195 221 255
195 221 255
195 221 255
195 221 255
195 221 255
195 221 255
195 221 255
195 221 255
195 221 255
195 221 255
195 221 255
195 221 255
195 221 255
195 221 255
195 221 255
195 221 255
195 221 255
195 221 255
195 221 255
195 221 255
195 221 255
195 221 255
195 221 255
195 221 255
195 221 255
195 221 255
195 221 255
195 221 255
195 221 255
195 221 255
195 221 255
195 221 255
195 221 255
195 221 255
195 221 255
195 221 255
196 221 255
196 222 255
196 222 255
196 222 255
196 222 255
196 222 255
196 222 255
196 222 255
196 222 255
196 222 255
196 222 255
196 222 255
196 222 255
196 222 255
196 222 255
196 222 255
196 222 255
196 222 255
196 222 255
197 222 255
197 222 255
197 222 255
197 222 255
197 222 255
197 222 255
197 222 255
197 222 255
197 222 255
197 222 255
197 222 255
197 222 255
197 222 255
197 222 255
197 222 255
197 223 255
198 223 255
198 223 255
198 223 255
198 223 255
198 223 255
198 223 255
198 223 255
198 223 255
198 223 255
198 223 255
198 223 255
198 223 255
198 223 255
198 223 255
199 223 255
199 223 255
199 223 255
199 223 255
199 223 255
199 223 255
199 223 255
199 223 255
199 223 255
199 223 255
199 223 255
199 223 255
199 223 255
199 224 255
199 224 255
200 224 255
200 224 255
200 224 255
200 224 255
200 224 255
200 224 255
200 224 255
200 224 255
200 224 255
200 224 255
200 224 255
200 224 255
200 224 255
200 224 255
201 224 255
201 224 255
201 224 255
201 224 255
201 224 255
201 224 255
201 224 255
201 224 255
201 224 255
201 224 255
201 225 255
201 225 255
201 225 255
201 225 255
201 225 255
202 225 255
202 225 255
202 225 255
202 225 255
202 225 255
202 225 255
202 225 255
202 225 255
202 225 255
202 225 255
202 225 255
202 225 255
202 225 255
202 225 255
202 225 255
203 225 255
203 225 255
203 225 255
203 225 255
203 225 255
203 225 255
203 225 255
203 225 255
203 225 255
203 226 255
203 226 255
203 226 255
203 226 255
203 226 255
203 226 255
203 226 255
204 226 255
204 226 255
204 226 255
204 226 255
204 226 255
204 226 255
204 226 255
204 226 255
204 226 255
204 226 255
204 226 255
204 226 255
204 226 255
204 226 255
204 226 255
204 226 255
204 226 255
204 226 255
205 226 255
205 226 255
205 226 255
205 226 255
205 226 255
205 226 255
205 226 255
205 227 255
205 227 255
205 227 255
205 227 255
205 227 255
205 227 255
205 227 255
205 227 255
205 227 255
205 227 255
205 227 255
205 227 255
205 227 255
205 227 255
205 227 255
205 227 255
205 227 255
205 227 255
205 227 255
205 227 255
205 227 255
205 226 255
205 226 255
205 226 255
205 226 255
205 226 255
205 226 255
205 226 255
204 226 255
204 226 255
204 226 255
204 226 255
204 226 255
204 226 255
204 226 255
204 226 255
204 226 255
204 226 255
204 226 255
204 226 255
204 226 255
204 226 255
204 226 255
204 226 255
204 226 255
203 226 255
203 226 255
203 226 255
203 226 255
203 226 255
203 226 255
203 226 255
203 225 255
203 225 255
203 225 255
203 225 255
203 225 255
203 225 255
203 225 255
203 225 255
203 225 255
202 225 255
202 225 255
202 225 255
202 225 255
202 225 255
202 225 255
202 225 255
202 225 255
202 225 255
202 225 255
202 225 255
202 225 255
202 225 255
202 225 255
202 225 255
201 225 255
201 225 255
201 225 255
201 225 255
201 225 255
201 224 255
201 224 255
201 224 255
201 224 255
201 224 255
201 224 255
201 224 255
201 224 255
201 224 255
201 224 255
200 224 255
200 224 255
200 224 255
200 224 255
200 224 255
200 224 255
200 224 255
200 224 255
200 224 255
200 224 255
200 224 255
200 224 255
200 224 255
200 224 255
199 224 255
199 224 255
199 224 255
199 223 255
199 223 255
199 223 255
199 223 255
199 223 255
199 223 255
199 223 255
199 223 255
199 223 255
199 223 255
199 223 255
199 223 255
198 223 255
198 223 255
198 223 255
198 223 255
198 223 255
198 223 255
198 223 255
198 223 255
198 223 255
198 223 255
198 223 255
198 223 255
198 223 255
198 223 255
198 223 255
197 222 255
197 222 255
197 222 255
197 222 255
197 222 255
197 222 255
197 222 255
197 222 255
197 222 255
197 222 255
197 222 255
197 222 255
197 222 255
197 222 255
197 222 255
197 222 255
196 222 255
196 222 255
196 222 255
196 222 255
196 222 255
196 222 255
196 222 255
196 222 255
196 222 255
196 222 255
196 222 255
196 222 255
196 222 255
196 222 255
196 222 255
196 222 255
196 222 255
196 222 255
196 221 255
196 221 255
195 221 255
195 221 255
195 221 255
195 221 255
195 221 255
195 221 255
195 221 255
195 221 255
195 221 255
195 221 255
195 221 255
195 221 255
195 221 255
195 221 255
195 221 255
195 221 255
195 221 255
195 221 255
195 221 255
195 221 255
195 221 255
195 221 255
195 221 255
195 221 255
195 221 255
195 221 255
195 221 255
195 221 255
195 221 255
195 221 255
195 221 255
195 221 255
195 221 255
195 221 255
195 221 255
195 221 255
195 221 255
195 221 255
195 221 255
195 221 255
195 221 255
195 221 255
195 221 255
195 221 255
195 221 255
195 221 255
195 221 255
195 221 255
195 221 255
195 221 255
195 221 255
195 221 255
195 221 255
195 221 255
195 221 255
195 221 255
195 221 255
195 221 255
195 221 255
195 221 255
195 221 255
195 221 255
195 221 255
195 221 255
195 221 255
195 221 255
195 221 255
195 221 255
195 221 255
195 221 255
195 221 255
195 221 255
195 221 255
195 221 255
195 221 255
195 221 255
196 221 255
196 221 255
196 222 255
196 222 255
196 222 255
196 222 255
196 222 255
196 222 255
196 222 255
196 222 255
196 222 255
196 222 255
196 222 255
196 222 255
196 222 255
196 222 255
196 222 255
196 222 255
196 222 255
196 222 255
197 222 255
197 222 255
197 222 255
197 222 255
197 222 255
197 222 255
197 222 255
197 222 255
197 222 255
197 222 255
197 222 255
197 222 255
197 222 255
197 222 255
197 222 255
197 222 255
198 223 255
198 223 255
198 223 255
198 223 255
198 223 255
198 223 255
198 223 255
198 223 255
198 223 255
198 223 255
198 223 255
198 223 255
198 223 255
198 223 255
198 223 255
199 223 255
199 223 255
199 223 255
199 223 255
199 223 255
199 223 255
199 223 255
199 223 255
199 223 255
199 223 255
199 223 255
199 223 255
199 224 255
199 224 255
199 224 255
200 224 255
200 224 255
200 224 255
200 224 255
200 224 255
200 224 255
200 224 255
200 224 255
200 224 255
200 224 255
200 224 255
200 224 255
200 224 255
200 224 255
201 224 255
201 224 255
201 224 255
201 224 255
201 224 255
201 224 255
201 224 255
201 224 255
201 224 255
201 224 255
201 225 255
201 225 255
201 225 255
201 225 255
201 225 255
202 225 255
202 225 255
202 225 255
202 225 255
202 225 255
202 225 255
202 225 255
202 225 255
202 225 255
202 225 255
202 225 255
202 225 255
202 225 255
202 225 255
202 225 255
203 225 255
203 225 255
203 225 255
203 225 255
203 225 255
203 225 255
203 225 255
203 225 255
203 225 255
203 226 255
203 226 255
203 226 255
203 226 255
203 226 255
203 226 255
203 226 255
204 226 255
204 226 255
204 226 255
204 226 255
204 226 255
204 226 255
204 226 255
204 226 255
204 226 255
204 226 255
204 226 255
204 226 255
204 226 255
204 226 255
204 226 255
204 226 255
204 226 255
205 226 255
205 226 255
205 226 255
205 226 255
205 226 255
205 226 255
205 226 255
205 227 255
205 227 255
205 227 255
205 227 255
205 227 255
205 227 255
205 227 255
205 227 255
205 227 255
205 227 255
205 227 255
205 227 255
206 227 255
206 227 255
206 227 255
205 227 255
205 227 255
205 227 255
205 227 255
205 227 255
205 227 255
205 227 255
205 227 255
205 227 255
205 227 255
205 227 255
205 226 255
205 226 255
205 226 255
205 226 255
205 226 255
205 226 255
205 226 255
204 226 255
204 226 255
204 226 255
204 226 255
204 226 255
204 226 255
204 226 255
204 226 255
204 226 255
204 226 255
204 226 255
204 226 255
204 226 255
204 226 255
204 226 255
204 226 255
204 226 255
203 226 255
203 226 255
203 226 255
203 226 255
203 226 255
203 226 255
203 226 255
203 226 255
203 225 255
203 225 255
203 225 255
203 225 255
203 225 255
203 225 255
203 225 255
203 225 255
202 225 255
202 225 255
202 225 255
202 225 255
202 225 255
202 225 255
202 225 255
202 225 255
202 225 255
202 225 255
202 225 255
202 225 255
202 225 255
202 225 255
202 225 255
201 225 255
201 225 255
201 225 255
201 225 255
201 225 255
201 224 255
201 224 255
201 224 255
201 224 255
201 224 255
201 224 255
201 224 255
201 224 255
201 224 255
201 224 255
200 224 255
200 224 255
200 224 255
200 224 255
200 224 255
200 224 255
200 224 255
200 224 255
200 224 255
200 224 255
200 224 255
200 224 255
200 224 255
200 224 255
200 224 255
199 224 255
199 224 255
199 223 255
199 223 255
199 223 255
199 223 255
199 223 255
199 223 255
199 223 255
199 223 255
199 223 255
199 223 255
199 223 255
199 223 255
198 223 255
198 223 255
198 223 255
198 223 255
198 223 255
198 223 255
198 223 255
198 223 255
198 223 255
198 223 255
198 223 255
198 223 255
198 223 255
198 223 255
198 223 255
197 223 255
197 222 255
197 222 255
197 222 255
197 222 255
197 222 255
197 222 255
197 222 255
197 222 255
197 222 255
197 222 255
197 222 255
197 222 255
197 222 255
197 222 255
197 222 255
197 222 255
196 222 255
196 222 255
196 222 255
196 222 255
196 222 255
196 222 255
196 222 255
196 222 255
196 222 255
196 222 255
196 222 255
196 222 255
196 222 255
196 222 255
196 222 255
196 222 255
196 222 255
196 222 255
196 221 255
196 221 255
196 221 255
195 221 255
195 221 255
195 221 255
195 221 255
195 221 255
195 221 255
195 221 255
195 221 255
195 221 255
195 221 255
195 221 255
195 221 255
195 221 255
195 221 255
195 221 255
195 221 255
195 221 255
195 221 255
195 221 255
195 221 255
195 221 255
195 221 255
195 221 255
195 221 255
195 221 255
195 221 255
195 221 255
195 221 255
195 221 255
195 221 255
195 221 255
195 221 255
195 221 255
195 221 255
195 221 255
195 221 255
195 221 255
195 221 255
195 221 255
195 221 255
195 221 255
195 221 255
195 221 255
195 221 255
195 221 255
195 221 255
195 221 255
195 221 255
195 221 255
195 221 255
195 221 255
195 221 255
195 221 255
195 221 255
195 221 255
195 221 255
195 221 255
195 221 255
195 221 255
195 221 255
195 221 255
195 221 255
195 221 255
195 221 255
195 221 255
195 221 255
195 221 255
195 221 255
196 221 255
196 221 255
196 222 255
196 222 255
196 222 255
196 222 255
196 222 255
196 222 255
196 222 255
196 222 255
196 222 255
196 222 255
196 222 255
196 222 255
196 222 255
196 222 255
196 222 255
196 222 255
196 222 255
196 222 255
196 222 255
197 222 255
197 222 255
197 222 255
197 222 255
197 222 255
197 222 255
197 222 255
197 222 255
197 222 255
197 222 255
197 222 255
197 222 255
197 222 255
197 222 255
197 222 255
197 222 255
197 223 255
198 223 255
198 223 255
198 223 255
198 223 255
198 223 255
198 223 255
198 223 255
198 223 255
198 223 255
198 223 255
198 223 255
198 223 255
198 223 255
198 223 255
198 223 255
199 223 255
199 223 255
199 223 255
199 223 255
199 223 255
199 223 255
199 223 255
199 223 255
199 223 255
199 223 255
199 223 255
199 223 255
199 224 255
199 224 255
200 224 255
200 224 255
200 224 255
200 224 255
200 224 255
200 224 255
200 224 255
200 224 255
200 224 255
200 224 255
200 224 255
200 224 255
200 224 255
200 224 255
200 224 255
201 224 255
201 224 255
201 224 255
201 224 255
201 224 255
201 224 255
201 224 255
201 224 255
201 224 255
201 224 255
201 225 255
201 225 255
201 225 255
201 225 255
201 225 255
202 225 255
202 225 255
202 225 255
202 225 255
202 225 255
202 225 255
202 225 255
202 225 255
202 225 255
202 225 255
202 225 255
202 225 255
202 225 255
202 225 255
203 225 255
203 225 255
203 225 255
203 225 255
203 225 255
203 225 255
203 225 255
203 225 255
203 225 255
203 226 255
203 226 255
203 226 255
203 226 255
203 226 255
203 226 255
203 226 255
203 226 255
204 226 255
204 226 255
204 226 255
204 226 255
204 226 255
204 226 255
204 226 255
204 226 255
204 226 255
204 226 255
204 226 255
204 226 255
204 226 255
204 226 255
204 226 255
204 226 255
204 226 255
205 226 255
205 226 255
205 226 255
205 226 255
205 226 255
205 226 255
205 226 255
205 227 255
205 227 255
205 227 255
205 227 255
205 227 255
205 227 255
205 227 255
205 227 255
205 227 255
205 227 255
205 227 255
206 227 255
206 227 255
206 227 255
206 227 255
206 227 255
206 227 255
206 227 255
206 227 255
205 227 255
205 227 255
205 227 255
205 227 255
205 227 255
205 227 255
205 227 255
205 227 255
205 227 255
205 227 255
205 227 255
205 227 255
205 226 255
205 226 255
205 226 255
205 226 255
205 226 255
205 226 255
205 226 255
204 226 255
204 226 255
204 226 255
204 226 255
204 226 255
204 226 255
204 226 255
204 226 255
204 226 255
204 226 255
204 226 255
204 226 255
204 226 255
204 226 255
204 226 255
204 226 255
204 226 255
203 226 255
203 226 255
203 226 255
203 226 255
203 226 255
203 226 255
203 226 255
203 225 255
203 225 255
203 225 255
203 225 255
203 225 255
203 225 255
203 225 255
203 225 255
203 225 255
202 225 255
202 225 255
202 225 255
202 225 255
202 225 255
202 225 255
202 225 255
202 225 255
202 225 255
202 225 255
202 225 255
202 225 255
202 225 255
202 225 255
202 225 255
201 225 255
201 225 255
201 225 255
201 225 255
201 224 255
201 224 255
201 224 255
201 224 255
201 224 255
201 224 255
201 224 255
201 224 255
201 224 255
201 224 255
201 224 255
200 224 255
200 224 255
200 224 255
200 224 255
200 224 255
200 224 255
200 224 255
200 224 255
200 224 255
200 224 255
200 224 255
200 224 255
200 224 255
200 224 255
199 224 255
199 224 255
199 223 255
199 223 255
199 223 255
199 223 255
199 223 255
199 223 255
199 223 255
199 223 255
199 223 255
199 223 255
199 223 255
199 223 255
198 223 255
198 223 255
198 223 255
198 223 255
198 223 255
198 223 255
198 223 255
198 223 255
198 223 255
198 223 255
198 223 255
198 223 255
198 223 255
198 223 255
198 223 255
197 223 255
197 222 255
197 222 255
197 222 255
197 222 255
197 222 255
197 222 255
197 222 255
197 222 255
197 222 255
197 222 255
197 222 255
197 222 255
197 222 255
197 222 255
197 222 255
197 222 255
197 222 255
196 222 255
196 222 255
196 222 255
196 222 255
196 222 255
196 222 255
196 222 255
196 222 255
196 222 255
196 222 255
196 222 255
196 222 255
196 222 255
196 222 255
196 222 255
196 222 255
196 222 255
196 222 255
196 222 255
196 222 255
196 221 255
196 221 255
195 221 255
195 221 255
195 221 255
195 221 255
195 221 255
195 221 255
195 221 255
195 221 255
195 221 255
195 221 255
195 221 255
195 221 255
195 221 255
195 221 255
195 221 255
195 221 255
195 221 255
195 221 255
195 221 255
195 221 255
195 221 255
195 221 255
195 221 255
195 221 255
195 221 255
195 221 255
195 221 255
195 221 255
195 221 255
195 221 255
195 221 255
195 221 255
195 221 255
195 221 255
195 221 255
195 221 255
195 221 255
195 221 255
195 221 255
195 221 255
195 221 255
195 221 255
195 221 255
195 221 255
195 221 255
195 221 255
195 221 255
195 221 255
195 221 255
195 221 255
195 221 255
195 221 255
195 221 255
195 221 255
195 221 255
195 221 255
195 221 255
195 221 255
195 221 255
195 221 255
196 221 255
196 221 255
196 222 255
196 222 255
196 222 255
196 222 255
196 222 255
196 222 255
196 222 255
196 222 255
196 222 255
196 222 255
196 222 255
196 222 255
196 222 255
196 222 255
196 222 255
196 222 255
196 222 255
196 222 255
196 222 255
196 222 255
197 222 255
197 222 255
197 222 255
197 222 255
197 222 255
197 222 255
197 222 255
197 222 255
197 222 255
197 222 255
197 222 255
197 222 255
197 222 255
197 222 255
197 222 255
197 222 255
197 222 255
198 223 255
198 223 255
198 223 255
198 223 255
198 223 255
198 223 255
198 223 255
198 223 255
198 223 255
198 223 255
198 223 255
198 223 255
198 223 255
198 223 255
198 223 255
198 223 255
199 223 255
199 223 255
199 223 255
199 223 255
199 223 255
199 223 255
199 223 255
199 223 255
199 223 255
199 223 255
199 223 255
199 223 255
199 224 255
199 224 255
200 224 255
200 224 255
200 224 255
200 224 255
200 224 255
200 224 255
200 224 255
200 224 255
200 224 255
200 224 255
200 224 255
200 224 255
200 224 255
200 224 255
200 224 255
201 224 255
201 224 255
201 224 255
201 224 255
201 224 255
201 224 255
201 224 255
201 224 255
201 224 255
201 224 255
201 225 255
201 225 255
201 225 255
201 225 255
202 225 255
202 225 255
202 225 255
202 225 255
202 225 255
202 225 255
202 225 255
202 225 255
202 225 255
202 225 255
202 225 255
202 225 255
202 225 255
202 225 255
202 225 255
203 225 255
203 225 255
203 225 255
203 225 255
203 225 255
203 225 255
203 225 255
203 225 255
203 225 255
203 226 255
203 226 255
203 226 255
203 226 255
203 226 255
203 226 255
203 226 255
204 226 255
204 226 255
204 226 255
204 226 255
204 226 255
204 226 255
204 226 255
204 226 255
204 226 255
204 226 255
204 226 255
204 226 255
204 226 255
204 226 255
204 226 255
204 226 255
204 226 255
205 226 255
205 226 255
205 226 255
205 226 255
205 226 255
205 226 255
205 226 255
205 227 255
205 227 255
205 227 255
205 227 255
205 227 255
205 227 255
205 227 255
205 227 255
205 227 255
205 227 255
205 227 255
206 227 255
206 227 255
206 227 255
206 227 255
206 227 255
206 227 255
206 227 255
206 227 255
206 227 255
206 227 255
206 227 255
206 227 255
206 227 255
206 227 255
205 227 255
205 227 255
205 227 255
205 227 255
205 227 255
205 227 255
205 227 255
205 227 255
205 227 255
205 227 255
205 227 255
205 226 255
205 226 255
205 226 255
205 226 255
205 226 255
205 226 255
205 226 255
204 226 255
204 226 255
204 226 255
204 226 255
204 226 255
204 226 255
204 226 255
204 226 255
204 226 255
204 226 255
204 226 255
204 226 255
204 226 255
204 226 255
204 226 255
204 226 255
204 226 255
203 226 255
203 226 255
203 226 255
203 226 255
203 226 255
203 226 255
203 226 255
203 225 255
203 225 255
203 225 255
203 225 255
203 225 255
203 225 255
203 225 255
203 225 255
203 225 255
202 225 255
202 225 255
202 225 255
202 225 255
202 225 255
202 225 255
202 225 255
202 225 255
202 225 255
202 225 255
202 225 255
202 225 255
202 225 255
202 225 255
202 225 255
201 225 255
201 225 255
201 225 255
201 225 255
201 224 255
201 224 255
201 224 255
201 224 255
201 224 255
201 224 255
201 224 255
201 224 255
201 224 255
201 224 255
201 224 255
200 224 255
200 224 255
200 224 255
200 224 255
200 224 255
200 224 255
200 224 255
200 224 255
200 224 255
200 224 255
200 224 255
200 224 255
200 224 255
200 224 255
199 224 255
199 224 255
199 223 255
199 223 255
199 223 255
199 223 255
199 223 255
199 223 255
199 223 255
199 223 255
199 223 255
199 223 255
199 223 255
199 223 255
199 223 255
198 223 255
198 223 255
198 223 255
198 223 255
198 223 255
198 223 255
198 223 255
198 223 255
198 223 255
198 223 255
198 223 255
198 223 255
198 223 255
198 223 255
198 223 255
197 223 255
197 222 255
197 222 255
197 222 255
197 222 255
197 222 255
197 222 255
197 222 255
197 222 255
197 222 255
197 222 255
197 222 255
197 222 255
197 222 255
197 222 255
197 222 255
197 222 255
197 222 255
196 222 255
196 222 255
196 222 255
196 222 255
196 222 255
196 222 255
196 222 255
196 222 255
196 222 255
196 222 255
196 222 255
196 222 255
196 222 255
196 222 255
196 222 255
196 222 255
196 222 255
196 222 255
196 222 255
196 222 255
196 222 255
196 221 255
196 221 255
196 221 255
195 221 255
195 221 255
195 221 255
195 221 255
195 221 255
195 221 255
195 221 255
195 221 255
195 221 255
195 221 255
195 221 255
195 221 255
195 221 255
195 221 255
195 221 255
195 221 255
195 221 255
195 221 255
195 221 255
195 221 255
195 221 255
195 221 255
195 221 255
195 221 255
195 221 255
195 221 255
195 221 255
195 221 255
195 221 255
195 221 255
195 221 255
195 221 255
195 221 255
195 221 255
195 221 255
195 221 255
195 221 255
195 221 255
195 221 255
195 221 255
195 221 255
195 221 255
195 221 255
195 221 255
195 221 255
195 221 255
195 221 255
195 221 255
195 221 255
195 221 255
196 221 255
196 221 255
196 221 255
196 222 255
196 222 255
196 222 255
196 222 255
196 222 255
196 222 255
196 222 255
196 222 255
196 222 255
196 222 255
196 222 255
196 222 255
196 222 255
196 222 255
196 222 255
196 222 255
196 222 255
196 222 255
196 222 255
196 222 255
196 222 255
197 222 255
197 222 255
197 222 255
197 222 255
197 222 255
197 222 255
197 222 255
197 222 255
197 222 255
197 222 255
197 222 255
197 222 255
197 222 255
197 222 255
197 222 255
197 222 255
197 222 255
197 223 255
198 223 255
198 223 255
198 223 255
198 223 255
198 223 255
198 223 255
198 223 255
198 223 255
198 223 255
198 223 255
198 223 255
198 223 255
198 223 255
198 223 255
198 223 255
199 223 255
199 223 255
199 223 255
199 223 255
199 223 255
199 223 255
199 223 255
199 223 255
199 223 255
199 223 255
199 223 255
199 223 255
199 224 255
199 224 255
199 224 255
200 224 255
200 224 255
200 224 255
200 224 255
200 224 255
200 224 255
200 224 255
200 224 255
200 224 255
200 224 255
200 224 255
200 224 255
200 224 255
200 224 255
201 224 255
201 224 255
201 224 255
201 224 255
201 224 255
201 224 255
201 224 255
201 224 255
201 224 255
201 224 255
201 225 255
201 225 255
201 225 255
201 225 255
201 225 255
202 225 255
202 225 255
202 225 255
202 225 255
202 225 255
202 225 255
202 225 255
202 225 255
202 225 255
202 225 255
202 225 255
202 225 255
202 225 255
202 225 255
202 225 255
203 225 255
203 225 255
203 225 255
203 225 255
203 225 255
203 225 255
203 225 255
203 225 255
203 225 255
203 226 255
203 226 255
203 226 255
203 226 255
203 226 255
203 226 255
203 226 255
204 226 255
204 226 255
204 226 255
204 226 255
204 226 255
204 226 255
204 226 255
204 226 255
204 226 255
204 226 255
204 226 255
204 226 255
204 226 255
204 226 255
204 226 255
204 226 255
204 226 255
205 226 255
205 226 255
205 226 255
205 226 255
205 226 255
205 226 255
205 226 255
205 227 255
205 227 255
205 227 255
205 227 255
205 227 255
205 227 255
205 227 255
205 227 255
205 227 255
205 227 255
205 227 255
206 227 255
206 227 255
206 227 255
206 227 255
206 227 255
206 227 255
206 227 255
206 227 255
206 227 255
206 227 255
206 227 255
206 227 255
206 227 255
206 227 255
206 227 255
206 227 255
206 227 255
206 227 255
205 227 255
205 227 255
205 227 255
205 227 255
205 227 255
205 227 255
205 227 255
205 227 255
205 227 255
205 227 255
205 227 255
205 227 255
205 226 255
205 226 255
205 226 255
205 226 255
205 226 255
205 226 255
205 226 255
204 226 255
204 226 255
204 226 255
204 226 255
204 226 255
204 226 255
204 226 255
204 226 255
204 226 255
204 226 255
204 226 255
204 226 255
204 226 255
204 226 255
204 226 255
204 226 255
203 226 255
203 226 255
203 226 255
203 226 255
203 226 255
203 226 255
203 226 255
203 226 255
203 225 255
203 225 255
203 225 255
203 225 255
203 225 255
203 225 255
203 225 255
203 225 255
202 225 255
202 225 255
202 225 255
202 225 255
202 225 255
202 225 255
202 225 255
202 225 255
202 225 255
202 225 255
202 225 255
202 225 255
202 225 255
202 225 255
202 225 255
201 225 255
201 225 255
201 225 255
201 225 255
201 225 255
201 224 255
201 224 255
201 224 255
201 224 255
201 224 255
201 224 255
201 224 255
201 224 255
201 224 255
201 224 255
200 224 255
200 224 255
200 224 255
200 224 255
200 224 255
200 224 255
200 224 255
200 224 255
200 224 255
200 224 255
200 224 255
200 224 255
200 224 255
200 224 255
199 224 255
199 224 255
199 224 255
199 223 255
199 223 255
199 223 255
199 223 255
199 223 255
199 223 255
199 223 255
199 223 255
199 223 255
199 223 255
199 223 255
199 223 255
198 223 255
198 223 255
198 223 255
198 223 255
198 223 255
198 223 255
198 223 255
198 223 255
198 223 255
198 223 255
198 223 255
198 223 255
198 223 255
198 223 255
198 223 255
198 223 255
197 222 255
197 222 255
197 222 255
197 222 255
197 222 255
197 222 255
197 222 255
197 222 255
197 222 255
197 222 255
197 222 255
197 222 255
197 222 255
197 222 255
197 222 255
197 222 255
197 222 255
197 222 255
196 222 255
196 222 255
196 222 255
196 222 255
196 222 255
196 222 255
196 222 255
196 222 255
196 222 255
196 222 255
196 222 255
196 222 255
196 222 255
196 222 255
196 222 255
196 222 255
196 222 255
196 222 255
196 222 255
196 222 255
196 222 255
196 222 255
196 222 255
196 221 255
196 221 255
196 221 255
196 221 255
195 221 255
195 221 255
195 221 255
195 221 255
195 221 255
195 221 255
195 221 255
195 221 255
195 221 255
195 221 255
195 221 255
195 221 255
195 221 255
195 221 255
195 221 255
195 221 255
195 221 255
195 221 255
195 221 255
195 221 255
195 221 255
195 221 255
195 221 255
195 221 255
195 221 255
195 221 255
195 221 255
195 221 255
195 221 255
195 221 255
195 221 255
195 221 255
195 221 255
195 221 255
195 221 255
195 221 255
195 221 255
195 221 255
196 221 255
196 221 255
196 221 255
196 222 255
196 222 255
196 222 255
196 222 255
196 222 255
196 222 255
196 222 255
196 222 255
196 222 255
196 222 255
196 222 255
196 222 255
196 222 255
196 222 255
196 222 255
196 222 255
196 222 255
196 222 255
196 222 255
196 222 255
196 222 255
196 222 255
196 222 255
196 222 255
197 222 255
197 222 255
197 222 255
197 222 255
197 222 255
197 222 255
197 222 255
197 222 255
197 222 255
197 222 255
197 222 255
197 222 255
197 222 255
197 222 255
197 222 255
197 222 255
197 222 255
197 222 255
198 223 255
198 223 255
198 223 255
198 223 255
198 223 255
198 223 255
198 223 255
198 223 255
198 223 255
198 223 255
198 223 255
198 223 255
198 223 255
198 223 255
198 223 255
198 223 255
199 223 255
199 223 255
199 223 255
199 223 255
199 223 255
199 223 255
199 223 255
199 223 255
199 223 255
199 223 255
199 223 255
199 223 255
199 224 255
199 224 255
199 224 255
200 224 255
200 224 255
200 224 255
200 224 255
200 224 255
200 224 255
200 224 255
200 224 255
200 224 255
200 224 255
200 224 255
200 224 255
200 224 255
200 224 255
201 224 255
201 224 255
201 224 255
201 224 255
201 224 255
201 224 255
201 224 255
201 224 255
201 224 255
201 224 255
201 225 255
201 225 255
201 225 255
201 225 255
201 225 255
202 225 255
202 225 255
202 225 255
202 225 255
202 225 255
202 225 255
202 225 255
202 225 255
202 225 255
202 225 255
202 225 255
202 225 255
202 225 255
202 225 255
202 225 255
203 225 255
203 225 255
203 225 255
203 225 255
203 225 255
203 225 255
203 225 255
203 225 255
203 225 255
203 226 255
203 226 255
203 226 255
203 226 255
203 226 255
203 226 255
203 226 255
204 226 255
204 226 255
204 226 255
204 226 255
204 226 255
204 226 255
204 226 255
204 226 255
204 226 255
204 226 255
204 226 255
204 226 255
204 226 255
204 226 255
204 226 255
204 226 255
205 226 255
205 226 255
205 226 255
205 226 255
205 226 255
205 226 255
205 226 255
205 227 255
205 227 255
205 227 255
205 227 255
205 227 255
205 227 255
205 227 255
205 227 255
205 227 255
205 227 255
205 227 255
206 227 255
206 227 255
206 227 255
206 227 255
206 227 255
206 227 255
206 227 255
206 227 255
206 227 255
206 227 255
206 227 255
206 227 255
206 227 255
206 227 255
206 227 255
206 227 255
206 227 255
206 227 255
206 227 255
206 227 255
206 227 255
206 227 255
206 227 255
206 227 255
205 227 255
205 227 255
205 227 255
205 227 255
205 227 255
205 227 255
205 227 255
205 227 255
205 227 255
205 227 255
205 227 255
205 226 255
205 226 255
205 226 255
205 226 255
205 226 255
205 226 255
205 226 255
204 226 255
204 226 255
204 226 255
204 226 255
204 226 255
204 226 255
204 226 255
204 226 255
204 226 255
204 226 255
204 226 255
204 226 255
204 226 255
204 226 255
204 226 255
204 226 255
204 226 255
203 226 255
203 226 255
203 226 255
203 226 255
203 226 255
203 226 255
203 226 255
203 225 255
203 225 255
203 225 255
203 225 255
203 225 255
203 225 255
203 225 255
203 225 255
203 225 255
202 225 255
202 225 255
202 225 255
202 225 255
202 225 255
202 225 255
202 225 255
202 225 255
202 225 255
202 225 255
202 225 255
202 225 255
202 225 255
202 225 255
202 225 255
201 225 255
201 225 255
201 225 255
201 225 255
201 224 255
201 224 255
201 224 255
201 224 255
201 224 255
201 224 255
201 224 255
201 224 255
201 224 255
201 224 255
200 224 255
200 224 255
200 224 255
200 224 255
200 224 255
200 224 255
200 224 255
200 224 255
200 224 255
200 224 255
200 224 255
200 224 255
200 224 255
200 224 255
200 224 255
199 224 255
199 224 255
199 223 255
199 223 255
199 223 255
199 223 255
199 223 255
199 223 255
199 223 255
199 223 255
199 223 255
199 223 255
199 223 255
199 223 255
199 223 255
198 223 255
198 223 255
198 223 255
198 223 255
198 223 255
198 223 255
198 223 255
198 223 255
198 223 255
198 223 255
198 223 255
198 223 255
198 223 255
198 223 255
198 223 255
197 223 255
197 222 255
197 222 255
197 222 255
197 222 255
197 222 255
197 222 255
197 222 255
197 222 255
197 222 255
197 222 255
197 222 255
197 222 255
197 222 255
197 222 255
197 222 255
197 222 255
197 222 255
197 222 255
196 222 255
196 222 255
196 222 255
196 222 255
196 222 255
196 222 255
196 222 255
196 222 255
196 222 255
196 222 255
196 222 255
196 222 255
196 222 255
196 222 255
196 222 255
196 222 255
196 222 255
196 222 255
196 222 255
196 222 255
196 222 255
196 222 255
196 222 255
196 222 255
196 222 255
196 222 255
196 222 255
196 221 255
196 221 255
196 221 255
196 221 255
196 221 255
195 221 255
195 221 255
195 221 255
195 221 255
195 221 255
195 221 255
195 221 255
195 221 255
195 221 255
195 221 255
195 221 255
195 221 255
195 221 255
195 221 255
195 221 255
195 221 255
195 221 255
195 221 255
195 221 255
195 221 255
195 221 255
196 221 255
196 221 255
196 221 255
196 221 255
196 221 255
196 221 255
196 222 255
196 222 255
196 222 255
196 222 255
196 222 255
196 222 255
196 222 255
196 222 255
196 222 255
196 222 255
196 222 255
196 222 255
196 222 255
196 222 255
196 222 255
196 222 255
196 222 255
196 222 255
196 222 255
196 222 255
196 222 255
196 222 255
196 222 255
196 222 255
196 222 255
196 222 255
196 222 255
197 222 255
197 222 255
197 222 255
197 222 255
197 222 255
197 222 255
197 222 255
197 222 255
197 222 255
197 222 255
197 222 255
197 222 255
197 222 255
197 222 255
197 222 255
197 222 255
197 222 255
197 222 255
197 223 255
198 223 255
198 223 255
198 223 255
198 223 255
198 223 255
198 223 255
198 223 255
198 223 255
198 223 255
198 223 255
198 223 255
198 223 255
198 223 255
198 223 255
198 223 255
198 223 255
199 223 255
199 223 255
199 223 255
199 223 255
199 223 255
199 223 255
199 223 255
199 223 255
199 223 255
199 223 255
199 223 255
199 223 255
199 224 255
199 224 255
200 224 255
200 224 255
200 224 255
200 224 255
200 224 255
200 224 255
200 224 255
200 224 255
200 224 255
200 224 255
200 224 255
200 224 255
200 224 255
200 224 255
200 224 255
201 224 255
201 224 255
201 224 255
201 224 255
201 224 255
201 224 255
201 224 255
201 224 255
201 224 255
201 224 255
201 225 255
201 225 255
201 225 255
201 225 255
202 225 255
202 225 255
202 225 255
202 225 255
202 225 255
202 225 255
202 225 255
202 225 255
202 225 255
202 225 255
202 225 255
202 225 255
202 225 255
202 225 255
202 225 255
203 225 255
203 225 255
203 225 255
203 225 255
203 225 255
203 225 255
203 225 255
203 225 255
203 225 255
203 226 255
203 226 255
203 226 255
203 226 255
203 226 255
203 226 255
203 226 255
204 226 255
204 226 255
204 226 255
204 226 255
204 226 255
204 226 255
204 226 255
204 226 255
204 226 255
204 226 255
204 226 255
204 226 255
204 226 255
204 226 255
204 226 255
204 226 255
204 226 255
205 226 255
205 226 255
205 226 255
205 226 255
205 226 255
205 226 255
205 226 255
205 227 255
205 227 255
205 227 255
205 227 255
205 227 255
205 227 255
205 227 255
205 227 255
205 227 255
205 227 255
205 227 255
206 227 255
206 227 255
206 227 255
206 227 255
206 227 255
206 227 255
206 227 255
206 227 255
206 227 255
206 227 255
206 227 255
206 227 255
206 227 255
206 227 255
206 227 255
206 227 255
206 227 255
206 227 255
206 227 255
206 227 255
206 227 255
206 227 255
206 227 255
206 227 255
206 227 255
206 227 255
206 227 255
206 227 255
206 227 255
205 227 255
205 227 255
205 227 255
205 227 255
205 227 255
205 227 255
205 227 255
205 227 255
205 227 255
205 227 255
205 227 255
205 226 255
205 226 255
205 226 255
205 226 255
205 226 255
205 226 255
205 226 255
204 226 255
204 226 255
204 226 255
204 226 255
204 226 255
204 226 255
204 226 255
204 226 255
204 226 255
204 226 255
204 226 255
204 226 255
204 226 255
204 226 255
204 226 255
204 226 255
203 226 255
203 226 255
203 226 255
203 226 255
203 226 255
203 226 255
203 226 255
203 225 255
203 225 255
203 225 255
203 225 255
203 225 255
203 225 255
203 225 255
203 225 255
203 225 255
202 225 255
202 225 255
202 225 255
202 225 255
202 225 255
202 225 255
202 225 255
202 225 255
202 225 255
202 225 255
202 225 255
202 225 255
202 225 255
202 225 255
202 225 255
201 225 255
201 225 255
201 225 255
201 225 255
201 224 255
201 224 255
201 224 255
201 224 255
201 224 255
201 224 255
201 224 255
201 224 255
201 224 255
201 224 255
201 224 255
200 224 255
200 224 255
200 224 255
200 224 255
200 224 255
200 224 255
200 224 255
200 224 255
200 224 255
200 224 255
200 224 255
200 224 255
200 224 255
200 224 255
199 224 255
199 224 255
199 223 255
199 223 255
199 223 255
199 223 255
199 223 255
199 223 255
199 223 255
199 223 255
199 223 255
199 223 255
199 223 255
199 223 255
199 223 255
198 223 255
198 223 255
198 223 255
198 223 255
198 223 255
198 223 255
198 223 255
198 223 255
198 223 255
198 223 255
198 223 255
198 223 255
198 223 255
198 223 255
198 223 255
198 223 255
197 223 255
197 222 255
197 222 255
197 222 255
197 222 255
197 222 255
197 222 255
197 222 255
197 222 255
197 222 255
197 222 255
197 222 255
197 222 255
197 222 255
197 222 255
197 222 255
197 222 255
197 222 255
197 222 255
197 222 255
196 222 255
196 222 255
196 222 255
196 222 255
196 222 255
196 222 255
196 222 255
196 222 255
196 222 255
196 222 255
196 222 255
196 222 255
196 222 255
196 222 255
196 222 255
196 222 255
196 222 255
196 222 255
196 222 255
196 222 255
196 222 255
196 222 255
196 222 255
196 222 255
196 222 255
196 222 255
196 222 255
196 222 255
196 222 255
196 222 255
196 222 255
196 222 255
196 222 255
196 222 255
196 222 255
196 222 255
196 222 255
196 222 255
196 222 255
196 222 255
196 222 255
196 222 255
196 222 255
196 222 255
196 222 255
196 222 255
196 222 255
196 222 255
196 222 255
196 222 255
196 222 255
196 222 255
196 222 255
196 222 255
196 222 255
196 222 255
196 222 255
196 222 255
196 222 255
196 222 255
196 222 255
196 222 255
196 222 255
196 222 255
196 222 255
196 222 255
196 222 255
196 222 255
196 222 255
196 222 255
196 222 255
196 222 255
196 222 255
196 222 255
196 222 255
196 222 255
196 222 255
196 222 255
197 222 255
197 222 255
197 222 255
197 222 255
197 222 255
197 222 255
197 222 255
197 222 255
197 222 255
197 222 255
197 222 255
197 222 255
197 222 255
197 222 255
197 222 255
197 222 255
197 222 255
197 222 255
197 222 255
197 223 255
198 223 255
198 223 255
198 223 255
198 223 255
198 223 255
198 223 255
198 223 255
198 223 255
198 223 255
198 223 255
198 223 255
198 223 255
198 223 255
198 223 255
198 223 255
198 223 255
199 223 255
199 223 255
199 223 255
199 223 255
199 223 255
199 223 255
199 223 255
199 223 255
199 223 255
199 223 255
199 223 255
199 223 255
199 223 255
199 224 255
199 224 255
200 224 255
200 224 255
200 224 255
200 224 255
200 224 255
200 224 255
200 224 255
200 224 255
200 224 255
200 224 255
200 224 255
200 224 255
200 224 255
200 224 255
200 224 255
201 224 255
201 224 255
201 224 255
201 224 255
201 224 255
201 224 255
201 224 255
201 224 255
201 224 255
201 224 255
201 225 255
201 225 255
201 225 255
201 225 255
202 225 255
202 225 255
202 225 255
202 225 255
202 225 255
202 225 255
202 225 255
202 225 255
202 225 255
202 225 255
202 225 255
202 225 255
202 225 255
202 225 255
202 225 255
203 225 255
203 225 255
203 225 255
203 225 255
203 225 255
203 225 255
203 225 255
203 225 255
203 225 255
203 226 255
203 226 255
203 226 255
203 226 255
203 226 255
203 226 255
203 226 255
204 226 255
204 226 255
204 226 255
204 226 255
204 226 255
204 226 255
204 226 255
204 226 255
204 226 255
204 226 255
204 226 255
204 226 255
204 226 255
204 226 255
204 226 255
204 226 255
205 226 255
205 226 255
205 226 255
205 226 255
205 226 255
205 226 255
205 226 255
205 227 255
205 227 255
205 227 255
205 227 255
205 227 255
205 227 255
205 227 255
205 227 255
205 227 255
205 227 255
205 227 255
206 227 255
206 227 255
206 227 255
206 227 255
206 227 255
206 227 255
206 227 255
206 227 255
206 227 255
206 227 255
206 227 255
206 227 255
206 227 255
206 227 255
206 227 255
206 227 255
206 227 255
206 227 255
206 227 255
206 227 255
206 227 255
206 227 255
206 227 255
206 227 255
206 227 255
206 227 255
206 227 255
206 227 255
206 227 255
206 227 255
206 227 255
206 227 255
206 227 255
206 227 255
205 227 255
205 227 255
205 227 255
205 227 255
205 227 255
205 227 255
205 227 255
205 227 255
205 227 255
205 227 255
205 227 255
205 226 255
205 226 255
205 226 255
205 226 255
205 226 255
205 226 255
205 226 255
204 226 255
204 226 255
204 226 255
204 226 255
204 226 255
204 226 255
204 226 255
204 226 255
204 226 255
204 226 255
204 226 255
204 226 255
204 226 255
204 226 255
204 226 255
204 226 255
204 226 255
203 226 255
203 226 255
203 226 255
203 226 255
203 226 255
203 226 255
203 226 255
203 225 255
203 225 255
203 225 255
203 225 255
203 225 255
203 225 255
203 225 255
203 225 255
202 225 255
202 225 255
202 225 255
202 225 255
202 225 255
202 225 255
202 225 255
202 225 255
202 225 255
202 225 255
202 225 255
202 225 255
202 225 255
202 225 255
202 225 255
201 225 255
201 225 255
201 225 255
201 225 255
201 225 255
201 224 255
201 224 255
201 224 255
201 224 255
201 224 255
201 224 255
201 224 255
201 224 255
201 224 255
201 224 255
200 224 255
200 224 255
200 224 255
200 224 255
200 224 255
200 224 255
200 224 255
200 224 255
200 224 255
200 224 255
200 224 255
200 224 255
200 224 255
200 224 255
199 224 255
199 224 255
199 224 255
199 223 255
199 223 255
199 223 255
199 223 255
199 223 255
199 223 255
199 223 255
199 223 255
199 223 255
199 223 255
199 223 255
199 223 255
199 223 255
198 223 255
198 223 255
198 223 255
198 223 255
198 223 255
198 223 255
198 223 255
198 223 255
198 223 255
198 223 255
198 223 255
198 223 255
198 223 255
198 223 255
198 223 255
198 223 255
197 223 255
197 222 255
197 222 255
197 222 255
197 222 255
197 222 255
197 222 255
197 222 255
197 222 255
197 222 255
197 222 255
197 222 255
197 222 255
197 222 255
197 222 255
197 222 255
197 222 255
197 222 255
197 222 255
197 222 255
197 222 255
196 222 255
196 222 255
196 222 255
196 222 255
196 222 255
196 222 255
196 222 255
196 222 255
196 222 255
196 222 255
196 222 255
196 222 255
196 222 255
196 222 255
196 222 255
196 222 255
196 222 255
196 222 255
196 222 255
196 222 255
196 222 255
196 222 255
196 222 255
196 222 255
196 222 255
196 222 255
196 222 255
196 222 255
196 222 255
196 222 255
196 222 255
196 222 255
196 222 255
196 222 255
196 222 255
196 222 255
196 222 255
196 222 255
196 222 255
196 222 255
196 222 255
196 222 255
196 222 255
196 222 255
196 222 255
196 222 255
196 222 255
196 222 255
196 222 255
196 222 255
196 222 255
196 222 255
196 222 255
196 222 255
196 222 255
196 222 255
196 222 255
196 222 255
196 222 255
196 222 255
196 222 255
196 222 255
196 222 255
196 222 255
196 222 255
196 222 255
196 222 255
196 222 255
196 222 255
196 222 255
197 222 255
197 222 255
197 222 255
197 222 255
197 222 255
197 222 255
197 222 255
197 222 255
197 222 255
197 222 255
197 222 255
197 222 255
197 222 255
197 222 255
197 222 255
197 222 255
197 222 255
197 222 255
197 222 255
197 222 255
197 223 255
198 223 255
198 223 255
198 223 255
198 223 255
198 223 255
198 223 255
198 223 255
198 223 255
198 223 255
198 223 255
198 223 255
198 223 255
198 223 255
198 223 255
198 223 255
198 223 255
198 223 255
199 223 255
199 223 255
199 223 255
199 223 255
199 223 255
199 223 255
199 223 255
199 223 255
199 223 255
199 223 255
199 223 255
199 223 255
199 224 255
199 224 255
199 224 255
200 224 255
200 224 255
200 224 255
200 224 255
200 224 255
200 224 255
200 224 255
200 224 255
200 224 255
200 224 255
200 224 255
200 224 255
200 224 255
200 224 255
201 224 255
201 224 255
201 224 255
201 224 255
201 224 255
201 224 255
201 224 255
201 224 255
201 224 255
201 224 255
201 225 255
201 225 255
201 225 255
201 225 255
201 225 255
202 225 255
202 225 255
202 225 255
202 225 255
202 225 255
202 225 255
202 225 255
202 225 255
202 225 255
202 225 255
202 225 255
202 225 255
202 225 255
202 225 255
202 225 255
203 225 255
203 225 255
203 225 255
203 225 255
203 225 255
203 225 255
203 225 255
203 225 255
203 226 255
203 226 255
203 226 255
203 226 255
203 226 255
203 226 255
203 226 255
204 226 255
204 226 255
204 226 255
204 226 255
204 226 255
204 226 255
204 226 255
204 226 255
204 226 255
204 226 255
204 226 255
204 226 255
204 226 255
204 226 255
204 226 255
204 226 255
204 226 255
205 226 255
205 226 255
205 226 255
205 226 255
205 226 255
205 226 255
205 226 255
205 227 255
205 227 255
205 227 255
205 227 255
205 227 255
205 227 255
205 227 255
205 227 255
205 227 255
205 227 255
205 227 255
206 227 255
206 227 255
206 227 255
206 227 255
206 227 255
206 227 255
206 227 255
206 227 255
206 227 255
206 227 255
206 227 255
206 227 255
206 227 255
206 227 255
206 227 255
206 227 255
206 227 255
206 227 255
207 227 255
207 227 255
206 227 255
206 227 255
206 227 255
206 227 255
206 227 255
206 227 255
206 227 255
206 227 255
206 227 255
206 227 255
206 227 255
206 227 255
206 227 255
206 227 255
206 227 255
206 227 255
206 227 255
206 227 255
206 227 255
205 227 255
205 227 255
205 227 255
205 227 255
205 227 255
205 227 255
205 227 255
205 227 255
205 227 255
205 227 255
205 227 255
205 226 255
205 226 255
205 226 255
205 226 255
205 226 255
205 226 255
205 226 255
204 226 255
204 226 255
204 226 255
204 226 255
204 226 255
204 226 255
204 226 255
204 226 255
204 226 255
204 226 255
204 226 255
204 226 255
204 226 255
204 226 255
204 226 255
204 226 255
203 226 255
203 226 255
203 226 255
203 226 255
203 226 255
203 226 255
203 226 255
203 225 255
203 225 255
203 225 255
203 225 255
203 225 255
203 225 255
203 225 255
203 225 255
203 225 255
202 225 255
202 225 255
202 225 255
202 225 255
202 225 255
202 225 255
202 225 255
202 225 255
202 225 255
202 225 255
202 225 255
202 225 255
202 225 255
202 225 255
202 225 255
201 225 255
201 225 255
201 225 255
201 225 255
201 224 255
201 224 255
201 224 255
201 224 255
201 224 255
201 224 255
201 224 255
201 224 255
201 224 255
201 224 255
200 224 255
200 224 255
200 224 255
200 224 255
200 224 255
200 224 255
200 224 255
200 224 255
200 224 255
200 224 255
200 224 255
200 224 255
200 224 255
200 224 255
200 224 255
199 224 255
199 224 255
199 223 255
199 223 255
199 223 255
199 223 255
199 223 255
199 223 255
199 223 255
199 223 255
199 223 255
199 223 255
199 223 255
199 223 255
199 223 255
198 223 255
198 223 255
198 223 255
198 223 255
198 223 255
198 223 255
198 223 255
198 223 255
198 223 255
198 223 255
198 223 255
198 223 255
198 223 255
198 223 255
198 223 255
198 223 255
198 223 255
197 223 255
197 222 255
197 222 255
197 222 255
197 222 255
197 222 255
197 222 255
197 222 255
197 222 255
197 222 255
197 222 255
197 222 255
197 222 255
197 222 255
197 222 255
197 222 255
197 222 255
197 222 255
197 222 255
197 222 255
197 222 255
197 222 255
196 222 255
196 222 255
196 222 255
196 222 255
196 222 255
196 222 255
196 222 255
196 222 255
196 222 255
196 222 255
196 222 255
196 222 255
196 222 255
196 222 255
196 222 255
196 222 255
196 222 255
196 222 255
196 222 255
196 222 255
196 222 255
196 222 255
196 222 255
196 222 255
196 222 255
196 222 255
196 222 255
196 222 255
196 222 255
196 222 255
196 222 255
196 222 255
196 222 255
196 222 255
196 222 255
196 222 255
196 222 255
196 222 255
196 222 255
196 222 255
196 222 255
196 222 255
196 222 255
196 222 255
196 222 255
196 222 255
196 222 255
196 222 255
196 222 255
196 222 255
196 222 255
196 222 255
196 222 255
196 222 255
196 222 255
196 222 255
196 222 255
196 222 255
196 222 255
196 222 255
196 222 255
196 222 255
197 222 255
197 222 255
197 222 255
197 222 255
197 222 255
197 222 255
197 222 255
197 222 255
197 222 255
197 222 255
197 222 255
197 222 255
197 222 255
197 222 255
197 222 255
197 222 255
197 222 255
197 222 255
197 222 255
197 222 255
197 222 255
197 223 255
198 223 255
198 223 255
198 223 255
198 223 255
198 223 255
198 223 255
198 223 255
198 223 255
198 223 255
198 223 255
198 223 255
198 223 255
198 223 255
198 223 255
198 223 255
198 223 255
198 223 255
199 223 255
199 223 255
199 223 255
199 223 255
199 223 255
199 223 255
199 223 255
199 223 255
199 223 255
199 223 255
199 223 255
199 223 255
199 223 255
199 224 255
199 224 255
200 224 255
200 224 255
200 224 255
200 224 255
200 224 255
200 224 255
200 224 255
200 224 255
200 224 255
200 224 255
200 224 255
200 224 255
200 224 255
200 224 255
200 224 255
201 224 255
201 224 255
201 224 255
201 224 255
201 224 255
201 224 255
201 224 255
201 224 255
201 224 255
201 224 255
201 225 255
201 225 255
201 225 255
201 225 255
202 225 255
202 225 255
202 225 255
202 225 255
202 225 255
202 225 255
202 225 255
202 225 255
202 225 255
202 225 255
202 225 255
202 225 255
202 225 255
202 225 255
202 225 255
203 225 255
203 225 255
203 225 255
203 225 255
203 225 255
203 225 255
203 225 255
203 225 255
203 225 255
203 226 255
203 226 255
203 226 255
203 226 255
203 226 255
203 226 255
203 226 255
204 226 255
204 226 255
204 226 255
204 226 255
204 226 255
204 226 255
204 226 255
204 226 255
204 226 255
204 226 255
204 226 255
204 226 255
204 226 255
204 226 255
204 226 255
204 226 255
205 226 255
205 226 255
205 226 255
205 226 255
205 226 255
205 226 255
205 226 255
205 227 255
205 227 255
205 227 255
205 227 255
205 227 255
205 227 255
205 227 255
205 227 255
205 227 255
205 227 255
205 227 255
206 227 255
206 227 255
206 227 255
206 227 255
206 227 255
206 227 255
206 227 255
206 227 255
206 227 255
206 227 255
206 227 255
206 227 255
206 227 255
206 227 255
206 227 255
206 227 255
206 227 255
206 227 255
206 227 255
207 227 255
207 227 255
207 227 255
207 227 255
207 227 255
207 227 255
207 227 255
206 227 255
206 227 255
206 227 255
206 227 255
206 227 255
206 227 255
206 227 255
206 227 255
206 227 255
206 227 255
206 227 255
206 227 255
206 227 255
206 227 255
206 227 255
206 227 255
206 227 255
206 227 255
206 227 255
205 227 255
205 227 255
205 227 255
205 227 255
205 227 255
205 227 255
205 227 255
205 227 255
205 227 255
205 227 255
205 226 255
205 226 255
205 226 255
205 226 255
205 226 255
205 226 255
205 226 255
204 226 255
204 226 255
204 226 255
204 226 255
204 226 255
204 226 255
204 226 255
204 226 255
204 226 255
204 226 255
204 226 255
204 226 255
204 226 255
204 226 255
204 226 255
204 226 255
204 226 255
203 226 255
203 226 255
203 226 255
203 226 255
203 226 255
203 226 255
203 226 255
203 225 255
203 225 255
203 225 255
203 225 255
203 225 255
203 225 255
203 225 255
203 225 255
202 225 255
202 225 255
202 225 255
202 225 255
202 225 255
202 225 255
202 225 255
202 225 255
202 225 255
202 225 255
202 225 255
202 225 255
202 225 255
202 225 255
202 225 255
201 225 255
201 225 255
201 225 255
201 225 255
201 224 255
201 224 255
201 224 255
201 224 255
201 224 255
201 224 255
201 224 255
201 224 255
201 224 255
201 224 255
201 224 255
200 224 255
200 224 255
200 224 255
200 224 255
200 224 255
200 224 255
200 224 255
200 224 255
200 224 255
200 224 255
200 224 255
200 224 255
200 224 255
200 224 255
199 224 255
199 224 255
199 224 255
199 223 255
199 223 255
199 223 255
199 223 255
199 223 255
199 223 255
199 223 255
199 223 255
199 223 255
199 223 255
199 223 255
199 223 255
199 223 255
198 223 255
198 223 255
198 223 255
198 223 255
198 223 255
198 223 255
198 223 255
198 223 255
198 223 255
198 223 255
198 223 255
198 223 255
198 223 255
198 223 255
198 223 255
198 223 255
198 223 255
197 223 255
197 222 255
197 222 255
197 222 255
197 222 255
197 222 255
197 222 255
197 222 255
197 222 255
197 222 255
197 222 255
197 222 255
197 222 255
197 222 255
197 222 255
197 222 255
197 222 255
197 222 255
197 222 255
197 222 255
197 222 255
197 222 255
197 222 255
197 222 255
196 222 255
196 222 255
196 222 255
196 222 255
196 222 255
196 222 255
196 222 255
196 222 255
196 222 255
196 222 255
196 222 255
196 222 255
196 222 255
196 222 255
196 222 255
196 222 255
196 222 255
196 222 255
196 222 255
196 222 255
196 222 255
196 222 255
196 222 255
196 222 255
196 222 255
196 222 255
196 222 255
196 222 255
196 222 255
196 222 255
196 222 255
196 222 255
196 222 255
196 222 255
196 222 255
196 222 255
196 222 255
196 222 255
196 222 255
196 222 255
196 222 255
196 222 255
196 222 255
196 222 255
196 222 255
196 222 255
196 222 255
196 222 255
196 222 255
196 222 255
196 222 255
196 222 255
197 222 255
197 222 255
197 222 255
197 222 255
197 222 255
197 222 255
197 222 255
197 222 255
197 222 255
197 222 255
197 222 255
197 222 255
197 222 255
197 222 255
197 222 255
197 222 255
197 222 255
197 222 255
197 222 255
197 222 255
197 222 255
197 222 255
197 222 255
197 223 255
198 223 255
198 223 255
198 223 255
198 223 255
198 223 255
198 223 255
198 223 255
198 223 255
198 223 255
198 223 255
198 223 255
198 223 255
198 223 255
198 223 255
198 223 255
198 223 255
198 223 255
199 223 255
199 223 255
199 223 255
199 223 255
199 223 255
199 223 255
199 223 255
199 223 255
199 223 255
199 223 255
199 223 255
199 223 255
199 223 255
199 224 255
199 224 255
199 224 255
200 224 255
200 224 255
200 224 255
200 224 255
200 224 255
200 224 255
200 224 255
200 224 255
200 224 255
200 224 255
200 224 255
200 224 255
200 224 255
200 224 255
201 224 255
201 224 255
201 224 255
201 224 255
201 224 255
201 224 255
201 224 255
201 224 255
201 224 255
201 224 255
201 224 255
201 225 255
201 225 255
201 225 255
201 225 255
202 225 255
202 225 255
202 225 255
202 225 255
202 225 255
202 225 255
202 225 255
202 225 255
202 225 255
202 225 255
202 225 255
202 225 255
202 225 255
202 225 255
202 225 255
203 225 255
203 225 255
203 225 255
203 225 255
203 225 255
203 225 255
203 225 255
203 225 255
203 226 255
203 226 255
203 226 255
203 226 255
203 226 255
203 226 255
203 226 255
204 226 255
204 226 255
204 226 255
204 226 255
204 226 255
204 226 255
204 226 255
204 226 255
204 226 255
204 226 255
204 226 255
204 226 255
204 226 255
204 226 255
204 226 255
204 226 255
204 226 255
205 226 255
205 226 255
205 226 255
205 226 255
205 226 255
205 226 255
205 226 255
205 227 255
205 227 255
205 227 255
205 227 255
205 227 255
205 227 255
205 227 255
205 227 255
205 227 255
205 227 255
206 227 255
206 227 255
206 227 255
206 227 255
206 227 255
206 227 255
206 227 255
206 227 255
206 227 255
206 227 255
206 227 255
206 227 255
206 227 255
206 227 255
206 227 255
206 227 255
206 227 255
206 227 255
206 227 255
207 227 255
207 227 255
207 227 255
207 227 255
207 227 255
207 228 255
207 228 255
207 227 255
207 227 255
207 227 255
207 227 255
207 227 255
206 227 255
206 227 255
206 227 255
206 227 255
206 227 255
206 227 255
206 227 255
206 227 255
206 227 255
206 227 255
206 227 255
206 227 255
206 227 255
206 227 255
206 227 255
206 227 255
206 227 255
206 227 255
206 227 255
205 227 255
205 227 255
205 227 255
205 227 255
205 227 255
205 227 255
205 227 255
205 227 255
205 227 255
205 227 255
205 227 255
205 226 255
205 226 255
205 226 255
205 226 255
205 226 255
205 226 255
205 226 255
204 226 255
204 226 255
204 226 255
204 226 255
204 226 255
204 226 255
204 226 255
204 226 255
204 226 255
204 226 255
204 226 255
204 226 255
204 226 255
204 226 255
204 226 255
204 226 255
203 226 255
203 226 255
203 226 255
203 226 255
203 226 255
203 226 255
203 226 255
203 225 255
203 225 255
203 225 255
203 225 255
203 225 255
203 225 255
203 225 255
203 225 255
203 225 255
202 225 255
202 225 255
202 225 255
202 225 255
202 225 255
202 225 255
202 225 255
202 225 255
202 225 255
202 225 255
202 225 255
202 225 255
202 225 255
202 225 255
201 225 255
201 225 255
201 225 255
201 225 255
201 225 255
201 224 255
201 224 255
201 224 255
201 224 255
201 224 255
201 224 255
201 224 255
201 224 255
201 224 255
201 224 255
200 224 255
200 224 255
200 224 255
200 224 255
200 224 255
200 224 255
200 224 255
200 224 255
200 224 255
200 224 255
200 224 255
200 224 255
200 224 255
200 224 255
200 224 255
199 224 255
199 224 255
199 224 255
199 223 255
199 223 255
199 223 255
199 223 255
199 223 255
199 223 255
199 223 255
199 223 255
199 223 255
199 223 255
199 223 255
199 223 255
199 223 255
198 223 255
198 223 255
198 223 255
198 223 255
198 223 255
198 223 255
198 223 255
198 223 255
198 223 255
198 223 255
198 223 255
198 223 255
198 223 255
198 223 255
198 223 255
198 223 255
198 223 255
198 223 255
197 222 255
197 222 255
197 222 255
197 222 255
197 222 255
197 222 255
197 222 255
197 222 255
197 222 255
197 222 255
197 222 255
197 222 255
197 222 255
197 222 255
197 222 255
197 222 255
197 222 255
197 222 255
197 222 255
197 222 255
197 222 255
197 222 255
197 222 255
197 222 255
197 222 255
197 222 255
196 222 255
196 222 255
196 222 255
196 222 255
196 222 255
196 222 255
196 222 255
196 222 255
196 222 255
196 222 255
196 222 255
196 222 255
196 222 255
196 222 255
196 222 255
196 222 255
196 222 255
196 222 255
196 222 255
196 222 255
196 222 255
196 222 255
196 222 255
196 222 255
196 222 255
196 222 255
196 222 255
196 222 255
196 222 255
196 222 255
196 222 255
196 222 255
196 222 255
196 222 255
196 222 255
196 222 255
196 222 255
196 222 255
196 222 255
196 222 255
197 222 255
197 222 255
197 222 255
197 222 255
197 222 255
197 222 255
197 222 255
197 222 255
197 222 255
197 222 255
197 222 255
197 222 255
197 222 255
197 222 255
197 222 255
197 222 255
197 222 255
197 222 255
197 222 255
197 222 255
197 222 255
197 222 255
197 222 255
197 222 255
197 222 255
197 222 255
198 223 255
198 223 255
198 223 255
198 223 255
198 223 255
198 223 255
198 223 255
198 223 255
198 223 255
198 223 255
198 223 255
198 223 255
198 223 255
198 223 255
198 223 255
198 223 255
198 223 255
198 223 255
199 223 255
199 223 255
199 223 255
199 223 255
199 223 255
199 223 255
199 223 255
199 223 255
199 223 255
199 223 255
199 223 255
199 223 255
199 223 255
199 223 255
199 224 255
199 224 255
200 224 255
200 224 255
200 224 255
200 224 255
200 224 255
200 224 255
200 224 255
200 224 255
200 224 255
200 224 255
200 224 255
200 224 255
200 224 255
200 224 255
200 224 255
201 224 255
201 224 255
201 224 255
201 224 255
201 224 255
201 224 255
201 224 255
201 224 255
201 224 255
201 224 255
201 225 255
201 225 255
201 225 255
201 225 255
201 225 255
202 225 255
202 225 255
202 225 255
202 225 255
202 225 255
202 225 255
202 225 255
202 225 255
202 225 255
202 225 255
202 225 255
202 225 255
202 225 255
202 225 255
202 225 255
203 225 255
203 225 255
203 225 255
203 225 255
203 225 255
203 225 255
203 225 255
203 225 255
203 226 255
203 226 255
203 226 255
203 226 255
203 226 255
203 226 255
203 226 255
204 226 255
204 226 255
204 226 255
204 226 255
204 226 255
204 226 255
204 226 255
204 226 255
204 226 255
204 226 255
204 226 255
204 226 255
204 226 255
204 226 255
204 226 255
204 226 255
205 226 255
205 226 255
205 226 255
205 226 255
205 226 255
205 226 255
205 226 255
205 227 255
205 227 255
205 227 255
205 227 255
205 227 255
205 227 255
205 227 255
205 227 255
205 227 255
205 227 255
205 227 255
206 227 255
206 227 255
206 227 255
206 227 255
206 227 255
206 227 255
206 227 255
206 227 255
206 227 255
206 227 255
206 227 255
206 227 255
206 227 255
206 227 255
206 227 255
206 227 255
206 227 255
206 227 255
206 227 255
207 227 255
207 227 255
207 227 255
207 227 255
207 227 255
207 228 255
207 228 255
207 228 255
207 228 255
207 228 255
207 228 255
207 228 255
207 227 255
207 227 255
207 227 255
207 227 255
207 227 255
206 227 255
206 227 255
206 227 255
206 227 255
206 227 255
206 227 255
206 227 255
206 227 255
206 227 255
206 227 255
206 227 255
206 227 255
206 227 255
206 227 255
206 227 255
206 227 255
206 227 255
206 227 255
206 227 255
205 227 255
205 227 255
205 227 255
205 227 255
205 227 255
205 227 255
205 227 255
205 227 255
205 227 255
205 227 255
205 226 255
205 226 255
205 226 255
205 226 255
205 226 255
205 226 255
205 226 255
204 226 255
204 226 255
204 226 255
204 226 255
204 226 255
204 226 255
204 226 255
204 226 255
204 226 255
204 226 255
204 226 255
204 226 255
204 226 255
204 226 255
204 226 255
204 226 255
204 226 255
203 226 255
203 226 255
203 226 255
203 226 255
203 226 255
203 226 255
203 225 255
203 225 255
203 225 255
203 225 255
203 225 255
203 225 255
203 225 255
203 225 255
203 225 255
202 225 255
202 225 255
202 225 255
202 225 255
202 225 255
202 225 255
202 225 255
202 225 255
202 225 255
202 225 255
202 225 255
202 225 255
202 225 255
202 225 255
202 225 255
201 225 255
201 225 255
201 225 255
201 225 255
201 224 255
201 224 255
201 224 255
201 224 255
201 224 255
201 224 255
201 224 255
201 224 255
201 224 255
201 224 255
200 224 255
200 224 255
200 224 255
200 224 255
200 224 255
200 224 255
200 224 255
200 224 255
200 224 255
200 224 255
200 224 255
200 224 255
200 224 255
200 224 255
200 224 255
199 224 255
199 224 255
199 224 255
199 223 255
199 223 255
199 223 255
199 223 255
199 223 255
199 223 255
199 223 255
199 223 255
199 223 255
199 223 255
199 223 255
199 223 255
199 223 255
199 223 255
198 223 255
198 223 255
198 223 255
198 223 255
198 223 255
198 223 255
198 223 255
198 223 255
198 223 255
198 223 255
198 223 255
198 223 255
198 223 255
198 223 255
198 223 255
198 223 255
198 223 255
198 223 255
197 223 255
197 222 255
197 222 255
197 222 255
197 222 255
197 222 255
197 222 255
197 222 255
197 222 255
197 222 255
197 222 255
197 222 255
197 222 255
197 222 255
197 222 255
197 222 255
197 222 255
197 222 255
197 222 255
197 222 255
197 222 255
197 222 255
197 222 255
197 222 255
197 222 255
197 222 255
197 222 255
197 222 255
197 222 255
197 222 255
197 222 255
197 222 255
196 222 255
196 222 255
196 222 255
196 222 255
196 222 255
196 222 255
196 222 255
196 222 255
196 222 255
196 222 255
196 222 255
196 222 255
196 222 255
196 222 255
196 222 255
196 222 255
196 222 255
196 222 255
196 222 255
196 222 255
196 222 255
196 222 255
197 222 255
197 222 255
197 222 255
197 222 255
197 222 255
197 222 255
197 222 255
197 222 255
197 222 255
197 222 255
197 222 255
197 222 255
197 222 255
197 222 255
197 222 255
197 222 255
197 222 255
197 222 255
197 222 255
197 222 255
197 222 255
197 222 255
197 222 255
197 222 255
197 222 255
197 222 255
197 222 255
197 222 255
197 222 255
197 222 255
197 222 255
197 223 255
198 223 255
198 223 255
198 223 255
198 223 255
198 223 255
198 223 255
198 223 255
198 223 255
198 223 255
198 223 255
198 223 255
198 223 255
198 223 255
198 223 255
198 223 255
198 223 255
198 223 255
198 223 255
199 223 255
199 223 255
199 223 255
199 223 255
199 223 255
199 223 255
199 223 255
199 223 255
199 223 255
199 223 255
199 223 255
199 223 255
199 223 255
199 223 255
199 224 255
199 224 255
199 224 255
200 224 255
200 224 255
200 224 255
200 224 255
200 224 255
200 224 255
200 224 255
200 224 255
200 224 255
200 224 255
200 224 255
200 224 255
200 224 255
200 224 255
201 224 255
201 224 255
201 224 255
201 224 255
201 224 255
201 224 255
201 224 255
201 224 255
201 224 255
201 224 255
201 224 255
201 225 255
201 225 255
201 225 255
201 225 255
202 225 255
202 225 255
202 225 255
202 225 255
202 225 255
202 225 255
202 225 255
202 225 255
202 225 255
202 225 255
202 225 255
202 225 255
202 225 255
202 225 255
202 225 255
203 225 255
203 225 255
203 225 255
203 225 255
203 225 255
203 225 255
203 225 255
203 225 255
203 225 255
203 226 255
203 226 255
203 226 255
203 226 255
203 226 255
203 226 255
203 226 255
204 226 255
204 226 255
204 226 255
204 226 255
204 226 255
204 226 255
204 226 255
204 226 255
204 226 255
204 226 255
204 226 255
204 226 255
204 226 255
204 226 255
204 226 255
204 226 255
205 226 255
205 226 255
205 226 255
205 226 255
205 226 255
205 226 255
205 227 255
205 227 255
205 227 255
205 227 255
205 227 255
205 227 255
205 227 255
205 227 255
205 227 255
205 227 255
205 227 255
206 227 255
206 227 255
206 227 255
206 227 255
206 227 255
206 227 255
206 227 255
206 227 255
206 227 255
206 227 255
206 227 255
206 227 255
206 227 255
206 227 255
206 227 255
206 227 255
206 227 255
206 227 255
206 227 255
207 227 255
207 227 255
207 227 255
207 227 255
207 227 255
207 228 255
207 228 255
207 228 255
207 228 255
207 228 255
207 228 255
207 228 255
207 228 255
207 228 255
207 228 255
207 228 255
207 228 255
207 228 255
207 227 255
207 227 255
207 227 255
207 227 255
207 227 255
206 227 255
206 227 255
206 227 255
206 227 255
206 227 255
206 227 255
206 227 255
206 227 255
206 227 255
206 227 255
206 227 255
206 227 255
206 227 255
206 227 255
206 227 255
206 227 255
206 227 255
206 227 255
206 227 255
205 227 255
205 227 255
205 227 255
205 227 255
205 227 255
205 227 255
205 227 255
205 227 255
205 227 255
205 227 255
205 226 255
205 226 255
205 226 255
205 226 255
205 226 255
205 226 255
205 226 255
204 226 255
204 226 255
204 226 255
204 226 255
204 226 255
204 226 255
204 226 255
204 226 255
204 226 255
204 226 255
204 226 255
204 226 255
204 226 255
204 226 255
204 226 255
204 226 255
203 226 255
203 226 255
203 226 255
203 226 255
203 226 255
203 226 255
203 226 255
203 225 255
203 225 255
203 225 255
203 225 255
203 225 255
203 225 255
203 225 255
203 225 255
202 225 255
202 225 255
202 225 255
202 225 255
202 225 255
202 225 255
202 225 255
202 225 255
202 225 255
202 225 255
202 225 255
202 225 255
202 225 255
202 225 255
202 225 255
201 225 255
201 225 255
201 225 255
201 225 255
201 225 255
201 224 255
201 224 255
201 224 255
201 224 255
201 224 255
201 224 255
201 224 255
201 224 255
201 224 255
201 224 255
200 224 255
200 224 255
200 224 255
200 224 255
200 224 255
200 224 255
200 224 255
200 224 255
200 224 255
200 224 255
200 224 255
200 224 255
200 224 255
200 224 255
200 224 255
199 224 255
199 224 255
199 224 255
199 223 255
199 223 255
199 223 255
199 223 255
199 223 255
199 223 255
199 223 255
199 223 255
199 223 255
199 223 255
199 223 255
199 223 255
199 223 255
198 223 255
198 223 255
198 223 255
198 223 255
198 223 255
198 223 255
198 223 255
198 223 255
198 223 255
198 223 255
198 223 255
198 223 255
198 223 255
198 223 255
198 223 255
198 223 255
198 223 255
198 223 255
198 223 255
198 223 255
197 223 255
197 222 255
197 222 255
197 222 255
197 222 255
197 222 255
197 222 255
197 222 255
197 222 255
197 222 255
197 222 255
197 222 255
197 222 255
197 222 255
197 222 255
197 222 255
197 222 255
197 222 255
197 222 255
197 222 255
197 222 255
197 222 255
197 222 255
197 222 255
197 222 255
197 222 255
197 222 255
197 222 255
197 222 255
197 222 255
197 222 255
197 222 255
197 222 255
197 222 255
197 222 255
197 222 255
197 222 255
197 222 255
197 222 255
197 222 255
197 222 255
197 222 255
197 222 255
197 222 255
197 222 255
197 222 255
197 222 255
197 222 255
197 222 255
197 222 255
197 222 255
197 222 255
197 222 255
197 222 255
197 222 255
197 222 255
197 222 255
197 222 255
197 222 255
197 222 255
197 222 255
197 222 255
197 222 255
197 222 255
197 222 255
197 222 255
197 222 255
197 222 255
197 222 255
197 222 255
197 222 255
197 222 255
197 222 255
197 222 255
197 222 255
197 222 255
197 222 255
197 223 255
198 223 255
198 223 255
198 223 255
198 223 255
198 223 255
198 223 255
198 223 255
198 223 255
198 223 255
198 223 255
198 223 255
198 223 255
198 223 255
198 223 255
198 223 255
198 223 255
198 223 255
198 223 255
198 223 255
198 223 255
199 223 255
199 223 255
199 223 255
199 223 255
199 223 255
199 223 255
199 223 255
199 223 255
199 223 255
199 223 255
199 223 255
199 223 255
199 223 255
199 224 255
199 224 255
199 224 255
200 224 255
200 224 255
200 224 255
200 224 255
200 224 255
200 224 255
200 224 255
200 224 255
200 224 255
200 224 255
200 224 255
200 224 255
200 224 255
200 224 255
200 224 255
201 224 255
201 224 255
201 224 255
201 224 255
201 224 255
201 224 255
201 224 255
201 224 255
201 224 255
201 224 255
201 225 255
201 225 255
201 225 255
201 225 255
201 225 255
202 225 255
202 225 255
202 225 255
202 225 255
202 225 255
202 225 255
202 225 255
202 225 255
202 225 255
202 225 255
202 225 255
202 225 255
202 225 255
202 225 255
203 225 255
203 225 255
203 225 255
203 225 255
203 225 255
203 225 255
203 225 255
203 225 255
203 225 255
203 226 255
203 226 255
203 226 255
203 226 255
203 226 255
203 226 255
203 226 255
204 226 255
204 226 255
204 226 255
204 226 255
204 226 255
204 226 255
204 226 255
204 226 255
204 226 255
204 226 255
204 226 255
204 226 255
204 226 255
204 226 255
204 226 255
204 226 255
205 226 255
205 226 255
205 226 255
205 226 255
205 226 255
205 226 255
205 226 255
205 227 255
205 227 255
205 227 255
205 227 255
205 227 255
205 227 255
205 227 255
205 227 255
205 227 255
205 227 255
206 227 255
206 227 255
206 227 255
206 227 255
206 227 255
206 227 255
206 227 255
206 227 255
206 227 255
206 227 255
206 227 255
206 227 255
206 227 255
206 227 255
206 227 255
206 227 255
206 227 255
206 227 255
206 227 255
207 227 255
207 227 255
207 227 255
207 227 255
207 227 255
207 228 255
207 228 255
207 228 255
207 228 255
207 228 255
207 228 255
207 228 255
207 228 255
207 228 255
207 228 255
207 228 255
207 228 255
207 228 255
207 228 255
207 228 255
207 228 255
207 228 255
207 228 255
207 228 255
207 227 255
207 227 255
207 227 255
207 227 255
207 227 255
206 227 255
206 227 255
206 227 255
206 227 255
206 227 255
206 227 255
206 227 255
206 227 255
206 227 255
206 227 255
206 227 255
206 227 255
206 227 255
206 227 255
206 227 255
206 227 255
206 227 255
206 227 255
205 227 255
205 227 255
205 227 255
205 227 255
205 227 255
205 227 255
205 227 255
205 227 255
205 227 255
205 227 255
205 227 255
205 226 255
205 226 255
205 226 255
205 226 255
205 226 255
205 226 255
205 226 255
204 226 255
204 226 255
204 226 255
204 226 255
204 226 255
204 226 255
204 226 255
204 226 255
204 226 255
204 226 255
204 226 255
204 226 255
204 226 255
204 226 255
204 226 255
204 226 255
203 226 255
203 226 255
203 226 255
203 226 255
203 226 255
203 226 255
203 225 255
203 225 255
203 225 255
203 225 255
203 225 255
203 225 255
203 225 255
203 225 255
203 225 255
202 225 255
202 225 255
202 225 255
202 225 255
202 225 255
202 225 255
202 225 255
202 225 255
202 225 255
202 225 255
202 225 255
202 225 255
202 225 255
202 225 255
202 225 255
201 225 255
201 225 255
201 225 255
201 225 255
201 224 255
201 224 255
201 224 255
201 224 255
201 224 255
201 224 255
201 224 255
201 224 255
201 224 255
201 224 255
201 224 255
200 224 255
200 224 255
200 224 255
200 224 255
200 224 255
200 224 255
200 224 255
200 224 255
200 224 255
200 224 255
200 224 255
200 224 255
200 224 255
200 224 255
200 224 255
199 224 255
199 224 255
199 223 255
199 223 255
199 223 255
199 223 255
199 223 255
199 223 255
199 223 255
199 223 255
199 223 255
199 223 255
199 223 255
199 223 255
199 223 255
199 223 255
199 223 255
198 223 255
198 223 255
198 223 255
198 223 255
198 223 255
198 223 255
198 223 255
198 223 255
198 223 255
198 223 255
198 223 255
198 223 255
198 223 255
198 223 255
198 223 255
198 223 255
198 223 255
198 223 255
198 223 255
198 223 255
197 223 255
197 222 255
197 222 255
197 222 255
197 222 255
197 222 255
197 222 255
197 222 255
197 222 255
197 222 255
197 222 255
197 222 255
197 222 255
197 222 255
197 222 255
197 222 255
197 222 255
197 222 255
197 222 255
197 222 255
197 222 255
197 222 255
197 222 255
197 222 255
197 222 255
197 222 255
197 222 255
197 222 255
197 222 255
197 222 255
197 222 255
197 222 255
197 222 255
197 222 255
197 222 255
197 222 255
197 222 255
197 222 255
197 222 255
197 222 255
197 222 255
197 222 255
197 222 255
197 222 255
197 222 255
197 222 255
197 222 255
197 222 255
197 222 255
197 222 255
197 222 255
197 222 255
197 222 255
197 222 255
197 222 255
197 222 255
197 222 255
197 222 255
197 222 255
197 222 255
197 222 255
197 222 255
197 222 255
197 222 255
197 222 255
197 222 255
197 222 255
197 222 255
197 222 255
197 223 255
198 223 255
198 223 255
198 223 255
198 223 255
198 223 255
198 223 255
198 223 255
198 223 255
198 223 255
198 223 255
198 223 255
198 223 255
198 223 255
198 223 255
198 223 255
198 223 255
198 223 255
198 223 255
198 223 255
198 223 255
198 223 255
199 223 255
199 223 255
199 223 255
199 223 255
199 223 255
199 223 255
199 223 255
199 223 255
199 223 255
199 223 255
199 223 255
199 223 255
199 223 255
199 223 255
199 224 255
199 224 255
200 224 255
200 224 255
200 224 255
200 224 255
200 224 255
200 224 255
200 224 255
200 224 255
200 224 255
200 224 255
200 224 255
200 224 255
200 224 255
200 224 255
200 224 255
201 224 255
201 224 255
201 224 255
201 224 255
201 224 255
201 224 255
201 224 255
201 224 255
201 224 255
201 224 255
201 224 255
201 225 255
201 225 255
201 225 255
201 225 255
202 225 255
202 225 255
202 225 255
202 225 255
202 225 255
202 225 255
202 225 255
202 225 255
202 225 255
202 225 255
202 225 255
202 225 255
202 225 255
202 225 255
202 225 255
203 225 255
203 225 255
203 225 255
203 225 255
203 225 255
203 225 255
203 225 255
203 225 255
203 225 255
203 226 255
203 226 255
203 226 255
203 226 255
203 226 255
203 226 255
203 226 255
204 226 255
204 226 255
204 226 255
204 226 255
204 226 255
204 226 255
204 226 255
204 226 255
204 226 255
204 226 255
204 226 255
204 226 255
204 226 255
204 226 255
204 226 255
205 226 255
205 226 255
205 226 255
205 226 255
205 226 255
205 226 255
205 226 255
205 227 255
205 227 255
205 227 255
205 227 255
205 227 255
205 227 255
205 227 255
205 227 255
205 227 255
205 227 255
205 227 255
206 227 255
206 227 255
206 227 255
206 227 255
206 227 255
206 227 255
206 227 255
206 227 255
206 227 255
206 227 255
206 227 255
206 227 255
206 227 255
206 227 255
206 227 255
206 227 255
206 227 255
206 227 255
207 227 255
207 227 255
207 227 255
207 227 255
207 227 255
207 228 255
207 228 255
207 228 255
207 228 255
207 228 255
207 228 255
207 228 255
207 228 255
207 228 255
207 228 255
207 228 255
207 228 255
207 228 255
207 228 255
207 228 255
207 228 255
207 228 255
207 228 255
207 228 255
207 228 255
207 228 255
207 228 255
207 228 255
207 228 255
207 228 255
207 227 255
207 227 255
207 227 255
207 227 255
207 227 255
206 227 255
206 227 255
206 227 255
206 227 255
206 227 255
206 227 255
206 227 255
206 227 255
206 227 255
206 227 255
206 227 255
206 227 255
206 227 255
206 227 255
206 227 255
206 227 255
206 227 255
206 227 255
205 227 255
205 227 255
205 227 255
205 227 255
205 227 255
205 227 255
205 227 255
205 227 255
205 227 255
205 227 255
205 226 255
205 226 255
205 226 255
205 226 255
205 226 255
205 226 255
205 226 255
204 226 255
204 226 255
204 226 255
204 226 255
204 226 255
204 226 255
204 226 255
204 226 255
204 226 255
204 226 255
204 226 255
204 226 255
204 226 255
204 226 255
204 226 255
204 226 255
203 226 255
203 226 255
203 226 255
203 226 255
203 226 255
203 226 255
203 226 255
203 225 255
203 225 255
203 225 255
203 225 255
203 225 255
203 225 255
203 225 255
203 225 255
202 225 255
202 225 255
202 225 255
202 225 255
202 225 255
202 225 255
202 225 255
202 225 255
202 225 255
202 225 255
202 225 255
202 225 255
202 225 255
202 225 255
202 225 255
201 225 255
201 225 255
201 225 255
201 225 255
201 225 255
201 224 255
201 224 255
201 224 255
201 224 255
201 224 255
201 224 255
201 224 255
201 224 255
201 224 255
201 224 255
200 224 255
200 224 255
200 224 255
200 224 255
200 224 255
200 224 255
200 224 255
200 224 255
200 224 255
200 224 255
200 224 255
200 224 255
200 224 255
200 224 255
200 224 255
200 224 255
199 224 255
199 224 255
199 223 255
199 223 255
199 223 255
199 223 255
199 223 255
199 223 255
199 223 255
199 223 255
199 223 255
199 223 255
199 223 255
199 223 255
199 223 255
199 223 255
199 223 255
198 223 255
198 223 255
198 223 255
198 223 255
198 223 255
198 223 255
198 223 255
198 223 255
198 223 255
198 223 255
198 223 255
198 223 255
198 223 255
198 223 255
198 223 255
198 223 255
198 223 255
198 223 255
198 223 255
198 223 255
198 223 255
198 223 255
197 223 255
197 222 255
197 222 255
197 222 255
197 222 255
197 222 255
197 222 255
197 222 255
197 222 255
197 222 255
197 222 255
197 222 255
197 222 255
197 222 255
197 222 255
197 222 255
197 222 255
197 222 255
197 222 255
197 222 255
197 222 255
197 222 255
197 222 255
197 222 255
197 222 255
197 222 255
197 222 255
197 222 255
197 222 255
197 222 255
197 222 255
197 222 255
197 222 255
197 222 255
197 222 255
197 222 255
197 222 255
197 222 255
197 222 255
197 222 255
197 222 255
197 222 255
197 222 255
197 222 255
197 222 255
197 222 255
197 222 255
197 222 255
197 222 255
197 222 255
197 222 255
197 222 255
197 222 255
197 222 255
197 222 255
197 222 255
197 222 255
197 222 255
197 222 255
197 223 255
198 223 255
198 223 255
198 223 255
198 223 255
198 223 255
198 223 255
198 223 255
198 223 255
198 223 255
198 223 255
198 223 255
198 223 255
198 223 255
198 223 255
198 223 255
198 223 255
198 223 255
198 223 255
198 223 255
198 223 255
198 223 255
198 223 255
199 223 255
199 223 255
199 223 255
199 223 255
199 223 255
199 223 255
199 223 255
199 223 255
199 223 255
199 223 255
199 223 255
199 223 255
199 223 255
199 223 255
199 223 255
199 224 255
199 224 255
199 224 255
200 224 255
200 224 255
200 224 255
200 224 255
200 224 255
200 224 255
200 224 255
200 224 255
200 224 255
200 224 255
200 224 255
200 224 255
200 224 255
200 224 255
200 224 255
201 224 255
201 224 255
201 224 255
201 224 255
201 224 255
201 224 255
201 224 255
201 224 255
201 224 255
201 224 255
201 225 255
201 225 255
201 225 255
201 225 255
201 225 255
202 225 255
202 225 255
202 225 255
202 225 255
202 225 255
202 225 255
202 225 255
202 225 255
202 225 255
202 225 255
202 225 255
202 225 255
202 225 255
202 225 255
202 225 255
203 225 255
203 225 255
203 225 255
203 225 255
203 225 255
203 225 255
203 225 255
203 225 255
203 226 255
203 226 255
203 226 255
203 226 255
203 226 255
203 226 255
203 226 255
204 226 255
204 226 255
204 226 255
204 226 255
204 226 255
204 226 255
204 226 255
204 226 255
204 226 255
204 226 255
204 226 255
204 226 255
204 226 255
204 226 255
204 226 255
204 226 255
205 226 255
205 226 255
205 226 255
205 226 255
205 226 255
205 226 255
205 226 255
205 227 255
205 227 255
205 227 255
205 227 255
205 227 255
205 227 255
205 227 255
205 227 255
205 227 255
205 227 255
206 227 255
206 227 255
206 227 255
206 227 255
206 227 255
206 227 255
206 227 255
206 227 255
206 227 255
206 227 255
206 227 255
206 227 255
206 227 255
206 227 255
206 227 255
206 227 255
206 227 255
206 227 255
206 227 255
207 227 255
207 227 255
207 227 255
207 227 255
207 228 255
207 228 255
207 228 255
207 228 255
207 228 255
207 228 255
207 228 255
207 228 255
207 228 255
207 228 255
207 228 255
207 228 255
207 228 255
207 228 255
208 228 255
207 228 255
207 228 255
207 228 255
207 228 255
207 228 255
207 228 255
207 228 255
207 228 255
207 228 255
207 228 255
207 228 255
207 228 255
207 228 255
207 228 255
207 228 255
207 228 255
207 227 255
207 227 255
207 227 255
207 227 255
206 227 255
206 227 255
206 227 255
206 227 255
206 227 255
206 227 255
206 227 255
206 227 255
206 227 255
206 227 255
206 227 255
206 227 255
206 227 255
206 227 255
206 227 255
206 227 255
206 227 255
206 227 255
206 227 255
205 227 255
205 227 255
205 227 255
205 227 255
205 227 255
205 227 255
205 227 255
205 227 255
205 227 255
205 227 255
205 226 255
205 226 255
205 226 255
205 226 255
205 226 255
205 226 255
205 226 255
204 226 255
204 226 255
204 226 255
204 226 255
204 226 255
204 226 255
204 226 255
204 226 255
204 226 255
204 226 255
204 226 255
204 226 255
204 226 255
204 226 255
204 226 255
204 226 255
203 226 255
203 226 255
203 226 255
203 226 255
203 226 255
203 226 255
203 225 255
203 225 255
203 225 255
203 225 255
203 225 255
203 225 255
203 225 255
203 225 255
203 225 255
202 225 255
202 225 255
202 225 255
202 225 255
202 225 255
202 225 255
202 225 255
202 225 255
202 225 255
202 225 255
202 225 255
202 225 255
202 225 255
202 225 255
202 225 255
201 225 255
201 225 255
201 225 255
201 225 255
201 224 255
201 224 255
201 224 255
201 224 255
201 224 255
201 224 255
201 224 255
201 224 255
201 224 255
201 224 255
201 224 255
200 224 255
200 224 255
200 224 255
200 224 255
200 224 255
200 224 255
200 224 255
200 224 255
200 224 255
200 224 255
200 224 255
200 224 255
200 224 255
200 224 255
200 224 255
200 224 255
199 224 255
199 224 255
199 223 255
199 223 255
199 223 255
199 223 255
199 223 255
199 223 255
199 223 255
199 223 255
199 223 255
199 223 255
199 223 255
199 223 255
199 223 255
199 223 255
199 223 255
198 223 255
198 223 255
198 223 255
198 223 255
198 223 255
198 223 255
198 223 255
198 223 255
198 223 255
198 223 255
198 223 255
198 223 255
198 223 255
198 223 255
198 223 255
198 223 255
198 223 255
198 223 255
198 223 255
198 223 255
198 223 255
198 223 255
198 223 255
198 223 255
198 223 255
197 223 255
197 222 255
197 222 255
197 222 255
197 222 255
197 222 255
197 222 255
197 222 255
197 222 255
197 222 255
197 222 255
197 222 255
197 222 255
197 222 255
197 222 255
197 222 255
197 222 255
197 222 255
197 222 255
197 222 255
197 222 255
197 222 255
197 222 255
197 222 255
197 222 255
197 222 255
197 222 255
197 222 255
197 222 255
197 222 255
197 222 255
197 222 255
197 222 255
197 222 255
197 222 255
197 222 255
197 222 255
197 222 255
197 222 255
197 222 255
197 222 255
197 222 255
197 222 255
197 222 255
197 222 255
197 222 255
197 222 255
197 223 255
197 223 255
198 223 255
198 223 255
198 223 255
198 223 255
198 223 255
198 223 255
198 223 255
198 223 255
198 223 255
198 223 255
198 223 255
198 223 255
198 223 255
198 223 255
198 223 255
198 223 255
198 223 255
198 223 255
198 223 255
198 223 255
198 223 255
198 223 255
198 223 255
198 223 255
199 223 255
199 223 255
199 223 255
199 223 255
199 223 255
199 223 255
199 223 255
199 223 255
199 223 255
199 223 255
199 223 255
199 223 255
199 223 255
199 223 255
199 223 255
199 224 255
199 224 255
199 224 255
200 224 255
200 224 255
200 224 255
200 224 255
200 224 255
200 224 255
200 224 255
200 224 255
200 224 255
200 224 255
200 224 255
200 224 255
200 224 255
200 224 255
200 224 255
201 224 255
201 224 255
201 224 255
201 224 255
201 224 255
201 224 255
201 224 255
201 224 255
201 224 255
201 224 255
201 224 255
201 225 255
201 225 255
201 225 255
201 225 255
202 225 255
202 225 255
202 225 255
202 225 255
202 225 255
202 225 255
202 225 255
202 225 255
202 225 255
202 225 255
202 225 255
202 225 255
202 225 255
202 225 255
202 225 255
203 225 255
203 225 255
203 225 255
203 225 255
203 225 255
203 225 255
203 225 255
203 225 255
203 226 255
203 226 255
203 226 255
203 226 255
203 226 255
203 226 255
203 226 255
204 226 255
204 226 255
204 226 255
204 226 255
204 226 255
204 226 255
204 226 255
204 226 255
204 226 255
204 226 255
204 226 255
204 226 255
204 226 255
204 226 255
204 226 255
204 226 255
205 226 255
205 226 255
205 226 255
205 226 255
205 226 255
205 226 255
205 226 255
205 227 255
205 227 255
205 227 255
205 227 255
205 227 255
205 227 255
205 227 255
205 227 255
205 227 255
205 227 255
206 227 255
206 227 255
206 227 255
206 227 255
206 227 255
206 227 255
206 227 255
206 227 255
206 227 255
206 227 255
206 227 255
206 227 255
206 227 255
206 227 255
206 227 255
206 227 255
206 227 255
206 227 255
206 227 255
207 227 255
207 227 255
207 227 255
207 227 255
207 228 255
207 228 255
207 228 255
207 228 255
207 228 255
207 228 255
207 228 255
207 228 255
207 228 255
207 228 255
207 228 255
207 228 255
207 228 255
207 228 255
207 228 255
207 228 255
208 228 255
208 228 255
208 228 255
208 228 255
208 228 255
207 228 255
207 228 255
207 228 255
207 228 255
207 228 255
207 228 255
207 228 255
207 228 255
207 228 255
207 228 255
207 228 255
207 228 255
207 228 255
207 228 255
207 228 255
207 228 255
207 227 255
207 227 255
207 227 255
207 227 255
206 227 255
206 227 255
206 227 255
206 227 255
206 227 255
206 227 255
206 227 255
206 227 255
206 227 255
206 227 255
206 227 255
206 227 255
206 227 255
206 227 255
206 227 255
206 227 255
206 227 255
206 227 255
205 227 255
205 227 255
205 227 255
205 227 255
205 227 255
205 227 255
205 227 255
205 227 255
205 227 255
205 227 255
205 227 255
205 226 255
205 226 255
205 226 255
205 226 255
205 226 255
205 226 255
204 226 255
204 226 255
204 226 255
204 226 255
204 226 255
204 226 255
204 226 255
204 226 255
204 226 255
204 226 255
204 226 255
204 226 255
204 226 255
204 226 255
204 226 255
204 226 255
203 226 255
203 226 255
203 226 255
203 226 255
203 226 255
203 226 255
203 226 255
203 225 255
203 225 255
203 225 255
203 225 255
203 225 255
203 225 255
203 225 255
203 225 255
203 225 255
202 225 255
202 225 255
202 225 255
202 225 255
202 225 255
202 225 255
202 225 255
202 225 255
202 225 255
202 225 255
202 225 255
202 225 255
202 225 255
202 225 255
201 225 255
201 225 255
201 225 255
201 225 255
201 225 255
201 224 255
201 224 255
201 224 255
201 224 255
201 224 255
201 224 255
201 224 255
201 224 255
201 224 255
201 224 255
201 224 255
200 224 255
200 224 255
200 224 255
200 224 255
200 224 255
200 224 255
200 224 255
200 224 255
200 224 255
200 224 255
200 224 255
200 224 255
200 224 255
200 224 255
200 224 255
199 224 255
199 224 255
199 224 255
199 223 255
199 223 255
199 223 255
199 223 255
199 223 255
199 223 255
199 223 255
199 223 255
199 223 255
199 223 255
199 223 255
199 223 255
199 223 255
199 223 255
199 223 255
199 223 255
198 223 255
198 223 255
198 223 255
198 223 255
198 223 255
198 223 255
198 223 255
198 223 255
198 223 255
198 223 255
198 223 255
198 223 255
198 223 255
198 223 255
198 223 255
198 223 255
198 223 255
198 223 255
198 223 255
198 223 255
198 223 255
198 223 255
198 223 255
198 223 255
198 223 255
198 223 255
198 223 255
198 223 255
197 223 255
197 222 255
197 222 255
197 222 255
197 222 255
197 222 255
197 222 255
197 222 255
197 222 255
197 222 255
197 222 255
197 222 255
197 222 255
197 222 255
197 222 255
197 222 255
197 222 255
197 222 255
197 222 255
197 222 255
197 222 255
197 222 255
197 222 255
197 222 255
197 222 255
197 222 255
197 222 255
197 222 255
197 222 255
197 222 255
197 222 255
197 222 255
197 222 255
197 223 255
197 223 255
198 223 255
198 223 255
198 223 255
198 223 255
198 223 255
198 223 255
198 223 255
198 223 255
198 223 255
198 223 255
198 223 255
198 223 255
198 223 255
198 223 255
198 223 255
198 223 255
198 223 255
198 223 255
198 223 255
198 223 255
198 223 255
198 223 255
198 223 255
198 223 255
198 223 255
198 223 255
198 223 255
199 223 255
199 223 255
199 223 255
199 223 255
199 223 255
199 223 255
199 223 255
199 223 255
199 223 255
199 223 255
199 223 255
199 223 255
199 223 255
199 223 255
199 223 255
199 223 255
199 224 255
199 224 255
200 224 255
200 224 255
200 224 255
200 224 255
200 224 255
200 224 255
200 224 255
200 224 255
200 224 255
200 224 255
200 224 255
200 224 255
200 224 255
200 224 255
200 224 255
200 224 255
201 224 255
201 224 255
201 224 255
201 224 255
201 224 255
201 224 255
201 224 255
201 224 255
201 224 255
201 224 255
201 224 255
201 225 255
201 225 255
201 225 255
201 225 255
201 225 255
202 225 255
202 225 255
202 225 255
202 225 255
202 225 255
202 225 255
202 225 255
202 225 255
202 225 255
202 225 255
202 225 255
202 225 255
202 225 255
202 225 255
203 225 255
203 225 255
203 225 255
203 225 255
203 225 255
203 225 255
203 225 255
203 225 255
203 225 255
203 226 255
203 226 255
203 226 255
203 226 255
203 226 255
203 226 255
203 226 255
204 226 255
204 226 255
204 226 255
204 226 255
204 226 255
204 226 255
204 226 255
204 226 255
204 226 255
204 226 255
204 226 255
204 226 255
204 226 255
204 226 255
204 226 255
204 226 255
205 226 255
205 226 255
205 226 255
205 226 255
205 226 255
205 226 255
205 227 255
205 227 255
205 227 255
205 227 255
205 227 255
205 227 255
205 227 255
205 227 255
205 227 255
205 227 255
205 227 255
206 227 255
206 227 255
206 227 255
206 227 255
206 227 255
206 227 255
206 227 255
206 227 255
206 227 255
206 227 255
206 227 255
206 227 255
206 227 255
206 227 255
206 227 255
206 227 255
206 227 255
206 227 255
207 227 255
207 227 255
207 227 255
207 227 255
207 227 255
207 228 255
207 228 255
207 228 255
207 228 255
207 228 255
207 228 255
207 228 255
207 228 255
207 228 255
207 228 255
207 228 255
207 228 255
207 228 255
207 228 255
207 228 255
208 228 255
208 228 255
208 228 255
208 228 255
208 228 255
208 228 255
208 228 255
208 228 255
208 228 255
208 228 255
208 228 255
207 228 255
207 228 255
207 228 255
207 228 255
207 228 255
207 228 255
207 228 255
207 228 255
207 228 255
207 228 255
207 228 255
207 228 255
207 228 255
207 228 255
207 228 255
207 227 255
207 227 255
207 227 255
207 227 255
207 227 255
206 227 255
206 227 255
206 227 255
206 227 255
206 227 255
206 227 255
206 227 255
206 227 255
206 227 255
206 227 255
206 227 255
206 227 255
206 227 255
206 227 255
206 227 255
206 227 255
206 227 255
206 227 255
205 227 255
205 227 255
205 227 255
205 227 255
205 227 255
205 227 255
205 227 255
205 227 255
205 227 255
205 227 255
205 226 255
205 226 255
205 226 255
205 226 255
205 226 255
205 226 255
205 226 255
204 226 255
204 226 255
204 226 255
204 226 255
204 226 255
204 226 255
204 226 255
204 226 255
204 226 255
204 226 255
204 226 255
204 226 255
204 226 255
204 226 255
204 226 255
204 226 255
203 226 255
203 226 255
203 226 255
203 226 255
203 226 255
203 226 255
203 226 255
203 225 255
203 225 255
203 225 255
203 225 255
203 225 255
203 225 255
203 225 255
203 225 255
202 225 255
202 225 255
202 225 255
202 225 255
202 225 255
202 225 255
202 225 255
202 225 255
202 225 255
202 225 255
202 225 255
202 225 255
202 225 255
202 225 255
202 225 255
201 225 255
201 225 255
201 225 255
201 225 255
201 225 255
201 224 255
201 224 255
201 224 255
201 224 255
201 224 255
201 224 255
201 224 255
201 224 255
201 224 255
201 224 255
200 224 255
200 224 255
200 224 255
200 224 255
200 224 255
200 224 255
200 224 255
200 224 255
200 224 255
200 224 255
200 224 255
200 224 255
200 224 255
200 224 255
200 224 255
200 224 255
200 224 255
199 224 255
199 224 255
199 224 255
199 223 255
199 223 255
199 223 255
199 223 255
199 223 255
199 223 255
199 223 255
199 223 255
199 223 255
199 223 255
199 223 255
199 223 255
199 223 255
199 223 255
199 223 255
199 223 255
198 223 255
198 223 255
198 223 255
198 223 255
198 223 255
198 223 255
198 223 255
198 223 255
198 223 255
198 223 255
198 223 255
198 223 255
198 223 255
198 223 255
198 223 255
198 223 255
198 223 255
198 223 255
198 223 255
198 223 255
198 223 255
198 223 255
198 223 255
198 223 255
198 223 255
198 223 255
198 223 255
198 223 255
198 223 255
198 223 255
198 223 255
198 223 255
198 223 255
198 223 255
198 223 255
198 223 255
198 223 255
198 223 255
197 223 255
197 223 255
197 223 255
197 223 255
197 223 255
197 223 255
198 223 255
198 223 255
198 223 255
198 223 255
198 223 255
198 223 255
198 223 255
198 223 255
198 223 255
198 223 255
198 223 255
198 223 255
198 223 255
198 223 255
198 223 255
198 223 255
198 223 255
198 223 255
198 223 255
198 223 255
198 223 255
198 223 255
198 223 255
198 223 255
198 223 255
198 223 255
198 223 255
198 223 255
198 223 255
198 223 255
198 223 255
198 223 255
198 223 255
198 223 255
198 223 255
198 223 255
198 223 255
198 223 255
199 223 255
199 223 255
199 223 255
199 223 255
199 223 255
199 223 255
199 223 255
199 223 255
199 223 255
199 223 255
199 223 255
199 223 255
199 223 255
199 223 255
199 223 255
199 223 255
199 223 255
199 224 255
199 224 255
200 224 255
200 224 255
200 224 255
200 224 255
200 224 255
200 224 255
200 224 255
200 224 255
200 224 255
200 224 255
200 224 255
200 224 255
200 224 255
200 224 255
200 224 255
200 224 255
200 224 255
201 224 255
201 224 255
201 224 255
201 224 255
201 224 255
201 224 255
201 224 255
201 224 255
201 224 255
201 224 255
201 224 255
201 225 255
201 225 255
201 225 255
201 225 255
202 225 255
202 225 255
202 225 255
202 225 255
202 225 255
202 225 255
202 225 255
202 225 255
202 225 255
202 225 255
202 225 255
202 225 255
202 225 255
202 225 255
202 225 255
203 225 255
203 225 255
203 225 255
203 225 255
203 225 255
203 225 255
203 225 255
203 225 255
203 226 255
203 226 255
203 226 255
203 226 255
203 226 255
203 226 255
203 226 255
204 226 255
204 226 255
204 226 255
204 226 255
204 226 255
204 226 255
204 226 255
204 226 255
204 226 255
204 226 255
204 226 255
204 226 255
204 226 255
204 226 255
204 226 255
204 226 255
205 226 255
205 226 255
205 226 255
205 226 255
205 226 255
205 226 255
205 226 255
205 227 255
205 227 255
205 227 255
205 227 255
205 227 255
205 227 255
205 227 255
205 227 255
205 227 255
205 227 255
206 227 255
206 227 255
206 227 255
206 227 255
206 227 255
206 227 255
206 227 255
206 227 255
206 227 255
206 227 255
206 227 255
206 227 255
206 227 255
206 227 255
206 227 255
206 227 255
206 227 255
206 227 255
207 227 255
207 227 255
207 227 255
207 227 255
207 227 255
207 228 255
207 228 255
207 228 255
207 228 255
207 228 255
207 228 255
207 228 255
207 228 255
207 228 255
207 228 255
207 228 255
207 228 255
207 228 255
207 228 255
207 228 255
208 228 255
208 228 255
208 228 255
208 228 255
208 228 255
208 228 255
208 228 255
208 228 255
208 228 255
208 228 255
208 228 255
208 228 255
208 228 255
208 228 255
208 228 255
208 228 255
208 228 255
207 228 255
207 228 255
207 228 255
207 228 255
207 228 255
207 228 255
207 228 255
207 228 255
207 228 255
207 228 255
207 228 255
207 228 255
207 228 255
207 228 255
207 228 255
207 227 255
207 227 255
207 227 255
207 227 255
207 227 255
206 227 255
206 227 255
206 227 255
206 227 255
206 227 255
206 227 255
206 227 255
206 227 255
206 227 255
206 227 255
206 227 255
206 227 255
206 227 255
206 227 255
206 227 255
206 227 255
206 227 255
206 227 255
205 227 255
205 227 255
205 227 255
205 227 255
205 227 255
205 227 255
205 227 255
205 227 255
205 227 255
205 227 255
205 226 255
205 226 255
205 226 255
205 226 255
205 226 255
205 226 255
205 226 255
204 226 255
204 226 255
204 226 255
204 226 255
204 226 255
204 226 255
204 226 255
204 226 255
204 226 255
204 226 255
204 226 255
204 226 255
204 226 255
204 226 255
204 226 255
204 226 255
203 226 255
203 226 255
203 226 255
203 226 255
203 226 255
203 226 255
203 225 255
203 225 255
203 225 255
203 225 255
203 225 255
203 225 255
203 225 255
203 225 255
203 225 255
202 225 255
202 225 255
202 225 255
202 225 255
202 225 255
202 225 255
202 225 255
202 225 255
202 225 255
202 225 255
202 225 255
202 225 255
202 225 255
202 225 255
202 225 255
201 225 255
201 225 255
201 225 255
201 225 255
201 224 255
201 224 255
201 224 255
201 224 255
201 224 255
201 224 255
201 224 255
201 224 255
201 224 255
201 224 255
201 224 255
200 224 255
200 224 255
200 224 255
200 224 255
200 224 255
200 224 255
200 224 255
200 224 255
200 224 255
200 224 255
200 224 255
200 224 255
200 224 255
200 224 255
200 224 255
200 224 255
200 224 255
199 224 255
199 224 255
199 224 255
199 223 255
199 223 255
199 223 255
199 223 255
199 223 255
199 223 255
199 223 255
199 223 255
199 223 255
199 223 255
199 223 255
199 223 255
199 223 255
199 223 255
199 223 255
199 223 255
199 223 255
198 223 255
198 223 255
198 223 255
198 223 255
198 223 255
198 223 255
198 223 255
198 223 255
198 223 255
198 223 255
198 223 255
198 223 255
198 223 255
198 223 255
198 223 255
198 223 255
198 223 255
198 223 255
198 223 255
198 223 255
198 223 255
198 223 255
198 223 255
198 223 255
198 223 255
198 223 255
198 223 255
198 223 255
198 223 255
198 223 255
198 223 255
198 223 255
198 223 255
198 223 255
198 223 255
198 223 255
198 223 255
198 223 255
198 223 255
198 223 255
198 223 255
198 223 255
198 223 255
198 223 255
198 223 255
198 223 255
198 223 255
198 223 255
198 223 255
198 223 255
198 223 255
198 223 255
198 223 255
198 223 255
198 223 255
198 223 255
198 223 255
198 223 255
198 223 255
198 223 255
198 223 255
198 223 255
198 223 255
198 223 255
198 223 255
198 223 255
198 223 255
198 223 255
198 223 255
198 223 255
198 223 255
198 223 255
198 223 255
198 223 255
199 223 255
199 223 255
199 223 255
199 223 255
199 223 255
199 223 255
199 223 255
199 223 255
199 223 255
199 223 255
199 223 255
199 223 255
199 223 255
199 223 255
199 223 255
199 223 255
199 223 255
199 224 255
199 224 255
199 224 255
200 224 255
200 224 255
200 224 255
200 224 255
200 224 255
200 224 255
200 224 255
200 224 255
200 224 255
200 224 255
200 224 255
200 224 255
200 224 255
200 224 255
200 224 255
200 224 255
200 224 255
201 224 255
201 224 255
201 224 255
201 224 255
201 224 255
201 224 255
201 224 255
201 224 255
201 224 255
201 224 255
201 224 255
201 225 255
201 225 255
201 225 255
201 225 255
202 225 255
202 225 255
202 225 255
202 225 255
202 225 255
202 225 255
202 225 255
202 225 255
202 225 255
202 225 255
202 225 255
202 225 255
202 225 255
202 225 255
202 225 255
203 225 255
203 225 255
203 225 255
203 225 255
203 225 255
203 225 255
203 225 255
203 225 255
203 225 255
203 226 255
203 226 255
203 226 255
203 226 255
203 226 255
203 226 255
204 226 255
204 226 255
204 226 255
204 226 255
204 226 255
204 226 255
204 226 255
204 226 255
204 226 255
204 226 255
204 226 255
204 226 255
204 226 255
204 226 255
204 226 255
204 226 255
205 226 255
205 226 255
205 226 255
205 226 255
205 226 255
205 226 255
205 226 255
205 227 255
205 227 255
205 227 255
205 227 255
205 227 255
205 227 255
205 227 255
205 227 255
205 227 255
205 227 255
206 227 255
206 227 255
206 227 255
206 227 255
206 227 255
206 227 255
206 227 255
206 227 255
206 227 255
206 227 255
206 227 255
206 227 255
206 227 255
206 227 255
206 227 255
206 227 255
206 227 255
206 227 255
207 227 255
207 227 255
207 227 255
207 227 255
207 227 255
207 228 255
207 228 255
207 228 255
207 228 255
207 228 255
207 228 255
207 228 255
207 228 255
207 228 255
207 228 255
207 228 255
207 228 255
207 228 255
207 228 255
207 228 255
208 228 255
208 228 255
208 228 255
208 228 255
208 228 255
208 228 255
208 228 255
208 228 255
208 228 255
208 228 255
208 228 255
208 228 255
208 228 255
208 228 255
208 228 255
208 228 255
208 228 255
208 228 255
208 228 255
208 228 255
208 228 255
208 228 255
208 228 255
207 228 255
207 228 255
207 228 255
207 228 255
207 228 255
207 228 255
207 228 255
207 228 255
207 228 255
207 228 255
207 228 255
207 228 255
207 228 255
207 228 255
207 228 255
207 227 255
207 227 255
207 227 255
207 227 255
207 227 255
206 227 255
206 227 255
206 227 255
206 227 255
206 227 255
206 227 255
206 227 255
206 227 255
206 227 255
206 227 255
206 227 255
206 227 255
206 227 255
206 227 255
206 227 255
206 227 255
206 227 255
206 227 255
205 227 255
205 227 255
205 227 255
205 227 255
205 227 255
205 227 255
205 227 255
205 227 255
205 227 255
205 227 255
205 226 255
205 226 255
205 226 255
205 226 255
205 226 255
205 226 255
204 226 255
204 226 255
204 226 255
204 226 255
204 226 255
204 226 255
204 226 255
204 226 255
204 226 255
204 226 255
204 226 255
204 226 255
204 226 255
204 226 255
204 226 255
204 226 255
203 226 255
203 226 255
203 226 255
203 226 255
203 226 255
203 226 255
203 226 255
203 225 255
203 225 255
203 225 255
203 225 255
203 225 255
203 225 255
203 225 255
203 225 255
202 225 255
202 225 255
202 225 255
202 225 255
202 225 255
202 225 255
202 225 255
202 225 255
202 225 255
202 225 255
202 225 255
202 225 255
202 225 255
202 225 255
202 225 255
202 225 255
201 225 255
201 225 255
201 225 255
201 225 255
201 224 255
201 224 255
201 224 255
201 224 255
201 224 255
201 224 255
201 224 255
201 224 255
201 224 255
201 224 255
201 224 255
200 224 255
200 224 255
200 224 255
200 224 255
200 224 255
200 224 255
200 224 255
200 224 255
200 224 255
200 224 255
200 224 255
200 224 255
200 224 255
200 224 255
200 224 255
200 224 255
200 224 255
199 224 255
199 224 255
199 224 255
199 223 255
199 223 255
199 223 255
199 223 255
199 223 255
199 223 255
199 223 255
199 223 255
199 223 255
199 223 255
199 223 255
199 223 255
199 223 255
199 223 255
199 223 255
199 223 255
199 223 255
199 223 255
198 223 255
198 223 255
198 223 255
198 223 255
198 223 255
198 223 255
198 223 255
198 223 255
198 223 255
198 223 255
198 223 255
198 223 255
198 223 255
198 223 255
198 223 255
198 223 255
198 223 255
198 223 255
198 223 255
198 223 255
198 223 255
198 223 255
198 223 255
198 223 255
198 223 255
198 223 255
198 223 255
198 223 255
198 223 255
198 223 255
198 223 255
198 223 255
198 223 255
198 223 255
198 223 255
198 223 255
198 223 255
198 223 255
198 223 255
198 223 255
198 223 255
198 223 255
198 223 255
198 223 255
198 223 255
198 223 255
198 223 255
198 223 255
198 223 255
198 223 255
198 223 255
198 223 255
198 223 255
198 223 255
198 223 255
198 223 255
198 223 255
198 223 255
198 223 255
198 223 255
198 223 255
198 223 255
198 223 255
198 223 255
198 223 255
199 223 255
199 223 255
199 223 255
199 223 255
199 223 255
199 223 255
199 223 255
199 223 255
199 223 255
199 223 255
199 223 255
199 223 255
199 223 255
199 223 255
199 223 255
199 223 255
199 223 255
199 223 255
199 223 255
199 224 255
199 224 255
199 224 255
200 224 255
200 224 255
200 224 255
200 224 255
200 224 255
200 224 255
200 224 255
200 224 255
200 224 255
200 224 255
200 224 255
200 224 255
200 224 255
200 224 255
200 224 255
200 224 255
200 224 255
201 224 255
201 224 255
201 224 255
201 224 255
201 224 255
201 224 255
201 224 255
201 224 255
201 224 255
201 224 255
201 224 255
201 225 255
201 225 255
201 225 255
201 225 255
202 225 255
202 225 255
202 225 255
202 225 255
202 225 255
202 225 255
202 225 255
202 225 255
202 225 255
202 225 255
202 225 255
202 225 255
202 225 255
202 225 255
202 225 255
202 225 255
203 225 255
203 225 255
203 225 255
203 225 255
203 225 255
203 225 255
203 225 255
203 225 255
203 226 255
203 226 255
203 226 255
203 226 255
203 226 255
203 226 255
203 226 255
204 226 255
204 226 255
204 226 255
204 226 255
204 226 255
204 226 255
204 226 255
204 226 255
204 226 255
204 226 255
204 226 255
204 226 255
204 226 255
204 226 255
204 226 255
204 226 255
205 226 255
205 226 255
205 226 255
205 226 255
205 226 255
205 226 255
205 227 255
205 227 255
205 227 255
205 227 255
205 227 255
205 227 255
205 227 255
205 227 255
205 227 255
205 227 255
206 227 255
206 227 255
206 227 255
206 227 255
206 227 255
206 227 255
206 227 255
206 227 255
206 227 255
206 227 255
206 227 255
206 227 255
206 227 255
206 227 255
206 227 255
206 227 255
206 227 255
206 227 255
207 227 255
207 227 255
207 227 255
207 227 255
207 227 255
207 228 255
207 228 255
207 228 255
207 228 255
207 228 255
207 228 255
207 228 255
207 228 255
207 228 255
207 228 255
207 228 255
207 228 255
207 228 255
207 228 255
207 228 255
208 228 255
208 228 255
208 228 255
208 228 255
208 228 255
208 228 255
208 228 255
208 228 255
208 228 255
208 228 255
208 228 255
208 228 255
208 228 255
208 228 255
208 228 255
208 228 255
208 228 255
208 228 255
208 228 255
208 228 255
208 228 255
208 228 255
208 228 255
208 228 255
208 228 255
208 228 255
208 228 255
208 228 255
208 228 255
207 228 255
207 228 255
207 228 255
207 228 255
207 228 255
207 228 255
207 228 255
207 228 255
207 228 255
207 228 255
207 228 255
207 228 255
207 228 255
207 228 255
207 228 255
207 227 255
207 227 255
207 227 255
207 227 255
207 227 255
206 227 255
206 227 255
206 227 255
206 227 255
206 227 255
206 227 255
206 227 255
206 227 255
206 227 255
206 227 255
206 227 255
206 227 255
206 227 255
206 227 255
206 227 255
206 227 255
206 227 255
206 227 255
205 227 255
205 227 255
205 227 255
205 227 255
205 227 255
205 227 255
205 227 255
205 227 255
205 227 255
205 227 255
205 226 255
205 226 255
205 226 255
205 226 255
205 226 255
205 226 255
204 226 255
204 226 255
204 226 255
204 226 255
204 226 255
204 226 255
204 226 255
204 226 255
204 226 255
204 226 255
204 226 255
204 226 255
204 226 255
204 226 255
204 226 255
204 226 255
203 226 255
203 226 255
203 226 255
203 226 255
203 226 255
203 226 255
203 226 255
203 225 255
203 225 255
203 225 255
203 225 255
203 225 255
203 225 255
203 225 255
203 225 255
202 225 255
202 225 255
202 225 255
202 225 255
202 225 255
202 225 255
202 225 255
202 225 255
202 225 255
202 225 255
202 225 255
202 225 255
202 225 255
202 225 255
202 225 255
201 225 255
201 225 255
201 225 255
201 225 255
201 225 255
201 224 255
201 224 255
201 224 255
201 224 255
201 224 255
201 224 255
201 224 255
201 224 255
201 224 255
201 224 255
201 224 255
200 224 255
200 224 255
200 224 255
200 224 255
200 224 255
200 224 255
200 224 255
200 224 255
200 224 255
200 224 255
200 224 255
200 224 255
200 224 255
200 224 255
200 224 255
200 224 255
200 224 255
200 224 255
199 224 255
199 224 255
199 224 255
199 223 255
199 223 255
199 223 255
199 223 255
199 223 255
199 223 255
199 223 255
199 223 255
199 223 255
199 223 255
199 223 255
199 223 255
199 223 255
199 223 255
199 223 255
199 223 255
199 223 255
199 223 255
199 223 255
199 223 255
198 223 255
198 223 255
198 223 255
198 223 255
198 223 255
198 223 255
198 223 255
198 223 255
198 223 255
198 223 255
198 223 255
198 223 255
198 223 255
198 223 255
198 223 255
198 223 255
198 223 255
198 223 255
198 223 255
198 223 255
198 223 255
198 223 255
198 223 255
198 223 255
198 223 255
198 223 255
198 223 255
198 223 255
198 223 255
198 223 255
198 223 255
198 223 255
198 223 255
198 223 255
198 223 255
198 223 255
198 223 255
198 223 255
198 223 255
198 223 255
198 223 255
198 223 255
198 223 255
198 223 255
198 223 255
198 223 255
198 223 255
198 223 255
198 223 255
198 223 255
198 223 255
198 223 255
198 223 255
198 223 255
199 223 255
199 223 255
199 223 255
199 223 255
199 223 255
199 223 255
199 223 255
199 223 255
199 223 255
199 223 255
199 223 255
199 223 255
199 223 255
199 223 255
199 223 255
199 223 255
199 223 255
199 223 255
199 223 255
199 223 255
199 224 255
199 224 255
199 224 255
200 224 255
200 224 255
200 224 255
200 224 255
200 224 255
200 224 255
200 224 255
200 224 255
200 224 255
200 224 255
200 224 255
200 224 255
200 224 255
200 224 255
200 224 255
200 224 255
200 224 255
200 224 255
201 224 255
201 224 255
201 224 255
201 224 255
201 224 255
201 224 255
201 224 255
201 224 255
201 224 255
201 224 255
201 224 255
201 225 255
201 225 255
201 225 255
201 225 255
202 225 255
202 225 255
202 225 255
202 225 255
202 225 255
202 225 255
202 225 255
202 225 255
202 225 255
202 225 255
202 225 255
202 225 255
202 225 255
202 225 255
202 225 255
202 225 255
203 225 255
203 225 255
203 225 255
203 225 255
203 225 255
203 225 255
203 225 255
203 225 255
203 226 255
203 226 255
203 226 255
203 226 255
203 226 255
203 226 255
203 226 255
204 226 255
204 226 255
204 226 255
204 226 255
204 226 255
204 226 255
204 226 255
204 226 255
204 226 255
204 226 255
204 226 255
204 226 255
204 226 255
204 226 255
204 226 255
204 226 255
205 226 255
205 226 255
205 226 255
205 226 255
205 226 255
205 226 255
205 226 255
205 227 255
205 227 255
205 227 255
205 227 255
205 227 255
205 227 255
205 227 255
205 227 255
205 227 255
206 227 255
206 227 255
206 227 255
206 227 255
206 227 255
206 227 255
206 227 255
206 227 255
206 227 255
206 227 255
206 227 255
206 227 255
206 227 255
206 227 255
206 227 255
206 227 255
206 227 255
206 227 255
207 227 255
207 227 255
207 227 255
207 227 255
207 227 255
207 228 255
207 228 255
207 228 255
207 228 255
207 228 255
207 228 255
207 228 255
207 228 255
207 228 255
207 228 255
207 228 255
207 228 255
207 228 255
207 228 255
207 228 255
208 228 255
208 228 255
208 228 255
208 228 255
208 228 255
208 228 255
208 228 255
208 228 255
208 228 255
208 228 255
208 228 255
208 228 255
208 228 255
208 228 255
208 228 255
208 228 255
208 228 255
208 228 255
208 228 255
208 228 255
208 228 255
208 228 255
208 228 255
208 228 255
208 228 255
208 228 255
208 228 255
208 228 255
208 228 255
208 228 255
208 228 255
208 228 255
208 228 255
208 228 255
208 228 255
207 228 255
207 228 255
207 228 255
207 228 255
207 228 255
207 228 255
207 228 255
207 228 255
207 228 255
207 228 255
207 228 255
207 228 255
207 228 255
207 228 255
207 228 255
207 227 255
207 227 255
207 227 255
207 227 255
207 227 255
206 227 255
206 227 255
206 227 255
206 227 255
206 227 255
206 227 255
206 227 255
206 227 255
206 227 255
206 227 255
206 227 255
206 227 255
206 227 255
206 227 255
206 227 255
206 227 255
206 227 255
205 227 255
205 227 255
205 227 255
205 227 255
205 227 255
205 227 255
205 227 255
205 227 255
205 227 255
205 227 255
205 226 255
205 226 255
205 226 255
205 226 255
205 226 255
205 226 255
205 226 255
204 226 255
204 226 255
204 226 255
204 226 255
204 226 255
204 226 255
204 226 255
204 226 255
204 226 255
204 226 255
204 226 255
204 226 255
204 226 255
204 226 255
204 226 255
204 226 255
203 226 255
203 226 255
203 226 255
203 226 255
203 226 255
203 226 255
203 225 255
203 225 255
203 225 255
203 225 255
203 225 255
203 225 255
203 225 255
203 225 255
203 225 255
202 225 255
202 225 255
202 225 255
202 225 255
202 225 255
202 225 255
202 225 255
202 225 255
202 225 255
202 225 255
202 225 255
202 225 255
202 225 255
202 225 255
202 225 255
201 225 255
201 225 255
201 225 255
201 225 255
201 225 255
201 224 255
201 224 255
201 224 255
201 224 255
201 224 255
201 224 255
201 224 255
201 224 255
201 224 255
201 224 255
201 224 255
200 224 255
200 224 255
200 224 255
200 224 255
200 224 255
200 224 255
200 224 255
200 224 255
200 224 255
200 224 255
200 224 255
200 224 255
200 224 255
200 224 255
200 224 255
200 224 255
200 224 255
200 224 255
199 224 255
199 224 255
199 224 255
199 224 255
199 223 255
199 223 255
199 223 255
199 223 255
199 223 255
199 223 255
199 223 255
199 223 255
199 223 255
199 223 255
199 223 255
199 223 255
199 223 255
199 223 255
199 223 255
199 223 255
199 223 255
199 223 255
199 223 255
199 223 255
199 223 255
199 223 255
199 223 255
198 223 255
198 223 255
198 223 255
198 223 255
198 223 255
198 223 255
198 223 255
198 223 255
198 223 255
198 223 255
198 223 255
198 223 255
198 223 255
198 223 255
198 223 255
198 223 255
198 223 255
198 223 255
198 223 255
198 223 255
198 223 255
198 223 255
198 223 255
198 223 255
198 223 255
198 223 255
198 223 255
198 223 255
198 223 255
198 223 255
198 223 255
198 223 255
198 223 255
198 223 255
198 223 255
198 223 255
198 223 255
198 223 255
198 223 255
198 223 255
199 223 255
199 223 255
199 223 255
199 223 255
199 223 255
199 223 255
199 223 255
199 223 255
199 223 255
199 223 255
199 223 255
199 223 255
199 223 255
199 223 255
199 223 255
199 223 255
199 223 255
199 223 255
199 223 255
199 223 255
199 223 255
199 223 255
199 223 255
199 224 255
199 224 255
199 224 255
199 224 255
200 224 255
200 224 255
200 224 255
200 224 255
200 224 255
200 224 255
200 224 255
200 224 255
200 224 255
200 224 255
200 224 255
200 224 255
200 224 255
200 224 255
200 224 255
200 224 255
200 224 255
200 224 255
201 224 255
201 224 255
201 224 255
201 224 255
201 224 255
201 224 255
201 224 255
201 224 255
201 224 255
201 224 255
201 224 255
201 225 255
201 225 255
201 225 255
201 225 255
201 225 255
202 225 255
202 225 255
202 225 255
202 225 255
202 225 255
202 225 255
202 225 255
202 225 255
202 225 255
202 225 255
202 225 255
202 225 255
202 225 255
202 225 255
202 225 255
203 225 255
203 225 255
203 225 255
203 225 255
203 225 255
203 225 255
203 225 255
203 225 255
203 225 255
203 226 255
203 226 255
203 226 255
203 226 255
203 226 255
203 226 255
204 226 255
204 226 255
204 226 255
204 226 255
204 226 255
204 226 255
204 226 255
204 226 255
204 226 255
204 226 255
204 226 255
204 226 255
204 226 255
204 226 255
204 226 255
204 226 255
205 226 255
205 226 255
205 226 255
205 226 255
205 226 255
205 226 255
205 226 255
205 227 255
205 227 255
205 227 255
205 227 255
205 227 255
205 227 255
205 227 255
205 227 255
205 227 255
205 227 255
206 227 255
206 227 255
206 227 255
206 227 255
206 227 255
206 227 255
206 227 255
206 227 255
206 227 255
206 227 255
206 227 255
206 227 255
206 227 255
206 227 255
206 227 255
206 227 255
206 227 255
207 227 255
207 227 255
207 227 255
207 227 255
207 227 255
207 228 255
207 228 255
207 228 255
207 228 255
207 228 255
207 228 255
207 228 255
207 228 255
207 228 255
207 228 255
207 228 255
207 228 255
207 228 255
207 228 255
207 228 255
208 228 255
208 228 255
208 228 255
208 228 255
208 228 255
208 228 255
208 228 255
208 228 255
208 228 255
208 228 255
208 228 255
208 228 255
208 228 255
208 228 255
208 228 255
208 228 255
208 228 255
208 228 255
208 228 255
209 228 255
208 228 255
208 228 255
208 228 255
208 228 255
208 228 255
208 228 255
208 228 255
208 228 255
208 228 255
208 228 255
208 228 255
208 228 255
208 228 255
208 228 255
208 228 255
208 228 255
208 228 255
208 228 255
208 228 255
208 228 255
208 228 255
207 228 255
207 228 255
207 228 255
207 228 255
207 228 255
207 228 255
207 228 255
207 228 255
207 228 255
207 228 255
207 228 255
207 228 255
207 228 255
207 228 255
207 228 255
207 227 255
207 227 255
207 227 255
207 227 255
207 227 255
206 227 255
206 227 255
206 227 255
206 227 255
206 227 255
206 227 255
206 227 255
206 227 255
206 227 255
206 227 255
206 227 255
206 227 255
206 227 255
206 227 255
206 227 255
206 227 255
206 227 255
205 227 255
205 227 255
205 227 255
205 227 255
205 227 255
205 227 255
205 227 255
205 227 255
205 227 255
205 227 255
205 226 255
205 226 255
205 226 255
205 226 255
205 226 255
205 226 255
205 226 255
204 226 255
204 226 255
204 226 255
204 226 255
204 226 255
204 226 255
204 226 255
204 226 255
204 226 255
204 226 255
204 226 255
204 226 255
204 226 255
204 226 255
204 226 255
203 226 255
203 226 255
203 226 255
203 226 255
203 226 255
203 226 255
203 226 255
203 225 255
203 225 255
203 225 255
203 225 255
203 225 255
203 225 255
203 225 255
203 225 255
203 225 255
202 225 255
202 225 255
202 225 255
202 225 255
202 225 255
202 225 255
202 225 255
202 225 255
202 225 255
202 225 255
202 225 255
202 225 255
202 225 255
202 225 255
202 225 255
201 225 255
201 225 255
201 225 255
201 225 255
201 225 255
201 224 255
201 224 255
201 224 255
201 224 255
201 224 255
201 224 255
201 224 255
201 224 255
201 224 255
201 224 255
201 224 255
201 224 255
200 224 255
200 224 255
200 224 255
200 224 255
200 224 255
200 224 255
200 224 255
200 224 255
200 224 255
200 224 255
200 224 255
200 224 255
200 224 255
200 224 255
200 224 255
200 224 255
200 224 255
200 224 255
199 224 255
199 224 255
199 224 255
199 224 255
199 223 255
199 223 255
199 223 255
199 223 255
199 223 255
199 223 255
199 223 255
199 223 255
199 223 255
199 223 255
199 223 255
199 223 255
199 223 255
199 223 255
199 223 255
199 223 255
199 223 255
199 223 255
199 223 255
199 223 255
199 223 255
199 223 255
199 223 255
199 223 255
199 223 255
199 223 255
199 223 255
199 223 255
199 223 255
199 223 255
198 223 255
198 223 255
198 223 255
198 223 255
198 223 255
198 223 255
198 223 255
198 223 255
198 223 255
198 223 255
198 223 255
198 223 255
198 223 255
198 223 255
198 223 255
198 223 255
198 223 255
198 223 255
199 223 255
199 223 255
199 223 255
199 223 255
199 223 255
199 223 255
199 223 255
199 223 255
199 223 255
199 223 255
199 223 255
199 223 255
199 223 255
199 223 255
199 223 255
199 223 255
199 223 255
199 223 255
199 223 255
199 223 255
199 223 255
199 223 255
199 223 255
199 223 255
199 223 255
199 223 255
199 223 255
199 223 255
199 223 255
199 223 255
199 224 255
199 224 255
199 224 255
199 224 255
200 224 255
200 224 255
200 224 255
200 224 255
200 224 255
200 224 255
200 224 255
200 224 255
200 224 255
200 224 255
200 224 255
200 224 255
200 224 255
200 224 255
200 224 255
200 224 255
200 224 255
200 224 255
200 224 255
201 224 255
201 224 255
201 224 255
201 224 255
201 224 255
201 224 255
201 224 255
201 224 255
201 224 255
201 224 255
201 224 255
201 225 255
201 225 255
201 225 255
201 225 255
201 225 255
202 225 255
202 225 255
202 225 255
202 225 255
202 225 255
202 225 255
202 225 255
202 225 255
202 225 255
202 225 255
202 225 255
202 225 255
202 225 255
202 225 255
202 225 255
203 225 255
203 225 255
203 225 255
203 225 255
203 225 255
203 225 255
203 225 255
203 225 255
203 225 255
203 226 255
203 226 255
203 226 255
203 226 255
203 226 255
203 226 255
203 226 255
204 226 255
204 226 255
204 226 255
204 226 255
204 226 255
204 226 255
204 226 255
204 226 255
204 226 255
204 226 255
204 226 255
204 226 255
204 226 255
204 226 255
204 226 255
205 226 255
205 226 255
205 226 255
205 226 255
205 226 255
205 226 255
205 226 255
205 227 255
205 227 255
205 227 255
205 227 255
205 227 255
205 227 255
205 227 255
205 227 255
205 227 255
205 227 255
206 227 255
206 227 255
206 227 255
206 227 255
206 227 255
206 227 255
206 227 255
206 227 255
206 227 255
206 227 255
206 227 255
206 227 255
206 227 255
206 227 255
206 227 255
206 227 255
206 227 255
206 227 255
207 227 255
207 227 255
207 227 255
207 227 255
207 228 255
207 228 255
207 228 255
207 228 255
207 228 255
207 228 255
207 228 255
207 228 255
207 228 255
207 228 255
207 228 255
207 228 255
207 228 255
207 228 255
207 228 255
208 228 255
208 228 255
208 228 255
208 228 255
208 228 255
208 228 255
208 228 255
208 228 255
208 228 255
208 228 255
208 228 255
208 228 255
208 228 255
208 228 255
208 228 255
208 228 255
208 228 255
208 228 255
208 228 255
208 228 255
208 228 255
209 228 255
209 229 255
209 229 255
209 229 255
209 228 255
208 228 255
208 228 255
208 228 255
208 228 255
208 228 255
208 228 255
208 228 255
208 228 255
208 228 255
208 228 255
208 228 255
208 228 255
208 228 255
208 228 255
208 228 255
208 228 255
208 228 255
208 228 255
208 228 255
208 228 255
208 228 255
207 228 255
207 228 255
207 228 255
207 228 255
207 228 255
207 228 255
207 228 255
207 228 255
207 228 255
207 228 255
207 228 255
207 228 255
207 228 255
207 228 255
207 228 255
207 227 255
207 227 255
207 227 255
207 227 255
207 227 255
206 227 255
206 227 255
206 227 255
206 227 255
206 227 255
206 227 255
206 227 255
206 227 255
206 227 255
206 227 255
206 227 255
206 227 255
206 227 255
206 227 255
206 227 255
206 227 255
206 227 255
205 227 255
205 227 255
205 227 255
205 227 255
205 227 255
205 227 255
205 227 255
205 227 255
205 227 255
205 227 255
205 226 255
205 226 255
205 226 255
205 226 255
205 226 255
205 226 255
204 226 255
204 226 255
204 226 255
204 226 255
204 226 255
204 226 255
204 226 255
204 226 255
204 226 255
204 226 255
204 226 255
204 226 255
204 226 255
204 226 255
204 226 255
204 226 255
203 226 255
203 226 255
203 226 255
203 226 255
203 226 255
203 226 255
203 226 255
203 225 255
203 225 255
203 225 255
203 225 255
203 225 255
203 225 255
203 225 255
203 225 255
203 225 255
202 225 255
202 225 255
202 225 255
202 225 255
202 225 255
202 225 255
202 225 255
202 225 255
202 225 255
202 225 255
202 225 255
202 225 255
202 225 255
202 225 255
202 225 255
201 225 255
201 225 255
201 225 255
201 225 255
201 225 255
201 224 255
201 224 255
201 224 255
201 224 255
201 224 255
201 224 255
201 224 255
201 224 255
201 224 255
201 224 255
201 224 255
201 224 255
200 224 255
200 224 255
200 224 255
200 224 255
200 224 255
200 224 255
200 224 255
200 224 255
200 224 255
200 224 255
200 224 255
200 224 255
200 224 255
200 224 255
200 224 255
200 224 255
200 224 255
200 224 255
200 224 255
200 224 255
199 224 255
199 224 255
199 224 255
199 224 255
199 223 255
199 223 255
199 223 255
199 223 255
199 223 255
199 223 255
199 223 255
199 223 255
199 223 255
199 223 255
199 223 255
199 223 255
199 223 255
199 223 255
199 223 255
199 223 255
199 223 255
199 223 255
199 223 255
199 223 255
199 223 255
199 223 255
199 223 255
199 223 255
199 223 255
199 223 255
199 223 255
199 223 255
199 223 255
199 223 255
199 223 255
199 223 255
199 223 255
199 223 255
199 223 255
199 223 255
199 223 255
199 223 255
199 223 255
199 223 255
199 223 255
199 223 255
199 223 255
199 223 255
199 223 255
199 223 255
199 223 255
199 223 255
199 223 255
199 223 255
199 223 255
199 223 255
199 223 255
199 223 255
199 223 255
199 223 255
199 223 255
199 223 255
199 223 255
199 223 255
199 223 255
199 223 255
199 223 255
199 223 255
199 223 255
199 223 255
199 223 255
199 223 255
199 224 255
199 224 255
199 224 255
199 224 255
200 224 255
200 224 255
200 224 255
200 224 255
200 224 255
200 224 255
200 224 255
200 224 255
200 224 255
200 224 255
200 224 255
200 224 255
200 224 255
200 224 255
200 224 255
200 224 255
200 224 255
200 224 255
200 224 255
200 224 255
201 224 255
201 224 255
201 224 255
201 224 255
201 224 255
201 224 255
201 224 255
201 224 255
201 224 255
201 224 255
201 224 255
201 224 255
201 225 255
201 225 255
201 225 255
201 225 255
201 225 255
202 225 255
202 225 255
202 225 255
202 225 255
202 225 255
202 225 255
202 225 255
202 225 255
202 225 255
202 225 255
202 225 255
202 225 255
202 225 255
202 225 255
202 225 255
202 225 255
203 225 255
203 225 255
203 225 255
203 225 255
203 225 255
203 225 255
203 225 255
203 225 255
203 226 255
203 226 255
203 226 255
203 226 255
203 226 255
203 226 255
203 226 255
204 226 255
204 226 255
204 226 255
204 226 255
204 226 255
204 226 255
204 226 255
204 226 255
204 226 255
204 226 255
204 226 255
204 226 255
204 226 255
204 226 255
204 226 255
205 226 255
205 226 255
205 226 255
205 226 255
205 226 255
205 226 255
205 226 255
205 227 255
205 227 255
205 227 255
205 227 255
205 227 255
205 227 255
205 227 255
205 227 255
205 227 255
205 227 255
206 227 255
206 227 255
206 227 255
206 227 255
206 227 255
206 227 255
206 227 255
206 227 255
206 227 255
206 227 255
206 227 255
206 227 255
206 227 255
206 227 255
206 227 255
206 227 255
206 227 255
206 227 255
207 227 255
207 227 255
207 227 255
207 227 255
207 228 255
207 228 255
207 228 255
207 228 255
207 228 255
207 228 255
207 228 255
207 228 255
207 228 255
207 228 255
207 228 255
207 228 255
207 228 255
207 228 255
208 228 255
208 228 255
208 228 255
208 228 255
208 228 255
208 228 255
208 228 255
208 228 255
208 228 255
208 228 255
208 228 255
208 228 255
208 228 255
208 228 255
208 228 255
208 228 255
208 228 255
208 228 255
208 228 255
208 228 255
208 228 255
208 228 255
209 228 255
209 229 255
209 229 255
209 229 255
209 229 255
209 229 255
209 229 255
209 229 255
209 229 255
209 229 255
209 228 255
209 228 255
208 228 255
208 228 255
208 228 255
208 228 255
208 228 255
208 228 255
208 228 255
208 228 255
208 228 255
208 228 255
208 228 255
208 228 255
208 228 255
208 228 255
208 228 255
208 228 255
208 228 255
208 228 255
208 228 255
208 228 255
207 228 255
207 228 255
207 228 255
207 228 255
207 228 255
207 228 255
207 228 255
207 228 255
207 228 255
207 228 255
207 228 255
207 228 255
207 228 255
207 228 255
207 228 255
207 227 255
207 227 255
207 227 255
207 227 255
207 227 255
206 227 255
206 227 255
206 227 255
206 227 255
206 227 255
206 227 255
206 227 255
206 227 255
206 227 255
206 227 255
206 227 255
206 227 255
206 227 255
206 227 255
206 227 255
206 227 255
206 227 255
205 227 255
205 227 255
205 227 255
205 227 255
205 227 255
205 227 255
205 227 255
205 227 255
205 227 255
205 227 255
205 226 255
205 226 255
205 226 255
205 226 255
205 226 255
205 226 255
204 226 255
204 226 255
204 226 255
204 226 255
204 226 255
204 226 255
204 226 255
204 226 255
204 226 255
204 226 255
204 226 255
204 226 255
204 226 255
204 226 255
204 226 255
204 226 255
203 226 255
203 226 255
203 226 255
203 226 255
203 226 255
203 226 255
203 226 255
203 225 255
203 225 255
203 225 255
203 225 255
203 225 255
203 225 255
203 225 255
203 225 255
203 225 255
202 225 255
202 225 255
202 225 255
202 225 255
202 225 255
202 225 255
202 225 255
202 225 255
202 225 255
202 225 255
202 225 255
202 225 255
202 225 255
202 225 255
202 225 255
201 225 255
201 225 255
201 225 255
201 225 255
201 225 255
201 224 255
201 224 255
201 224 255
201 224 255
201 224 255
201 224 255
201 224 255
201 224 255
201 224 255
201 224 255
201 224 255
201 224 255
200 224 255
200 224 255
200 224 255
200 224 255
200 224 255
200 224 255
200 224 255
200 224 255
200 224 255
200 224 255
200 224 255
200 224 255
200 224 255
200 224 255
200 224 255
200 224 255
200 224 255
200 224 255
200 224 255
200 224 255
200 224 255
200 224 255
199 224 255
199 224 255
199 224 255
199 224 255
199 223 255
199 223 255
199 223 255
199 223 255
199 223 255
199 223 255
199 223 255
199 223 255
199 223 255
199 223 255
199 223 255
199 223 255
199 223 255
199 223 255
199 223 255
199 223 255
199 223 255
199 223 255
199 223 255
199 223 255
199 223 255
199 223 255
199 223 255
199 223 255
199 223 255
199 223 255
199 223 255
199 223 255
199 223 255
199 223 255
199 223 255
199 223 255
199 223 255
199 223 255
199 223 255
199 223 255
199 223 255
199 223 255
199 223 255
199 223 255
199 223 255
199 223 255
199 223 255
199 223 255
199 223 255
199 223 255
199 223 255
199 223 255
199 223 255
199 223 255
199 223 255
199 223 255
199 223 255
199 223 255
199 223 255
199 223 255
199 223 255
199 223 255
199 224 255
199 224 255
199 224 255
199 224 255
200 224 255
200 224 255
200 224 255
200 224 255
200 224 255
200 224 255
200 224 255
200 224 255
200 224 255
200 224 255
200 224 255
200 224 255
200 224 255
200 224 255
200 224 255
200 224 255
200 224 255
200 224 255
200 224 255
200 224 255
200 224 255
200 224 255
201 224 255
201 224 255
201 224 255
201 224 255
201 224 255
201 224 255
201 224 255
201 224 255
201 224 255
201 224 255
201 224 255
201 224 255
201 225 255
201 225 255
201 225 255
201 225 255
201 225 255
202 225 255
202 225 255
202 225 255
202 225 255
202 225 255
202 225 255
202 225 255
202 225 255
202 225 255
202 225 255
202 225 255
202 225 255
202 225 255
202 225 255
202 225 255
203 225 255
203 225 255
203 225 255
203 225 255
203 225 255
203 225 255
203 225 255
203 225 255
203 225 255
203 226 255
203 226 255
203 226 255
203 226 255
203 226 255
203 226 255
203 226 255
204 226 255
204 226 255
204 226 255
204 226 255
204 226 255
204 226 255
204 226 255
204 226 255
204 226 255
204 226 255
204 226 255
204 226 255
204 226 255
204 226 255
204 226 255
204 226 255
205 226 255
205 226 255
205 226 255
205 226 255
205 226 255
205 226 255
205 227 255
205 227 255
205 227 255
205 227 255
205 227 255
205 227 255
205 227 255
205 227 255
205 227 255
205 227 255
206 227 255
206 227 255
206 227 255
206 227 255
206 227 255
206 227 255
206 227 255
206 227 255
206 227 255
206 227 255
206 227 255
206 227 255
206 227 255
206 227 255
206 227 255
206 227 255
206 227 255
206 227 255
207 227 255
207 227 255
207 227 255
207 227 255
207 228 255
207 228 255
207 228 255
207 228 255
207 228 255
207 228 255
207 228 255
207 228 255
207 228 255
207 228 255
207 228 255
207 228 255
207 228 255
207 228 255
208 228 255
208 228 255
208 228 255
208 228 255
208 228 255
208 228 255
208 228 255
208 228 255
208 228 255
208 228 255
208 228 255
208 228 255
208 228 255
208 228 255
208 228 255
208 228 255
208 228 255
208 228 255
208 228 255
208 228 255
208 228 255
208 228 255
209 228 255
209 229 255
209 229 255
209 229 255
209 229 255
209 229 255
209 229 255
209 229 255
209 229 255
209 229 255
209 229 255
209 229 255
209 229 255
209 229 255
209 229 255
209 229 255
209 228 255
209 228 255
208 228 255
208 228 255
208 228 255
208 228 255
208 228 255
208 228 255
208 228 255
208 228 255
208 228 255
208 228 255
208 228 255
208 228 255
208 228 255
208 228 255
208 228 255
208 228 255
208 228 255
208 228 255
208 228 255
208 228 255
208 228 255
207 228 255
207 228 255
207 228 255
207 228 255
207 228 255
207 228 255
207 228 255
207 228 255
207 228 255
207 228 255
207 228 255
207 228 255
207 228 255
207 228 255
207 227 255
207 227 255
207 227 255
207 227 255
206 227 255
206 227 255
206 227 255
206 227 255
206 227 255
206 227 255
206 227 255
206 227 255
206 227 255
206 227 255
206 227 255
206 227 255
206 227 255
206 227 255
206 227 255
206 227 255
206 227 255
206 227 255
205 227 255
205 227 255
205 227 255
205 227 255
205 227 255
205 227 255
205 227 255
205 227 255
205 227 255
205 227 255
205 226 255
205 226 255
205 226 255
205 226 255
205 226 255
205 226 255
204 226 255
204 226 255
204 226 255
204 226 255
204 226 255
204 226 255
204 226 255
204 226 255
204 226 255
204 226 255
204 226 255
204 226 255
204 226 255
204 226 255
204 226 255
204 226 255
203 226 255
203 226 255
203 226 255
203 226 255
203 226 255
203 226 255
203 226 255
203 225 255
203 225 255
203 225 255
203 225 255
203 225 255
203 225 255
203 225 255
203 225 255
203 225 255
202 225 255
202 225 255
202 225 255
202 225 255
202 225 255
202 225 255
202 225 255
202 225 255
202 225 255
202 225 255
202 225 255
202 225 255
202 225 255
202 225 255
202 225 255
202 225 255
201 225 255
201 225 255
201 225 255
201 225 255
201 225 255
201 224 255
201 224 255
201 224 255
201 224 255
201 224 255
201 224 255
201 224 255
201 224 255
201 224 255
201 224 255
201 224 255
201 224 255
200 224 255
200 224 255
200 224 255
200 224 255
200 224 255
200 224 255
200 224 255
200 224 255
200 224 255
200 224 255
200 224 255
200 224 255
200 224 255
200 224 255
200 224 255
200 224 255
200 224 255
200 224 255
200 224 255
200 224 255
200 224 255
200 224 255
200 224 255
200 224 255
199 224 255
199 224 255
199 224 255
199 224 255
199 224 255
199 223 255
199 223 255
199 223 255
199 223 255
199 223 255
199 223 255
199 223 255
199 223 255
199 223 255
199 223 255
199 223 255
199 223 255
199 223 255
199 223 255
199 223 255
199 223 255
199 223 255
199 223 255
199 223 255
199 223 255
199 223 255
199 223 255
199 223 255
199 223 255
199 223 255
199 223 255
199 223 255
199 223 255
199 223 255
199 223 255
199 223 255
199 223 255
199 223 255
199 223 255
199 223 255
199 223 255
199 223 255
199 223 255
199 223 255
199 223 255
199 223 255
199 223 255
199 223 255
199 223 255
199 224 255
199 224 255
199 224 255
199 224 255
199 224 255
199 224 255
200 224 255
200 224 255
200 224 255
200 224 255
200 224 255
200 224 255
200 224 255
200 224 255
200 224 255
200 224 255
200 224 255
200 224 255
200 224 255
200 224 255
200 224 255
200 224 255
200 224 255
200 224 255
200 224 255
200 224 255
200 224 255
200 224 255
200 224 255
201 224 255
201 224 255
201 224 255
201 224 255
201 224 255
201 224 255
201 224 255
201 224 255
201 224 255
201 224 255
201 224 255
201 224 255
201 225 255
201 225 255
201 225 255
201 225 255
201 225 255
201 225 255
202 225 255
202 225 255
202 225 255
202 225 255
202 225 255
202 225 255
202 225 255
202 225 255
202 225 255
202 225 255
202 225 255
202 225 255
202 225 255
202 225 255
202 225 255
203 225 255
203 225 255
203 225 255
203 225 255
203 225 255
203 225 255
203 225 255
203 225 255
203 225 255
203 226 255
203 226 255
203 226 255
203 226 255
203 226 255
203 226 255
203 226 255
204 226 255
204 226 255
204 226 255
204 226 255
204 226 255
204 226 255
204 226 255
204 226 255
204 226 255
204 226 255
204 226 255
204 226 255
204 226 255
204 226 255
204 226 255
204 226 255
205 226 255
205 226 255
205 226 255
205 226 255
205 226 255
205 226 255
205 227 255
205 227 255
205 227 255
205 227 255
205 227 255
205 227 255
205 227 255
205 227 255
205 227 255
205 227 255
206 227 255
206 227 255
206 227 255
206 227 255
206 227 255
206 227 255
206 227 255
206 227 255
206 227 255
206 227 255
206 227 255
206 227 255
206 227 255
206 227 255
206 227 255
206 227 255
206 227 255
206 227 255
207 227 255
207 227 255
207 227 255
207 227 255
207 228 255
207 228 255
207 228 255
207 228 255
207 228 255
207 228 255
207 228 255
207 228 255
207 228 255
207 228 255
207 228 255
207 228 255
207 228 255
207 228 255
207 228 255
208 228 255
208 228 255
208 228 255
208 228 255
208 228 255
208 228 255
208 228 255
208 228 255
208 228 255
208 228 255
208 228 255
208 228 255
208 228 255
208 228 255
208 228 255
208 228 255
208 228 255
208 228 255
208 228 255
208 228 255
209 228 255
209 228 255
209 229 255
209 229 255
209 229 255
209 229 255
209 229 255
209 229 255
209 229 255
209 229 255
209 229 255
209 229 255
209 229 255
209 229 255
209 229 255
209 229 255
209 229 255
209 229 255
209 229 255
209 229 255
209 229 255
209 229 255
209 229 255
209 229 255
209 228 255
208 228 255
208 228 255
208 228 255
208 228 255
208 228 255
208 228 255
208 228 255
208 228 255
208 228 255
208 228 255
208 228 255
208 228 255
208 228 255
208 228 255
208 228 255
208 228 255
208 228 255
208 228 255
208 228 255
208 228 255
208 228 255
207 228 255
207 228 255
207 228 255
207 228 255
207 228 255
207 228 255
207 228 255
207 228 255
207 228 255
207 228 255
207 228 255
207 228 255
207 228 255
207 228 255
207 227 255
207 227 255
207 227 255
207 227 255
206 227 255
206 227 255
206 227 255
206 227 255
206 227 255
206 227 255
206 227 255
206 227 255
206 227 255
206 227 255
206 227 255
206 227 255
206 227 255
206 227 255
206 227 255
206 227 255
206 227 255
206 227 255
205 227 255
205 227 255
205 227 255
205 227 255
205 227 255
205 227 255
205 227 255
205 227 255
205 227 255
205 227 255
205 226 255
205 226 255
205 226 255
205 226 255
205 226 255
205 226 255
204 226 255
204 226 255
204 226 255
204 226 255
204 226 255
204 226 255
204 226 255
204 226 255
204 226 255
204 226 255
204 226 255
204 226 255
204 226 255
204 226 255
204 226 255
204 226 255
203 226 255
203 226 255
203 226 255
203 226 255
203 226 255
203 226 255
203 226 255
203 225 255
203 225 255
203 225 255
203 225 255
203 225 255
203 225 255
203 225 255
203 225 255
203 225 255
202 225 255
202 225 255
202 225 255
202 225 255
202 225 255
202 225 255
202 225 255
202 225 255
202 225 255
202 225 255
202 225 255
202 225 255
202 225 255
202 225 255
202 225 255
202 225 255
201 225 255
201 225 255
201 225 255
201 225 255
201 225 255
201 224 255
201 224 255
201 224 255
201 224 255
201 224 255
201 224 255
201 224 255
201 224 255
201 224 255
201 224 255
201 224 255
201 224 255
201 224 255
200 224 255
200 224 255
200 224 255
200 224 255
200 224 255
200 224 255
200 224 255
200 224 255
200 224 255
200 224 255
200 224 255
200 224 255
200 224 255
200 224 255
200 224 255
200 224 255
200 224 255
200 224 255
200 224 255
200 224 255
200 224 255
200 224 255
200 224 255
200 224 255
200 224 255
200 224 255
200 224 255
199 224 255
199 224 255
199 224 255
199 224 255
199 224 255
199 224 255
199 224 255
199 223 255
199 223 255
199 223 255
199 223 255
199 223 255
199 223 255
199 223 255
199 223 255
199 223 255
199 223 255
199 223 255
199 223 255
199 223 255
199 223 255
199 223 255
199 223 255
199 223 255
199 223 255
199 223 255
199 223 255
199 223 255
199 223 255
199 223 255
199 223 255
199 223 255
199 223 255
199 224 255
199 224 255
199 224 255
199 224 255
199 224 255
199 224 255
199 224 255
199 224 255
200 224 255
200 224 255
200 224 255
200 224 255
200 224 255
200 224 255
200 224 255
200 224 255
200 224 255
200 224 255
200 224 255
200 224 255
200 224 255
200 224 255
200 224 255
200 224 255
200 224 255
200 224 255
200 224 255
200 224 255
200 224 255
200 224 255
200 224 255
200 224 255
200 224 255
200 224 255
201 224 255
201 224 255
201 224 255
201 224 255
201 224 255
201 224 255
201 224 255
201 224 255
201 224 255
201 224 255
201 224 255
201 224 255
201 224 255
201 225 255
201 225 255
201 225 255
201 225 255
201 225 255
202 225 255
202 225 255
202 225 255
202 225 255
202 225 255
202 225 255
202 225 255
202 225 255
202 225 255
202 225 255
202 225 255
202 225 255
202 225 255
202 225 255
202 225 255
202 225 255
203 225 255
203 225 255
203 225 255
203 225 255
203 225 255
203 225 255
203 225 255
203 225 255
203 225 255
203 226 255
203 226 255
203 226 255
203 226 255
203 226 255
203 226 255
203 226 255
204 226 255
204 226 255
204 226 255
204 226 255
204 226 255
204 226 255
204 226 255
204 226 255
204 226 255
204 226 255
204 226 255
204 226 255
204 226 255
204 226 255
204 226 255
204 226 255
205 226 255
205 226 255
205 226 255
205 226 255
205 226 255
205 226 255
205 226 255
205 227 255
205 227 255
205 227 255
205 227 255
205 227 255
205 227 255
205 227 255
205 227 255
205 227 255
206 227 255
206 227 255
206 227 255
206 227 255
206 227 255
206 227 255
206 227 255
206 227 255
206 227 255
206 227 255
206 227 255
206 227 255
206 227 255
206 227 255
206 227 255
206 227 255
206 227 255
206 227 255
207 227 255
207 227 255
207 227 255
207 227 255
207 228 255
207 228 255
207 228 255
207 228 255
207 228 255
207 228 255
207 228 255
207 228 255
207 228 255
207 228 255
207 228 255
207 228 255
207 228 255
207 228 255
208 228 255
208 228 255
208 228 255
208 228 255
208 228 255
208 228 255
208 228 255
208 228 255
208 228 255
208 228 255
208 228 255
208 228 255
208 228 255
208 228 255
208 228 255
208 228 255
208 228 255
208 228 255
208 228 255
208 228 255
208 228 255
209 228 255
209 229 255
209 229 255
209 229 255
209 229 255
209 229 255
209 229 255
209 229 255
209 229 255
209 229 255
209 229 255
209 229 255
209 229 255
209 229 255
209 229 255
209 229 255
209 229 255
209 229 255
209 229 255
209 229 255
209 229 255
209 229 255
209 229 255
209 229 255
209 229 255
209 229 255
209 229 255
209 229 255
209 229 255
209 229 255
209 228 255
208 228 255
208 228 255
208 228 255
208 228 255
208 228 255
208 228 255
208 228 255
208 228 255
208 228 255
208 228 255
208 228 255
208 228 255
208 228 255
208 228 255
208 228 255
208 228 255
208 228 255
208 228 255
208 228 255
208 228 255
208 228 255
207 228 255
207 228 255
207 228 255
207 228 255
207 228 255
207 228 255
207 228 255
207 228 255
207 228 255
207 228 255
207 228 255
207 228 255
207 228 255
207 228 255
207 227 255
207 227 255
207 227 255
207 227 255
207 227 255
206 227 255
206 227 255
206 227 255
206 227 255
206 227 255
206 227 255
206 227 255
206 227 255
206 227 255
206 227 255
206 227 255
206 227 255
206 227 255
206 227 255
206 227 255
206 227 255
206 227 255
205 227 255
205 227 255
205 227 255
205 227 255
205 227 255
205 227 255
205 227 255
205 227 255
205 227 255
205 227 255
205 226 255
205 226 255
205 226 255
205 226 255
205 226 255
205 226 255
204 226 255
204 226 255
204 226 255
204 226 255
204 226 255
204 226 255
204 226 255
204 226 255
204 226 255
204 226 255
204 226 255
204 226 255
204 226 255
204 226 255
204 226 255
204 226 255
203 226 255
203 226 255
203 226 255
203 226 255
203 226 255
203 226 255
203 226 255
203 225 255
203 225 255
203 225 255
203 225 255
203 225 255
203 225 255
203 225 255
203 225 255
203 225 255
202 225 255
202 225 255
202 225 255
202 225 255
202 225 255
202 225 255
202 225 255
202 225 255
202 225 255
202 225 255
202 225 255
202 225 255
202 225 255
202 225 255
202 225 255
202 225 255
201 225 255
201 225 255
201 225 255
201 225 255
201 225 255
201 225 255
201 224 255
201 224 255
201 224 255
201 224 255
201 224 255
201 224 255
201 224 255
201 224 255
201 224 255
201 224 255
201 224 255
201 224 255
201 224 255
200 224 255
200 224 255
200 224 255
200 224 255
200 224 255
200 224 255
200 224 255
200 224 255
200 224 255
200 224 255
200 224 255
200 224 255
200 224 255
200 224 255
200 224 255
200 224 255
200 224 255
200 224 255
200 224 255
200 224 255
200 224 255
200 224 255
200 224 255
200 224 255
200 224 255
200 224 255
200 224 255
200 224 255
200 224 255
200 224 255
200 224 255
200 224 255
200 224 255
200 224 255
200 224 255
199 224 255
199 224 255
199 224 255
199 224 255
199 224 255
199 224 255
199 224 255
199 224 255
199 224 255
199 224 255
199 224 255
199 224 255
199 224 255
199 224 255
199 224 255
200 224 255
200 224 255
200 224 255
200 224 255
200 224 255
200 224 255
200 224 255
200 224 255
200 224 255
200 224 255
200 224 255
200 224 255
200 224 255
200 224 255
200 224 255
200 224 255
200 224 255
200 224 255
200 224 255
200 224 255
200 224 255
200 224 255
200 224 255
200 224 255
200 224 255
200 224 255
200 224 255
200 224 255
200 224 255
200 224 255
200 224 255
200 224 255
200 224 255
200 224 255
200 224 255
200 224 255
201 224 255
201 224 255
201 224 255
201 224 255
201 224 255
201 224 255
201 224 255
201 224 255
201 224 255
201 224 255
201 224 255
201 224 255
201 224 255
201 224 255
201 225 255
201 225 255
201 225 255
201 225 255
201 225 255
202 225 255
202 225 255
202 225 255
202 225 255
202 225 255
202 225 255
202 225 255
202 225 255
202 225 255
202 225 255
202 225 255
202 225 255
202 225 255
202 225 255
202 225 255
202 225 255
202 225 255
203 225 255
203 225 255
203 225 255
203 225 255
203 225 255
203 225 255
203 225 255
203 225 255
203 226 255
203 226 255
203 226 255
203 226 255
203 226 255
203 226 255
203 226 255
204 226 255
204 226 255
204 226 255
204 226 255
204 226 255
204 226 255
204 226 255
204 226 255
204 226 255
204 226 255
204 226 255
204 226 255
204 226 255
204 226 255
204 226 255
204 226 255
205 226 255
205 226 255
205 226 255
205 226 255
205 226 255
205 226 255
205 226 255
205 227 255
205 227 255
205 227 255
205 227 255
205 227 255
205 227 255
205 227 255
205 227 255
205 227 255
206 227 255
206 227 255
206 227 255
206 227 255
206 227 255
206 227 255
206 227 255
206 227 255
206 227 255
206 227 255
206 227 255
206 227 255
206 227 255
206 227 255
206 227 255
206 227 255
206 227 255
206 227 255
207 227 255
207 227 255
207 227 255
207 227 255
207 228 255
207 228 255
207 228 255
207 228 255
207 228 255
207 228 255
207 228 255
207 228 255
207 228 255
207 228 255
207 228 255
207 228 255
207 228 255
207 228 255
208 228 255
208 228 255
208 228 255
208 228 255
208 228 255
208 228 255
208 228 255
208 228 255
208 228 255
208 228 255
208 228 255
208 228 255
208 228 255
208 228 255
208 228 255
208 228 255
208 228 255
208 228 255
208 228 255
208 228 255
208 228 255
209 228 255
209 229 255
209 229 255
209 229 255
209 229 255
209 229 255
209 229 255
209 229 255
209 229 255
209 229 255
209 229 255
209 229 255
209 229 255
209 229 255
209 229 255
209 229 255
209 229 255
209 229 255
209 229 255
209 229 255
209 229 255
209 229 255
209 229 255
209 229 255
209 229 255
209 229 255
209 229 255
209 229 255
209 229 255
209 229 255
209 229 255
209 229 255
209 229 255
209 229 255
209 229 255
209 229 255
209 228 255
209 228 255
208 228 255
208 228 255
208 228 255
208 228 255
208 228 255
208 228 255
208 228 255
208 228 255
208 228 255
208 228 255
208 228 255
208 228 255
208 228 255
208 228 255
208 228 255
208 228 255
208 228 255
208 228 255
208 228 255
208 228 255
207 228 255
207 228 255
207 228 255
207 228 255
207 228 255
207 228 255
207 228 255
207 228 255
207 228 255
207 228 255
207 228 255
207 228 255
207 228 255
207 228 255
207 227 255
207 227 255
207 227 255
207 227 255
206 227 255
206 227 255
206 227 255
206 227 255
206 227 255
206 227 255
206 227 255
206 227 255
206 227 255
206 227 255
206 227 255
206 227 255
206 227 255
206 227 255
206 227 255
206 227 255
206 227 255
206 227 255
205 227 255
205 227 255
205 227 255
205 227 255
205 227 255
205 227 255
205 227 255
205 227 255
205 227 255
205 226 255
205 226 255
205 226 255
205 226 255
205 226 255
205 226 255
205 226 255
204 226 255
204 226 255
204 226 255
204 226 255
204 226 255
204 226 255
204 226 255
204 226 255
204 226 255
204 226 255
204 226 255
204 226 255
204 226 255
204 226 255
204 226 255
204 226 255
203 226 255
203 226 255
203 226 255
203 226 255
203 226 255
203 226 255
203 226 255
203 225 255
203 225 255
203 225 255
203 225 255
203 225 255
203 225 255
203 225 255
203 225 255
203 225 255
202 225 255
202 225 255
202 225 255
202 225 255
202 225 255
202 225 255
202 225 255
202 225 255
202 225 255
202 225 255
202 225 255
202 225 255
202 225 255
202 225 255
202 225 255
202 225 255
202 225 255
201 225 255
201 225 255
201 225 255
201 225 255
201 225 255
201 224 255
201 224 255
201 224 255
201 224 255
201 224 255
201 224 255
201 224 255
201 224 255
201 224 255
201 224 255
201 224 255
201 224 255
201 224 255
201 224 255
201 224 255
200 224 255
200 224 255
200 224 255
200 224 255
200 224 255
200 224 255
200 224 255
200 224 255
200 224 255
200 224 255
200 224 255
200 224 255
200 224 255
200 224 255
200 224 255
200 224 255
200 224 255
200 224 255
200 224 255
200 224 255
200 224 255
200 224 255
200 224 255
200 224 255
200 224 255
200 224 255
200 224 255
200 224 255
200 224 255
200 224 255
200 224 255
200 224 255
200 224 255
200 224 255
200 224 255
200 224 255
200 224 255
200 224 255
200 224 255
200 224 255
200 224 255
200 224 255
200 224 255
200 224 255
200 224 255
200 224 255
200 224 255
200 224 255
200 224 255
200 224 255
200 224 255
200 224 255
200 224 255
200 224 255
200 224 255
200 224 255
200 224 255
200 224 255
200 224 255
200 224 255
200 224 255
200 224 255
200 224 255
200 224 255
200 224 255
200 224 255
200 224 255
200 224 255
200 224 255
200 224 255
200 224 255
200 224 255
200 224 255
200 224 255
200 224 255
200 224 255
201 224 255
201 224 255
201 224 255
201 224 255
201 224 255
201 224 255
201 224 255
201 224 255
201 224 255
201 224 255
201 224 255
201 224 255
201 224 255
201 224 255
201 224 255
201 225 255
201 225 255
201 225 255
201 225 255
201 225 255
202 225 255
202 225 255
202 225 255
202 225 255
202 225 255
202 225 255
202 225 255
202 225 255
202 225 255
202 225 255
202 225 255
202 225 255
202 225 255
202 225 255
202 225 255
202 225 255
202 225 255
203 225 255
203 225 255
203 225 255
203 225 255
203 225 255
203 225 255
203 225 255
203 225 255
203 225 255
203 226 255
203 226 255
203 226 255
203 226 255
203 226 255
203 226 255
203 226 255
204 226 255
204 226 255
204 226 255
204 226 255
204 226 255
204 226 255
204 226 255
204 226 255
204 226 255
204 226 255
204 226 255
204 226 255
204 226 255
204 226 255
204 226 255
204 226 255
205 226 255
205 226 255
205 226 255
205 226 255
205 226 255
205 226 255
205 227 255
205 227 255
205 227 255
205 227 255
205 227 255
205 227 255
205 227 255
205 227 255
205 227 255
205 227 255
206 227 255
206 227 255
206 227 255
206 227 255
206 227 255
206 227 255
206 227 255
206 227 255
206 227 255
206 227 255
206 227 255
206 227 255
206 227 255
206 227 255
206 227 255
206 227 255
206 227 255
207 227 255
207 227 255
207 227 255
207 227 255
207 227 255
207 228 255
207 228 255
207 228 255
207 228 255
207 228 255
207 228 255
207 228 255
207 228 255
207 228 255
207 228 255
207 228 255
207 228 255
207 228 255
207 228 255
208 228 255
208 228 255
208 228 255
208 228 255
208 228 255
208 228 255
208 228 255
208 228 255
208 228 255
208 228 255
208 228 255
208 228 255
208 228 255
208 228 255
208 228 255
208 228 255
208 228 255
208 228 255
208 228 255
208 228 255
209 228 255
209 228 255
209 229 255
209 229 255
209 229 255
209 229 255
209 229 255
209 229 255
209 229 255
209 229 255
209 229 255
209 229 255
209 229 255
209 229 255
209 229 255
209 229 255
209 229 255
209 229 255
209 229 255
209 229 255
209 229 255
210 229 255
209 229 255
209 229 255
209 229 255
209 229 255
209 229 255
209 229 255
209 229 255
209 229 255
209 229 255
209 229 255
209 229 255
209 229 255
209 229 255
209 229 255
209 229 255
209 229 255
209 229 255
209 229 255
209 229 255
209 229 255
209 229 255
209 228 255
209 228 255
208 228 255
208 228 255
208 228 255
208 228 255
208 228 255
208 228 255
208 228 255
208 228 255
208 228 255
208 228 255
208 228 255
208 228 255
208 228 255
208 228 255
208 228 255
208 228 255
208 228 255
208 228 255
208 228 255
208 228 255
207 228 255
207 228 255
207 228 255
207 228 255
207 228 255
207 228 255
207 228 255
207 228 255
207 228 255
207 228 255
207 228 255
207 228 255
207 228 255
207 228 255
207 227 255
207 227 255
207 227 255
207 227 255
207 227 255
206 227 255
206 227 255
206 227 255
206 227 255
206 227 255
206 227 255
206 227 255
206 227 255
206 227 255
206 227 255
206 227 255
206 227 255
206 227 255
206 227 255
206 227 255
206 227 255
206 227 255
205 227 255
205 227 255
205 227 255
205 227 255
205 227 255
205 227 255
205 227 255
205 227 255
205 227 255
205 227 255
205 226 255
205 226 255
205 226 255
205 226 255
205 226 255
205 226 255
204 226 255
204 226 255
204 226 255
204 226 255
204 226 255
204 226 255
204 226 255
204 226 255
204 226 255
204 226 255
204 226 255
204 226 255
204 226 255
204 226 255
204 226 255
204 226 255
203 226 255
203 226 255
203 226 255
203 226 255
203 226 255
203 226 255
203 226 255
203 225 255
203 225 255
203 225 255
203 225 255
203 225 255
203 225 255
203 225 255
203 225 255
203 225 255
202 225 255
202 225 255
202 225 255
202 225 255
202 225 255
202 225 255
202 225 255
202 225 255
202 225 255
202 225 255
202 225 255
202 225 255
202 225 255
202 225 255
202 225 255
202 225 255
202 225 255
202 225 255
201 225 255
201 225 255
201 225 255
201 225 255
201 225 255
201 224 255
201 224 255
201 224 255
201 224 255
201 224 255
201 224 255
201 224 255
201 224 255
201 224 255
201 224 255
201 224 255
201 224 255
201 224 255
201 224 255
201 224 255
201 224 255
201 224 255
200 224 255
200 224 255
200 224 255
200 224 255
200 224 255
200 224 255
200 224 255
200 224 255
200 224 255
200 224 255
200 224 255
200 224 255
200 224 255
200 224 255
200 224 255
200 224 255
200 224 255
200 224 255
200 224 255
200 224 255
200 224 255
200 224 255
200 224 255
200 224 255
200 224 255
200 224 255
200 224 255
200 224 255
200 224 255
200 224 255
200 224 255
200 224 255
200 224 255
200 224 255
200 224 255
200 224 255
200 224 255
200 224 255
200 224 255
200 224 255
200 224 255
200 224 255
200 224 255
200 224 255
200 224 255
200 224 255
200 224 255
200 224 255
200 224 255
200 224 255
200 224 255
200 224 255
200 224 255
200 224 255
200 224 255
200 224 255
200 224 255
200 224 255
200 224 255
200 224 255
200 224 255
200 224 255
200 224 255
200 224 255
200 224 255
201 224 255
201 224 255
201 224 255
201 224 255
201 224 255
201 224 255
201 224 255
201 224 255
201 224 255
201 224 255
201 224 255
201 224 255
201 224 255
201 224 255
201 224 255
201 224 255
201 225 255
201 225 255
201 225 255
201 225 255
201 225 255
202 225 255
202 225 255
202 225 255
202 225 255
202 225 255
202 225 255
202 225 255
202 225 255
202 225 255
202 225 255
202 225 255
202 225 255
202 225 255
202 225 255
202 225 255
202 225 255
202 225 255
202 225 255
203 225 255
203 225 255
203 225 255
203 225 255
203 225 255
203 225 255
203 225 255
203 225 255
203 225 255
203 226 255
203 226 255
203 226 255
203 226 255
203 226 255
203 226 255
203 226 255
204 226 255
204 226 255
204 226 255
204 226 255
204 226 255
204 226 255
204 226 255
204 226 255
204 226 255
204 226 255
204 226 255
204 226 255
204 226 255
204 226 255
204 226 255
204 226 255
205 226 255
205 226 255
205 226 255
205 226 255
205 226 255
205 226 255
205 226 255
205 227 255
205 227 255
205 227 255
205 227 255
205 227 255
205 227 255
205 227 255
205 227 255
205 227 255
206 227 255
206 227 255
206 227 255
206 227 255
206 227 255
206 227 255
206 227 255
206 227 255
206 227 255
206 227 255
206 227 255
206 227 255
206 227 255
206 227 255
206 227 255
206 227 255
206 227 255
207 227 255
207 227 255
207 227 255
207 227 255
207 227 255
207 228 255
207 228 255
207 228 255
207 228 255
207 228 255
207 228 255
207 228 255
207 228 255
207 228 255
207 228 255
207 228 255
207 228 255
207 228 255
207 228 255
208 228 255
208 228 255
208 228 255
208 228 255
208 228 255
208 228 255
208 228 255
208 228 255
208 228 255
208 228 255
208 228 255
208 228 255
208 228 255
208 228 255
208 228 255
208 228 255
208 228 255
208 228 255
208 228 255
208 228 255
209 228 255
209 229 255
209 229 255
209 229 255
209 229 255
209 229 255
209 229 255
209 229 255
209 229 255
209 229 255
209 229 255
209 229 255
209 229 255
209 229 255
209 229 255
209 229 255
209 229 255
209 229 255
209 229 255
209 229 255
209 229 255
209 229 255
209 229 255
210 229 255
210 229 255
210 229 255
210 229 255
210 229 255
210 229 255
209 229 255
209 229 255
209 229 255
209 229 255
209 229 255
209 229 255
209 229 255
209 229 255
209 229 255
209 229 255
209 229 255
209 229 255
209 229 255
209 229 255
209 229 255
209 229 255
209 229 255
209 229 255
209 229 255
209 229 255
209 229 255
209 228 255
209 228 255
208 228 255
208 228 255
208 228 255
208 228 255
208 228 255
208 228 255
208 228 255
208 228 255
208 228 255
208 228 255
208 228 255
208 228 255
208 228 255
208 228 255
208 228 255
208 228 255
208 228 255
208 228 255
208 228 255
207 228 255
207 228 255
207 228 255
207 228 255
207 228 255
207 228 255
207 228 255
207 228 255
207 228 255
207 228 255
207 228 255
207 228 255
207 228 255
207 228 255
207 227 255
207 227 255
207 227 255
207 227 255
207 227 255
206 227 255
206 227 255
206 227 255
206 227 255
206 227 255
206 227 255
206 227 255
206 227 255
206 227 255
206 227 255
206 227 255
206 227 255
206 227 255
206 227 255
206 227 255
206 227 255
206 227 255
205 227 255
205 227 255
205 227 255
205 227 255
205 227 255
205 227 255
205 227 255
205 227 255
205 227 255
205 227 255
205 226 255
205 226 255
205 226 255
205 226 255
205 226 255
205 226 255
204 226 255
204 226 255
204 226 255
204 226 255
204 226 255
204 226 255
204 226 255
204 226 255
204 226 255
204 226 255
204 226 255
204 226 255
204 226 255
204 226 255
204 226 255
204 226 255
203 226 255
203 226 255
203 226 255
203 226 255
203 226 255
203 226 255
203 226 255
203 225 255
203 225 255
203 225 255
203 225 255
203 225 255
203 225 255
203 225 255
203 225 255
203 225 255
203 225 255
202 225 255
202 225 255
202 225 255
202 225 255
202 225 255
202 225 255
202 225 255
202 225 255
202 225 255
202 225 255
202 225 255
202 225 255
202 225 255
202 225 255
202 225 255
202 225 255
202 225 255
202 225 255
201 225 255
201 225 255
201 225 255
201 225 255
201 225 255
201 225 255
201 224 255
201 224 255
201 224 255
201 224 255
201 224 255
201 224 255
201 224 255
201 224 255
201 224 255
201 224 255
201 224 255
201 224 255
201 224 255
201 224 255
201 224 255
201 224 255
201 224 255
201 224 255
200 224 255
200 224 255
200 224 255
200 224 255
200 224 255
200 224 255
200 224 255
200 224 255
200 224 255
200 224 255
200 224 255
200 224 255
200 224 255
200 224 255
200 224 255
200 224 255
200 224 255
200 224 255
200 224 255
200 224 255
200 224 255
200 224 255
200 224 255
200 224 255
200 224 255
200 224 255
200 224 255
200 224 255
200 224 255
200 224 255
200 224 255
200 224 255
200 224 255
200 224 255
200 224 255
200 224 255
200 224 255
200 224 255
200 224 255
200 224 255
200 224 255
200 224 255
200 224 255
200 224 255
200 224 255
200 224 255
200 224 255
200 224 255
200 224 255
200 224 255
200 224 255
200 224 255
201 224 255
201 224 255
201 224 255
201 224 255
201 224 255
201 224 255
201 224 255
201 224 255
201 224 255
201 224 255
201 224 255
201 224 255
201 224 255
201 224 255
201 224 255
201 224 255
201 224 255
201 224 255
201 225 255
201 225 255
201 225 255
201 225 255
201 225 255
201 225 255
201 225 255
202 225 255
202 225 255
202 225 255
202 225 255
202 225 255
202 225 255
202 225 255
202 225 255
202 225 255
202 225 255
202 225 255
202 225 255
202 225 255
202 225 255
202 225 255
202 225 255
202 225 255
202 225 255
203 225 255
203 225 255
203 225 255
203 225 255
203 225 255
203 225 255
203 225 255
203 225 255
203 225 255
203 226 255
203 226 255
203 226 255
203 226 255
203 226 255
203 226 255
203 226 255
204 226 255
204 226 255
204 226 255
204 226 255
204 226 255
204 226 255
204 226 255
204 226 255
204 226 255
204 226 255
204 226 255
204 226 255
204 226 255
204 226 255
204 226 255
204 226 255
205 226 255
205 226 255
205 226 255
205 226 255
205 226 255
205 226 255
205 227 255
205 227 255
205 227 255
205 227 255
205 227 255
205 227 255
205 227 255
205 227 255
205 227 255
205 227 255
206 227 255
206 227 255
206 227 255
206 227 255
206 227 255
206 227 255
206 227 255
206 227 255
206 227 255
206 227 255
206 227 255
206 227 255
206 227 255
206 227 255
206 227 255
206 227 255
206 227 255
207 227 255
207 227 255
207 227 255
207 227 255
207 227 255
207 228 255
207 228 255
207 228 255
207 228 255
207 228 255
207 228 255
207 228 255
207 228 255
207 228 255
207 228 255
207 228 255
207 228 255
207 228 255
207 228 255
208 228 255
208 228 255
208 228 255
208 228 255
208 228 255
208 228 255
208 228 255
208 228 255
208 228 255
208 228 255
208 228 255
208 228 255
208 228 255
208 228 255
208 228 255
208 228 255
208 228 255
208 228 255
208 228 255
208 228 255
209 228 255
209 229 255
209 229 255
209 229 255
209 229 255
209 229 255
209 229 255
209 229 255
209 229 255
209 229 255
209 229 255
209 229 255
209 229 255
209 229 255
209 229 255
209 229 255
209 229 255
209 229 255
209 229 255
209 229 255
209 229 255
209 229 255
210 229 255
210 229 255
210 229 255
210 229 255
210 229 255
210 229 255
210 229 255
210 229 255
210 229 255
210 229 255
210 229 255
210 229 255
210 229 255
209 229 255
209 229 255
209 229 255
209 229 255
209 229 255
209 229 255
209 229 255
209 229 255
209 229 255
209 229 255
209 229 255
209 229 255
209 229 255
209 229 255
209 229 255
209 229 255
209 229 255
209 229 255
209 229 255
209 229 255
209 229 255
209 228 255
209 228 255
208 228 255
208 228 255
208 228 255
208 228 255
208 228 255
208 228 255
208 228 255
208 228 255
208 228 255
208 228 255
208 228 255
208 228 255
208 228 255
208 228 255
208 228 255
208 228 255
208 228 255
208 228 255
208 228 255
208 228 255
207 228 255
207 228 255
207 228 255
207 228 255
207 228 255
207 228 255
207 228 255
207 228 255
207 228 255
207 228 255
207 228 255
207 228 255
207 228 255
207 228 255
207 227 255
207 227 255
207 227 255
207 227 255
206 227 255
206 227 255
206 227 255
206 227 255
206 227 255
206 227 255
206 227 255
206 227 255
206 227 255
206 227 255
206 227 255
206 227 255
206 227 255
206 227 255
206 227 255
206 227 255
206 227 255
205 227 255
205 227 255
205 227 255
205 227 255
205 227 255
205 227 255
205 227 255
205 227 255
205 227 255
205 227 255
205 226 255
205 226 255
205 226 255
205 226 255
205 226 255
205 226 255
204 226 255
204 226 255
204 226 255
204 226 255
204 226 255
204 226 255
204 226 255
204 226 255
204 226 255
204 226 255
204 226 255
204 226 255
204 226 255
204 226 255
204 226 255
204 226 255
203 226 255
203 226 255
203 226 255
203 226 255
203 226 255
203 226 255
203 226 255
203 226 255
203 225 255
203 225 255
203 225 255
203 225 255
203 225 255
203 225 255
203 225 255
203 225 255
203 225 255
202 225 255
202 225 255
202 225 255
202 225 255
202 225 255
202 225 255
202 225 255
202 225 255
202 225 255
202 225 255
202 225 255
202 225 255
202 225 255
202 225 255
202 225 255
202 225 255
202 225 255
202 225 255
202 225 255
201 225 255
201 225 255
201 225 255
201 225 255
201 225 255
201 225 255
201 224 255
201 224 255
201 224 255
201 224 255
201 224 255
201 224 255
201 224 255
201 224 255
201 224 255
201 224 255
201 224 255
201 224 255
201 224 255
201 224 255
201 224 255
201 224 255
201 224 255
201 224 255
201 224 255
201 224 255
201 224 255
201 224 255
200 224 255
200 224 255
200 224 255
200 224 255
200 224 255
200 224 255
200 224 255
200 224 255
200 224 255
200 224 255
200 224 255
200 224 255
200 224 255
200 224 255
200 224 255
200 224 255
200 224 255
200 224 255
200 224 255
200 224 255
200 224 255
200 224 255
200 224 255
200 224 255
200 224 255
200 224 255
200 224 255
200 224 255
200 224 255
200 224 255
200 224 255
200 224 255
200 224 255
200 224 255
200 224 255
200 224 255
201 224 255
201 224 255
201 224 255
201 224 255
201 224 255
201 224 255
201 224 255
201 224 255
201 224 255
201 224 255
201 224 255
201 224 255
201 224 255
201 224 255
201 224 255
201 224 255
201 224 255
201 224 255
201 224 255
201 224 255
201 224 255
201 224 255
201 225 255
201 225 255
201 225 255
201 225 255
201 225 255
201 225 255
202 225 255
202 225 255
202 225 255
202 225 255
202 225 255
202 225 255
202 225 255
202 225 255
202 225 255
202 225 255
202 225 255
202 225 255
202 225 255
202 225 255
202 225 255
202 225 255
202 225 255
202 225 255
202 225 255
203 225 255
203 225 255
203 225 255
203 225 255
203 225 255
203 225 255
203 225 255
203 225 255
203 225 255
203 226 255
203 226 255
203 226 255
203 226 255
203 226 255
203 226 255
203 226 255
203 226 255
204 226 255
204 226 255
204 226 255
204 226 255
204 226 255
204 226 255
204 226 255
204 226 255
204 226 255
204 226 255
204 226 255
204 226 255
204 226 255
204 226 255
204 226 255
204 226 255
205 226 255
205 226 255
205 226 255
205 226 255
205 226 255
205 226 255
205 227 255
205 227 255
205 227 255
205 227 255
205 227 255
205 227 255
205 227 255
205 227 255
205 227 255
205 227 255
206 227 255
206 227 255
206 227 255
206 227 255
206 227 255
206 227 255
206 227 255
206 227 255
206 227 255
206 227 255
206 227 255
206 227 255
206 227 255
206 227 255
206 227 255
206 227 255
206 227 255
207 227 255
207 227 255
207 227 255
207 227 255
207 228 255
207 228 255
207 228 255
207 228 255
207 228 255
207 228 255
207 228 255
207 228 255
207 228 255
207 228 255
207 228 255
207 228 255
207 228 255
207 228 255
208 228 255
208 228 255
208 228 255
208 228 255
208 228 255
208 228 255
208 228 255
208 228 255
208 228 255
208 228 255
208 228 255
208 228 255
208 228 255
208 228 255
208 228 255
208 228 255
208 228 255
208 228 255
208 228 255
208 228 255
209 228 255
209 228 255
209 229 255
209 229 255
209 229 255
209 229 255
209 229 255
209 229 255
209 229 255
209 229 255
209 229 255
209 229 255
209 229 255
209 229 255
209 229 255
209 229 255
209 229 255
209 229 255
209 229 255
209 229 255
209 229 255
209 229 255
209 229 255
210 229 255
210 229 255
210 229 255
210 229 255
210 229 255
210 229 255
210 229 255
210 229 255
210 229 255
210 229 255
210 229 255
210 229 255
210 229 255
210 229 255
210 229 255
210 229 255
210 229 255
210 229 255
210 229 255
210 229 255
209 229 255
209 229 255
209 229 255
209 229 255
209 229 255
209 229 255
209 229 255
209 229 255
209 229 255
209 229 255
209 229 255
209 229 255
209 229 255
209 229 255
209 229 255
209 229 255
209 229 255
209 229 255
209 229 255
209 229 255
209 229 255
209 228 255
208 228 255
208 228 255
208 228 255
208 228 255
208 228 255
208 228 255
208 228 255
208 228 255
208 228 255
208 228 255
208 228 255
208 228 255
208 228 255
208 228 255
208 228 255
208 228 255
208 228 255
208 228 255
208 228 255
208 228 255
207 228 255
207 228 255
207 228 255
207 228 255
207 228 255
207 228 255
207 228 255
207 228 255
207 228 255
207 228 255
207 228 255
207 228 255
207 228 255
207 228 255
207 227 255
207 227 255
207 227 255
207 227 255
206 227 255
206 227 255
206 227 255
206 227 255
206 227 255
206 227 255
206 227 255
206 227 255
206 227 255
206 227 255
206 227 255
206 227 255
206 227 255
206 227 255
206 227 255
206 227 255
206 227 255
205 227 255
205 227 255
205 227 255
205 227 255
205 227 255
205 227 255
205 227 255
205 227 255
205 227 255
205 227 255
205 226 255
205 226 255
205 226 255
205 226 255
205 226 255
205 226 255
204 226 255
204 226 255
204 226 255
204 226 255
204 226 255
204 226 255
204 226 255
204 226 255
204 226 255
204 226 255
204 226 255
204 226 255
204 226 255
204 226 255
204 226 255
204 226 255
204 226 255
203 226 255
203 226 255
203 226 255
203 226 255
203 226 255
203 226 255
203 226 255
203 225 255
203 225 255
203 225 255
203 225 255
203 225 255
203 225 255
203 225 255
203 225 255
203 225 255
203 225 255
202 225 255
202 225 255
202 225 255
202 225 255
202 225 255
202 225 255
202 225 255
202 225 255
202 225 255
202 225 255
202 225 255
202 225 255
202 225 255
202 225 255
202 225 255
202 225 255
202 225 255
202 225 255
202 225 255
201 225 255
201 225 255
201 225 255
201 225 255
201 225 255
201 225 255
201 225 255
201 225 255
201 224 255
201 224 255
201 224 255
201 224 255
201 224 255
201 224 255
201 224 255
201 224 255
201 224 255
201 224 255
201 224 255
201 224 255
201 224 255
201 224 255
201 224 255
201 224 255
201 224 255
201 224 255
201 224 255
201 224 255
201 224 255
201 224 255
201 224 255
201 224 255
201 224 255
201 224 255
201 224 255
201 224 255
201 224 255
201 224 255
201 224 255
201 224 255
201 224 255
201 224 255
201 224 255
201 224 255
201 224 255
201 224 255
201 224 255
201 224 255
201 224 255
201 224 255
201 224 255
201 224 255
201 224 255
201 224 255
201 224 255
201 224 255
201 224 255
201 224 255
201 224 255
201 224 255
201 224 255
201 224 255
201 224 255
201 224 255
201 224 255
201 224 255
201 224 255
201 224 255
201 224 255
201 224 255
201 224 255
201 224 255
201 224 255
201 224 255
201 224 255
201 224 255
201 225 255
201 225 255
201 225 255
201 225 255
201 225 255
201 225 255
201 225 255
202 225 255
202 225 255
202 225 255
202 225 255
202 225 255
202 225 255
202 225 255
202 225 255
202 225 255
202 225 255
202 225 255
202 225 255
202 225 255
202 225 255
202 225 255
202 225 255
202 225 255
202 225 255
202 225 255
202 225 255
203 225 255
203 225 255
203 225 255
203 225 255
203 225 255
203 225 255
203 225 255
203 225 255
203 225 255
203 225 255
203 226 255
203 226 255
203 226 255
203 226 255
203 226 255
203 226 255
203 226 255
204 226 255
204 226 255
204 226 255
204 226 255
204 226 255
204 226 255
204 226 255
204 226 255
204 226 255
204 226 255
204 226 255
204 226 255
204 226 255
204 226 255
204 226 255
204 226 255
205 226 255
205 226 255
205 226 255
205 226 255
205 226 255
205 226 255
205 226 255
205 227 255
205 227 255
205 227 255
205 227 255
205 227 255
205 227 255
205 227 255
205 227 255
205 227 255
205 227 255
206 227 255
206 227 255
206 227 255
206 227 255
206 227 255
206 227 255
206 227 255
206 227 255
206 227 255
206 227 255
206 227 255
206 227 255
206 227 255
206 227 255
206 227 255
206 227 255
206 227 255
207 227 255
207 227 255
207 227 255
207 227 255
207 228 255
207 228 255
207 228 255
207 228 255
207 228 255
207 228 255
207 228 255
207 228 255
207 228 255
207 228 255
207 228 255
207 228 255
207 228 255
207 228 255
208 228 255
208 228 255
208 228 255
208 228 255
208 228 255
208 228 255
208 228 255
208 228 255
208 228 255
208 228 255
208 228 255
208 228 255
208 228 255
208 228 255
208 228 255
208 228 255
208 228 255
208 228 255
208 228 255
208 228 255
209 228 255
209 229 255
209 229 255
209 229 255
209 229 255
209 229 255
209 229 255
209 229 255
209 229 255
209 229 255
209 229 255
209 229 255
209 229 255
209 229 255
209 229 255
209 229 255
209 229 255
209 229 255
209 229 255
209 229 255
209 229 255
209 229 255
210 229 255
210 229 255
210 229 255
210 229 255
210 229 255
210 229 255
210 229 255
210 229 255
210 229 255
210 229 255
210 229 255
210 229 255
210 229 255
210 229 255
210 229 255
210 229 255
210 229 255
210 229 255
210 229 255
210 229 255
210 229 255
210 229 255
210 229 255
210 229 255
210 229 255
210 229 255
210 229 255
210 229 255
209 229 255
209 229 255
209 229 255
209 229 255
209 229 255
209 229 255
209 229 255
209 229 255
209 229 255
209 229 255
209 229 255
209 229 255
209 229 255
209 229 255
209 229 255
209 229 255
209 229 255
209 229 255
209 229 255
209 229 255
209 228 255
209 228 255
208 228 255
208 228 255
208 228 255
208 228 255
208 228 255
208 228 255
208 228 255
208 228 255
208 228 255
208 228 255
208 228 255
208 228 255
208 228 255
208 228 255
208 228 255
208 228 255
208 228 255
208 228 255
208 228 255
207 228 255
207 228 255
207 228 255
207 228 255
207 228 255
207 228 255
207 228 255
207 228 255
207 228 255
207 228 255
207 228 255
207 228 255
207 228 255
207 228 255
207 227 255
207 227 255
207 227 255
207 227 255
206 227 255
206 227 255
206 227 255
206 227 255
206 227 255
206 227 255
206 227 255
206 227 255
206 227 255
206 227 255
206 227 255
206 227 255
206 227 255
206 227 255
206 227 255
206 227 255
206 227 255
205 227 255
205 227 255
205 227 255
205 227 255
205 227 255
205 227 255
205 227 255
205 227 255
205 227 255
205 227 255
205 226 255
205 226 255
205 226 255
205 226 255
205 226 255
205 226 255
205 226 255
204 226 255
204 226 255
204 226 255
204 226 255
204 226 255
204 226 255
204 226 255
204 226 255
204 226 255
204 226 255
204 226 255
204 226 255
204 226 255
204 226 255
204 226 255
204 226 255
203 226 255
203 226 255
203 226 255
203 226 255
203 226 255
203 226 255
203 226 255
203 226 255
203 225 255
203 225 255
203 225 255
203 225 255
203 225 255
203 225 255
203 225 255
203 225 255
203 225 255
203 225 255
202 225 255
202 225 255
202 225 255
202 225 255
202 225 255
202 225 255
202 225 255
202 225 255
202 225 255
202 225 255
202 225 255
202 225 255
202 225 255
202 225 255
202 225 255
202 225 255
202 225 255
202 225 255
202 225 255
202 225 255
202 225 255
201 225 255
201 225 255
201 225 255
201 225 255
201 225 255
201 225 255
201 225 255
201 225 255
201 224 255
201 224 255
201 224 255
201 224 255
201 224 255
201 224 255
201 224 255
201 224 255
201 224 255
201 224 255
201 224 255
201 224 255
201 224 255
201 224 255
201 224 255
201 224 255
201 224 255
201 224 255
201 224 255
201 224 255
201 224 255
201 224 255
201 224 255
201 224 255
201 224 255
201 224 255
201 224 255
201 224 255
201 224 255
201 224 255
201 224 255
201 224 255
201 224 255
201 224 255
201 224 255
201 224 255
201 224 255
201 224 255
201 224 255
201 224 255
201 224 255
201 224 255
201 224 255
201 224 255
201 224 255
201 224 255
201 224 255
201 224 255
201 224 255
201 224 255
201 224 255
201 224 255
201 224 255
201 224 255
201 224 255
201 224 255
201 225 255
201 225 255
201 225 255
201 225 255
201 225 255
201 225 255
201 225 255
201 225 255
202 225 255
202 225 255
202 225 255
202 225 255
202 225 255
202 225 255
202 225 255
202 225 255
202 225 255
202 225 255
202 225 255
202 225 255
202 225 255
202 225 255
202 225 255
202 225 255
202 225 255
202 225 255
202 225 255
202 225 255
202 225 255
203 225 255
203 225 255
203 225 255
203 225 255
203 225 255
203 225 255
203 225 255
203 225 255
203 225 255
203 225 255
203 226 255
203 226 255
203 226 255
203 226 255
203 226 255
203 226 255
203 226 255
203 226 255
204 226 255
204 226 255
204 226 255
204 226 255
204 226 255
204 226 255
204 226 255
204 226 255
204 226 255
204 226 255
204 226 255
204 226 255
204 226 255
204 226 255
204 226 255
204 226 255
205 226 255
205 226 255
205 226 255
205 226 255
205 226 255
205 226 255
205 226 255
205 227 255
205 227 255
205 227 255
205 227 255
205 227 255
205 227 255
205 227 255
205 227 255
205 227 255
205 227 255
206 227 255
206 227 255
206 227 255
206 227 255
206 227 255
206 227 255
206 227 255
206 227 255
206 227 255
206 227 255
206 227 255
206 227 255
206 227 255
206 227 255
206 227 255
206 227 255
206 227 255
207 227 255
207 227 255
207 227 255
207 227 255
207 228 255
207 228 255
207 228 255
207 228 255
207 228 255
207 228 255
207 228 255
207 228 255
207 228 255
207 228 255
207 228 255
207 228 255
207 228 255
207 228 255
208 228 255
208 228 255
208 228 255
208 228 255
208 228 255
208 228 255
208 228 255
208 228 255
208 228 255
208 228 255
208 228 255
208 228 255
208 228 255
208 228 255
208 228 255
208 228 255
208 228 255
208 228 255
208 228 255
208 228 255
209 228 255
209 229 255
209 229 255
209 229 255
209 229 255
209 229 255
209 229 255
209 229 255
209 229 255
209 229 255
209 229 255
209 229 255
209 229 255
209 229 255
209 229 255
209 229 255
209 229 255
209 229 255
209 229 255
209 229 255
209 229 255
210 229 255
210 229 255
210 229 255
210 229 255
210 229 255
210 229 255
210 229 255
210 229 255
210 229 255
210 229 255
210 229 255
210 229 255
210 229 255
210 229 255
210 229 255
210 229 255
210 229 255
210 229 255
210 229 255
210 229 255
210 229 255
210 229 255
210 229 255
210 229 255
210 229 255
210 229 255
210 229 255
210 229 255
210 229 255
210 229 255
210 229 255
210 229 255
210 229 255
210 229 255
210 229 255
209 229 255
209 229 255
209 229 255
209 229 255
209 229 255
209 229 255
209 229 255
209 229 255
209 229 255
209 229 255
209 229 255
209 229 255
209 229 255
209 229 255
209 229 255
209 229 255
209 229 255
209 229 255
209 229 255
209 229 255
209 229 255
209 228 255
208 228 255
208 228 255
208 228 255
208 228 255
208 228 255
208 228 255
208 228 255
208 228 255
208 228 255
208 228 255
208 228 255
208 228 255
208 228 255
208 228 255
208 228 255
208 228 255
208 228 255
208 228 255
208 228 255
208 228 255
207 228 255
207 228 255
207 228 255
207 228 255
207 228 255
207 228 255
207 228 255
207 228 255
207 228 255
207 228 255
207 228 255
207 228 255
207 228 255
207 227 255
207 227 255
207 227 255
207 227 255
207 227 255
206 227 255
206 227 255
206 227 255
206 227 255
206 227 255
206 227 255
206 227 255
206 227 255
206 227 255
206 227 255
206 227 255
206 227 255
206 227 255
206 227 255
206 227 255
206 227 255
205 227 255
205 227 255
205 227 255
205 227 255
205 227 255
205 227 255
205 227 255
205 227 255
205 227 255
205 227 255
205 226 255
205 226 255
205 226 255
205 226 255
205 226 255
205 226 255
205 226 255
204 226 255
204 226 255
204 226 255
204 226 255
204 226 255
204 226 255
204 226 255
204 226 255
204 226 255
204 226 255
204 226 255
204 226 255
204 226 255
204 226 255
204 226 255
204 226 255
204 226 255
203 226 255
203 226 255
203 226 255
203 226 255
203 226 255
203 226 255
203 226 255
203 225 255
203 225 255
203 225 255
203 225 255
203 225 255
203 225 255
203 225 255
203 225 255
203 225 255
203 225 255
203 225 255
202 225 255
202 225 255
202 225 255
202 225 255
202 225 255
202 225 255
202 225 255
202 225 255
202 225 255
202 225 255
202 225 255
202 225 255
202 225 255
202 225 255
202 225 255
202 225 255
202 225 255
202 225 255
202 225 255
202 225 255
202 225 255
202 225 255
202 225 255
201 225 255
201 225 255
201 225 255
201 225 255
201 225 255
201 225 255
201 225 255
201 225 255
201 225 255
201 225 255
201 224 255
201 224 255
201 224 255
201 224 255
201 224 255
201 224 255
201 224 255
201 224 255
201 224 255
201 224 255
201 224 255
201 224 255
201 224 255
201 224 255
201 224 255
201 224 255
201 224 255
201 224 255
201 224 255
201 224 255
201 224 255
201 224 255
201 224 255
201 224 255
201 224 255
201 224 255
201 224 255
201 224 255
201 224 255
201 224 255
201 224 255
201 224 255
201 224 255
201 224 255
201 224 255
201 224 255
201 224 255
201 224 255
201 224 255
201 224 255
201 225 255
201 225 255
201 225 255
201 225 255
201 225 255
201 225 255
201 225 255
201 225 255
201 225 255
201 225 255
202 225 255
202 225 255
202 225 255
202 225 255
202 225 255
202 225 255
202 225 255
202 225 255
202 225 255
202 225 255
202 225 255
202 225 255
202 225 255
202 225 255
202 225 255
202 225 255
202 225 255
202 225 255
202 225 255
202 225 255
202 225 255
202 225 255
202 225 255
203 225 255
203 225 255
203 225 255
203 225 255
203 225 255
203 225 255
203 225 255
203 225 255
203 225 255
203 225 255
203 225 255
203 226 255
203 226 255
203 226 255
203 226 255
203 226 255
203 226 255
203 226 255
204 226 255
204 226 255
204 226 255
204 226 255
204 226 255
204 226 255
204 226 255
204 226 255
204 226 255
204 226 255
204 226 255
204 226 255
204 226 255
204 226 255
204 226 255
204 226 255
204 226 255
205 226 255
205 226 255
205 226 255
205 226 255
205 226 255
205 226 255
205 226 255
205 227 255
205 227 255
205 227 255
205 227 255
205 227 255
205 227 255
205 227 255
205 227 255
205 227 255
206 227 255
206 227 255
206 227 255
206 227 255
206 227 255
206 227 255
206 227 255
206 227 255
206 227 255
206 227 255
206 227 255
206 227 255
206 227 255
206 227 255
206 227 255
206 227 255
206 227 255
206 227 255
207 227 255
207 227 255
207 227 255
207 227 255
207 228 255
207 228 255
207 228 255
207 228 255
207 228 255
207 228 255
207 228 255
207 228 255
207 228 255
207 228 255
207 228 255
207 228 255
207 228 255
207 228 255
208 228 255
208 228 255
208 228 255
208 228 255
208 228 255
208 228 255
208 228 255
208 228 255
208 228 255
208 228 255
208 228 255
208 228 255
208 228 255
208 228 255
208 228 255
208 228 255
208 228 255
208 228 255
208 228 255
209 228 255
209 228 255
209 229 255
209 229 255
209 229 255
209 229 255
209 229 255
209 229 255
209 229 255
209 229 255
209 229 255
209 229 255
209 229 255
209 229 255
209 229 255
209 229 255
209 229 255
209 229 255
209 229 255
209 229 255
209 229 255
209 229 255
210 229 255
210 229 255
210 229 255
210 229 255
210 229 255
210 229 255
210 229 255
210 229 255
210 229 255
210 229 255
210 229 255
210 229 255
210 229 255
210 229 255
210 229 255
210 229 255
210 229 255
210 229 255
210 229 255
210 230 255
210 229 255
210 229 255
210 229 255
210 229 255
210 229 255
210 229 255
210 229 255
210 229 255
210 229 255
210 229 255
210 229 255
210 229 255
210 229 255
210 229 255
210 229 255
210 229 255
210 229 255
210 229 255
210 229 255
210 229 255
210 229 255
210 229 255
209 229 255
209 229 255
209 229 255
209 229 255
209 229 255
209 229 255
209 229 255
209 229 255
209 229 255
209 229 255
209 229 255
209 229 255
209 229 255
209 229 255
209 229 255
209 229 255
209 229 255
209 229 255
209 229 255
209 229 255
209 228 255
208 228 255
208 228 255
208 228 255
208 228 255
208 228 255
208 228 255
208 228 255
208 228 255
208 228 255
208 228 255
208 228 255
208 228 255
208 228 255
208 228 255
208 228 255
208 228 255
208 228 255
208 228 255
208 228 255
208 228 255
207 228 255
207 228 255
207 228 255
207 228 255
207 228 255
207 228 255
207 228 255
207 228 255
207 228 255
207 228 255
207 228 255
207 228 255
207 228 255
207 228 255
207 227 255
207 227 255
207 227 255
207 227 255
206 227 255
206 227 255
206 227 255
206 227 255
206 227 255
206 227 255
206 227 255
206 227 255
206 227 255
206 227 255
206 227 255
206 227 255
206 227 255
206 227 255
206 227 255
206 227 255
206 227 255
205 227 255
205 227 255
205 227 255
205 227 255
205 227 255
205 227 255
205 227 255
205 227 255
205 227 255
205 227 255
205 226 255
205 226 255
205 226 255
205 226 255
205 226 255
205 226 255
204 226 255
204 226 255
204 226 255
204 226 255
204 226 255
204 226 255
204 226 255
204 226 255
204 226 255
204 226 255
204 226 255
204 226 255
204 226 255
204 226 255
204 226 255
204 226 255
204 226 255
203 226 255
203 226 255
203 226 255
203 226 255
203 226 255
203 226 255
203 226 255
203 226 255
203 225 255
203 225 255
203 225 255
203 225 255
203 225 255
203 225 255
203 225 255
203 225 255
203 225 255
203 225 255
203 225 255
202 225 255
202 225 255
202 225 255
202 225 255
202 225 255
202 225 255
202 225 255
202 225 255
202 225 255
202 225 255
202 225 255
202 225 255
202 225 255
202 225 255
202 225 255
202 225 255
202 225 255
202 225 255
202 225 255
202 225 255
202 225 255
202 225 255
202 225 255
202 225 255
202 225 255
202 225 255
201 225 255
201 225 255
201 225 255
201 225 255
201 225 255
201 225 255
201 225 255
201 225 255
201 225 255
201 225 255
201 225 255
201 225 255
201 225 255
201 225 255
201 225 255
201 225 255
201 225 255
201 224 255
201 225 255
201 224 255
201 224 255
201 224 255
201 224 255
201 224 255
201 224 255
201 224 255
201 224 255
201 224 255
201 224 255
201 225 255
201 225 255
201 225 255
201 225 255
201 225 255
201 225 255
201 225 255
201 225 255
201 225 255
201 225 255
201 225 255
201 225 255
201 225 255
201 225 255
201 225 255
201 225 255
201 225 255
202 225 255
202 225 255
202 225 255
202 225 255
202 225 255
202 225 255
202 225 255
202 225 255
202 225 255
202 225 255
202 225 255
202 225 255
202 225 255
202 225 255
202 225 255
202 225 255
202 225 255
202 225 255
202 225 255
202 225 255
202 225 255
202 225 255
202 225 255
202 225 255
202 225 255
202 225 255
203 225 255
203 225 255
203 225 255
203 225 255
203 225 255
203 225 255
203 225 255
203 225 255
203 225 255
203 225 255
203 226 255
203 226 255
203 226 255
203 226 255
203 226 255
203 226 255
203 226 255
203 226 255
203 226 255
204 226 255
204 226 255
204 226 255
204 226 255
204 226 255
204 226 255
204 226 255
204 226 255
204 226 255
204 226 255
204 226 255
204 226 255
204 226 255
204 226 255
204 226 255
204 226 255
204 226 255
205 226 255
205 226 255
205 226 255
205 226 255
205 226 255
205 226 255
205 227 255
205 227 255
205 227 255
205 227 255
205 227 255
205 227 255
205 227 255
205 227 255
205 227 255
205 227 255
206 227 255
206 227 255
206 227 255
206 227 255
206 227 255
206 227 255
206 227 255
206 227 255
206 227 255
206 227 255
206 227 255
206 227 255
206 227 255
206 227 255
206 227 255
206 227 255
206 227 255
207 227 255
207 227 255
207 227 255
207 227 255
207 228 255
207 228 255
207 228 255
207 228 255
207 228 255
207 228 255
207 228 255
207 228 255
207 228 255
207 228 255
207 228 255
207 228 255
207 228 255
207 228 255
208 228 255
208 228 255
208 228 255
208 228 255
208 228 255
208 228 255
208 228 255
208 228 255
208 228 255
208 228 255
208 228 255
208 228 255
208 228 255
208 228 255
208 228 255
208 228 255
208 228 255
208 228 255
208 228 255
209 228 255
209 228 255
209 229 255
209 229 255
209 229 255
209 229 255
209 229 255
209 229 255
209 229 255
209 229 255
209 229 255
209 229 255
209 229 255
209 229 255
209 229 255
209 229 255
209 229 255
209 229 255
209 229 255
209 229 255
209 229 255
209 229 255
210 229 255
210 229 255
210 229 255
210 229 255
210 229 255
210 229 255
210 229 255
210 229 255
210 229 255
210 229 255
210 229 255
210 229 255
210 229 255
210 229 255
210 229 255
210 229 255
210 229 255
210 229 255
210 229 255
210 229 255
210 229 255
210 229 255
210 230 255
211 230 255
211 230 255
211 230 255
210 230 255
210 230 255
210 229 255
210 229 255
210 229 255
210 229 255
210 229 255
210 229 255
210 229 255
210 229 255
210 229 255
210 229 255
210 229 255
210 229 255
210 229 255
210 229 255
210 229 255
210 229 255
210 229 255
210 229 255
210 229 255
210 229 255
210 229 255
209 229 255
209 229 255
209 229 255
209 229 255
209 229 255
209 229 255
209 229 255
209 229 255
209 229 255
209 229 255
209 229 255
209 229 255
209 229 255
209 229 255
209 229 255
209 229 255
209 229 255
209 229 255
209 229 255
209 229 255
209 228 255
209 228 255
208 228 255
208 228 255
208 228 255
208 228 255
208 228 255
208 228 255
208 228 255
208 228 255
208 228 255
208 228 255
208 228 255
208 228 255
208 228 255
208 228 255
208 228 255
208 228 255
208 228 255
208 228 255
208 228 255
207 228 255
207 228 255
207 228 255
207 228 255
207 228 255
207 228 255
207 228 255
207 228 255
207 228 255
207 228 255
207 228 255
207 228 255
207 228 255
207 228 255
207 227 255
207 227 255
207 227 255
207 227 255
206 227 255
206 227 255
206 227 255
206 227 255
206 227 255
206 227 255
206 227 255
206 227 255
206 227 255
206 227 255
206 227 255
206 227 255
206 227 255
206 227 255
206 227 255
206 227 255
206 227 255
205 227 255
205 227 255
205 227 255
205 227 255
205 227 255
205 227 255
205 227 255
205 227 255
205 227 255
205 227 255
205 226 255
205 226 255
205 226 255
205 226 255
205 226 255
205 226 255
205 226 255
204 226 255
204 226 255
204 226 255
204 226 255
204 226 255
204 226 255
204 226 255
204 226 255
204 226 255
204 226 255
204 226 255
204 226 255
204 226 255
204 226 255
204 226 255
204 226 255
204 226 255
203 226 255
203 226 255
203 226 255
203 226 255
203 226 255
203 226 255
203 226 255
203 226 255
203 225 255
203 225 255
203 225 255
203 225 255
203 225 255
203 225 255
203 225 255
203 225 255
203 225 255
203 225 255
203 225 255
203 225 255
202 225 255
202 225 255
202 225 255
202 225 255
202 225 255
202 225 255
202 225 255
202 225 255
202 225 255
202 225 255
202 225 255
202 225 255
202 225 255
202 225 255
202 225 255
202 225 255
202 225 255
202 225 255
202 225 255
202 225 255
202 225 255
202 225 255
202 225 255
202 225 255
202 225 255
202 225 255
202 225 255
202 225 255
202 225 255
202 225 255
202 225 255
202 225 255
202 225 255
201 225 255
201 225 255
201 225 255
201 225 255
201 225 255
201 225 255
201 225 255
201 225 255
201 225 255
201 225 255
201 225 255
201 225 255
201 225 255
201 225 255
201 225 255
201 225 255
201 225 255
201 225 255
201 225 255
201 225 255
201 225 255
201 225 255
201 225 255
202 225 255
202 225 255
202 225 255
202 225 255
202 225 255
202 225 255
202 225 255
202 225 255
202 225 255
202 225 255
202 225 255
202 225 255
202 225 255
202 225 255
202 225 255
202 225 255
202 225 255
202 225 255
202 225 255
202 225 255
202 225 255
202 225 255
202 225 255
202 225 255
202 225 255
202 225 255
202 225 255
202 225 255
202 225 255
202 225 255
202 225 255
202 225 255
203 225 255
203 225 255
203 225 255
203 225 255
203 225 255
203 225 255
203 225 255
203 225 255
203 225 255
203 225 255
203 225 255
203 225 255
203 226 255
203 226 255
203 226 255
203 226 255
203 226 255
203 226 255
203 226 255
203 226 255
204 226 255
204 226 255
204 226 255
204 226 255
204 226 255
204 226 255
204 226 255
204 226 255
204 226 255
204 226 255
204 226 255
204 226 255
204 226 255
204 226 255
204 226 255
204 226 255
204 226 255
205 226 255
205 226 255
205 226 255
205 226 255
205 226 255
205 226 255
205 226 255
205 227 255
205 227 255
205 227 255
205 227 255
205 227 255
205 227 255
205 227 255
205 227 255
205 227 255
205 227 255
206 227 255
206 227 255
206 227 255
206 227 255
206 227 255
206 227 255
206 227 255
206 227 255
206 227 255
206 227 255
206 227 255
206 227 255
206 227 255
206 227 255
206 227 255
206 227 255
206 227 255
207 227 255
207 227 255
207 227 255
207 227 255
207 228 255
207 228 255
207 228 255
207 228 255
207 228 255
207 228 255
207 228 255
207 228 255
207 228 255
207 228 255
207 228 255
207 228 255
207 228 255
207 228 255
208 228 255
208 228 255
208 228 255
208 228 255
208 228 255
208 228 255
208 228 255
208 228 255
208 228 255
208 228 255
208 228 255
208 228 255
208 228 255
208 228 255
208 228 255
208 228 255
208 228 255
208 228 255
208 228 255
209 228 255
209 229 255
209 229 255
209 229 255
209 229 255
209 229 255
209 229 255
209 229 255
209 229 255
209 229 255
209 229 255
209 229 255
209 229 255
209 229 255
209 229 255
209 229 255
209 229 255
209 229 255
209 229 255
209 229 255
209 229 255
210 229 255
210 229 255
210 229 255
210 229 255
210 229 255
210 229 255
210 229 255
210 229 255
210 229 255
210 229 255
210 229 255
210 229 255
210 229 255
210 229 255
210 229 255
210 229 255
210 229 255
210 229 255
210 229 255
210 229 255
210 229 255
210 229 255
210 230 255
210 230 255
210 230 255
211 230 255
211 230 255
211 230 255
211 230 255
211 230 255
211 230 255
211 230 255
211 230 255
210 230 255
210 230 255
210 230 255
210 229 255
210 229 255
210 229 255
210 229 255
210 229 255
210 229 255
210 229 255
210 229 255
210 229 255
210 229 255
210 229 255
210 229 255
210 229 255
210 229 255
210 229 255
210 229 255
210 229 255
210 229 255
210 229 255
210 229 255
210 229 255
209 229 255
209 229 255
209 229 255
209 229 255
209 229 255
209 229 255
209 229 255
209 229 255
209 229 255
209 229 255
209 229 255
209 229 255
209 229 255
209 229 255
209 229 255
209 229 255
209 229 255
209 229 255
209 229 255
209 229 255
209 228 255
208 228 255
208 228 255
208 228 255
208 228 255
208 228 255
208 228 255
208 228 255
208 228 255
208 228 255
208 228 255
208 228 255
208 228 255
208 228 255
208 228 255
208 228 255
208 228 255
208 228 255
208 228 255
208 228 255
208 228 255
207 228 255
207 228 255
207 228 255
207 228 255
207 228 255
207 228 255
207 228 255
207 228 255
207 228 255
207 228 255
207 228 255
207 228 255
207 228 255
207 227 255
207 227 255
207 227 255
207 227 255
207 227 255
206 227 255
206 227 255
206 227 255
206 227 255
206 227 255
206 227 255
206 227 255
206 227 255
206 227 255
206 227 255
206 227 255
206 227 255
206 227 255
206 227 255
206 227 255
206 227 255
206 227 255
205 227 255
205 227 255
205 227 255
205 227 255
205 227 255
205 227 255
205 227 255
205 227 255
205 227 255
205 227 255
205 226 255
205 226 255
205 226 255
205 226 255
205 226 255
205 226 255
205 226 255
204 226 255
204 226 255
204 226 255
204 226 255
204 226 255
204 226 255
204 226 255
204 226 255
204 226 255
204 226 255
204 226 255
204 226 255
204 226 255
204 226 255
204 226 255
204 226 255
204 226 255
203 226 255
203 226 255
203 226 255
203 226 255
203 226 255
203 226 255
203 226 255
203 226 255
203 226 255
203 225 255
203 225 255
203 225 255
203 225 255
203 225 255
203 225 255
203 225 255
203 225 255
203 225 255
203 225 255
203 225 255
203 225 255
202 225 255
202 225 255
202 225 255
202 225 255
202 225 255
202 225 255
202 225 255
202 225 255
202 225 255
202 225 255
202 225 255
202 225 255
202 225 255
202 225 255
202 225 255
202 225 255
202 225 255
202 225 255
202 225 255
202 225 255
202 225 255
202 225 255
202 225 255
202 225 255
202 225 255
202 225 255
202 225 255
202 225 255
202 225 255
202 225 255
202 225 255
202 225 255
202 225 255
202 225 255
202 225 255
202 225 255
202 225 255
202 225 255
202 225 255
202 225 255
202 225 255
202 225 255
202 225 255
202 225 255
202 225 255
202 225 255
202 225 255
202 225 255
202 225 255
202 225 255
202 225 255
202 225 255
202 225 255
202 225 255
202 225 255
202 225 255
202 225 255
202 225 255
202 225 255
202 225 255
202 225 255
202 225 255
202 225 255
202 225 255
202 225 255
202 225 255
202 225 255
202 225 255
202 225 255
202 225 255
202 225 255
202 225 255
202 225 255
202 225 255
202 225 255
202 225 255
202 225 255
202 225 255
203 225 255
203 225 255
203 225 255
203 225 255
203 225 255
203 225 255
203 225 255
203 225 255
203 225 255
203 225 255
203 225 255
203 225 255
203 226 255
203 226 255
203 226 255
203 226 255
203 226 255
203 226 255
203 226 255
203 226 255
203 226 255
204 226 255
204 226 255
204 226 255
204 226 255
204 226 255
204 226 255
204 226 255
204 226 255
204 226 255
204 226 255
204 226 255
204 226 255
204 226 255
204 226 255
204 226 255
204 226 255
204 226 255
205 226 255
205 226 255
205 226 255
205 226 255
205 226 255
205 226 255
205 226 255
205 226 255
205 227 255
205 227 255
205 227 255
205 227 255
205 227 255
205 227 255
205 227 255
205 227 255
205 227 255
205 227 255
206 227 255
206 227 255
206 227 255
206 227 255
206 227 255
206 227 255
206 227 255
206 227 255
206 227 255
206 227 255
206 227 255
206 227 255
206 227 255
206 227 255
206 227 255
206 227 255
207 227 255
207 227 255
207 227 255
207 227 255
207 227 255
207 228 255
207 228 255
207 228 255
207 228 255
207 228 255
207 228 255
207 228 255
207 228 255
207 228 255
207 228 255
207 228 255
207 228 255
207 228 255
208 228 255
208 228 255
208 228 255
208 228 255
208 228 255
208 228 255
208 228 255
208 228 255
208 228 255
208 228 255
208 228 255
208 228 255
208 228 255
208 228 255
208 228 255
208 228 255
208 228 255
208 228 255
208 228 255
208 228 255
209 228 255
209 229 255
209 229 255
209 229 255
209 229 255
209 229 255
209 229 255
209 229 255
209 229 255
209 229 255
209 229 255
209 229 255
209 229 255
209 229 255
209 229 255
209 229 255
209 229 255
209 229 255
209 229 255
209 229 255
209 229 255
210 229 255
210 229 255
210 229 255
210 229 255
210 229 255
210 229 255
210 229 255
210 229 255
210 229 255
210 229 255
210 229 255
210 229 255
210 229 255
210 229 255
210 229 255
210 229 255
210 229 255
210 229 255
210 229 255
210 229 255
210 229 255
210 230 255
210 230 255
210 230 255
211 230 255
211 230 255
211 230 255
211 230 255
211 230 255
211 230 255
211 230 255
211 230 255
211 230 255
211 230 255
211 230 255
211 230 255
211 230 255
211 230 255
211 230 255
211 230 255
210 230 255
210 230 255
210 230 255
210 229 255
210 229 255
210 229 255
210 229 255
210 229 255
210 229 255
210 229 255
210 229 255
210 229 255
210 229 255
210 229 255
210 229 255
210 229 255
210 229 255
210 229 255
210 229 255
210 229 255
210 229 255
210 229 255
210 229 255
210 229 255
209 229 255
209 229 255
209 229 255
209 229 255
209 229 255
208 228 254
206 226 252
203 223 249
200 220 246
203 222 249
198 218 244
201 221 247
197 217 243
198 217 244
197 217 243
196 216 242
200 220 247
197 217 244
199 218 245
198 218 245
199 219 246
199 218 245
201 220 247
202 222 249
203 222 249
206 226 253
205 225 252
208 228 255
208 228 255
208 228 255
208 228 255
208 228 255
208 228 255
208 228 255
208 228 255
208 228 255
208 228 255
208 228 255
208 228 255
208 228 255
207 228 255
207 228 255
207 228 255
207 228 255
207 228 255
207 228 255
207 228 255
207 228 255
207 228 255
207 228 255
207 228 255
207 228 255
207 228 255
207 228 255
207 227 255
207 227 255
207 227 255
207 227 255
206 227 255
206 227 255
206 227 255
206 227 255
206 227 255
206 227 255
206 227 255
206 227 255
206 227 255
206 227 255
206 227 255
206 227 255
206 227 255
206 227 255
206 227 255
206 227 255
206 227 255
205 227 255
205 227 255
205 227 255
205 227 255
205 227 255
205 227 255
205 227 255
205 227 255
205 227 255
205 227 255
205 226 255
205 226 255
205 226 255
205 226 255
205 226 255
205 226 255
205 226 255
204 226 255
204 226 255
204 226 255
204 226 255
204 226 255
204 226 255
204 226 255
204 226 255
204 226 255
204 226 255
204 226 255
204 226 255
204 226 255
204 226 255
204 226 255
204 226 255
204 226 255
204 226 255
203 226 255
203 226 255
203 226 255
203 226 255
203 226 255
203 226 255
203 226 255
203 226 255
203 226 255
203 225 255
203 225 255
203 225 255
203 225 255
203 225 255
203 225 255
203 225 255
203 225 255
203 225 255
203 225 255
203 225 255
203 225 255
203 225 255
202 225 255
202 225 255
202 225 255
202 225 255
202 225 255
202 225 255
202 225 255
202 225 255
202 225 255
202 225 255
202 225 255
202 225 255
202 225 255
202 225 255
202 225 255
202 225 255
202 225 255
202 225 255
202 225 255
202 225 255
202 225 255
202 225 255
202 225 255
202 225 255
202 225 255
202 225 255
202 225 255
202 225 255
202 225 255
202 225 255
202 225 255
202 225 255
202 225 255
202 225 255
202 225 255
202 225 255
202 225 255
202 225 255
202 225 255
202 225 255
202 225 255
202 225 255
202 225 255
202 225 255
202 225 255
202 225 255
202 225 255
202 225 255
202 225 255
202 225 255
202 225 255
202 225 255
202 225 255
202 225 255
202 225 255
202 225 255
202 225 255
202 225 255
202 225 255
202 225 255
202 225 255
202 225 255
202 225 255
202 225 255
202 225 255
202 225 255
202 225 255
203 225 255
203 225 255
203 225 255
203 225 255
203 225 255
203 225 255
203 225 255
203 225 255
203 225 255
203 225 255
203 225 255
203 225 255
203 225 255
203 226 255
203 226 255
203 226 255
203 226 255
203 226 255
203 226 255
203 226 255
203 226 255
203 226 255
203 226 255
204 226 255
204 226 255
204 226 255
204 226 255
204 226 255
204 226 255
204 226 255
204 226 255
204 226 255
204 226 255
204 226 255
204 226 255
204 226 255
204 226 255
204 226 255
204 226 255
204 226 255
204 226 255
205 226 255
205 226 255
205 226 255
205 226 255
205 226 255
205 226 255
205 226 255
205 227 255
205 227 255
205 227 255
205 227 255
205 227 255
205 227 255
205 227 255
205 227 255
205 227 255
205 227 255
206 227 255
206 227 255
206 227 255
206 227 255
206 227 255
206 227 255
206 227 255
206 227 255
206 227 255
206 227 255
206 227 255
206 227 255
206 227 255
206 227 255
206 227 255
206 227 255
206 227 255
207 227 255
207 227 255
207 227 255
207 227 255
207 228 255
207 228 255
207 228 255
207 228 255
207 228 255
207 228 255
207 228 255
207 228 255
207 228 255
207 228 255
207 228 255
207 228 255
207 228 255
207 228 255
208 228 255
208 228 255
208 228 255
208 228 255
208 228 255
208 228 255
208 228 255
208 228 255
208 228 255
208 228 255
208 228 255
208 228 255
208 228 254
207 225 248
205 221 239
205 221 239
204 219 234
200 212 218
200 212 219
197 205 202
198 207 206
199 209 211
198 208 208
196 204 198
198 207 207
199 210 213
196 203 196
200 211 214
200 210 213
201 212 218
201 212 218
202 215 225
205 221 239
204 219 233
207 224 245
208 227 251
209 229 255
209 229 255
209 229 255
209 229 255
210 229 255
210 229 255
210 229 255
210 229 255
210 229 255
210 229 255
210 229 255
210 229 255
210 229 255
210 229 255
210 229 255
210 229 255
210 229 255
210 229 255
210 229 255
210 229 255
210 229 255
210 229 255
210 229 255
210 229 255
210 229 255
210 230 255
210 230 255
210 230 255
211 230 255
211 230 255
211 230 255
211 230 255
211 230 255
211 230 255
211 230 255
211 230 255
211 230 255
211 230 255
211 230 255
211 230 255
211 230 255
211 230 255
211 230 255
211 230 255
211 230 255
211 230 255
211 230 255
211 230 255
211 230 255
211 230 255
211 230 255
211 230 255
210 230 255
210 230 255
210 230 255
210 229 255
210 229 255
210 229 255
210 229 255
210 229 255
210 229 255
210 229 255
210 229 255
210 229 255
210 229 255
210 229 255
210 229 255
208 227 253
205 224 250
200 219 245
199 218 244
194 214 240
191 210 236
189 208 234
188 208 234
185 204 231
182 202 228
181 202 228
181 201 228
180 201 228
180 201 228
180 201 228
180 201 228
179 200 228
179 200 228
179 200 228
179 200 228
178 200 228
178 200 228
178 200 228
178 200 228
178 200 228
178 200 228
178 200 228
178 200 228
179 200 228
179 200 228
179 200 228
179 200 228
180 201 228
181 202 230
184 204 232
188 208 235
192 212 239
197 217 244
196 216 243
201 221 248
204 224 251
206 226 253
208 228 255
208 228 255
208 228 255
208 228 255
208 228 255
208 228 255
208 228 255
207 228 255
207 228 255
207 228 255
207 228 255
207 228 255
207 228 255
207 228 255
207 228 255
207 228 255
207 228 255
207 228 255
207 228 255
207 228 255
207 227 255
207 227 255
207 227 255
207 227 255
206 227 255
206 227 255
206 227 255
206 227 255
206 227 255
206 227 255
206 227 255
206 227 255
206 227 255
206 227 255
206 227 255
206 227 255
206 227 255
206 227 255
206 227 255
206 227 255
206 227 255
206 227 255
205 227 255
205 227 255
205 227 255
205 227 255
205 227 255
205 227 255
205 227 255
205 227 255
205 227 255
205 227 255
205 226 255
205 226 255
205 226 255
205 226 255
205 226 255
205 226 255
205 226 255
204 226 255
204 226 255
204 226 255
204 226 255
204 226 255
204 226 255
204 226 255
204 226 255
204 226 255
204 226 255
204 226 255
204 226 255
204 226 255
204 226 255
204 226 255
204 226 255
204 226 255
204 226 255
204 226 255
203 226 255
203 226 255
203 226 255
203 226 255
203 226 255
203 226 255
203 226 255
203 226 255
203 226 255
203 226 255
203 225 255
203 225 255
203 225 255
203 225 255
203 225 255
203 225 255
203 225 255
203 225 255
203 225 255
203 225 255
203 225 255
203 225 255
203 225 255
203 225 255
203 225 255
202 225 255
202 225 255
202 225 255
202 225 255
202 225 255
202 225 255
202 225 255
202 225 255
202 225 255
202 225 255
202 225 255
202 225 255
202 225 255
202 225 255
202 225 255
202 225 255
202 225 255
202 225 255
202 225 255
202 225 255
202 225 255
202 225 255
202 225 255
202 225 255
202 225 255
202 225 255
202 225 255
202 225 255
202 225 255
202 225 255
202 225 255
202 225 255
202 225 255
202 225 255
202 225 255
202 225 255
202 225 255
202 225 255
202 225 255
202 225 255
202 225 255
202 225 255
202 225 255
202 225 255
202 225 255
202 225 255
202 225 255
202 225 255
202 225 255
202 225 255
202 225 255
202 225 255
203 225 255
203 225 255
203 225 255
203 225 255
203 225 255
203 225 255
203 225 255
203 225 255
203 225 255
203 225 255
203 225 255
203 225 255
203 225 255
203 225 255
203 225 255
203 225 255
203 226 255
203 226 255
203 226 255
203 226 255
203 226 255
203 226 255
203 226 255
203 226 255
203 226 255
204 226 255
204 226 255
204 226 255
204 226 255
204 226 255
204 226 255
204 226 255
204 226 255
204 226 255
204 226 255
204 226 255
204 226 255
204 226 255
204 226 255
204 226 255
204 226 255
204 226 255
204 226 255
204 226 255
205 226 255
205 226 255
205 226 255
205 226 255
205 226 255
205 226 255
205 226 255
205 227 255
205 227 255
205 227 255
205 227 255
205 227 255
205 227 255
205 227 255
205 227 255
205 227 255
205 227 255
206 227 255
206 227 255
206 227 255
206 227 255
206 227 255
206 227 255
206 227 255
206 227 255
206 227 255
206 227 255
206 227 255
206 227 255
206 227 255
206 227 255
206 227 255
206 227 255
206 227 255
206 227 255
207 227 255
207 227 255
207 227 255
207 227 255
207 228 255
207 228 255
207 228 255
207 228 255
207 228 255
207 228 255
207 228 255
207 228 255
207 228 255
207 228 255
207 228 255
207 228 255
207 228 255
208 228 255
208 228 255
208 228 255
208 228 255
208 228 255
208 228 255
208 228 255
207 226 250
204 220 237
199 211 217
197 206 206
194 202 195
190 193 172
188 190 163
185 185 150
181 176 121
180 174 114
179 174 114
179 173 114
179 173 114
179 173 114
178 173 114
178 173 114
178 173 114
178 173 114
178 173 114
178 173 114
178 173 114
179 173 114
178 173 114
179 173 114
179 173 114
179 173 114
179 174 114
180 174 114
180 174 114
181 174 114
181 174 114
181 174 114
182 175 116
184 179 129
188 186 150
189 188 156
192 194 172
195 199 186
200 210 213
203 215 224
207 223 243
209 227 250
210 229 255
210 229 255
210 229 255
210 229 255
210 229 255
210 229 255
210 229 255
210 229 255
210 229 255
210 229 255
210 229 255
210 229 255
210 230 255
210 230 255
210 230 255
211 230 255
211 230 255
211 230 255
211 230 255
211 230 255
211 230 255
211 230 255
211 230 255
211 230 255
211 230 255
211 230 255
211 230 255
211 230 255
211 230 255
211 230 255
211 230 255
211 230 255
211 230 255
211 230 255
211 230 255
211 230 255
211 230 255
211 230 255
211 230 255
211 230 255
211 230 255
211 230 255
211 230 255
211 230 255
211 230 255
211 230 255
211 230 255
210 230 255
210 230 255
210 230 255
210 229 255
210 229 255
209 228 254
201 220 246
201 220 246
195 214 239
192 211 237
186 205 231
183 202 228
182 202 228
181 201 228
181 201 228
180 201 228
180 201 228
179 200 228
179 200 228
178 200 228
178 200 228
178 199 228
177 199 228
177 199 228
177 199 228
176 199 228
176 199 228
176 199 228
176 198 228
175 198 228
175 198 228
175 198 228
175 198 228
175 198 228
175 198 228
175 198 228
175 198 228
175 198 228
175 198 228
175 198 228
175 198 228
175 198 228
175 198 228
175 198 228
175 198 228
175 198 228
176 198 228
176 199 228
176 199 228
177 199 228
177 199 228
178 200 228
179 200 228
183 204 232
186 207 234
191 212 239
196 217 244
200 220 247
206 226 253
208 228 255
208 228 255
208 228 255
208 228 255
207 228 255
207 228 255
207 228 255
207 228 255
207 228 255
207 228 255
207 228 255
207 228 255
207 228 255
207 228 255
207 228 255
207 228 255
207 228 255
207 228 255
207 227 255
207 227 255
207 227 255
207 227 255
206 227 255
206 227 255
206 227 255
206 227 255
206 227 255
206 227 255
206 227 255
206 227 255
206 227 255
206 227 255
206 227 255
206 227 255
206 227 255
206 227 255
206 227 255
206 227 255
206 227 255
205 227 255
205 227 255
205 227 255
205 227 255
205 227 255
205 227 255
205 227 255
205 227 255
205 227 255
205 227 255
205 227 255
205 226 255
205 226 255
205 226 255
205 226 255
205 226 255
205 226 255
205 226 255
204 226 255
204 226 255
204 226 255
204 226 255
204 226 255
204 226 255
204 226 255
204 226 255
204 226 255
204 226 255
204 226 255
204 226 255
204 226 255
204 226 255
204 226 255
204 226 255
204 226 255
204 226 255
204 226 255
204 226 255
203 226 255
203 226 255
203 226 255
203 226 255
203 226 255
203 226 255
203 226 255
203 226 255
203 226 255
203 226 255
203 226 255
203 225 255
203 225 255
203 225 255
203 225 255
203 225 255
203 225 255
203 225 255
203 225 255
203 225 255
203 225 255
203 225 255
203 225 255
203 225 255
203 225 255
203 225 255
203 225 255
203 225 255
203 225 255
203 225 255
202 225 255
202 225 255
202 225 255
202 225 255
202 225 255
202 225 255
202 225 255
202 225 255
202 225 255
202 225 255
202 225 255
202 225 255
202 225 255
202 225 255
202 225 255
202 225 255
202 225 255
202 225 255
202 225 255
202 225 255
202 225 255
202 225 255
202 225 255
202 225 255
202 225 255
202 225 255
202 225 255
202 225 255
202 225 255
202 225 255
202 225 255
202 225 255
203 225 255
203 225 255
203 225 255
203 225 255
203 225 255
203 225 255
203 225 255
203 225 255
203 225 255
203 225 255
203 225 255
203 225 255
203 225 255
203 225 255
203 225 255
203 225 255
203 225 255
203 225 255
203 225 255
203 225 255
203 226 255
203 226 255
203 226 255
203 226 255
203 226 255
203 226 255
203 226 255
203 226 255
203 226 255
203 226 255
204 226 255
204 226 255
204 226 255
204 226 255
204 226 255
204 226 255
204 226 255
204 226 255
204 226 255
204 226 255
204 226 255
204 226 255
204 226 255
204 226 255
204 226 255
204 226 255
204 226 255
204 226 255
204 226 255
204 226 255
205 226 255
205 226 255
205 226 255
205 226 255
205 226 255
205 226 255
205 226 255
205 227 255
205 227 255
205 227 255
205 227 255
205 227 255
205 227 255
205 227 255
205 227 255
205 227 255
205 227 255
205 227 255
206 227 255
206 227 255
206 227 255
206 227 255
206 227 255
206 227 255
206 227 255
206 227 255
206 227 255
206 227 255
206 227 255
206 227 255
206 227 255
206 227 255
206 227 255
206 227 255
206 227 255
207 227 255
207 227 255
207 227 255
207 227 255
207 228 255
207 228 255
207 228 255
207 228 255
207 228 255
207 228 255
207 228 255
207 228 255
207 228 255
207 228 255
207 228 255
207 228 255
207 228 255
207 228 255
208 228 255
208 228 255
208 228 255
208 228 255
206 224 247
200 213 223
196 206 204
194 202 195
188 191 166
182 178 131
179 173 114
178 173 114
178 173 114
177 172 114
176 172 114
176 172 114
176 172 114
175 172 114
175 172 114
175 172 114
175 171 114
175 171 114
175 171 114
175 171 114
175 171 114
175 171 114
175 171 114
175 171 114
175 171 114
175 171 114
175 172 114
175 172 114
175 172 114
176 172 114
176 172 114
176 172 114
176 172 114
176 172 114
177 172 114
177 172 114
177 173 114
178 173 114
178 173 114
178 173 114
179 173 114
179 173 114
180 174 114
180 174 114
180 174 114
181 174 114
182 175 114
183 175 114
186 182 137
189 188 155
195 199 186
197 202 192
204 217 228
209 227 249
210 229 255
210 229 255
210 230 255
210 230 255
210 230 255
211 230 255
211 230 255
211 230 255
211 230 255
211 230 255
211 230 255
211 230 255
211 230 255
211 230 255
211 230 255
211 230 255
211 230 255
211 230 255
211 230 255
211 230 255
211 230 255
211 230 255
211 230 255
211 230 255
211 230 255
211 230 255
211 230 255
211 230 255
211 230 255
211 230 255
211 230 255
211 230 255
211 230 255
211 230 255
211 230 255
211 230 255
211 230 255
211 230 255
211 230 255
211 230 255
211 230 255
208 227 252
205 223 249
196 215 240
192 210 236
189 208 233
183 203 228
182 202 228
181 202 228
181 201 228
180 201 228
180 201 228
179 200 228
179 200 228
178 200 228
178 200 228
177 199 228
177 199 228
177 199 228
176 199 228
176 199 228
176 198 228
175 198 228
175 198 228
175 198 228
175 198 228
174 198 228
174 198 228
174 197 228
174 197 228
173 197 228
173 197 228
173 197 228
173 197 228
173 197 228
173 197 228
173 197 228
172 197 228
172 197 228
172 197 228
172 197 228
172 197 228
172 197 228
172 197 228
172 197 228
172 197 228
172 197 228
173 197 228
173 197 228
173 197 228
173 197 228
173 197 228
174 197 228
174 198 228
175 198 228
175 198 228
176 198 228
176 199 228
177 199 228
178 200 228
181 202 230
189 210 237
193 213 240
199 219 247
204 224 251
208 228 255
208 228 255
208 228 255
207 228 255
207 228 255
207 228 255
207 228 255
207 228 255
207 228 255
207 228 255
207 228 255
207 228 255
207 228 255
207 228 255
207 228 255
207 228 255
207 227 255
207 227 255
207 227 255
207 227 255
207 227 255
206 227 255
206 227 255
206 227 255
206 227 255
206 227 255
206 227 255
206 227 255
206 227 255
206 227 255
206 227 255
206 227 255
206 227 255
206 227 255
206 227 255
206 227 255
206 227 255
206 227 255
205 227 255
205 227 255
205 227 255
205 227 255
205 227 255
205 227 255
205 227 255
205 227 255
205 227 255
205 227 255
205 227 255
205 226 255
205 226 255
205 226 255
205 226 255
205 226 255
205 226 255
205 226 255
204 226 255
204 226 255
204 226 255
204 226 255
204 226 255
204 226 255
204 226 255
204 226 255
204 226 255
204 226 255
204 226 255
204 226 255
204 226 255
204 226 255
204 226 255
204 226 255
204 226 255
204 226 255
204 226 255
204 226 255
204 226 255
204 226 255
203 226 255
203 226 255
203 226 255
203 226 255
203 226 255
203 226 255
203 226 255
203 226 255
203 226 255
203 226 255
203 226 255
203 225 255
203 225 255
203 225 255
203 225 255
203 225 255
203 225 255
203 225 255
203 225 255
203 225 255
203 225 255
203 225 255
203 225 255
203 225 255
203 225 255
203 225 255
203 225 255
203 225 255
203 225 255
203 225 255
203 225 255
203 225 255
203 225 255
203 225 255
203 225 255
203 225 255
203 225 255
203 225 255
203 225 255
203 225 255
203 225 255
203 225 255
203 225 255
203 225 255
203 225 255
203 225 255
203 225 255
203 225 255
203 225 255
203 225 255
203 225 255
203 225 255
203 225 255
203 225 255
203 225 255
203 225 255
203 225 255
203 225 255
203 225 255
203 225 255
203 225 255
203 225 255
203 225 255
203 225 255
203 225 255
203 225 255
203 225 255
203 225 255
203 225 255
203 226 255
203 226 255
203 226 255
203 226 255
203 226 255
203 226 255
203 226 255
203 226 255
203 226 255
203 226 255
203 226 255
203 226 255
204 226 255
204 226 255
204 226 255
204 226 255
204 226 255
204 226 255
204 226 255
204 226 255
204 226 255
204 226 255
204 226 255
204 226 255
204 226 255
204 226 255
204 226 255
204 226 255
204 226 255
204 226 255
204 226 255
204 226 255
204 226 255
205 226 255
205 226 255
205 226 255
205 226 255
205 226 255
205 226 255
205 226 255
205 227 255
205 227 255
205 227 255
205 227 255
205 227 255
205 227 255
205 227 255
205 227 255
205 227 255
205 227 255
205 227 255
206 227 255
206 227 255
206 227 255
206 227 255
206 227 255
206 227 255
206 227 255
206 227 255
206 227 255
206 227 255
206 227 255
206 227 255
206 227 255
206 227 255
206 227 255
206 227 255
206 227 255
206 227 255
207 227 255
207 227 255
207 227 255
207 227 255
207 228 255
207 228 255
207 228 255
207 228 255
207 228 255
207 228 255
207 228 255
207 228 255
207 228 255
207 228 255
207 228 255
207 228 255
207 228 255
208 228 255
208 228 255
208 228 255
206 225 248
199 212 219
197 207 208
189 192 171
182 180 135
178 173 114
177 172 114
176 172 114
176 172 114
175 172 114
174 171 114
174 171 114
174 171 114
173 171 114
173 171 114
173 171 114
173 170 114
173 170 114
173 170 114
172 170 114
172 170 114
172 170 114
172 170 114
172 170 114
172 170 114
172 170 114
172 170 114
172 170 114
173 170 114
173 170 114
173 170 114
173 171 114
173 171 114
173 171 114
173 171 114
174 171 114
174 171 114
174 171 114
174 171 114
175 171 114
175 171 114
175 172 114
175 172 114
176 172 114
176 172 114
176 172 114
177 172 114
177 172 114
177 173 114
178 173 114
178 173 114
179 173 114
179 173 114
179 174 114
180 174 114
181 174 114
181 174 114
182 175 114
183 175 114
186 180 129
191 191 161
197 203 192
203 215 221
209 226 248
211 230 255
211 230 255
211 230 255
211 230 255
211 230 255
211 230 255
211 230 255
211 230 255
211 230 255
211 230 255
211 230 255
211 230 255
211 230 255
211 230 255
211 230 255
211 230 255
211 230 255
211 230 255
211 230 255
211 230 255
211 230 255
211 230 255
211 230 255
211 230 255
211 230 255
211 230 255
211 230 255
211 230 255
211 230 255
211 230 255
211 230 255
211 230 255
206 225 250
202 220 246
196 214 239
187 206 231
184 203 228
183 202 228
182 202 228
181 201 228
181 201 228
180 201 228
179 200 228
179 200 228
178 200 228
178 200 228
177 199 228
177 199 228
177 199 228
176 199 228
176 199 228
176 198 228
175 198 228
175 198 228
175 198 228
174 198 228
174 198 228
174 197 228
173 197 228
173 197 228
173 197 228
173 197 228
172 197 228
172 197 228
172 197 228
172 196 228
172 196 228
171 196 228
171 196 228
171 196 228
171 196 228
171 196 228
171 196 228
171 196 228
171 196 228
170 196 228
170 196 228
170 196 228
170 196 228
170 196 228
170 196 228
170 196 228
170 196 228
171 196 228
171 196 228
171 196 228
171 196 228
171 196 228
171 196 228
172 196 228
172 196 228
172 197 228
173 197 228
173 197 228
174 197 228
174 198 228
175 198 228
176 199 228
177 199 228
178 200 228
184 205 233
188 209 236
198 219 246
203 223 250
208 228 255
208 228 255
208 228 255
207 228 255
207 228 255
207 228 255
207 228 255
207 228 255
207 228 255
207 228 255
207 228 255
207 228 255
207 228 255
207 228 255
207 228 255
207 228 255
207 227 255
207 227 255
207 227 255
207 227 255
206 227 255
206 227 255
206 227 255
206 227 255
206 227 255
206 227 255
206 227 255
206 227 255
206 227 255
206 227 255
206 227 255
206 227 255
206 227 255
206 227 255
206 227 255
206 227 255
206 227 255
206 227 255
205 227 255
205 227 255
205 227 255
205 227 255
205 227 255
205 227 255
205 227 255
205 227 255
205 227 255
205 227 255
205 227 255
205 226 255
205 226 255
205 226 255
205 226 255
205 226 255
205 226 255
205 226 255
204 226 255
204 226 255
204 226 255
204 226 255
204 226 255
204 226 255
204 226 255
204 226 255
204 226 255
204 226 255
204 226 255
204 226 255
204 226 255
204 226 255
204 226 255
204 226 255
204 226 255
204 226 255
204 226 255
204 226 255
204 226 255
204 226 255
204 226 255
203 226 255
203 226 255
203 226 255
203 226 255
203 226 255
203 226 255
203 226 255
203 226 255
203 226 255
203 226 255
203 226 255
203 226 255
203 226 255
203 226 255
203 226 255
203 225 255
203 225 255
203 225 255
203 225 255
203 225 255
203 225 255
203 225 255
203 225 255
203 225 255
203 225 255
203 225 255
203 225 255
203 225 255
203 225 255
203 225 255
203 225 255
203 225 255
203 225 255
203 225 255
203 225 255
203 225 255
203 225 255
203 225 255
203 225 255
203 225 255
203 225 255
203 225 255
203 225 255
203 225 255
203 225 255
203 225 255
203 225 255
203 225 255
203 225 255
203 225 255
203 225 255
203 225 255
203 225 255
203 225 255
203 225 255
203 226 255
203 226 255
203 226 255
203 226 255
203 226 255
203 226 255
203 226 255
203 226 255
203 226 255
203 226 255
203 226 255
203 226 255
203 226 255
203 226 255
203 226 255
204 226 255
204 226 255
204 226 255
204 226 255
204 226 255
204 226 255
204 226 255
204 226 255
204 226 255
204 226 255
204 226 255
204 226 255
204 226 255
204 226 255
204 226 255
204 226 255
204 226 255
204 226 255
204 226 255
204 226 255
204 226 255
204 226 255
205 226 255
205 226 255
205 226 255
205 226 255
205 226 255
205 226 255
205 226 255
205 226 255
205 227 255
205 227 255
205 227 255
205 227 255
205 227 255
205 227 255
205 227 255
205 227 255
205 227 255
205 227 255
205 227 255
206 227 255
206 227 255
206 227 255
206 227 255
206 227 255
206 227 255
206 227 255
206 227 255
206 227 255
206 227 255
206 227 255
206 227 255
206 227 255
206 227 255
206 227 255
206 227 255
206 227 255
206 227 255
207 227 255
207 227 255
207 227 255
207 227 255
207 228 255
207 228 255
207 228 255
207 228 255
207 228 255
207 228 255
207 228 255
207 228 255
207 228 255
207 228 255
207 228 255
207 228 255
207 228 255
208 228 255
208 228 255
207 228 254
206 224 247
200 212 220
191 197 183
182 178 131
178 173 114
177 172 114
176 172 114
175 171 114
174 171 114
173 171 114
173 171 114
173 170 114
172 170 114
172 170 114
171 170 114
171 170 114
171 170 114
171 170 114
171 170 114
170 169 114
170 169 114
170 169 114
170 169 114
170 169 114
170 169 114
170 169 114
170 169 114
170 169 114
170 169 114
170 169 114
171 170 114
171 170 114
171 170 114
171 170 114
171 170 114
171 170 114
171 170 114
172 170 114
172 170 114
172 170 114
172 170 114
172 170 114
173 170 114
173 171 114
173 171 114
173 171 114
174 171 114
174 171 114
174 171 114
175 171 114
175 171 114
175 172 114
176 172 114
176 172 114
176 172 114
177 172 114
177 172 114
178 173 114
178 173 114
178 173 114
179 173 114
179 174 114
180 174 114
181 174 114
181 174 114
182 175 114
183 175 114
184 175 114
188 185 144
193 194 169
201 210 211
208 224 242
211 230 255
211 230 255
211 230 255
211 230 255
211 230 255
211 230 255
211 230 255
211 230 255
211 230 255
211 230 255
211 230 255
211 230 255
211 230 255
211 230 255
212 230 255
212 230 255
212 230 255
212 230 255
211 230 255
211 230 255
211 230 255
211 230 255
211 230 255
211 230 255
210 229 254
205 223 248
197 215 240
188 206 231
184 203 228
183 202 228
182 202 228
181 202 228
181 201 228
180 201 228
180 201 228
179 200 228
179 200 228
178 200 228
178 200 228
177 199 228
177 199 228
176 199 228
176 199 228
176 198 228
175 198 228
175 198 228
175 198 228
174 198 228
174 198 228
174 197 228
173 197 228
173 197 228
173 197 228
172 197 228
172 197 228
172 196 228
172 196 228
171 196 228
171 196 228
171 196 228
171 196 228
171 196 228
170 196 228
170 196 228
170 195 228
170 195 228
170 195 228
170 195 228
169 195 228
169 195 228
169 195 228
169 195 228
169 195 228
169 195 228
169 195 228
169 195 228
169 195 228
169 195 228
169 195 228
169 195 228
169 195 228
169 195 228
169 195 228
169 195 228
169 195 228
169 195 228
170 195 228
170 195 228
170 196 228
170 196 228
171 196 228
171 196 228
171 196 228
172 196 228
172 197 228
173 197 228
174 197 228
175 198 228
176 199 228
177 199 228
182 203 231
190 210 238
200 221 248
205 226 253
208 228 255
208 228 255
207 228 255
207 228 255
207 228 255
207 228 255
207 228 255
207 228 255
207 228 255
207 228 255
207 228 255
207 228 255
207 228 255
207 228 255
207 228 255
207 228 255
207 227 255
207 227 255
207 227 255
207 227 255
206 227 255
206 227 255
206 227 255
206 227 255
206 227 255
206 227 255
206 227 255
206 227 255
206 227 255
206 227 255
206 227 255
206 227 255
206 227 255
206 227 255
206 227 255
206 227 255
206 227 255
206 227 255
205 227 255
205 227 255
205 227 255
205 227 255
205 227 255
205 227 255
205 227 255
205 227 255
205 227 255
205 227 255
205 227 255
205 226 255
205 226 255
205 226 255
205 226 255
205 226 255
205 226 255
205 226 255
205 226 255
204 226 255
204 226 255
204 226 255
204 226 255
204 226 255
204 226 255
204 226 255
204 226 255
204 226 255
204 226 255
204 226 255
204 226 255
204 226 255
204 226 255
204 226 255
204 226 255
204 226 255
204 226 255
204 226 255
204 226 255
204 226 255
204 226 255
204 226 255
204 226 255
204 226 255
203 226 255
203 226 255
203 226 255
203 226 255
203 226 255
203 226 255
203 226 255
203 226 255
203 226 255
203 226 255
203 226 255
203 226 255
203 226 255
203 226 255
203 226 255
203 226 255
203 226 255
203 226 255
203 226 255
203 226 255
203 226 255
203 226 255
203 226 255
203 226 255
203 226 255
203 226 255
203 226 255
203 226 255
203 226 255
203 226 255
203 226 255
203 226 255
203 226 255
203 226 255
203 226 255
203 226 255
203 226 255
203 226 255
203 226 255
203 226 255
203 226 255
203 226 255
203 226 255
203 226 255
203 226 255
203 226 255
203 226 255
203 226 255
203 226 255
203 226 255
203 226 255
203 226 255
203 226 255
203 226 255
203 226 255
204 226 255
204 226 255
204 226 255
204 226 255
204 226 255
204 226 255
204 226 255
204 226 255
204 226 255
204 226 255
204 226 255
204 226 255
204 226 255
204 226 255
204 226 255
204 226 255
204 226 255
204 226 255
204 226 255
204 226 255
204 226 255
204 226 255
204 226 255
204 226 255
204 226 255
204 226 255
205 226 255
205 226 255
205 226 255
205 226 255
205 226 255
205 226 255
205 226 255
205 226 255
205 227 255
205 227 255
205 227 255
205 227 255
205 227 255
205 227 255
205 227 255
205 227 255
205 227 255
205 227 255
205 227 255
206 227 255
206 227 255
206 227 255
206 227 255
206 227 255
206 227 255
206 227 255
206 227 255
206 227 255
206 227 255
206 227 255
206 227 255
206 227 255
206 227 255
206 227 255
206 227 255
206 227 255
206 227 255
207 227 255
207 227 255
207 227 255
207 227 255
207 228 255
207 228 255
207 228 255
207 228 255
207 228 255
207 228 255
207 228 255
207 228 255
207 228 255
207 228 255
207 228 255
207 228 255
207 228 255
207 228 255
208 228 255
208 228 255
206 224 247
200 212 220
194 201 194
182 178 131
177 173 114
176 172 114
175 171 114
174 171 114
173 171 114
173 170 114
172 170 114
171 170 114
171 170 114
170 169 114
170 169 114
170 169 114
170 169 114
169 169 114
169 169 114
169 169 114
169 169 114
169 169 114
169 169 114
169 169 114
169 169 114
169 169 114
169 169 114
169 169 114
169 169 114
169 169 114
169 169 114
169 169 114
169 169 114
169 169 114
169 169 114
169 169 114
170 169 114
170 169 114
170 169 114
170 169 114
170 169 114
170 169 114
171 169 114
171 170 114
171 170 114
171 170 114
171 170 114
172 170 114
172 170 114
172 170 114
172 170 114
173 170 114
173 171 114
173 171 114
174 171 114
174 171 114
174 171 114
175 171 114
175 171 114
175 172 114
176 172 114
176 172 114
176 172 114
177 172 114
177 173 114
178 173 114
178 173 114
179 173 114
179 173 114
180 174 114
180 174 114
181 174 114
181 175 114
182 175 114
183 175 114
184 176 114
189 184 141
196 200 184
202 211 213
209 225 245
211 230 255
211 230 255
211 230 255
211 230 255
211 230 255
211 230 255
212 230 255
212 230 255
212 230 255
212 230 255
212 230 255
212 230 255
212 230 255
212 230 255
212 230 255
212 230 255
212 230 255
207 225 250
200 218 243
192 210 235
185 204 229
184 203 228
183 202 228
182 202 228
181 201 228
181 201 228
180 201 228
180 201 228
179 200 228
179 200 228
178 200 228
178 200 228
177 199 228
177 199 228
176 199 228
176 199 228
176 198 228
175 198 228
175 198 228
175 198 228
174 198 228
174 197 228
174 197 228
173 197 228
173 197 228
173 197 228
172 197 228
172 197 228
172 196 228
171 196 228
171 196 228
171 196 228
171 196 228
170 196 228
170 196 228
170 195 228
170 195 228
170 195 228
169 195 228
169 195 228
169 195 228
169 195 228
169 195 228
169 195 228
168 195 228
168 195 228
168 194 228
168 194 228
168 194 228
168 194 228
168 194 228
168 194 228
167 194 228
167 194 228
167 194 228
167 194 228
167 194 228
167 194 228
167 194 228
168 194 228
168 194 228
168 194 228
168 194 228
168 194 228
168 195 228
168 195 228
168 195 228
169 195 228
169 195 228
169 195 228
170 195 228
170 196 228
171 196 228
171 196 228
172 197 228
173 197 228
174 197 228
175 198 228
176 199 228
178 200 228
186 207 235
195 215 242
203 223 250
208 228 255
208 228 255
208 228 255
207 228 255
207 228 255
207 228 255
207 228 255
207 228 255
207 228 255
207 228 255
207 228 255
207 228 255
207 228 255
207 228 255
207 228 255
207 228 255
207 228 255
207 227 255
207 227 255
207 227 255
207 227 255
206 227 255
206 227 255
206 227 255
206 227 255
206 227 255
206 227 255
206 227 255
206 227 255
206 227 255
206 227 255
206 227 255
206 227 255
206 227 255
206 227 255
206 227 255
206 227 255
206 227 255
206 227 255
206 227 255
205 227 255
205 227 255
205 227 255
205 227 255
205 227 255
205 227 255
205 227 255
205 227 255
205 227 255
205 227 255
205 227 255
205 226 255
205 226 255
205 226 255
205 226 255
205 226 255
205 226 255
205 226 255
205 226 255
204 226 255
204 226 255
204 226 255
204 226 255
204 226 255
204 226 255
204 226 255
204 226 255
204 226 255
204 226 255
204 226 255
204 226 255
204 226 255
204 226 255
204 226 255
204 226 255
204 226 255
204 226 255
204 226 255
204 226 255
204 226 255
204 226 255
204 226 255
204 226 255
204 226 255
204 226 255
204 226 255
204 226 255
204 226 255
204 226 255
203 226 255
203 226 255
203 226 255
203 226 255
203 226 255
203 226 255
203 226 255
203 226 255
203 226 255
203 226 255
203 226 255
203 226 255
203 226 255
203 226 255
203 226 255
203 226 255
203 226 255
203 226 255
203 226 255
203 226 255
203 226 255
203 226 255
203 226 255
203 226 255
203 226 255
203 226 255
203 226 255
203 226 255
203 226 255
203 226 255
203 226 255
203 226 255
203 226 255
203 226 255
203 226 255
203 226 255
204 226 255
204 226 255
204 226 255
204 226 255
204 226 255
204 226 255
204 226 255
204 226 255
204 226 255
204 226 255
204 226 255
204 226 255
204 226 255
204 226 255
204 226 255
204 226 255
204 226 255
204 226 255
204 226 255
204 226 255
204 226 255
204 226 255
204 226 255
204 226 255
204 226 255
204 226 255
204 226 255
204 226 255
204 226 255
204 226 255
205 226 255
205 226 255
205 226 255
205 226 255
205 226 255
205 226 255
205 226 255
205 226 255
205 227 255
205 227 255
205 227 255
205 227 255
205 227 255
205 227 255
205 227 255
205 227 255
205 227 255
205 227 255
205 227 255
205 227 255
206 227 255
206 227 255
206 227 255
206 227 255
206 227 255
206 227 255
206 227 255
206 227 255
206 227 255
206 227 255
206 227 255
206 227 255
206 227 255
206 227 255
206 227 255
206 227 255
206 227 255
206 227 255
207 227 255
207 227 255
207 227 255
207 227 255
207 228 255
207 228 255
207 228 255
207 228 255
207 228 255
207 228 255
207 228 255
207 228 255
207 228 255
207 228 255
207 228 255
207 228 255
207 228 255
207 228 255
208 228 255
208 228 255
208 228 255
204 220 237
194 202 196
185 184 148
178 173 114
176 172 114
175 172 114
174 171 114
173 171 114
172 170 114
171 170 114
171 170 114
170 169 114
170 169 114
169 169 114
169 169 114
169 169 114
169 169 114
168 168 114
168 168 114
168 168 114
168 168 114
168 168 114
168 168 114
167 168 114
167 168 114
167 168 114
167 168 114
167 168 114
167 168 114
167 168 114
168 168 114
168 168 114
168 168 114
168 168 114
168 168 114
168 168 114
168 168 114
168 168 114
168 168 114
169 169 114
169 169 114
169 169 114
169 169 114
169 169 114
169 169 114
170 169 114
170 169 114
170 169 114
170 169 114
170 169 114
171 170 114
171 170 114
171 170 114
171 170 114
172 170 114
172 170 114
172 170 114
173 170 114
173 171 114
173 171 114
173 171 114
174 171 114
174 171 114
174 171 114
175 171 114
175 172 114
176 172 114
176 172 114
176 172 114
177 172 114
177 173 114
178 173 114
178 173 114
179 173 114
179 173 114
180 174 114
180 174 114
181 174 114
181 174 114
182 175 114
183 175 114
184 176 114
185 177 116
191 188 153
199 204 194
208 223 240
212 230 255
212 230 255
212 230 255
212 230 255
212 230 255
212 230 255
212 230 255
212 230 255
212 230 255
212 230 255
212 230 255
204 222 247
197 215 240
189 208 232
185 203 228
184 203 228
183 202 228
182 202 228
181 202 228
181 201 228
180 201 228
180 201 228
179 200 228
179 200 228
178 200 228
178 200 228
177 199 228
177 199 228
177 199 228
176 199 228
176 198 228
175 198 228
175 198 228
175 198 228
174 198 228
174 198 228
174 197 228
173 197 228
173 197 228
173 197 228
172 197 228
172 197 228
172 196 228
171 196 228
171 196 228
171 196 228
171 196 228
170 196 228
170 196 228
170 195 228
170 195 228
169 195 228
169 195 228
169 195 228
169 195 228
169 195 228
168 195 228
168 195 228
168 194 228
168 194 228
168 194 228
167 194 228
167 194 228
167 194 228
167 194 228
167 194 228
167 194 228
167 194 228
167 194 228
167 194 228
166 194 228
166 194 228
166 194 228
166 194 228
166 194 228
166 194 228
166 194 228
166 194 228
166 194 228
166 194 228
166 194 228
167 194 228
167 194 228
167 194 228
167 194 228
167 194 228
167 194 228
168 194 228
168 195 228
168 195 228
169 195 228
169 195 228
170 195 228
171 196 228
171 196 228
172 197 228
173 197 228
174 198 228
176 198 228
177 199 228
182 204 232
191 211 239
201 222 249
208 228 255
208 228 255
208 228 255
208 228 255
207 228 255
207 228 255
207 228 255
207 228 255
207 228 255
207 228 255
207 228 255
207 228 255
207 228 255
207 228 255
207 228 255
207 228 255
207 228 255
207 228 255
207 227 255
207 227 255
207 227 255
207 227 255
206 227 255
206 227 255
206 227 255
206 227 255
206 227 255
206 227 255
206 227 255
206 227 255
206 227 255
206 227 255
206 227 255
206 227 255
206 227 255
206 227 255
206 227 255
206 227 255
206 227 255
206 227 255
206 227 255
205 227 255
205 227 255
205 227 255
205 227 255
205 227 255
205 227 255
205 227 255
205 227 255
205 227 255
205 227 255
205 227 255
205 227 255
205 226 255
205 226 255
205 226 255
205 226 255
205 226 255
205 226 255
205 226 255
205 226 255
205 226 255
204 226 255
204 226 255
204 226 255
204 226 255
204 226 255
204 226 255
204 226 255
204 226 255
204 226 255
204 226 255
204 226 255
204 226 255
204 226 255
204 226 255
204 226 255
204 226 255
204 226 255
204 226 255
204 226 255
204 226 255
204 226 255
204 226 255
204 226 255
204 226 255
204 226 255
204 226 255
204 226 255
204 226 255
204 226 255
204 226 255
204 226 255
204 226 255
204 226 255
204 226 255
204 226 255
204 226 255
204 226 255
204 226 255
204 226 255
204 226 255
204 226 255
204 226 255
204 226 255
204 226 255
204 226 255
204 226 255
204 226 255
204 226 255
204 226 255
204 226 255
204 226 255
204 226 255
204 226 255
204 226 255
204 226 255
204 226 255
204 226 255
204 226 255
204 226 255
204 226 255
204 226 255
204 226 255
204 226 255
204 226 255
204 226 255
204 226 255
204 226 255
204 226 255
204 226 255
204 226 255
204 226 255
204 226 255
204 226 255
204 226 255
204 226 255
204 226 255
204 226 255
204 226 255
204 226 255
204 226 255
204 226 255
204 226 255
204 226 255
204 226 255
205 226 255
205 226 255
205 226 255
205 226 255
205 226 255
205 226 255
205 226 255
205 226 255
205 226 255
205 227 255
205 227 255
205 227 255
205 227 255
205 227 255
205 227 255
205 227 255
205 227 255
205 227 255
205 227 255
205 227 255
205 227 255
206 227 255
206 227 255
206 227 255
206 227 255
206 227 255
206 227 255
206 227 255
206 227 255
206 227 255
206 227 255
206 227 255
206 227 255
206 227 255
206 227 255
206 227 255
206 227 255
206 227 255
206 227 255
206 227 255
207 227 255
207 227 255
207 227 255
207 227 255
207 228 255
207 228 255
207 228 255
207 228 255
207 228 255
207 228 255
207 228 255
207 228 255
207 228 255
207 228 255
207 228 255
207 228 255
207 228 255
207 228 255
208 228 255
208 228 255
208 228 255
208 228 255
202 216 228
190 193 174
183 180 137
177 173 114
175 172 114
174 171 114
173 171 114
172 170 114
171 170 114
171 169 114
170 169 114
169 169 114
169 169 114
169 169 114
168 168 114
168 168 114
168 168 114
167 168 114
167 168 114
167 168 114
167 168 114
167 168 114
166 168 114
166 168 114
166 168 114
166 168 114
166 168 114
166 168 114
166 168 114
166 168 114
166 168 114
166 168 114
166 168 114
166 168 114
167 168 114
167 168 114
167 168 114
167 168 114
167 168 114
167 168 114
167 168 114
167 168 114
168 168 114
168 168 114
168 168 114
168 168 114
168 168 114
169 169 114
169 169 114
169 169 114
169 169 114
169 169 114
170 169 114
170 169 114
170 169 114
170 169 114
171 170 114
171 170 114
171 170 114
172 170 114
172 170 114
172 170 114
172 170 114
173 170 114
173 171 114
173 171 114
174 171 114
174 171 114
174 171 114
175 171 114
175 172 114
175 172 114
176 172 114
176 172 114
177 172 114
177 172 114
177 173 114
178 173 114
178 173 114
179 173 114
179 173 114
180 174 114
180 174 114
181 174 114
181 174 114
182 175 114
183 175 114
184 176 114
185 176 114
189 183 137
196 198 180
207 221 234
212 230 255
212 230 255
212 230 255
212 230 255
212 230 255
209 227 252
200 218 242
190 208 232
185 204 228
184 203 228
183 203 228
182 202 228
182 202 228
181 201 228
181 201 228
180 201 228
180 201 228
179 200 228
179 200 228
178 200 228
178 200 228
177 199 228
177 199 228
176 199 228
176 199 228
176 198 228
175 198 228
175 198 228
175 198 228
174 198 228
174 198 228
174 197 228
173 197 228
173 197 228
173 197 228
172 197 228
172 197 228
172 196 228
171 196 228
171 196 228
171 196 228
171 196 228
170 196 228
170 195 228
170 195 228
170 195 228
169 195 228
169 195 228
169 195 228
169 195 228
168 195 228
168 195 228
168 194 228
168 194 228
168 194 228
167 194 228
167 194 228
167 194 228
167 194 228
167 194 228
166 194 228
166 194 228
166 194 228
166 193 228
166 193 228
166 193 228
166 193 228
166 193 228
166 193 228
165 193 228
165 193 228
165 193 228
165 193 228
165 193 228
165 193 228
165 193 228
165 193 228
165 193 228
165 193 228
165 193 228
166 193 228
166 193 228
166 193 228
166 193 228
166 194 228
167 194 228
167 194 228
167 194 228
167 194 228
168 194 228
168 195 228
169 195 228
169 195 228
170 196 228
171 196 228
171 196 228
172 197 228
174 198 228
175 198 228
177 199 228
183 205 233
193 214 241
204 224 252
208 228 255
208 228 255
208 228 255
208 228 255
208 228 255
207 228 255
207 228 255
207 228 255
207 228 255
207 228 255
207 228 255
207 228 255
207 228 255
207 228 255
207 228 255
207 228 255
207 228 255
207 228 255
207 228 255
207 227 255
207 227 255
207 227 255
207 227 255
207 227 255
206 227 255
206 227 255
206 227 255
206 227 255
206 227 255
206 227 255
206 227 255
206 227 255
206 227 255
206 227 255
206 227 255
206 227 255
206 227 255
206 227 255
206 227 255
206 227 255
206 227 255
206 227 255
206 227 255
205 227 255
205 227 255
205 227 255
205 227 255
205 227 255
205 227 255
205 227 255
205 227 255
205 227 255
205 227 255
205 227 255
205 227 255
205 226 255
205 226 255
205 226 255
205 226 255
205 226 255
205 226 255
205 226 255
205 226 255
205 226 255
205 226 255
205 226 255
204 226 255
204 226 255
204 226 255
204 226 255
204 226 255
204 226 255
204 226 255
204 226 255
204 226 255
204 226 255
204 226 255
204 226 255
204 226 255
204 226 255
204 226 255
204 226 255
204 226 255
204 226 255
204 226 255
204 226 255
204 226 255
204 226 255
204 226 255
204 226 255
204 226 255
204 226 255
204 226 255
204 226 255
204 226 255
204 226 255
204 226 255
204 226 255
204 226 255
204 226 255
204 226 255
204 226 255
204 226 255
204 226 255
204 226 255
204 226 255
204 226 255
204 226 255
204 226 255
204 226 255
204 226 255
204 226 255
204 226 255
204 226 255
204 226 255
204 226 255
204 226 255
204 226 255
204 226 255
204 226 255
204 226 255
204 226 255
204 226 255
204 226 255
204 226 255
204 226 255
204 226 255
204 226 255
204 226 255
204 226 255
204 226 255
204 226 255
204 226 255
204 226 255
204 226 255
204 226 255
205 226 255
205 226 255
205 226 255
205 226 255
205 226 255
205 226 255
205 226 255
205 226 255
205 226 255
205 226 255
205 226 255
205 227 255
205 227 255
205 227 255
205 227 255
205 227 255
205 227 255
205 227 255
205 227 255
205 227 255
205 227 255
205 227 255
205 227 255
205 227 255
206 227 255
206 227 255
206 227 255
206 227 255
206 227 255
206 227 255
206 227 255
206 227 255
206 227 255
206 227 255
206 227 255
206 227 255
206 227 255
206 227 255
206 227 255
206 227 255
206 227 255
206 227 255
206 227 255
207 227 255
207 227 255
207 227 255
207 227 255
207 228 255
207 228 255
207 228 255
207 228 255
207 228 255
207 228 255
207 228 255
207 228 255
207 228 255
207 228 255
207 228 255
207 228 255
207 228 255
207 228 255
208 228 255
208 228 255
208 228 255
208 228 255
208 228 255
204 221 240
196 206 206
187 190 165
177 173 114
175 172 114
174 171 114
173 170 114
172 170 114
171 170 114
170 169 114
169 169 114
169 169 114
168 168 114
168 168 114
167 168 114
167 168 114
167 168 114
166 168 114
166 168 114
166 167 114
166 167 114
166 167 114
166 167 114
165 167 114
165 167 114
165 167 114
165 167 114
165 167 114
165 167 114
165 167 114
165 167 114
165 167 114
165 167 114
165 167 114
166 167 114
166 167 114
166 167 114
166 167 114
166 167 114
166 167 114
166 168 114
166 168 114
167 168 114
167 168 114
167 168 114
167 168 114
167 168 114
167 168 114
168 168 114
168 168 114
168 168 114
168 168 114
168 169 114
169 169 114
169 169 114
169 169 114
169 169 114
170 169 114
170 169 114
170 169 114
170 169 114
171 170 114
171 170 114
171 170 114
171 170 114
172 170 114
172 170 114
172 170 114
173 170 114
173 171 114
173 171 114
174 171 114
174 171 114
174 171 114
175 171 114
175 171 114
175 172 114
176 172 114
176 172 114
176 172 114
177 172 114
177 173 114
178 173 114
178 173 114
179 173 114
179 173 114
180 174 114
180 174 114
181 174 114
181 174 114
182 175 114
182 175 114
183 175 114
184 176 114
185 176 114
190 186 144
199 204 195
208 222 237
212 230 255
193 210 234
186 204 228
185 203 228
184 203 228
183 202 228
182 202 228
182 202 228
181 201 228
181 201 228
180 201 228
180 201 228
179 200 228
179 200 228
178 200 228
178 200 228
177 199 228
177 199 228
176 199 228
176 199 228
176 198 228
175 198 228
175 198 228
175 198 228
174 198 228
174 198 228
174 197 228
173 197 228
173 197 228
173 197 228
172 197 228
172 197 228
172 196 228
172 196 228
171 196 228
171 196 228
171 196 228
170 196 228
170 196 228
170 195 228
170 195 228
169 195 228
169 195 228
169 195 228
169 195 228
168 195 228
168 195 228
168 194 228
168 194 228
167 194 228
167 194 228
167 194 228
167 194 228
167 194 228
166 194 228
166 194 228
166 193 228
166 193 228
166 193 228
166 193 228
166 193 228
165 193 228
165 193 228
165 193 228
165 193 228
165 193 228
165 193 228
165 193 228
165 193 228
165 193 228
165 193 228
165 193 228
164 193 228
164 193 228
164 193 228
165 193 228
165 193 228
165 193 228
165 193 228
165 193 228
165 193 228
165 193 228
165 193 228
165 193 228
166 193 228
166 193 228
166 194 228
167 194 228
167 194 228
167 194 228
168 194 228
168 195 228
169 195 228
170 195 228
170 196 228
171 196 228
172 197 228
174 197 228
176 198 228
177 199 228
184 205 233
196 216 243
207 227 254
208 228 255
208 228 255
208 228 255
208 228 255
208 228 255
208 228 255
207 228 255
207 228 255
207 228 255
207 228 255
207 228 255
207 228 255
207 228 255
207 228 255
207 228 255
207 228 255
207 228 255
207 228 255
207 228 255
207 228 255
207 227 255
207 227 255
207 227 255
207 227 255
207 227 255
206 227 255
206 227 255
206 227 255
206 227 255
206 227 255
206 227 255
206 227 255
206 227 255
206 227 255
206 227 255
206 227 255
206 227 255
206 227 255
206 227 255
206 227 255
206 227 255
206 227 255
206 227 255
206 227 255
205 227 255
205 227 255
205 227 255
205 227 255
205 227 255
205 227 255
205 227 255
205 227 255
205 227 255
205 227 255
205 227 255
205 227 255
205 227 255
205 227 255
205 226 255
205 226 255
205 226 255
205 226 255
205 226 255
205 226 255
205 226 255
205 226 255
205 226 255
205 226 255
205 226 255
205 226 255
204 226 255
204 226 255
204 226 255
204 226 255
204 226 255
204 226 255
204 226 255
204 226 255
204 226 255
204 226 255
204 226 255
204 226 255
204 226 255
204 226 255
204 226 255
204 226 255
204 226 255
204 226 255
204 226 255
204 226 255
204 226 255
204 226 255
204 226 255
204 226 255
204 226 255
204 226 255
204 226 255
204 226 255
204 226 255
204 226 255
204 226 255
204 226 255
204 226 255
204 226 255
204 226 255
204 226 255
204 226 255
204 226 255
204 226 255
204 226 255
204 226 255
204 226 255
204 226 255
204 226 255
204 226 255
204 226 255
204 226 255
204 226 255
204 226 255
204 226 255
204 226 255
204 226 255
204 226 255
204 226 255
204 226 255
204 226 255
205 226 255
205 226 255
205 226 255
205 226 255
205 226 255
205 226 255
205 226 255
205 226 255
205 226 255
205 226 255
205 226 255
205 226 255
205 227 255
205 227 255
205 227 255
205 227 255
205 227 255
205 227 255
205 227 255
205 227 255
205 227 255
205 227 255
205 227 255
205 227 255
205 227 255
205 227 255
206 227 255
206 227 255
206 227 255
206 227 255
206 227 255
206 227 255
206 227 255
206 227 255
206 227 255
206 227 255
206 227 255
206 227 255
206 227 255
206 227 255
206 227 255
206 227 255
206 227 255
206 227 255
206 227 255
207 227 255
207 227 255
207 227 255
207 227 255
207 227 255
207 228 255
207 228 255
207 228 255
207 228 255
207 228 255
207 228 255
207 228 255
207 228 255
207 228 255
207 228 255
207 228 255
207 228 255
207 228 255
207 228 255
208 228 255
208 228 255
208 228 255
208 228 255
208 228 255
208 228 255
207 226 250
196 206 204
187 189 163
177 173 114
175 172 114
174 171 114
172 170 114
171 170 114
170 169 114
170 169 114
169 169 114
168 168 114
168 168 114
167 168 114
167 168 114
167 168 114
166 168 114
166 167 114
166 167 114
165 167 114
165 167 114
165 167 114
165 167 114
165 167 114
165 167 114
165 167 114
165 167 114
165 167 114
164 167 114
164 167 114
164 167 114
164 167 114
165 167 114
165 167 114
165 167 114
165 167 114
165 167 114
165 167 114
165 167 114
165 167 114
165 167 114
165 167 114
165 167 114
166 167 114
166 167 114
166 167 114
166 167 114
166 168 114
166 168 114
167 168 114
167 168 114
167 168 114
167 168 114
167 168 114
168 168 114
168 168 114
168 168 114
168 168 114
169 169 114
169 169 114
169 169 114
169 169 114
170 169 114
170 169 114
170 169 114
170 169 114
171 170 114
171 170 114
171 170 114
171 170 114
172 170 114
172 170 114
172 170 114
173 170 114
173 171 114
173 171 114
174 171 114
174 171 114
174 171 114
175 171 114
175 171 114
175 172 114
176 172 114
176 172 114
176 172 114
177 172 114
177 173 114
178 173 114
178 173 114
179 173 114
179 173 114
179 174 114
180 174 114
181 174 114
181 174 114
182 175 114
182 175 114
183 175 114
184 176 114
185 176 114
186 177 114
190 184 139
184 203 228
184 203 228
183 202 228
182 202 228
182 202 228
181 201 228
181 201 228
180 201 228
180 201 228
179 200 228
179 200 228
178 200 228
178 200 228
177 199 228
177 199 228
177 199 228
176 199 228
176 199 228
176 198 228
175 198 228
175 198 228
174 198 228
174 198 228
174 197 228
173 197 228
173 197 228
173 197 228
173 197 228
172 197 228
172 197 228
172 196 228
171 196 228
171 196 228
171 196 228
171 196 228
170 196 228
170 195 228
170 195 228
169 195 228
169 195 228
169 195 228
169 195 228
168 195 228
168 195 228
168 194 228
168 194 228
168 194 228
167 194 228
167 194 228
167 194 228
167 194 228
166 194 228
166 194 228
166 193 228
166 193 228
166 193 228
166 193 228
165 193 228
165 193 228
165 193 228
165 193 228
165 193 228
165 193 228
164 193 228
164 193 228
164 193 228
164 192 228
164 192 228
164 192 228
164 192 228
164 192 228
164 192 228
164 192 228
164 192 228
164 192 228
164 192 228
164 192 228
164 192 228
164 192 228
164 192 228
164 192 228
164 193 228
164 193 228
164 193 228
165 193 228
165 193 228
165 193 228
165 193 228
166 193 228
166 194 228
167 194 228
167 194 228
168 194 228
168 195 228
169 195 228
170 195 228
171 196 228
172 196 228
173 197 228
174 198 228
176 199 228
180 201 230
191 211 239
202 222 249
208 228 255
208 228 255
208 228 255
208 228 255
208 228 255
208 228 255
208 228 255
208 228 255
207 228 255
207 228 255
207 228 255
207 228 255
207 228 255
207 228 255
207 228 255
207 228 255
207 228 255
207 228 255
207 228 255
207 228 255
207 228 255
207 228 255
207 227 255
207 227 255
207 227 255
207 227 255
207 227 255
206 227 255
206 227 255
206 227 255
206 227 255
206 227 255
206 227 255
206 227 255
206 227 255
206 227 255
206 227 255
206 227 255
206 227 255
206 227 255
206 227 255
206 227 255
206 227 255
206 227 255
206 227 255
206 227 255
206 227 255
206 227 255
205 227 255
205 227 255
205 227 255
205 227 255
205 227 255
205 227 255
205 227 255
205 227 255
205 227 255
205 227 255
205 227 255
205 227 255
205 227 255
205 227 255
205 227 255
205 226 255
205 226 255
205 226 255
205 226 255
205 226 255
205 226 255
205 226 255
205 226 255
205 226 255
205 226 255
205 226 255
205 226 255
205 226 255
205 226 255
205 226 255
204 226 255
204 226 255
204 226 255
204 226 255
204 226 255
204 226 255
204 226 255
204 226 255
204 226 255
204 226 255
204 226 255
204 226 255
204 226 255
204 226 255
204 226 255
204 226 255
204 226 255
204 226 255
204 226 255
204 226 255
204 226 255
204 226 255
204 226 255
204 226 255
204 226 255
204 226 255
204 226 255
204 226 255
204 226 255
204 226 255
204 226 255
204 226 255
204 226 255
204 226 255
204 226 255
205 226 255
205 226 255
205 226 255
205 226 255
205 226 255
205 226 255
205 226 255
205 226 255
205 226 255
205 226 255
205 226 255
205 226 255
205 226 255
205 226 255
205 226 255
205 226 255
205 227 255
205 227 255
205 227 255
205 227 255
205 227 255
205 227 255
205 227 255
205 227 255
205 227 255
205 227 255
205 227 255
205 227 255
205 227 255
205 227 255
205 227 255
206 227 255
206 227 255
206 227 255
206 227 255
206 227 255
206 227 255
206 227 255
206 227 255
206 227 255
206 227 255
206 227 255
206 227 255
206 227 255
206 227 255
206 227 255
206 227 255
206 227 255
206 227 255
206 227 255
206 227 255
206 227 255
207 227 255
207 227 255
207 227 255
207 227 255
207 227 255
207 228 255
207 228 255
207 228 255
207 228 255
207 228 255
207 228 255
207 228 255
207 228 255
207 228 255
207 228 255
207 228 255
207 228 255
207 228 255
207 228 255
208 228 255
208 228 255
208 228 255
208 228 255
208 228 255
208 228 255
208 228 255
208 228 255
203 219 235
191 195 177
181 178 131
176 172 114
175 171 114
173 170 114
171 170 114
171 169 114
170 169 114
169 169 114
168 168 114
168 168 114
167 168 114
167 168 114
166 168 114
166 167 114
165 167 114
165 167 114
165 167 114
165 167 114
165 167 114
164 167 114
164 167 114
164 167 114
164 167 114
164 167 114
164 166 114
164 166 114
164 166 114
164 166 114
164 166 114
164 166 114
164 166 114
164 166 114
164 167 114
164 167 114
164 167 114
164 167 114
164 167 114
164 167 114
164 167 114
165 167 114
165 167 114
165 167 114
165 167 114
165 167 114
165 167 114
166 167 114
166 167 114
166 167 114
166 167 114
166 168 114
166 168 114
167 168 114
167 168 114
167 168 114
167 168 114
168 168 114
168 168 114
168 168 114
168 168 114
168 169 114
169 169 114
169 169 114
169 169 114
169 169 114
170 169 114
170 169 114
170 169 114
171 169 114
171 170 114
171 170 114
171 170 114
172 170 114
172 170 114
172 170 114
173 170 114
173 171 114
173 171 114
173 171 114
174 171 114
174 171 114
174 171 114
175 171 114
175 172 114
175 172 114
176 172 114
176 172 114
177 172 114
177 172 114
177 173 114
178 173 114
178 173 114
179 173 114
179 173 114
180 174 114
180 174 114
181 174 114
181 174 114
182 175 114
182 175 114
183 175 114
184 176 114
184 176 114
183 202 228
182 202 228
182 202 228
181 201 228
181 201 228
180 201 228
180 201 228
179 200 228
179 200 228
178 200 228
178 200 228
178 200 228
177 199 228
177 199 228
176 199 228
176 199 228
176 199 228
175 198 228
175 198 228
175 198 228
174 198 228
174 198 228
174 197 228
173 197 228
173 197 228
173 197 228
172 197 228
172 197 228
172 196 228
172 196 228
171 196 228
171 196 228
171 196 228
170 196 228
170 196 228
170 195 228
170 195 228
169 195 228
169 195 228
169 195 228
169 195 228
168 195 228
168 195 228
168 194 228
168 194 228
167 194 228
167 194 228
167 194 228
167 194 228
167 194 228
166 194 228
166 194 228
166 193 228
166 193 228
166 193 228
165 193 228
165 193 228
165 193 228
165 193 228
165 193 228
165 193 228
164 193 228
164 193 228
164 192 228
164 192 228
164 192 228
164 192 228
164 192 228
164 192 228
163 192 228
163 192 228
163 192 228
163 192 228
163 192 228
163 192 228
163 192 228
163 192 228
163 192 228
163 192 228
163 192 228
163 192 228
163 192 228
164 192 228
164 192 228
164 192 228
164 192 228
164 192 228
164 193 228
165 193 228
165 193 228
165 193 228
166 193 228
166 193 228
167 194 228
167 194 228
168 194 228
168 195 228
169 195 228
170 195 228
171 196 228
172 197 228
173 197 228
175 198 228
177 199 228
186 207 234
199 219 246
208 228 255
208 228 255
208 228 255
208 228 255
208 228 255
208 228 255
208 228 255
208 228 255
208 228 255
208 228 255
207 228 255
207 228 255
207 228 255
207 228 255
207 228 255
207 228 255
207 228 255
207 228 255
207 228 255
207 228 255
207 228 255
207 228 255
207 228 255
207 228 255
207 228 255
207 227 255
207 227 255
207 227 255
207 227 255
207 227 255
206 227 255
206 227 255
206 227 255
206 227 255
206 227 255
206 227 255
206 227 255
206 227 255
206 227 255
206 227 255
206 227 255
206 227 255
206 227 255
206 227 255
206 227 255
206 227 255
206 227 255
206 227 255
206 227 255
206 227 255
206 227 255
206 227 255
205 227 255
205 227 255
205 227 255
205 227 255
205 227 255
205 227 255
205 227 255
205 227 255
205 227 255
205 227 255
205 227 255
205 227 255
205 227 255
205 227 255
205 227 255
205 227 255
205 227 255
205 226 255
205 226 255
205 226 255
205 226 255
205 226 255
205 226 255
205 226 255
205 226 255
205 226 255
205 226 255
205 226 255
205 226 255
205 226 255
205 226 255
205 226 255
205 226 255
205 226 255
205 226 255
205 226 255
205 226 255
205 226 255
205 226 255
205 226 255
205 226 255
205 226 255
205 226 255
205 226 255
205 226 255
205 226 255
205 226 255
205 226 255
205 226 255
205 226 255
205 226 255
205 226 255
205 226 255
205 226 255
205 226 255
205 226 255
205 226 255
205 226 255
205 226 255
205 226 255
205 226 255
205 226 255
205 226 255
205 226 255
205 226 255
205 226 255
205 226 255
205 227 255
205 227 255
205 227 255
205 227 255
205 227 255
205 227 255
205 227 255
205 227 255
205 227 255
205 227 255
205 227 255
205 227 255
205 227 255
205 227 255
205 227 255
205 227 255
205 227 255
206 227 255
206 227 255
206 227 255
206 227 255
206 227 255
206 227 255
206 227 255
206 227 255
206 227 255
206 227 255
206 227 255
206 227 255
206 227 255
206 227 255
206 227 255
206 227 255
206 227 255
206 227 255
206 227 255
206 227 255
206 227 255
206 227 255
207 227 255
207 227 255
207 227 255
207 227 255
207 227 255
207 228 255
207 228 255
207 228 255
207 228 255
207 228 255
207 228 255
207 228 255
207 228 255
207 228 255
207 228 255
207 228 255
207 228 255
207 228 255
207 228 255
207 228 255
208 228 255
208 228 255
208 228 255
208 228 255
208 228 255
208 228 255
208 228 255
208 228 255
208 228 255
207 227 252
199 211 217
188 190 166
178 173 114
175 172 114
173 171 114
172 170 114
171 170 114
170 169 114
169 169 114
168 168 114
168 168 114
167 168 114
166 168 114
166 167 114
166 167 114
165 167 114
165 167 114
165 167 114
164 167 114
164 167 114
164 167 114
164 166 114
164 166 114
163 166 114
163 166 114
163 166 114
163 166 114
163 166 114
163 166 114
163 166 114
163 166 114
163 166 114
163 166 114
163 166 114
163 166 114
163 166 114
163 166 114
164 166 114
164 166 114
164 166 114
164 166 114
164 167 114
164 167 114
164 167 114
164 167 114
165 167 114
165 167 114
165 167 114
165 167 114
165 167 114
165 167 114
166 167 114
166 167 114
166 167 114
166 168 114
166 168 114
167 168 114
167 168 114
167 168 114
167 168 114
167 168 114
168 168 114
168 168 114
168 168 114
168 169 114
169 169 114
169 169 114
169 169 114
169 169 114
170 169 114
170 169 114
170 169 114
170 169 114
171 170 114
171 170 114
171 170 114
172 170 114
172 170 114
172 170 114
172 170 114
173 171 114
173 171 114
173 171 114
174 171 114
174 171 114
174 171 114
175 171 114
175 172 114
175 172 114
176 172 114
176 172 114
176 172 114
177 172 114
177 173 114
178 173 114
178 173 114
178 173 114
179 173 114
179 173 114
180 174 114
180 174 114
181 174 114
181 174 114
182 175 114
182 175 114
183 175 114
182 202 228
181 202 228
181 201 228
180 201 228
180 201 228
180 201 228
179 200 228
179 200 228
178 200 228
178 200 228
178 199 228
177 199 228
177 199 228
176 199 228
176 199 228
176 199 228
175 198 228
175 198 228
175 198 228
174 198 228
174 198 228
174 197 228
173 197 228
173 197 228
173 197 228
173 197 228
172 197 228
172 197 228
172 196 228
171 196 228
171 196 228
171 196 228
171 196 228
170 196 228
170 195 228
170 195 228
169 195 228
169 195 228
169 195 228
169 195 228
168 195 228
168 195 228
168 194 228
168 194 228
167 194 228
167 194 228
167 194 228
167 194 228
167 194 228
166 194 228
166 194 228
166 193 228
166 193 228
166 193 228
165 193 228
165 193 228
165 193 228
165 193 228
165 193 228
164 193 228
164 193 228
164 192 228
164 192 228
164 192 228
164 192 228
164 192 228
163 192 228
163 192 228
163 192 228
163 192 228
163 192 228
163 192 228
163 192 228
163 192 228
163 192 228
163 192 228
163 192 228
163 192 228
163 192 228
163 192 228
163 192 228
163 192 228
163 192 228
163 192 228
163 192 228
163 192 228
163 192 228
163 192 228
164 192 228
164 192 228
164 192 228
164 193 228
165 193 228
165 193 228
166 193 228
166 193 228
167 194 228
167 194 228
168 194 228
169 195 228
169 195 228
170 196 228
172 196 228
173 197 228
174 198 228
177 199 228
184 205 233
197 217 244
207 228 255
208 228 255
208 228 255
208 228 255
208 228 255
208 228 255
208 228 255
208 228 255
208 228 255
208 228 255
208 228 255
208 228 255
208 228 255
207 228 255
207 228 255
207 228 255
207 228 255
207 228 255
207 228 255
207 228 255
207 228 255
207 228 255
207 228 255
207 228 255
207 228 255
207 228 255
207 228 255
207 228 255
207 227 255
207 227 255
207 227 255
207 227 255
207 227 255
206 227 255
206 227 255
206 227 255
206 227 255
206 227 255
206 227 255
206 227 255
206 227 255
206 227 255
206 227 255
206 227 255
206 227 255
206 227 255
206 227 255
206 227 255
206 227 255
206 227 255
206 227 255
206 227 255
206 227 255
206 227 255
206 227 255
206 227 255
205 227 255
205 227 255
205 227 255
205 227 255
205 227 255
205 227 255
205 227 255
205 227 255
205 227 255
205 227 255
205 227 255
205 227 255
205 227 255
205 227 255
205 227 255
205 227 255
205 227 255
205 227 255
205 227 255
205 227 255
205 227 255
205 227 255
205 227 255
205 227 255
205 227 255
205 226 255
205 227 255
205 226 255
205 226 255
205 226 255
205 226 255
205 226 255
205 226 255
205 226 255
205 226 255
205 226 255
205 226 255
205 226 255
205 226 255
205 226 255
205 226 255
205 226 255
205 226 255
205 226 255
205 226 255
205 226 255
205 227 255
205 227 255
205 227 255
205 227 255
205 227 255
205 227 255
205 227 255
205 227 255
205 227 255
205 227 255
205 227 255
205 227 255
205 227 255
205 227 255
205 227 255
205 227 255
205 227 255
205 227 255
205 227 255
205 227 255
205 227 255
205 227 255
205 227 255
205 227 255
205 227 255
206 227 255
206 227 255
206 227 255
206 227 255
206 227 255
206 227 255
206 227 255
206 227 255
206 227 255
206 227 255
206 227 255
206 227 255
206 227 255
206 227 255
206 227 255
206 227 255
206 227 255
206 227 255
206 227 255
206 227 255
206 227 255
206 227 255
206 227 255
206 227 255
207 227 255
207 227 255
207 227 255
207 227 255
207 227 255
207 228 255
207 228 255
207 228 255
207 228 255
207 228 255
207 228 255
207 228 255
207 228 255
207 228 255
207 228 255
207 228 255
207 228 255
207 228 255
207 228 255
207 228 255
208 228 255
208 228 255
208 228 255
208 228 255
208 228 255
208 228 255
208 228 255
208 228 255
208 228 255
208 228 255
208 228 255
208 228 255
207 225 248
197 206 206
183 180 137
177 172 114
174 171 114
173 171 114
172 170 114
170 169 114
169 169 114
169 169 114
168 168 114
167 168 114
167 168 114
166 167 114
166 167 114
165 167 114
165 167 114
164 167 114
164 167 114
164 166 114
164 166 114
163 166 114
163 166 114
163 166 114
163 166 114
163 166 114
163 166 114
163 166 114
163 166 114
163 166 114
163 166 114
163 166 114
163 166 114
163 166 114
163 166 114
163 166 114
163 166 114
163 166 114
163 166 114
163 166 114
163 166 114
163 166 114
163 166 114
164 166 114
164 166 114
164 166 114
164 167 114
164 167 114
164 167 114
164 167 114
165 167 114
165 167 114
165 167 114
165 167 114
165 167 114
166 167 114
166 167 114
166 167 114
166 168 114
166 168 114
167 168 114
167 168 114
167 168 114
167 168 114
168 168 114
168 168 114
168 168 114
168 168 114
168 169 114
169 169 114
169 169 114
169 169 114
169 169 114
170 169 114
170 169 114
170 169 114
171 169 114
171 170 114
171 170 114
171 170 114
172 170 114
172 170 114
172 170 114
173 170 114
173 171 114
173 171 114
173 171 114
174 171 114
174 171 114
174 171 114
175 171 114
175 172 114
175 172 114
176 172 114
176 172 114
176 172 114
177 172 114
177 172 114
178 173 114
178 173 114
178 173 114
179 173 114
179 173 114
180 174 114
180 174 114
180 174 114
181 174 114
181 175 114
182 175 114
181 201 228
181 201 228
180 201 228
180 201 228
179 201 228
179 200 228
179 200 228
178 200 228
178 200 228
177 199 228
177 199 228
177 199 228
176 199 228
176 199 228
176 199 228
175 198 228
175 198 228
175 198 228
174 198 228
174 198 228
174 197 228
174 197 228
173 197 228
173 197 228
173 197 228
172 197 228
172 197 228
172 196 228
171 196 228
171 196 228
171 196 228
171 196 228
170 196 228
170 196 228
170 195 228
170 195 228
169 195 228
169 195 228
169 195 228
169 195 228
168 195 228
168 195 228
168 194 228
168 194 228
167 194 228
167 194 228
167 194 228
167 194 228
166 194 228
166 194 228
166 193 228
166 193 228
166 193 228
165 193 228
165 193 228
165 193 228
165 193 228
165 193 228
164 193 228
164 193 228
164 192 228
164 192 228
164 192 228
164 192 228
164 192 228
163 192 228
163 192 228
163 192 228
163 192 228
163 192 228
163 192 228
163 192 228
163 192 228
163 192 228
162 192 228
162 192 228
162 192 228
162 192 228
162 192 228
162 192 228
162 192 228
162 192 228
162 192 228
162 192 228
162 192 228
163 192 228
163 192 228
163 192 228
163 192 228
163 192 228
163 192 228
164 192 228
164 192 228
164 192 228
164 193 228
165 193 228
165 193 228
166 193 228
166 194 228
167 194 228
167 194 228
168 195 228
169 195 228
170 195 228
171 196 228
173 197 228
174 198 228
176 199 228
181 202 230
194 214 241
207 227 254
208 228 255
208 228 255
208 228 255
208 228 255
208 228 255
208 228 255
208 228 255
208 228 255
208 228 255
208 228 255
208 228 255
208 228 255
208 228 255
208 228 255
207 228 255
207 228 255
207 228 255
207 228 255
207 228 255
207 228 255
207 228 255
207 228 255
207 228 255
207 228 255
207 228 255
207 228 255
207 228 255
207 228 255
207 228 255
207 228 255
207 227 255
207 227 255
207 227 255
207 227 255
207 227 255
206 227 255
206 227 255
206 227 255
206 227 255
206 227 255
206 227 255
206 227 255
206 227 255
206 227 255
206 227 255
206 227 255
206 227 255
206 227 255
206 227 255
206 227 255
206 227 255
206 227 255
206 227 255
206 227 255
206 227 255
206 227 255
206 227 255
206 227 255
206 227 255
206 227 255
206 227 255
206 227 255
205 227 255
205 227 255
205 227 255
205 227 255
205 227 255
205 227 255
205 227 255
205 227 255
205 227 255
205 227 255
205 227 255
205 227 255
205 227 255
205 227 255
205 227 255
205 227 255
205 227 255
205 227 255
205 227 255
205 227 255
205 227 255
205 227 255
205 227 255
205 227 255
203 225 254
201 223 253
198 219 250
200 222 252
203 225 254
204 226 255
205 227 255
205 227 255
205 227 255
205 227 255
205 227 255
205 227 255
205 227 255
205 227 255
205 227 255
205 227 255
205 227 255
205 227 255
205 227 255
205 227 255
205 227 255
205 227 255
205 227 255
205 227 255
205 227 255
205 227 255
205 227 255
205 227 255
205 227 255
205 227 255
206 227 255
206 227 255
206 227 255
206 227 255
206 227 255
206 227 255
206 227 255
206 227 255
206 227 255
206 227 255
206 227 255
206 227 255
206 227 255
206 227 255
206 227 255
206 227 255
206 227 255
206 227 255
206 227 255
206 227 255
206 227 255
206 227 255
206 227 255
206 227 255
206 227 255
206 227 255
206 227 255
207 227 255
207 227 255
207 227 255
207 227 255
207 227 255
207 228 255
207 228 255
207 228 255
207 228 255
207 228 255
207 228 255
207 228 255
207 228 255
207 228 255
207 228 255
207 228 255
207 228 255
207 228 255
207 228 255
207 228 255
207 228 255
208 228 255
208 228 255
208 228 255
208 228 255
208 228 255
208 228 255
208 228 255
208 228 255
208 228 255
208 228 255
208 228 255
208 228 255
208 228 255
208 228 255
207 225 249
195 203 196
180 176 123
177 172 114
174 171 114
173 170 114
171 170 114
170 169 114
169 169 114
168 168 114
168 168 114
167 168 114
166 168 114
166 167 114
165 167 114
165 167 114
164 167 114
164 167 114
164 166 114
164 166 114
163 166 114
163 166 114
163 166 114
163 166 114
163 166 114
163 166 114
162 166 114
162 166 114
162 166 114
162 166 114
162 166 114
162 166 114
162 166 114
162 166 114
162 166 114
162 166 114
162 166 114
163 166 114
163 166 114
163 166 114
163 166 114
163 166 114
163 166 114
163 166 114
163 166 114
163 166 114
164 166 114
164 166 114
164 166 114
164 167 114
164 167 114
164 167 114
164 167 114
165 167 114
165 167 114
165 167 114
165 167 114
165 167 114
166 167 114
166 167 114
166 167 114
166 168 114
166 168 114
167 168 114
167 168 114
167 168 114
167 168 114
168 168 114
168 168 114
168 168 114
168 168 114
169 169 114
169 169 114
169 169 114
169 169 114
170 169 114
170 169 114
170 169 114
170 169 114
171 170 114
171 170 114
171 170 114
171 170 114
172 170 114
172 170 114
172 170 114
173 170 114
173 171 114
173 171 114
174 171 114
174 171 114
174 171 114
174 171 114
175 171 114
175 172 114
175 172 114
176 172 114
176 172 114
176 172 114
177 172 114
177 172 114
178 173 114
178 173 114
178 173 114
179 173 114
179 173 114
179 174 114
180 174 114
180 174 114
181 174 114
181 174 114
181 201 228
180 201 228
180 201 228
179 200 228
179 200 228
179 200 228
178 200 228
178 200 228
178 199 228
177 199 228
177 199 228
177 199 228
176 199 228
176 199 228
176 198 228
175 198 228
175 198 228
175 198 228
174 198 228
174 198 228
174 197 228
173 197 228
173 197 228
173 197 228
173 197 228
172 197 228
172 197 228
172 196 228
171 196 228
171 196 228
171 196 228
171 196 228
170 196 228
170 196 228
170 195 228
170 195 228
169 195 228
169 195 228
169 195 228
169 195 228
168 195 228
168 194 228
168 194 228
168 194 228
167 194 228
167 194 228
167 194 228
167 194 228
166 194 228
166 194 228
166 193 228
166 193 228
166 193 228
165 193 228
165 193 228
165 193 228
165 193 228
165 193 228
164 193 228
164 193 228
164 192 228
164 192 228
164 192 228
164 192 228
163 192 228
163 192 228
163 192 228
163 192 228
163 192 228
163 192 228
163 192 228
163 192 228
162 192 228
162 192 228
162 191 228
162 191 228
162 191 228
162 191 228
162 191 228
162 191 228
162 191 228
162 191 228
162 191 228
162 191 228
162 191 228
162 191 228
162 191 228
162 192 228
162 192 228
162 192 228
163 192 228
163 192 228
163 192 228
163 192 228
164 192 228
164 192 228
164 193 228
165 193 228
165 193 228
165 193 228
166 193 228
167 194 228
167 194 228
168 194 228
169 195 228
170 195 228
171 196 228
173 197 228
174 198 228
176 199 228
181 202 230
195 215 242
207 227 254
208 228 255
208 228 255
208 228 255
208 228 255
208 228 255
208 228 255
208 228 255
208 228 255
208 228 255
208 228 255
208 228 255
208 228 255
208 228 255
208 228 255
208 228 255
208 228 255
208 228 255
207 228 255
207 228 255
207 228 255
207 228 255
207 228 255
207 228 255
207 228 255
207 228 255
207 228 255
207 228 255
207 228 255
207 228 255
207 228 255
207 228 255
207 228 255
207 228 255
207 227 255
207 227 255
207 227 255
207 227 255
207 227 255
207 227 255
206 227 255
206 227 255
206 227 255
206 227 255
206 227 255
206 227 255
206 227 255
206 227 255
206 227 255
206 227 255
206 227 255
206 227 255
206 227 255
206 227 255
206 227 255
206 227 255
206 227 255
206 227 255
206 227 255
206 227 255
206 227 255
206 227 255
206 227 255
206 227 255
206 227 255
206 227 255
206 227 255
206 227 255
206 227 255
206 227 255
206 227 255
206 227 255
206 227 255
206 227 255
205 227 255
205 227 255
205 227 255
205 227 255
185 207 240
169 192 230
158 180 222
134 159 210
98 126 192
94 123 189
73 107 182
68 103 179
62 99 177
62 99 178
63 100 176
62 99 180
65 101 178
71 105 182
92 122 188
96 125 191
125 150 202
153 176 220
166 189 230
185 207 241
203 224 254
205 227 255
205 227 255
205 227 255
205 227 255
206 227 255
206 227 255
206 227 255
206 227 255
206 227 255
206 227 255
206 227 255
206 227 255
206 227 255
206 227 255
206 227 255
206 227 255
206 227 255
206 227 255
206 227 255
206 227 255
206 227 255
206 227 255
206 227 255
206 227 255
206 227 255
206 227 255
206 227 255
206 227 255
206 227 255
206 227 255
206 227 255
206 227 255
206 227 255
206 227 255
206 227 255
206 227 255
206 227 255
207 227 255
207 227 255
207 227 255
207 227 255
207 227 255
207 227 255
207 228 255
207 228 255
207 228 255
207 228 255
207 228 255
207 228 255
207 228 255
207 228 255
207 228 255
207 228 255
207 228 255
207 228 255
207 228 255
207 228 255
207 228 255
207 228 255
208 228 255
208 228 255
208 228 255
208 228 255
208 228 255
208 228 255
208 228 255
208 228 255
208 228 255
208 228 255
208 228 255
208 228 255
208 228 255
208 228 255
208 228 255
208 228 255
208 228 255
208 227 253
196 205 203
182 180 135
176 172 114
174 171 114
172 170 114
171 170 114
170 169 114
169 169 114
168 168 114
167 168 114
167 168 114
166 167 114
166 167 114
165 167 114
165 167 114
164 167 114
164 166 114
164 166 114
163 166 114
163 166 114
163 166 114
163 166 114
162 166 114
162 166 114
162 166 114
162 166 114
162 166 114
162 166 114
162 166 114
162 166 114
162 166 114
162 166 114
162 166 114
162 166 114
162 166 114
162 166 114
162 166 114
162 166 114
162 166 114
162 166 114
163 166 114
163 166 114
163 166 114
163 166 114
163 166 114
163 166 114
163 166 114
163 166 114
164 166 114
164 166 114
164 167 114
164 167 114
164 167 114
164 167 114
165 167 114
165 167 114
165 167 114
165 167 114
165 167 114
166 167 114
166 167 114
166 167 114
166 168 114
166 168 114
167 168 114
167 168 114
167 168 114
167 168 114
168 168 114
168 168 114
168 168 114
168 168 114
169 169 114
169 169 114
169 169 114
169 169 114
170 169 114
170 169 114
170 169 114
170 169 114
171 170 114
171 170 114
171 170 114
171 170 114
172 170 114
172 170 114
172 170 114
173 170 114
173 171 114
173 171 114
173 171 114
174 171 114
174 171 114
174 171 114
175 171 114
175 171 114
175 172 114
176 172 114
176 172 114
176 172 114
176 172 114
177 172 114
177 173 114
178 173 114
178 173 114
178 173 114
179 173 114
179 173 114
179 174 114
180 174 114
180 174 114
181 174 114
180 201 228
180 201 228
179 200 228
179 200 228
179 200 228
178 200 228
178 200 228
178 200 228
177 199 228
177 199 228
177 199 228
176 199 228
176 199 228
176 198 228
175 198 228
175 198 228
175 198 228
174 198 228
174 198 228
174 198 228
174 197 228
173 197 228
173 197 228
173 197 228
172 197 228
172 197 228
172 196 228
172 196 228
171 196 228
171 196 228
171 196 228
171 196 228
170 196 228
170 196 228
170 195 228
170 195 228
169 195 228
169 195 228
169 195 228
169 195 228
168 195 228
168 195 228
168 194 228
168 194 228
167 194 228
167 194 228
167 194 228
167 194 228
166 194 228
166 194 228
166 193 228
166 193 228
166 193 228
165 193 228
165 193 228
165 193 228
165 193 228
165 193 228
164 193 228
164 193 228
164 192 228
164 192 228
164 192 228
164 192 228
163 192 228
163 192 228
163 192 228
163 192 228
163 192 228
163 192 228
163 192 228
162 192 228
162 192 228
162 191 228
162 191 228
162 191 228
162 191 228
162 191 228
162 191 228
162 191 228
162 191 228
162 191 228
162 191 228
162 191 228
162 191 228
162 191 228
162 191 228
162 191 228
162 191 228
162 191 228
162 191 228
162 192 228
162 192 228
163 192 228
163 192 228
163 192 228
163 192 228
164 192 228
164 192 228
164 193 228
165 193 228
165 193 228
166 193 228
167 194 228
167 194 228
168 194 228
169 195 228
170 196 228
171 196 228
173 197 228
174 198 228
176 199 228
184 205 232
198 218 245
208 228 255
208 228 255
208 228 255
208 228 255
208 228 255
208 228 255
208 228 255
208 228 255
208 228 255
208 228 255
208 228 255
208 228 255
208 228 255
208 228 255
208 228 255
208 228 255
208 228 255
208 228 255
208 228 255
208 228 255
208 228 255
207 228 255
207 228 255
207 228 255
207 228 255
207 228 255
207 228 255
207 228 255
207 228 255
207 228 255
207 228 255
207 228 255
207 228 255
207 228 255
207 228 255
207 228 255
207 228 255
207 228 255
207 227 255
207 227 255
207 227 255
207 227 255
207 227 255
207 227 255
206 227 255
206 227 255
206 227 255
206 227 255
206 227 255
206 227 255
206 227 255
206 227 255
206 227 255
206 227 255
206 227 255
206 227 255
206 227 255
206 227 255
206 227 255
206 227 255
206 227 255
206 227 255
206 227 255
206 227 255
206 227 255
206 227 255
206 227 255
206 227 255
206 227 255
206 227 255
206 227 255
202 223 253
187 209 243
152 175 220
111 138 198
73 107 181
62 99 177
62 99 175
62 99 178
62 99 177
63 99 174
62 99 177
62 99 177
63 99 176
61 98 176
62 99 175
62 99 176
62 99 177
61 98 171
62 99 177
62 99 175
61 98 172
61 98 173
62 99 179
62 99 175
62 99 175
65 101 177
123 148 203
135 159 211
174 196 234
206 227 255
206 227 255
206 227 255
206 227 255
206 227 255
206 227 255
206 227 255
206 227 255
206 227 255
206 227 255
206 227 255
206 227 255
206 227 255
206 227 255
206 227 255
206 227 255
206 227 255
206 227 255
206 227 255
206 227 255
206 227 255
206 227 255
206 227 255
206 227 255
206 227 255
206 227 255
206 227 255
206 227 255
207 227 255
207 227 255
207 227 255
207 227 255
207 227 255
207 227 255
207 228 255
207 228 255
207 228 255
207 228 255
207 228 255
207 228 255
207 228 255
207 228 255
207 228 255
207 228 255
207 228 255
207 228 255
207 228 255
207 228 255
207 228 255
207 228 255
207 228 255
208 228 255
208 228 255
208 228 255
208 228 255
208 228 255
208 228 255
208 228 255
208 228 255
208 228 255
208 228 255
208 228 255
208 228 255
208 228 255
208 228 255
208 228 255
208 228 255
208 228 255
208 228 255
208 228 255
208 228 255
208 228 254
201 215 225
182 179 133
177 172 114
174 171 114
173 170 114
171 170 114
170 169 114
169 169 114
168 168 114
167 168 114
167 168 114
166 167 114
165 167 114
165 167 114
165 167 114
164 167 114
164 166 114
163 166 114
163 166 114
163 166 114
163 166 114
162 166 114
162 166 114
162 166 114
162 166 114
162 166 114
162 166 114
162 166 114
162 166 114
162 166 114
162 166 114
162 166 114
162 166 114
162 166 114
162 166 114
162 166 114
162 166 114
162 166 114
162 166 114
162 166 114
162 166 114
162 166 114
162 166 114
163 166 114
163 166 114
163 166 114
163 166 114
163 166 114
163 166 114
163 166 114
164 166 114
164 166 114
164 167 114
164 167 114
164 167 114
164 167 114
165 167 114
165 167 114
165 167 114
165 167 114
165 167 114
166 167 114
166 167 114
166 167 114
166 168 114
166 168 114
167 168 114
167 168 114
167 168 114
167 168 114
168 168 114
168 168 114
168 168 114
168 168 114
169 169 114
169 169 114
169 169 114
169 169 114
170 169 114
170 169 114
170 169 114
170 169 114
171 170 114
171 170 114
171 170 114
171 170 114
172 170 114
172 170 114
172 170 114
172 170 114
173 170 114
173 171 114
173 171 114
174 171 114
174 171 114
174 171 114
174 171 114
175 171 114
175 172 114
175 172 114
176 172 114
176 172 114
176 172 114
177 172 114
177 172 114
177 173 114
178 173 114
178 173 114
178 173 114
179 173 114
179 173 114
179 174 114
180 174 114
180 174 114
180 201 228
180 201 228
179 200 228
179 200 228
178 200 228
178 200 228
178 200 228
177 199 228
177 199 228
177 199 228
176 199 228
176 199 228
176 199 228
176 198 228
175 198 228
175 198 228
175 198 228
174 198 228
174 198 228
174 198 228
174 197 228
173 197 228
173 197 228
173 197 228
172 197 228
172 197 228
172 197 228
172 196 228
171 196 228
171 196 228
171 196 228
171 196 228
170 196 228
170 196 228
170 195 228
170 195 228
169 195 228
169 195 228
169 195 228
169 195 228
168 195 228
168 195 228
168 194 228
168 194 228
167 194 228
167 194 228
167 194 228
167 194 228
167 194 228
166 194 228
166 193 228
166 193 228
166 193 228
166 193 228
165 193 228
165 193 228
165 193 228
165 193 228
165 193 228
164 193 228
164 192 228
164 192 228
164 192 228
164 192 228
163 192 228
163 192 228
163 192 228
163 192 228
163 192 228
163 192 228
163 192 228
162 192 228
162 192 228
162 191 228
162 191 228
162 191 228
162 191 228
162 191 228
162 191 228
162 191 228
162 191 228
162 191 228
162 191 228
162 191 228
162 191 228
162 191 228
162 191 228
162 191 228
162 191 228
162 191 228
162 191 228
162 191 228
162 191 228
162 191 228
162 192 228
163 192 228
163 192 228
163 192 228
163 192 228
164 192 228
164 192 228
164 193 228
165 193 228
165 193 228
166 193 228
167 194 228
167 194 228
168 195 228
169 195 228
170 196 228
171 196 228
173 197 228
175 198 228
177 199 228
187 207 235
202 222 249
209 229 255
209 229 255
209 228 255
209 228 255
208 228 255
208 228 255
208 228 255
208 228 255
208 228 255
208 228 255
208 228 255
208 228 255
208 228 255
208 228 255
208 228 255
208 228 255
208 228 255
208 228 255
208 228 255
208 228 255
208 228 255
208 228 255
208 228 255
208 228 255
207 228 255
207 228 255
207 228 255
207 228 255
207 228 255
207 228 255
207 228 255
207 228 255
207 228 255
207 228 255
207 228 255
207 228 255
207 228 255
207 228 255
207 228 255
207 228 255
207 228 255
207 228 255
207 228 255
207 227 255
207 227 255
207 227 255
207 227 255
207 227 255
207 227 255
207 227 255
206 227 255
206 227 255
206 227 255
206 227 255
206 227 255
206 227 255
206 227 255
206 227 255
206 227 255
206 227 255
206 227 255
206 227 255
206 227 255
206 227 255
206 227 255
206 227 255
204 225 254
177 199 234
127 152 207
70 104 177
62 99 178
61 98 171
62 99 173
62 99 174
62 98 170
62 98 173
62 99 177
62 99 178
62 99 173
62 98 167
63 99 176
62 99 175
62 98 172
62 99 171
62 99 173
62 99 177
62 99 174
62 99 174
62 98 171
62 99 175
62 99 172
62 99 174
61 98 171
63 100 179
61 98 174
62 99 173
62 99 179
61 98 176
73 106 178
121 146 200
168 190 228
202 223 253
206 227 255
206 227 255
206 227 255
206 227 255
206 227 255
206 227 255
206 227 255
206 227 255
206 227 255
206 227 255
206 227 255
206 227 255
206 227 255
206 227 255
206 227 255
206 227 255
207 227 255
207 227 255
207 227 255
207 227 255
207 227 255
207 227 255
207 227 255
207 227 255
207 228 255
207 228 255
207 228 255
207 228 255
207 228 255
207 228 255
207 228 255
207 228 255
207 228 255
207 228 255
207 228 255
207 228 255
207 228 255
207 228 255
207 228 255
207 228 255
207 228 255
207 228 255
208 228 255
208 228 255
208 228 255
208 228 255
208 228 255
208 228 255
208 228 255
208 228 255
208 228 255
208 228 255
208 228 255
208 228 255
208 228 255
208 228 255
208 228 255
208 228 255
208 228 255
208 228 255
208 228 255
208 228 255
208 228 255
209 228 255
209 229 255
209 229 255
202 215 226
185 184 148
177 172 114
175 171 114
173 171 114
171 170 114
170 169 114
169 169 114
168 168 114
167 168 114
167 168 114
166 167 114
165 167 114
165 167 114
164 167 114
164 167 114
164 166 114
163 166 114
163 166 114
163 166 114
163 166 114
162 166 114
162 166 114
162 166 114
162 166 114
162 166 114
162 166 114
162 166 114
162 165 114
162 165 114
162 165 114
162 165 114
162 165 114
162 165 114
162 165 114
162 166 114
162 166 114
162 166 114
162 166 114
162 166 114
162 166 114
162 166 114
162 166 114
162 166 114
162 166 114
163 166 114
163 166 114
163 166 114
163 166 114
163 166 114
163 166 114
163 166 114
164 166 114
164 166 114
164 167 114
164 167 114
164 167 114
165 167 114
165 167 114
165 167 114
165 167 114
165 167 114
166 167 114
166 167 114
166 167 114
166 167 114
166 168 114
167 168 114
167 168 114
167 168 114
167 168 114
167 168 114
168 168 114
168 168 114
168 168 114
168 169 114
169 169 114
169 169 114
169 169 114
169 169 114
170 169 114
170 169 114
170 169 114
170 169 114
171 170 114
171 170 114
171 170 114
171 170 114
172 170 114
172 170 114
172 170 114
172 170 114
173 170 114
173 171 114
173 171 114
174 171 114
174 171 114
174 171 114
174 171 114
175 171 114
175 172 114
175 172 114
176 172 114
176 172 114
176 172 114
176 172 114
177 172 114
177 172 114
177 173 114
178 173 114
178 173 114
178 173 114
179 173 114
179 173 114
180 174 114
180 174 114
180 201 228
179 200 228
179 200 228
179 200 228
178 200 228
178 200 228
178 200 228
177 199 228
177 199 228
177 199 228
176 199 228
176 199 228
176 199 228
176 198 228
175 198 228
175 198 228
175 198 228
174 198 228
174 198 228
174 198 228
174 197 228
173 197 228
173 197 228
173 197 228
173 197 228
172 197 228
172 197 228
172 196 228
171 196 228
171 196 228
171 196 228
171 196 228
170 196 228
170 196 228
170 195 228
170 195 228
169 195 228
169 195 228
169 195 228
169 195 228
169 195 228
168 195 228
168 194 228
168 194 228
168 194 228
167 194 228
167 194 228
167 194 228
167 194 228
166 194 228
166 194 228
166 193 228
166 193 228
166 193 228
165 193 228
165 193 228
165 193 228
165 193 228
165 193 228
164 193 228
164 193 228
164 192 228
164 192 228
164 192 228
164 192 228
163 192 228
163 192 228
163 192 228
163 192 228
163 192 228
163 192 228
163 192 228
162 192 228
162 192 228
162 191 228
162 191 228
162 191 228
162 191 228
162 191 228
162 191 228
162 191 228
162 191 228
162 191 228
161 191 228
161 191 228
161 191 228
161 191 228
161 191 228
161 191 228
162 191 228
162 191 228
162 191 228
162 191 228
162 191 228
162 191 228
162 191 228
162 192 228
163 192 228
163 192 228
163 192 228
163 192 228
164 192 228
164 192 228
165 193 228
165 193 228
166 193 228
166 193 228
167 194 228
168 194 228
169 195 228
169 195 228
171 196 228
172 196 228
174 197 228
175 198 228
178 200 228
189 209 236
206 226 252
209 229 255
209 229 255
209 229 255
209 229 255
209 229 255
209 228 255
209 228 255
208 228 255
208 228 255
208 228 255
208 228 255
208 228 255
208 228 255
208 228 255
208 228 255
208 228 255
208 228 255
208 228 255
208 228 255
208 228 255
208 228 255
208 228 255
208 228 255
208 228 255
208 228 255
208 228 255
208 228 255
208 228 255
207 228 255
207 228 255
207 228 255
207 228 255
207 228 255
207 228 255
207 228 255
207 228 255
207 228 255
207 228 255
207 228 255
207 228 255
207 228 255
207 228 255
207 228 255
207 228 255
207 228 255
207 228 255
207 228 255
207 228 255
207 228 255
207 227 255
207 227 255
207 227 255
207 227 255
207 227 255
207 227 255
207 227 255
207 227 255
207 227 255
206 227 255
206 227 255
206 227 255
205 226 255
178 200 237
129 154 204
73 107 178
62 99 176
62 99 175
62 99 175
62 98 170
62 99 177
62 99 179
62 99 173
63 99 173
62 98 168
62 99 175
62 99 174
61 98 169
62 99 172
62 99 178
62 98 167
63 99 171
62 98 170
62 98 169
62 99 173
62 99 171
62 99 174
63 99 172
62 99 172
62 98 170
62 98 171
62 99 174
62 99 174
61 98 173
62 99 173
62 99 174
62 99 174
62 99 172
62 99 175
62 98 170
78 111 181
143 167 213
184 206 240
206 226 255
206 227 255
206 227 255
206 227 255
206 227 255
207 227 255
207 227 255
207 227 255
207 227 255
207 227 255
207 227 255
207 227 255
207 227 255
207 227 255
207 228 255
207 228 255
207 228 255
207 228 255
207 228 255
207 228 255
207 228 255
207 228 255
207 228 255
207 228 255
207 228 255
207 228 255
207 228 255
207 228 255
207 228 255
207 228 255
207 228 255
207 228 255
207 228 255
208 228 255
208 228 255
208 228 255
208 228 255
208 228 255
208 228 255
208 228 255
208 228 255
208 228 255
208 228 255
208 228 255
208 228 255
208 228 255
208 228 255
208 228 255
208 228 255
208 228 255
208 228 255
208 228 255
208 228 255
208 228 255
208 228 255
208 228 255
209 228 255
209 229 255
209 229 255
209 229 255
209 229 255
209 229 255
206 223 243
190 192 168
178 173 114
176 172 114
173 171 114
172 170 114
171 169 114
169 169 114
168 169 114
168 168 114
167 168 114
166 168 114
166 167 114
165 167 114
165 167 114
164 167 114
164 166 114
163 166 114
163 166 114
163 166 114
163 166 114
162 166 114
162 166 114
162 166 114
162 166 114
162 166 114
162 166 114
162 165 114
162 165 114
161 165 114
161 165 114
161 165 114
161 165 114
161 165 114
161 165 114
162 165 114
162 165 114
162 166 114
162 166 114
162 166 114
162 166 114
162 166 114
162 166 114
162 166 114
162 166 114
162 166 114
163 166 114
163 166 114
163 166 114
163 166 114
163 166 114
163 166 114
163 166 114
164 166 114
164 166 114
164 167 114
164 167 114
164 167 114
164 167 114
165 167 114
165 167 114
165 167 114
165 167 114
165 167 114
166 167 114
166 167 114
166 167 114
166 168 114
166 168 114
167 168 114
167 168 114
167 168 114
167 168 114
168 168 114
168 168 114
168 168 114
168 168 114
169 169 114
169 169 114
169 169 114
169 169 114
169 169 114
170 169 114
170 169 114
170 169 114
170 169 114
171 170 114
171 170 114
171 170 114
171 170 114
172 170 114
172 170 114
172 170 114
172 170 114
173 170 114
173 171 114
173 171 114
174 171 114
174 171 114
174 171 114
174 171 114
175 171 114
175 171 114
175 172 114
176 172 114
176 172 114
176 172 114
176 172 114
177 172 114
177 172 114
177 173 114
178 173 114
178 173 114
178 173 114
179 173 114
179 173 114
179 174 114
180 174 114
179 201 228
179 200 228
179 200 228
179 200 228
178 200 228
178 200 228
178 200 228
177 199 228
177 199 228
177 199 228
176 199 228
176 199 228
176 199 228
176 198 228
175 198 228
175 198 228
175 198 228
174 198 228
174 198 228
174 198 228
174 197 228
173 197 228
173 197 228
173 197 228
173 197 228
172 197 228
172 197 228
172 196 228
172 196 228
171 196 228
171 196 228
171 196 228
171 196 228
170 196 228
170 196 228
170 195 228
170 195 228
169 195 228
169 195 228
169 195 228
169 195 228
168 195 228
168 195 228
168 194 228
168 194 228
168 194 228
167 194 228
167 194 228
167 194 228
167 194 228
166 194 228
166 194 228
166 193 228
166 193 228
166 193 228
165 193 228
165 193 228
165 193 228
165 193 228
165 193 228
164 193 228
164 193 228
164 192 228
164 192 228
164 192 228
164 192 228
163 192 228
163 192 228
163 192 228
163 192 228
163 192 228
163 192 228
163 192 228
162 192 228
162 192 228
162 191 228
162 191 228
162 191 228
162 191 228
162 191 228
162 191 228
162 191 228
162 191 228
162 191 228
161 191 228
161 191 228
161 191 228
161 191 228
161 191 228
161 191 228
161 191 228
162 191 228
162 191 228
162 191 228
162 191 228
162 191 228
162 191 228
162 191 228
162 192 228
163 192 228
163 192 228
163 192 228
164 192 228
164 192 228
164 193 228
165 193 228
165 193 228
166 193 228
166 194 228
167 194 228
168 194 228
169 195 228
170 195 228
171 196 228
172 197 228
174 198 228
176 199 228
181 202 230
198 218 245
208 227 254
209 229 255
209 229 255
209 229 255
209 229 255
209 229 255
209 229 255
209 229 255
209 229 255
209 228 255
209 228 255
208 228 255
208 228 255
208 228 255
208 228 255
208 228 255
208 228 255
208 228 255
208 228 255
208 228 255
208 228 255
208 228 255
208 228 255
208 228 255
208 228 255
208 228 255
208 228 255
208 228 255
208 228 255
208 228 255
208 228 255
208 228 255
208 228 255
208 228 255
207 228 255
207 228 255
207 228 255
207 228 255
207 228 255
207 228 255
207 228 255
207 228 255
207 228 255
207 228 255
207 228 255
207 228 255
207 228 255
207 228 255
207 228 255
207 228 255
207 228 255
207 228 255
207 228 255
207 228 255
207 228 255
207 228 255
207 228 255
207 227 255
206 227 255
164 186 227
98 126 188
62 99 177
61 98 175
62 99 178
62 98 170
62 99 176
62 99 174
62 99 175
62 99 172
61 98 168
62 98 174
62 99 172
62 99 173
62 99 171
62 99 176
63 99 173
63 99 175
61 98 176
62 99 172
62 98 173
63 99 173
62 99 175
62 99 167
62 99 173
62 98 169
63 99 172
62 98 170
63 99 176
62 98 170
62 98 170
62 98 175
61 98 170
62 99 174
62 98 170
62 99 171
62 98 170
62 98 170
63 99 174
61 98 171
62 98 170
62 99 173
98 126 189
175 197 234
204 225 254
207 228 255
207 228 255
207 228 255
207 228 255
207 228 255
207 228 255
207 228 255
207 228 255
207 228 255
207 228 255
207 228 255
207 228 255
207 228 255
207 228 255
207 228 255
207 228 255
207 228 255
207 228 255
207 228 255
207 228 255
207 228 255
207 228 255
207 228 255
207 228 255
208 228 255
208 228 255
208 228 255
208 228 255
208 228 255
208 228 255
208 228 255
208 228 255
208 228 255
208 228 255
208 228 255
208 228 255
208 228 255
208 228 255
208 228 255
208 228 255
208 228 255
208 228 255
208 228 255
208 228 255
208 228 255
208 228 255
208 228 255
209 228 255
209 228 255
209 229 255
209 229 255
209 229 255
209 229 255
209 229 255
209 229 255
209 229 255
209 229 255
208 227 251
196 205 200
181 177 125
176 172 114
174 171 114
172 170 114
171 170 114
170 169 114
169 169 114
168 168 114
167 168 114
166 168 114
166 167 114
165 167 114
165 167 114
164 167 114
164 166 114
164 166 114
163 166 114
163 166 114
163 166 114
162 166 114
162 166 114
162 166 114
162 166 114
162 166 114
162 166 114
162 165 114
162 165 114
161 165 114
161 165 114
161 165 114
161 165 114
161 165 114
161 165 114
161 165 114
162 165 114
162 165 114
162 165 114
162 166 114
162 166 114
162 166 114
162 166 114
162 166 114
162 166 114
162 166 114
162 166 114
163 166 114
163 166 114
163 166 114
163 166 114
163 166 114
163 166 114
163 166 114
164 166 114
164 166 114
164 167 114
164 167 114
164 167 114
164 167 114
165 167 114
165 167 114
165 167 114
165 167 114
165 167 114
166 167 114
166 167 114
166 167 114
166 168 114
166 168 114
167 168 114
167 168 114
167 168 114
167 168 114
168 168 114
168 168 114
168 168 114
168 168 114
168 169 114
169 169 114
169 169 114
169 169 114
169 169 114
170 169 114
170 169 114
170 169 114
170 169 114
171 170 114
171 170 114
171 170 114
171 170 114
172 170 114
172 170 114
172 170 114
172 170 114
173 170 114
173 171 114
173 171 114
173 171 114
174 171 114
174 171 114
174 171 114
174 171 114
175 171 114
175 172 114
175 172 114
176 172 114
176 172 114
176 172 114
176 172 114
177 172 114
177 172 114
177 173 114
178 173 114
178 173 114
178 173 114
179 173 114
179 173 114
179 173 114
180 174 114
179 200 228
179 200 228
179 200 228
178 200 228
178 200 228
178 200 228
178 200 228
177 199 228
177 199 228
177 199 228
176 199 228
176 199 228
176 199 228
176 198 228
175 198 228
175 198 228
175 198 228
175 198 228
174 198 228
174 198 228
174 197 228
173 197 228
173 197 228
173 197 228
173 197 228
172 197 228
172 197 228
172 197 228
172 196 228
172 196 228
171 196 228
171 196 228
171 196 228
171 196 228
170 196 228
170 196 228
170 195 228
170 195 228
169 195 228
169 195 228
169 195 228
169 195 228
168 195 228
168 195 228
168 194 228
168 194 228
168 194 228
167 194 228
167 194 228
167 194 228
167 194 228
166 194 228
166 194 228
166 193 228
166 193 228
166 193 228
165 193 228
165 193 228
165 193 228
165 193 228
165 193 228
165 193 228
164 193 228
164 192 228
164 192 228
164 192 228
164 192 228
163 192 228
163 192 228
163 192 228
163 192 228
163 192 228
163 192 228
163 192 228
162 192 228
162 192 228
162 191 228
162 191 228
162 191 228
162 191 228
162 191 228
162 191 228
162 191 228
162 191 228
162 191 228
162 191 228
161 191 228
161 191 228
161 191 228
161 191 228
161 191 228
161 191 228
162 191 228
162 191 228
162 191 228
162 191 228
162 191 228
162 191 228
162 191 228
162 192 228
163 192 228
163 192 228
163 192 228
163 192 228
164 192 228
164 192 228
165 193 228
165 193 228
165 193 228
166 193 228
167 194 228
168 194 228
168 195 228
169 195 228
170 196 228
172 196 228
173 197 228
175 198 228
178 200 228
188 208 235
203 223 249
209 229 255
209 229 255
209 229 255
209 229 255
209 229 255
209 229 255
209 229 255
209 229 255
209 229 255
209 229 255
209 229 255
209 229 255
209 228 255
209 228 255
208 228 255
208 228 255
208 228 255
208 228 255
208 228 255
208 228 255
208 228 255
208 228 255
208 228 255
208 228 255
208 228 255
208 228 255
208 228 255
208 228 255
208 228 255
208 228 255
208 228 255
208 228 255
208 228 255
208 228 255
208 228 255
208 228 255
208 228 255
208 228 255
208 228 255
207 228 255
207 228 255
207 228 255
207 228 255
207 228 255
207 228 255
207 228 255
207 228 255
207 228 255
207 228 255
207 228 255
207 228 255
207 228 255
207 228 255
207 228 255
207 228 255
171 192 230
90 120 186
62 99 175
62 99 176
62 99 174
62 99 176
61 98 172
62 99 179
63 100 175
62 98 173
62 98 170
62 98 165
63 99 176
62 98 173
62 98 167
62 98 169
62 99 173
62 99 173
62 99 173
62 98 171
63 99 171
61 98 166
62 98 169
62 99 166
63 99 173
62 99 174
63 99 173
62 98 167
62 99 173
62 99 169
61 98 172
62 98 171
62 98 169
62 99 171
63 99 170
62 98 174
62 99 173
61 98 169
61 98 171
62 98 170
62 99 172
62 98 167
61 98 171
62 97 169
63 99 176
62 98 170
99 127 190
173 195 232
204 225 254
207 228 255
207 228 255
207 228 255
207 228 255
207 228 255
207 228 255
207 228 255
207 228 255
207 228 255
207 228 255
207 228 255
207 228 255
207 228 255
207 228 255
207 228 255
207 228 255
208 228 255
208 228 255
208 228 255
208 228 255
208 228 255
208 228 255
208 228 255
208 228 255
208 228 255
208 228 255
208 228 255
208 228 255
208 228 255
208 228 255
208 228 255
208 228 255
208 228 255
208 228 255
208 228 255
208 228 255
208 228 255
208 228 255
208 228 255
208 228 255
209 228 255
209 229 255
209 229 255
209 229 255
209 229 255
209 229 255
209 229 255
209 229 255
209 229 255
209 229 255
209 229 255
209 229 255
209 229 255
209 229 255
204 218 231
186 186 151
178 173 114
175 172 114
173 171 114
172 170 114
170 169 114
169 169 114
168 169 114
168 168 114
167 168 114
166 167 114
165 167 114
165 167 114
165 167 114
164 167 114
164 166 114
163 166 114
163 166 114
163 166 114
163 166 114
162 166 114
162 166 114
162 166 114
162 166 114
162 166 114
162 166 114
162 165 114
162 165 114
161 165 114
161 165 114
161 165 114
161 165 114
161 165 114
161 165 114
162 165 114
162 165 114
162 165 114
162 166 114
162 166 114
162 166 114
162 166 114
162 166 114
162 166 114
162 166 114
162 166 114
162 166 114
163 166 114
163 166 114
163 166 114
163 166 114
163 166 114
163 166 114
163 166 114
164 166 114
164 166 114
164 167 114
164 167 114
164 167 114
165 167 114
165 167 114
165 167 114
165 167 114
165 167 114
165 167 114
166 167 114
166 167 114
166 167 114
166 168 114
166 168 114
167 168 114
167 168 114
167 168 114
167 168 114
168 168 114
168 168 114
168 168 114
168 168 114
168 169 114
169 169 114
169 169 114
169 169 114
169 169 114
170 169 114
170 169 114
170 169 114
170 169 114
171 169 114
171 170 114
171 170 114
171 170 114
171 170 114
172 170 114
172 170 114
172 170 114
172 170 114
173 170 114
173 171 114
173 171 114
174 171 114
174 171 114
174 171 114
174 171 114
175 171 114
175 171 114
175 172 114
175 172 114
176 172 114
176 172 114
176 172 114
176 172 114
177 172 114
177 172 114
177 173 114
178 173 114
178 173 114
178 173 114
178 173 114
179 173 114
179 173 114
179 174 114
179 200 228
179 200 228
179 200 228
179 200 228
178 200 228
178 200 228
178 200 228
177 199 228
177 199 228
177 199 228
177 199 228
176 199 228
176 199 228
176 199 228
175 198 228
175 198 228
175 198 228
175 198 228
174 198 228
174 198 228
174 198 228
174 197 228
173 197 228
173 197 228
173 197 228
173 197 228
172 197 228
172 197 228
172 197 228
172 196 228
171 196 228
171 196 228
171 196 228
171 196 228
171 196 228
170 196 228
170 196 228
170 195 228
170 195 228
169 195 228
169 195 228
169 195 228
169 195 228
168 195 228
168 195 228
168 194 228
168 194 228
168 194 228
167 194 228
167 194 228
167 194 228
167 194 228
167 194 228
166 194 228
166 194 228
166 193 228
166 193 228
166 193 228
165 193 228
165 193 228
165 193 228
165 193 228
165 193 228
164 193 228
164 193 228
164 192 228
164 192 228
164 192 228
164 192 228
163 192 228
163 192 228
163 192 228
163 192 228
163 192 228
163 192 228
163 192 228
162 192 228
162 192 228
162 191 228
162 191 228
162 191 228
162 191 228
162 191 228
162 191 228
162 191 228
162 191 228
162 191 228
162 191 228
162 191 228
162 191 228
162 191 228
162 191 228
162 191 228
162 191 228
162 191 228
162 191 228
162 191 228
162 191 228
162 191 228
162 191 228
162 192 228
163 192 228
163 192 228
163 192 228
163 192 228
164 192 228
164 192 228
164 193 228
165 193 228
165 193 228
166 193 228
167 194 228
167 194 228
168 194 228
169 195 228
170 195 228
171 196 228
172 197 228
174 198 228
177 199 228
179 200 228
199 218 245
209 228 255
209 229 255
209 229 255
209 229 255
209 229 255
209 229 255
209 229 255
209 229 255
209 229 255
209 229 255
209 229 255
209 229 255
209 229 255
209 229 255
209 229 255
209 229 255
209 229 255
209 228 255
209 228 255
208 228 255
208 228 255
208 228 255
208 228 255
208 228 255
208 228 255
208 228 255
208 228 255
208 228 255
208 228 255
208 228 255
208 228 255
208 228 255
208 228 255
208 228 255
208 228 255
208 228 255
208 228 255
208 228 255
208 228 255
208 228 255
208 228 255
208 228 255
208 228 255
208 228 255
208 228 255
208 228 255
208 228 255
207 228 255
207 228 255
207 228 255
207 228 255
207 228 255
174 196 234
96 125 187
61 98 169
62 98 174
62 98 169
62 98 170
62 98 173
62 98 172
62 99 174
62 98 169
62 99 172
62 98 170
62 99 168
62 98 165
63 99 173
63 99 172
62 99 171
61 98 166
63 99 170
62 98 171
64 100 172
62 99 173
62 99 171
61 97 167
61 97 168
61 97 167
62 98 169
63 99 171
62 99 170
62 98 170
61 98 167
62 98 168
62 99 170
62 99 172
62 99 172
62 99 171
62 99 170
62 99 173
62 98 169
62 99 173
62 99 170
61 97 164
62 98 168
62 99 171
62 99 172
62 98 170
62 98 167
62 98 168
63 99 175
62 98 174
94 123 184
181 202 235
207 228 255
207 228 255
207 228 255
207 228 255
207 228 255
207 228 255
208 228 255
208 228 255
208 228 255
208 228 255
208 228 255
208 228 255
208 228 255
208 228 255
208 228 255
208 228 255
208 228 255
208 228 255
208 228 255
208 228 255
208 228 255
208 228 255
208 228 255
208 228 255
208 228 255
208 228 255
208 228 255
208 228 255
208 228 255
208 228 255
208 228 255
208 228 255
208 228 255
209 228 255
209 228 255
209 229 255
209 229 255
209 229 255
209 229 255
209 229 255
209 229 255
209 229 255
209 229 255
209 229 255
209 229 255
209 229 255
209 229 255
209 229 255
209 229 255
209 229 255
209 229 255
209 228 252
194 198 184
179 174 114
176 172 114
174 171 114
173 170 114
171 170 114
170 169 114
169 169 114
168 168 114
167 168 114
167 168 114
166 167 114
165 167 114
165 167 114
164 167 114
164 167 114
164 166 114
163 166 114
163 166 114
163 166 114
163 166 114
162 166 114
162 166 114
162 166 114
162 166 114
162 166 114
162 166 114
162 166 114
162 165 114
162 165 114
162 165 114
162 165 114
162 165 114
162 165 114
162 165 114
162 165 114
162 166 114
162 166 114
162 166 114
162 166 114
162 166 114
162 166 114
162 166 114
162 166 114
162 166 114
162 166 114
163 166 114
163 166 114
163 166 114
163 166 114
163 166 114
163 166 114
163 166 114
164 166 114
164 166 114
164 167 114
164 167 114
164 167 114
164 167 114
165 167 114
165 167 114
165 167 114
165 167 114
165 167 114
166 167 114
166 167 114
166 167 114
166 168 114
166 168 114
167 168 114
167 168 114
167 168 114
167 168 114
167 168 114
168 168 114
168 168 114
168 168 114
168 168 114
168 169 114
169 169 114
169 169 114
169 169 114
169 169 114
170 169 114
170 169 114
170 169 114
170 169 114
171 169 114
171 170 114
171 170 114
171 170 114
171 170 114
172 170 114
172 170 114
172 170 114
172 170 114
173 170 114
173 171 114
173 171 114
173 171 114
174 171 114
174 171 114
174 171 114
174 171 114
175 171 114
175 171 114
175 172 114
175 172 114
176 172 114
176 172 114
176 172 114
177 172 114
177 172 114
177 172 114
177 173 114
178 173 114
178 173 114
178 173 114
178 173 114
179 173 114
179 173 114
179 174 114
179 200 228
179 200 228
179 200 228
179 200 228
178 200 228
178 200 228
178 200 228
177 199 228
177 199 228
177 199 228
177 199 228
176 199 228
176 199 228
176 199 228
176 198 228
175 198 228
175 198 228
175 198 228
175 198 228
174 198 228
174 198 228
174 198 228
174 197 228
173 197 228
173 197 228
173 197 228
173 197 228
172 197 228
172 197 228
172 197 228
172 196 228
171 196 228
171 196 228
171 196 228
171 196 228
171 196 228
170 196 228
170 196 228
170 195 228
170 195 228
169 195 228
169 195 228
169 195 228
169 195 228
169 195 228
168 195 228
168 195 228
168 194 228
168 194 228
168 194 228
167 194 228
167 194 228
167 194 228
167 194 228
166 194 228
166 194 228
166 193 228
166 193 228
166 193 228
166 193 228
165 193 228
165 193 228
165 193 228
165 193 228
165 193 228
164 193 228
164 193 228
164 192 228
164 192 228
164 192 228
164 192 228
163 192 228
163 192 228
163 192 228
163 192 228
163 192 228
163 192 228
163 192 228
163 192 228
162 192 228
162 192 228
162 191 228
162 191 228
162 191 228
162 191 228
162 191 228
162 191 228
162 191 228
162 191 228
162 191 228
162 191 228
162 191 228
162 191 228
162 191 228
162 191 228
162 191 228
162 191 228
162 191 228
162 191 228
162 191 228
162 192 228
162 192 228
163 192 228
163 192 228
163 192 228
163 192 228
164 192 228
164 192 228
164 193 228
165 193 228
165 193 228
166 193 228
166 194 228
167 194 228
168 194 228
169 195 228
170 195 228
171 196 228
172 197 228
174 197 228
175 198 228
178 200 228
188 208 234
206 226 252
209 229 255
209 229 255
209 229 255
209 229 255
209 229 255
209 229 255
209 229 255
209 229 255
209 229 255
209 229 255
209 229 255
209 229 255
209 229 255
209 229 255
209 229 255
209 229 255
209 229 255
209 229 255
209 229 255
209 229 255
209 229 255
209 228 255
209 228 255
208 228 255
208 228 255
208 228 255
208 228 255
208 228 255
208 228 255
208 228 255
208 228 255
208 228 255
208 228 255
208 228 255
208 228 255
208 228 255
208 228 255
208 228 255
208 228 255
208 228 255
208 228 255
208 228 255
208 228 255
208 228 255
208 228 255
208 228 255
208 228 255
208 228 255
193 214 245
113 139 194
62 99 174
62 98 173
62 99 170
62 99 174
62 99 176
62 98 174
61 97 166
62 99 171
62 98 168
62 98 166
62 98 166
62 99 176
62 99 171
62 98 165
62 98 172
62 98 168
62 99 174
62 99 171
61 98 168
63 99 171
63 99 173
63 99 174
61 97 165
62 99 176
62 98 168
62 98 168
62 99 168
62 98 166
62 98 164
63 99 168
62 98 169
62 98 165
63 100 175
62 99 169
62 99 172
62 98 170
62 98 164
62 98 170
62 97 163
61 98 166
62 98 169
63 99 174
63 100 175
62 98 168
62 97 167
62 97 162
63 99 173
62 98 169
61 98 166
61 98 168
62 99 174
62 98 173
118 143 195
188 209 241
208 228 255
208 228 255
208 228 255
208 228 255
208 228 255
208 228 255
208 228 255
208 228 255
208 228 255
208 228 255
208 228 255
208 228 255
208 228 255
208 228 255
208 228 255
208 228 255
208 228 255
208 228 255
208 228 255
208 228 255
208 228 255
208 228 255
208 228 255
208 228 255
208 228 255
209 228 255
209 229 255
209 229 255
209 229 255
209 229 255
209 229 255
209 229 255
209 229 255
209 229 255
209 229 255
209 229 255
209 229 255
209 229 255
209 229 255
209 229 255
209 229 255
209 229 255
209 229 255
209 229 255
209 229 255
209 229 255
209 229 255
209 229 255
204 219 233
187 185 150
178 173 114
176 172 114
174 171 114
172 170 114
171 170 114
170 169 114
169 169 114
168 168 114
167 168 114
166 168 114
166 167 114
165 167 114
165 167 114
164 167 114
164 167 114
164 166 114
163 166 114
163 166 114
163 166 114
163 166 114
162 166 114
162 166 114
162 166 114
162 166 114
162 166 114
162 166 114
162 166 114
162 166 114
162 166 114
162 166 114
162 166 114
162 166 114
162 166 114
162 166 114
162 166 114
162 166 114
162 166 114
162 166 114
162 166 114
162 166 114
162 166 114
162 166 114
162 166 114
163 166 114
163 166 114
163 166 114
163 166 114
163 166 114
163 166 114
163 166 114
163 166 114
164 166 114
164 166 114
164 167 114
164 167 114
164 167 114
164 167 114
165 167 114
165 167 114
165 167 114
165 167 114
165 167 114
166 167 114
166 167 114
166 167 114
166 167 114
166 168 114
166 168 114
167 168 114
167 168 114
167 168 114
167 168 114
168 168 114
168 168 114
168 168 114
168 168 114
168 169 114
169 169 114
169 169 114
169 169 114
169 169 114
169 169 114
170 169 114
170 169 114
170 169 114
170 169 114
171 169 114
171 170 114
171 170 114
171 170 114
172 170 114
172 170 114
172 170 114
172 170 114
172 170 114
173 170 114
173 171 114
173 171 114
173 171 114
174 171 114
174 171 114
174 171 114
174 171 114
175 171 114
175 171 114
175 172 114
175 172 114
176 172 114
176 172 114
176 172 114
176 172 114
177 172 114
177 172 114
177 173 114
177 173 114
178 173 114
178 173 114
178 173 114
179 173 114
179 173 114
179 173 114
179 174 114
179 201 228
179 200 228
179 200 228
179 200 228
178 200 228
178 200 228
178 200 228
178 199 228
177 199 228
177 199 228
177 199 228
177 199 228
176 199 228
176 199 228
176 199 228
176 198 228
175 198 228
175 198 228
175 198 228
175 198 228
174 198 228
174 198 228
174 198 228
174 197 228
173 197 228
173 197 228
173 197 228
173 197 228
172 197 228
172 197 228
172 197 228
172 196 228
172 196 228
171 196 228
171 196 228
171 196 228
171 196 228
170 196 228
170 196 228
170 195 228
170 195 228
170 195 228
169 195 228
169 195 228
169 195 228
169 195 228
168 195 228
168 195 228
168 194 228
168 194 228
168 194 228
167 194 228
167 194 228
167 194 228
167 194 228
167 194 228
166 194 228
166 194 228
166 193 228
166 193 228
166 193 228
165 193 228
165 193 228
165 193 228
165 193 228
165 193 228
165 193 228
164 193 228
164 193 228
164 192 228
164 192 228
164 192 228
164 192 228
164 192 228
163 192 228
163 192 228
163 192 228
163 192 228
163 192 228
163 192 228
163 192 228
163 192 228
162 192 228
162 192 228
162 191 228
162 191 228
162 191 228
162 191 228
162 191 228
162 191 228
162 191 228
162 191 228
162 191 228
162 191 228
162 191 228
162 191 228
162 191 228
162 191 228
162 191 228
162 191 228
162 192 228
162 192 228
163 192 228
163 192 228
163 192 228
163 192 228
163 192 228
164 192 228
164 192 228
164 193 228
165 193 228
165 193 228
166 193 228
166 194 228
167 194 228
168 194 228
169 195 228
169 195 228
171 196 228
172 196 228
173 197 228
175 198 228
177 199 228
182 202 230
201 221 247
210 229 255
210 229 255
210 229 255
210 229 255
210 229 255
209 229 255
209 229 255
209 229 255
209 229 255
209 229 255
209 229 255
209 229 255
209 229 255
209 229 255
209 229 255
209 229 255
209 229 255
209 229 255
209 229 255
209 229 255
209 229 255
209 229 255
209 229 255
209 229 255
209 229 255
209 229 255
209 229 255
209 229 255
209 228 255
208 228 255
208 228 255
208 228 255
208 228 255
208 228 255
208 228 255
208 228 255
208 228 255
208 228 255
208 228 255
208 228 255
208 228 255
208 228 255
208 228 255
208 228 255
208 228 255
207 227 255
152 174 218
62 99 176
61 98 167
62 98 171
61 98 172
61 98 168
61 98 169
62 99 171
62 98 170
63 99 174
63 99 169
62 98 167
62 98 164
61 97 165
62 98 163
62 98 169
62 99 166
62 99 174
61 97 167
63 99 172
62 98 171
62 99 171
62 98 164
61 97 165
62 98 168
61 98 166
63 100 174
62 99 172
62 98 167
63 99 169
62 99 170
63 100 172
62 99 168
62 98 166
61 98 164
61 98 163
63 99 167
61 98 168
61 98 171
62 98 170
62 98 170
62 98 167
62 99 173
62 98 165
62 98 164
62 97 157
61 98 165
62 98 166
62 98 173
62 98 167
62 97 167
62 98 167
62 98 171
62 98 167
61 97 169
62 98 176
74 107 179
148 170 213
207 227 255
208 228 255
208 228 255
208 228 255
208 228 255
208 228 255
208 228 255
208 228 255
208 228 255
208 228 255
208 228 255
208 228 255
208 228 255
208 228 255
208 228 255
208 228 255
208 228 255
209 228 255
209 228 255
209 229 255
209 229 255
209 229 255
209 229 255
209 229 255
209 229 255
209 229 255
209 229 255
209 229 255
209 229 255
209 229 255
209 229 255
209 229 255
209 229 255
209 229 255
209 229 255
209 229 255
209 229 255
209 229 255
209 229 255
209 229 255
209 229 255
210 229 255
210 229 255
210 229 255
210 229 255
210 229 255
201 213 219
182 177 125
177 173 114
175 171 114
173 171 114
172 170 114
171 169 114
169 169 114
169 169 114
168 168 114
167 168 114
166 168 114
166 167 114
165 167 114
165 167 114
164 167 114
164 167 114
164 166 114
163 166 114
163 166 114
163 166 114
163 166 114
163 166 114
162 166 114
162 166 114
162 166 114
162 166 114
162 166 114
162 166 114
162 166 114
162 166 114
162 166 114
162 166 114
162 166 114
162 166 114
162 166 114
162 166 114
162 166 114
162 166 114
162 166 114
162 166 114
162 166 114
162 166 114
163 166 114
163 166 114
163 166 114
163 166 114
163 166 114
163 166 114
163 166 114
163 166 114
163 166 114
164 166 114
164 166 114
164 167 114
164 167 114
164 167 114
164 167 114
165 167 114
165 167 114
165 167 114
165 167 114
165 167 114
166 167 114
166 167 114
166 167 114
166 167 114
166 168 114
166 168 114
167 168 114
167 168 114
167 168 114
167 168 114
167 168 114
168 168 114
168 168 114
168 168 114
168 168 114
168 169 114
169 169 114
169 169 114
169 169 114
169 169 114
170 169 114
170 169 114
170 169 114
170 169 114
170 169 114
171 170 114
171 170 114
171 170 114
171 170 114
172 170 114
172 170 114
172 170 114
172 170 114
172 170 114
173 170 114
173 171 114
173 171 114
173 171 114
174 171 114
174 171 114
174 171 114
174 171 114
175 171 114
175 171 114
175 172 114
175 172 114
176 172 114
176 172 114
176 172 114
176 172 114
177 172 114
177 172 114
177 172 114
177 173 114
178 173 114
178 173 114
178 173 114
178 173 114
179 173 114
179 173 114
179 173 114
179 174 114
180 201 228
179 200 228
179 200 228
179 200 228
178 200 228
178 200 228
178 200 228
178 200 228
177 199 228
177 199 228
177 199 228
177 199 228
177 199 228
176 199 228
176 199 228
176 199 228
176 198 228
175 198 228
175 198 228
175 198 228
175 198 228
174 198 228
174 198 228
174 198 228
174 197 228
173 197 228
173 197 228
173 197 228
173 197 228
173 197 228
172 197 228
172 197 228
172 196 228
172 196 228
171 196 228
171 196 228
171 196 228
171 196 228
171 196 228
170 196 228
170 196 228
170 195 228
170 195 228
169 195 228
169 195 228
169 195 228
169 195 228
169 195 228
168 195 228
168 195 228
168 194 228
168 194 228
168 194 228
167 194 228
167 194 228
167 194 228
167 194 228
167 194 228
166 194 228
166 194 228
166 193 228
166 193 228
166 193 228
166 193 228
165 193 228
165 193 228
165 193 228
165 193 228
165 193 228
165 193 228
164 193 228
164 193 228
164 192 228
164 192 228
164 192 228
164 192 228
163 192 228
163 192 228
163 192 228
163 192 228
163 192 228
163 192 228
163 192 228
163 192 228
163 192 228
163 192 228
162 192 228
162 192 228
162 192 228
162 191 228
162 191 228
162 191 228
162 191 228
162 191 228
162 191 228
162 191 228
162 191 228
162 191 228
162 192 228
162 192 228
162 192 228
163 192 228
163 192 228
163 192 228
163 192 228
163 192 228
163 192 228
164 192 228
164 192 228
164 193 228
165 193 228
165 193 228
165 193 228
166 193 228
166 194 228
167 194 228
168 194 228
169 195 228
169 195 228
170 196 228
172 196 228
173 197 228
175 198 228
177 199 228
179 200 228
192 211 238
208 228 254
210 229 255
210 229 255
210 229 255
210 229 255
210 229 255
210 229 255
210 229 255
210 229 255
209 229 255
209 229 255
209 229 255
209 229 255
209 229 255
209 229 255
209 229 255
209 229 255
209 229 255
209 229 255
209 229 255
209 229 255
209 229 255
209 229 255
209 229 255
209 229 255
209 229 255
209 229 255
209 229 255
209 229 255
209 229 255
209 229 255
209 229 255
209 229 255
209 229 255
209 228 255
209 228 255
209 228 255
208 228 255
208 228 255
208 228 255
208 228 255
208 228 255
208 228 255
194 215 245
117 143 200
61 97 168
62 98 171
62 98 171
62 99 173
62 99 173
62 98 170
62 98 168
62 98 170
62 98 169
63 99 172
61 97 162
61 97 165
62 98 171
63 99 172
62 99 174
62 99 168
62 98 169
63 99 165
63 99 169
62 98 170
62 98 166
63 99 168
61 98 166
61 98 165
62 98 167
62 98 164
61 98 167
62 98 169
62 98 166
61 98 163
62 98 165
62 98 166
63 99 168
62 98 165
61 97 160
62 98 167
62 97 162
61 97 164
62 98 168
61 98 162
62 98 170
62 98 168
62 98 167
62 98 170
62 99 171
62 98 168
61 98 167
63 99 172
62 98 168
61 97 163
62 98 166
62 98 167
62 97 165
62 98 170
62 98 170
62 98 167
62 98 171
62 97 170
108 134 192
191 212 243
208 228 255
208 228 255
208 228 255
208 228 255
208 228 255
208 228 255
209 228 255
209 228 255
209 229 255
209 229 255
209 229 255
209 229 255
209 229 255
209 229 255
209 229 255
209 229 255
209 229 255
209 229 255
209 229 255
209 229 255
209 229 255
209 229 255
209 229 255
209 229 255
209 229 255
209 229 255
209 229 255
209 229 255
209 229 255
209 229 255
209 229 255
209 229 255
209 229 255
210 229 255
210 229 255
210 229 255
210 229 255
210 229 255
210 229 255
210 229 255
210 229 255
210 229 255
208 225 247
194 198 184
180 174 114
176 172 114
174 171 114
173 171 114
172 170 114
170 169 114
169 169 114
169 169 114
168 168 114
167 168 114
166 168 114
166 167 114
165 167 114
165 167 114
165 167 114
164 167 114
164 167 114
164 166 114
163 166 114
163 166 114
163 166 114
163 166 114
163 166 114
163 166 114
162 166 114
162 166 114
162 166 114
162 166 114
162 166 114
162 166 114
162 166 114
162 166 114
162 166 114
162 166 114
162 166 114
162 166 114
162 166 114
162 166 114
162 166 114
162 166 114
163 166 114
163 166 114
163 166 114
163 166 114
163 166 114
163 166 114
163 166 114
163 166 114
163 166 114
164 166 114
164 166 114
164 167 114
164 167 114
164 167 114
164 167 114
165 167 114
165 167 114
165 167 114
165 167 114
165 167 114
165 167 114
166 167 114
166 167 114
166 167 114
166 167 114
166 168 114
166 168 114
167 168 114
167 168 114
167 168 114
167 168 114
167 168 114
168 168 114
168 168 114
168 168 114
168 168 114
168 169 114
169 169 114
169 169 114
169 169 114
169 169 114
170 169 114
170 169 114
170 169 114
170 169 114
170 169 114
171 169 114
171 170 114
171 170 114
171 170 114
171 170 114
172 170 114
172 170 114
172 170 114
172 170 114
173 170 114
173 170 114
173 171 114
173 171 114
173 171 114
174 171 114
174 171 114
174 171 114
174 171 114
175 171 114
175 171 114
175 172 114
175 172 114
176 172 114
176 172 114
176 172 114
176 172 114
176 172 114
177 172 114
177 172 114
177 173 114
177 173 114
178 173 114
178 173 114
178 173 114
178 173 114
179 173 114
179 173 114
179 173 114
180 174 114
180 201 228
179 200 228
179 200 228
179 200 228
179 200 228
178 200 228
178 200 228
178 200 228
178 200 228
177 199 228
177 199 228
177 199 228
177 199 228
176 199 228
176 199 228
176 199 228
176 199 228
176 198 228
175 198 228
175 198 228
175 198 228
175 198 228
174 198 228
174 198 228
174 198 228
174 197 228
174 197 228
173 197 228
173 197 228
173 197 228
173 197 228
172 197 228
172 197 228
172 197 228
172 196 228
172 196 228
171 196 228
171 196 228
171 196 228
171 196 228
171 196 228
170 196 228
170 196 228
170 195 228
170 195 228
169 195 228
169 195 228
169 195 228
169 195 228
169 195 228
168 195 228
168 195 228
168 195 228
168 194 228
168 194 228
167 194 228
167 194 228
167 194 228
167 194 228
167 194 228
167 194 228
166 194 228
166 194 228
166 193 228
166 193 228
166 193 228
165 193 228
165 193 228
165 193 228
165 193 228
165 193 228
165 193 228
164 193 228
164 193 228
164 192 228
164 192 228
164 192 228
164 192 228
164 192 228
164 192 228
163 192 228
163 192 228
163 192 228
163 192 228
163 192 228
163 192 228
163 192 228
163 192 228
163 192 228
163 192 228
163 192 228
162 192 228
162 192 228
162 192 228
162 192 228
162 192 228
162 192 228
162 192 228
162 192 228
163 192 228
163 192 228
163 192 228
163 192 228
163 192 228
163 192 228
163 192 228
163 192 228
164 192 228
164 192 228
164 192 228
164 193 228
165 193 228
165 193 228
166 193 228
166 193 228
167 194 228
167 194 228
168 194 228
169 195 228
169 195 228
170 196 228
171 196 228
173 197 228
174 198 228
176 199 228
179 200 228
186 206 232
208 227 253
210 229 255
210 229 255
210 229 255
210 229 255
210 229 255
210 229 255
210 229 255
210 229 255
210 229 255
210 229 255
210 229 255
210 229 255
210 229 255
210 229 255
209 229 255
209 229 255
209 229 255
209 229 255
209 229 255
209 229 255
209 229 255
209 229 255
209 229 255
209 229 255
209 229 255
209 229 255
209 229 255
209 229 255
209 229 255
209 229 255
209 229 255
209 229 255
209 229 255
209 229 255
209 229 255
209 229 255
209 229 255
209 229 255
209 229 255
209 229 255
182 203 238
85 115 181
61 98 170
61 98 174
61 97 159
61 98 169
61 97 163
61 98 168
62 99 170
62 98 170
61 97 167
62 98 170
61 98 165
62 98 167
62 99 170
61 97 163
62 99 168
62 98 165
62 98 164
61 97 166
62 98 164
62 99 170
61 97 162
61 97 160
62 99 169
62 99 166
62 98 166
62 98 161
63 99 170
62 98 164
62 98 165
63 99 171
61 98 167
62 98 166
62 99 166
62 99 172
62 98 164
62 98 166
61 98 168
62 98 166
62 98 163
62 98 164
62 98 170
62 98 168
61 98 162
62 98 164
61 97 161
62 98 168
62 99 171
62 97 166
62 99 171
63 99 168
62 98 171
62 98 168
61 97 163
62 99 170
63 99 173
62 97 168
62 98 168
62 98 170
61 96 164
62 98 167
73 106 176
167 188 225
209 229 255
209 229 255
209 229 255
209 229 255
209 229 255
209 229 255
209 229 255
209 229 255
209 229 255
209 229 255
209 229 255
209 229 255
209 229 255
209 229 255
209 229 255
209 229 255
209 229 255
209 229 255
209 229 255
209 229 255
209 229 255
209 229 255
209 229 255
209 229 255
209 229 255
209 229 255
210 229 255
210 229 255
210 229 255
210 229 255
210 229 255
210 229 255
210 229 255
210 229 255
210 229 255
210 229 255
210 229 255
210 229 255
210 229 255
210 229 255
206 222 240
186 183 142
179 173 114
176 172 114
174 171 114
173 170 114
171 170 114
170 169 114
169 169 114
169 169 114
168 168 114
167 168 114
167 168 114
166 167 114
166 167 114
165 167 114
165 167 114
164 167 114
164 167 114
164 166 114
164 166 114
163 166 114
163 166 114
163 166 114
163 166 114
163 166 114
163 166 114
163 166 114
163 166 114
162 166 114
162 166 114
162 166 114
162 166 114
162 166 114
162 166 114
162 166 114
162 166 114
163 166 114
163 166 114
163 166 114
163 166 114
163 166 114
163 166 114
163 166 114
163 166 114
163 166 114
163 166 114
163 166 114
164 166 114
164 166 114
164 166 114
164 167 114
164 167 114
164 167 114
164 167 114
165 167 114
165 167 114
165 167 114
165 167 114
165 167 114
165 167 114
165 167 114
166 167 114
166 167 114
166 167 114
166 168 114
166 168 114
167 168 114
167 168 114
167 168 114
167 168 114
167 168 114
167 168 114
168 168 114
168 168 114
168 168 114
168 168 114
168 169 114
169 169 114
169 169 114
169 169 114
169 169 114
169 169 114
170 169 114
170 169 114
170 169 114
170 169 114
171 169 114
171 170 114
171 170 114
171 170 114
171 170 114
172 170 114
172 170 114
172 170 114
172 170 114
172 170 114
173 170 114
173 171 114
173 171 114
173 171 114
174 171 114
174 171 114
174 171 114
174 171 114
174 171 114
175 171 114
175 171 114
175 172 114
175 172 114
176 172 114
176 172 114
176 172 114
176 172 114
176 172 114
177 172 114
177 172 114
177 173 114
177 173 114
178 173 114
178 173 114
178 173 114
178 173 114
179 173 114
179 173 114
179 173 114
179 174 114
180 174 114
180 201 228
180 201 228
179 200 228
179 200 228
179 200 228
179 200 228
178 200 228
178 200 228
178 200 228
178 200 228
177 199 228
177 199 228
177 199 228
177 199 228
177 199 228
176 199 228
176 199 228
176 199 228
176 198 228
175 198 228
175 198 228
175 198 228
175 198 228
175 198 228
174 198 228
174 198 228
174 198 228
174 197 228
173 197 228
173 197 228
173 197 228
173 197 228
173 197 228
172 197 228
172 197 228
172 197 228
172 196 228
172 196 228
171 196 228
171 196 228
171 196 228
171 196 228
171 196 228
170 196 228
170 196 228
170 195 228
170 195 228
170 195 228
169 195 228
169 195 228
169 195 228
169 195 228
169 195 228
168 195 228
168 195 228
168 194 228
168 194 228
168 194 228
167 194 228
167 194 228
167 194 228
167 194 228
167 194 228
166 194 228
166 194 228
166 193 228
166 193 228
166 193 228
166 193 228
165 193 228
165 193 228
165 193 228
165 193 228
165 193 228
165 193 228
165 193 228
164 193 228
164 193 228
164 192 228
164 192 228
164 192 228
164 192 228
164 192 228
164 192 228
163 192 228
163 192 228
163 192 228
163 192 228
163 192 228
163 192 228
163 192 228
163 192 228
163 192 228
163 192 228
163 192 228
163 192 228
163 192 228
163 192 228
163 192 228
163 192 228
163 192 228
163 192 228
163 192 228
163 192 228
163 192 228
163 192 228
164 192 228
164 192 228
164 192 228
164 192 228
164 193 228
165 193 228
165 193 228
165 193 228
166 193 228
166 194 228
167 194 228
167 194 228
168 194 228
169 195 228
170 195 228
170 196 228
172 196 228
173 197 228
174 198 228
176 199 228
178 200 228
185 205 232
202 221 247
210 229 255
210 229 255
210 229 255
210 229 255
210 229 255
210 229 255
210 229 255
210 229 255
210 229 255
210 229 255
210 229 255
210 229 255
210 229 255
210 229 255
210 229 255
210 229 255
210 229 255
210 229 255
210 229 255
210 229 255
210 229 255
209 229 255
209 229 255
209 229 255
209 229 255
209 229 255
209 229 255
209 229 255
209 229 255
209 229 255
209 229 255
209 229 255
209 229 255
209 229 255
209 229 255
209 229 255
209 229 255
208 228 255
157 178 219
61 97 171
61 98 171
61 97 166
62 99 171
62 98 168
62 98 174
62 98 166
62 98 169
63 99 172
62 98 163
63 99 171
62 98 170
62 98 165
63 99 171
62 98 165
63 99 174
62 98 167
62 98 171
62 98 162
63 99 171
62 98 169
63 99 170
62 99 170
62 98 166
63 99 170
61 97 160
62 98 167
62 99 166
62 98 168
62 98 166
62 98 165
62 98 165
62 98 161
62 98 163
61 98 166
62 99 170
62 98 167
62 98 166
62 98 168
61 98 162
61 97 159
61 97 161
61 98 166
62 99 170
63 99 165
61 97 161
62 98 169
62 99 172
62 98 161
62 98 166
61 97 161
62 98 167
62 98 169
62 98 162
62 98 164
62 99 170
62 98 168
62 98 166
61 97 165
62 98 168
61 96 156
61 97 169
61 97 162
64 98 167
160 181 217
207 227 254
209 229 255
209 229 255
209 229 255
209 229 255
209 229 255
209 229 255
209 229 255
209 229 255
209 229 255
209 229 255
209 229 255
209 229 255
209 229 255
209 229 255
209 229 255
209 229 255
209 229 255
210 229 255
210 229 255
210 229 255
210 229 255
210 229 255
210 229 255
210 229 255
210 229 255
210 229 255
210 229 255
210 229 255
210 229 255
210 229 255
210 229 255
210 229 255
210 229 255
210 229 255
210 229 255
210 229 255
210 229 255
204 217 228
186 183 141
178 173 114
176 172 114
174 171 114
173 170 114
171 170 114
170 169 114
170 169 114
169 169 114
168 168 114
167 168 114
167 168 114
166 168 114
166 167 114
165 167 114
165 167 114
165 167 114
164 167 114
164 167 114
164 167 114
164 166 114
164 166 114
163 166 114
163 166 114
163 166 114
163 166 114
163 166 114
163 166 114
163 166 114
163 166 114
163 166 114
163 166 114
163 166 114
163 166 114
163 166 114
163 166 114
163 166 114
163 166 114
163 166 114
163 166 114
163 166 114
163 166 114
163 166 114
163 166 114
164 166 114
164 166 114
164 166 114
164 166 114
164 167 114
164 167 114
164 167 114
164 167 114
165 167 114
165 167 114
165 167 114
165 167 114
165 167 114
165 167 114
165 167 114
166 167 114
166 167 114
166 167 114
166 168 114
166 168 114
166 168 114
167 168 114
167 168 114
167 168 114
167 168 114
167 168 114
168 168 114
168 168 114
168 168 114
168 168 114
168 168 114
169 169 114
169 169 114
169 169 114
169 169 114
169 169 114
170 169 114
170 169 114
170 169 114
170 169 114
170 169 114
171 169 114
171 170 114
171 170 114
171 170 114
171 170 114
172 170 114
172 170 114
172 170 114
172 170 114
172 170 114
173 170 114
173 171 114
173 171 114
173 171 114
173 171 114
174 171 114
174 171 114
174 171 114
174 171 114
175 171 114
175 171 114
175 172 114
175 172 114
175 172 114
176 172 114
176 172 114
176 172 114
176 172 114
177 172 114
177 172 114
177 172 114
177 173 114
177 173 114
178 173 114
178 173 114
178 173 114
178 173 114
179 173 114
179 173 114
179 173 114
179 174 114
180 174 114
180 174 114
180 201 228
180 201 228
180 201 228
179 200 228
179 200 228
179 200 228
179 200 228
178 200 228
178 200 228
178 200 228
178 200 228
178 199 228
177 199 228
177 199 228
177 199 228
177 199 228
176 199 228
176 199 228
176 199 228
176 199 228
176 198 228
175 198 228
175 198 228
175 198 228
175 198 228
174 198 228
174 198 228
174 198 228
174 198 228
174 197 228
173 197 228
173 197 228
173 197 228
173 197 228
173 197 228
172 197 228
172 197 228
172 197 228
172 196 228
172 196 228
171 196 228
171 196 228
171 196 228
171 196 228
171 196 228
170 196 228
170 196 228
170 195 228
170 195 228
170 195 228
169 195 228
169 195 228
169 195 228
169 195 228
169 195 228
168 195 228
168 195 228
168 194 228
168 194 228
168 194 228
168 194 228
167 194 228
167 194 228
167 194 228
167 194 228
167 194 228
166 194 228
166 194 228
166 194 228
166 193 228
166 193 228
166 193 228
166 193 228
165 193 228
165 193 228
165 193 228
165 193 228
165 193 228
165 193 228
165 193 228
164 193 228
164 193 228
164 192 228
164 192 228
164 192 228
164 192 228
164 192 228
164 192 228
164 192 228
163 192 228
163 192 228
163 192 228
163 192 228
163 192 228
163 192 228
163 192 228
163 192 228
163 192 228
163 192 228
163 192 228
163 192 228
163 192 228
163 192 228
163 192 228
164 192 228
164 192 228
164 192 228
164 192 228
164 192 228
164 193 228
165 193 228
165 193 228
165 193 228
165 193 228
166 193 228
166 193 228
167 194 228
167 194 228
168 194 228
168 195 228
169 195 228
170 195 228
171 196 228
172 196 228
173 197 228
174 198 228
176 199 228
178 200 228
181 201 228
200 219 245
210 230 255
210 230 255
210 230 255
210 229 255
210 229 255
210 229 255
210 229 255
210 229 255
210 229 255
210 229 255
210 229 255
210 229 255
210 229 255
210 229 255
210 229 255
210 229 255
210 229 255
210 229 255
210 229 255
210 229 255
210 229 255
210 229 255
210 229 255
210 229 255
210 229 255
210 229 255
210 229 255
210 229 255
209 229 255
209 229 255
209 229 255
209 229 255
209 229 255
209 229 255
209 229 255
208 228 255
110 136 194
61 97 173
61 98 173
62 98 170
62 99 172
62 99 173
61 98 169
62 98 170
62 98 165
62 98 168
62 98 167
62 98 169
62 99 168
61 97 163
62 98 163
62 98 169
61 98 167
62 98 163
62 98 164
62 98 167
62 98 163
62 98 162
63 99 170
62 98 165
61 96 155
62 98 164
62 98 163
62 98 166
63 99 170
62 99 169
62 98 164
62 98 166
62 99 167
61 97 159
62 99 170
62 98 167
63 99 167
62 99 167
62 98 165
63 99 166
62 98 165
62 98 155
61 97 160
61 98 162
62 98 164
63 99 164
62 98 164
61 97 160
62 98 162
62 98 164
62 98 163
61 97 164
62 98 167
62 98 166
61 98 165
62 98 167
62 98 164
61 97 160
61 98 164
61 97 158
61 97 164
62 97 167
61 96 160
61 97 164
60 96 158
62 97 163
62 97 168
128 151 197
205 225 252
209 229 255
209 229 255
209 229 255
209 229 255
209 229 255
209 229 255
209 229 255
209 229 255
210 229 255
210 229 255
210 229 255
210 229 255
210 229 255
210 229 255
210 229 255
210 229 255
210 229 255
210 229 255
210 229 255
210 229 255
210 229 255
210 229 255
210 229 255
210 229 255
210 229 255
210 229 255
210 229 255
210 229 255
210 229 255
210 229 255
210 229 255
210 229 255
210 230 255
210 230 255
210 230 255
200 209 209
182 177 123
178 173 114
176 172 114
174 171 114
173 171 114
172 170 114
171 170 114
170 169 114
169 169 114
168 168 114
168 168 114
167 168 114
167 168 114
166 167 114
166 167 114
165 167 114
165 167 114
165 167 114
164 167 114
164 167 114
164 167 114
164 167 114
164 166 114
164 166 114
164 166 114
163 166 114
163 166 114
163 166 114
163 166 114
163 166 114
163 166 114
163 166 114
163 166 114
163 166 114
163 166 114
163 166 114
163 166 114
163 166 114
163 166 114
163 166 114
164 166 114
164 166 114
164 166 114
164 166 114
164 167 114
164 167 114
164 167 114
164 167 114
164 167 114
164 167 114
165 167 114
165 167 114
165 167 114
165 167 114
165 167 114
165 167 114
165 167 114
166 167 114
166 167 114
166 167 114
166 167 114
166 168 114
166 168 114
167 168 114
167 168 114
167 168 114
167 168 114
167 168 114
168 168 114
168 168 114
168 168 114
168 168 114
168 168 114
168 169 114
169 169 114
169 169 114
169 169 114
169 169 114
169 169 114
170 169 114
170 169 114
170 169 114
170 169 114
170 169 114
171 170 114
171 170 114
171 170 114
171 170 114
171 170 114
172 170 114
172 170 114
172 170 114
172 170 114
172 170 114
173 170 114
173 171 114
173 171 114
173 171 114
173 171 114
174 171 114
174 171 114
174 171 114
174 171 114
175 171 114
175 171 114
175 171 114
175 172 114
175 172 114
176 172 114
176 172 114
176 172 114
176 172 114
176 172 114
177 172 114
177 172 114
177 172 114
177 173 114
178 173 114
178 173 114
178 173 114
178 173 114
178 173 114
179 173 114
179 173 114
179 173 114
179 174 114
180 174 114
180 174 114
180 174 114
180 201 228
180 201 228
180 201 228
180 201 228
179 200 228
179 200 228
179 200 228
179 200 228
178 200 228
178 200 228
178 200 228
178 200 228
178 200 228
177 199 228
177 199 228
177 199 228
177 199 228
177 199 228
176 199 228
176 199 228
176 199 228
176 199 228
175 198 228
175 198 228
175 198 228
175 198 228
175 198 228
174 198 228
174 198 228
174 198 228
174 198 228
174 197 228
173 197 228
173 197 228
173 197 228
173 197 228
173 197 228
172 197 228
172 197 228
172 197 228
172 196 228
172 196 228
171 196 228
171 196 228
171 196 228
171 196 228
171 196 228
170 196 228
170 196 228
170 196 228
170 195 228
170 195 228
170 195 228
169 195 228
169 195 228
169 195 228
169 195 228
169 195 228
168 195 228
168 195 228
168 194 228
168 194 228
168 194 228
168 194 228
167 194 228
167 194 228
167 194 228
167 194 228
167 194 228
167 194 228
166 194 228
166 194 228
166 193 228
166 193 228
166 193 228
166 193 228
165 193 228
165 193 228
165 193 228
165 193 228
165 193 228
165 193 228
165 193 228
165 193 228
164 193 228
164 193 228
164 193 228
164 192 228
164 192 228
164 192 228
164 192 228
164 192 228
164 192 228
164 192 228
164 192 228
164 192 228
164 192 228
164 192 228
164 192 228
164 192 228
164 192 228
164 192 228
164 192 228
164 192 228
164 192 228
164 192 228
164 192 228
164 192 228
164 193 228
164 193 228
165 193 228
165 193 228
165 193 228
165 193 228
166 193 228
166 193 228
166 194 228
167 194 228
167 194 228
168 194 228
169 195 228
169 195 228
170 196 228
171 196 228
172 196 228
173 197 228
174 198 228
176 199 228
178 200 228
181 201 228
198 217 243
211 230 255
211 230 255
211 230 255
211 230 255
211 230 255
211 230 255
210 230 255
210 230 255
210 230 255
210 229 255
210 229 255
210 229 255
210 229 255
210 229 255
210 229 255
210 229 255
210 229 255
210 229 255
210 229 255
210 229 255
210 229 255
210 229 255
210 229 255
210 229 255
210 229 255
210 229 255
210 229 255
210 229 255
210 229 255
210 229 255
210 229 255
210 229 255
210 229 255
203 222 251
97 125 186
61 97 172
61 97 170
61 97 168
61 98 168
62 98 170
61 97 168
61 97 165
62 98 167
61 97 161
62 98 172
62 98 166
62 98 168
61 98 164
62 98 166
61 98 169
62 98 164
61 97 166
63 99 170
61 97 162
61 98 162
62 98 166
62 98 165
61 98 166
61 98 163
61 98 161
62 98 165
62 98 164
62 98 163
62 98 171
62 98 162
62 98 164
63 99 170
61 97 163
63 99 166
62 98 165
62 98 163
61 98 166
63 99 167
62 98 163
62 98 162
62 98 164
62 99 165
63 99 168
62 98 165
62 98 162
62 98 163
63 99 164
63 98 162
62 98 169
62 98 164
61 97 155
61 97 160
63 99 168
62 98 163
62 98 164
62 97 163
62 97 159
61 97 163
62 97 164
62 98 161
61 97 159
61 97 163
62 97 163
61 96 160
61 96 161
62 98 166
62 98 168
61 96 163
107 132 188
202 221 249
210 229 255
210 229 255
210 229 255
210 229 255
210 229 255
210 229 255
210 229 255
210 229 255
210 229 255
210 229 255
210 229 255
210 229 255
210 229 255
210 229 255
210 229 255
210 229 255
210 229 255
210 229 255
210 229 255
210 229 255
210 229 255
210 229 255
210 229 255
210 229 255
210 230 255
210 230 255
210 230 255
211 230 255
211 230 255
211 230 255
211 230 255
211 230 255
211 230 255
199 206 202
181 174 114
178 173 114
176 172 114
174 171 114
173 171 114
172 170 114
171 170 114
170 169 114
169 169 114
169 169 114
168 168 114
167 168 114
167 168 114
166 168 114
166 167 114
166 167 114
165 167 114
165 167 114
165 167 114
165 167 114
164 167 114
164 167 114
164 167 114
164 167 114
164 167 114
164 166 114
164 166 114
164 166 114
164 166 114
164 166 114
164 166 114
164 166 114
164 166 114
164 166 114
164 166 114
164 166 114
164 166 114
164 166 114
164 166 114
164 167 114
164 167 114
164 167 114
164 167 114
164 167 114
164 167 114
164 167 114
165 167 114
165 167 114
165 167 114
165 167 114
165 167 114
165 167 114
165 167 114
165 167 114
166 167 114
166 167 114
166 167 114
166 167 114
166 168 114
166 168 114
167 168 114
167 168 114
167 168 114
167 168 114
167 168 114
167 168 114
168 168 114
168 168 114
168 168 114
168 168 114
168 168 114
168 169 114
169 169 114
169 169 114
169 169 114
169 169 114
169 169 114
170 169 114
170 169 114
170 169 114
170 169 114
170 169 114
170 169 114
171 170 114
171 170 114
171 170 114
171 170 114
171 170 114
172 170 114
172 170 114
172 170 114
172 170 114
172 170 114
173 170 114
173 171 114
173 171 114
173 171 114
173 171 114
174 171 114
174 171 114
174 171 114
174 171 114
174 171 114
175 171 114
175 171 114
175 172 114
175 172 114
176 172 114
176 172 114
176 172 114
176 172 114
176 172 114
177 172 114
177 172 114
177 172 114
177 173 114
177 173 114
178 173 114
178 173 114
178 173 114
178 173 114
178 173 114
179 173 114
179 173 114
179 173 114
179 174 114
180 174 114
180 174 114
180 174 114
180 174 114
181 201 228
180 201 228
180 201 228
180 201 228
180 201 228
179 200 228
179 200 228
179 200 228
179 200 228
179 200 228
178 200 228
178 200 228
178 200 228
178 200 228
178 199 228
177 199 228
177 199 228
177 199 228
177 199 228
176 199 228
176 199 228
176 199 228
176 199 228
176 198 228
175 198 228
175 198 228
175 198 228
175 198 228
175 198 228
174 198 228
174 198 228
174 198 228
174 198 228
174 197 228
174 197 228
173 197 228
173 197 228
173 197 228
173 197 228
173 197 228
172 197 228
172 197 228
172 197 228
172 196 228
172 196 228
171 196 228
171 196 228
171 196 228
171 196 228
171 196 228
170 196 228
170 196 228
170 196 228
170 195 228
170 195 228
170 195 228
169 195 228
169 195 228
169 195 228
169 195 228
169 195 228
168 195 228
168 195 228
168 195 228
168 194 228
168 194 228
168 194 228
167 194 228
167 194 228
167 194 228
167 194 228
167 194 228
167 194 228
166 194 228
166 194 228
166 194 228
166 193 228
166 193 228
166 193 228
166 193 228
166 193 228
165 193 228
165 193 228
165 193 228
165 193 228
165 193 228
165 193 228
165 193 228
165 193 228
165 193 228
164 193 228
164 193 228
164 193 228
164 193 228
164 192 228
164 192 228
164 192 228
164 192 228
164 192 228
164 192 228
164 192 228
164 192 228
164 192 228
164 192 228
164 193 228
164 193 228
164 193 228
164 193 228
165 193 228
165 193 228
165 193 228
165 193 228
165 193 228
166 193 228
166 193 228
166 194 228
167 194 228
167 194 228
167 194 228
168 194 228
168 195 228
169 195 228
170 195 228
170 196 228
171 196 228
172 197 228
173 197 228
175 198 228
176 199 228
178 200 228
181 201 228
197 216 241
211 230 255
211 230 255
211 230 255
211 230 255
211 230 255
211 230 255
211 230 255
211 230 255
211 230 255
211 230 255
211 230 255
211 230 255
210 230 255
210 230 255
210 230 255
210 229 255
210 229 255
210 229 255
210 229 255
210 229 255
210 229 255
210 229 255
210 229 255
210 229 255
210 229 255
210 229 255
210 229 255
210 229 255
210 229 255
210 229 255
210 229 255
198 218 247
93 121 184
61 97 168
60 96 164
62 98 173
61 97 166
62 98 170
62 98 171
62 98 169
62 98 171
62 97 164
62 99 168
61 97 161
62 98 170
62 99 173
62 98 165
62 98 164
61 97 158
62 99 166
60 96 158
62 98 166
62 98 161
62 99 167
62 98 168
62 98 163
62 98 166
63 99 166
62 98 164
62 98 164
63 99 163
61 97 158
61 98 162
61 97 155
61 97 158
62 98 161
62 98 164
62 98 164
61 97 157
61 97 156
62 98 165
62 98 173
62 98 166
62 98 165
62 98 165
63 98 163
62 99 168
62 98 163
62 98 162
62 99 166
62 98 160
62 97 162
61 98 164
62 98 162
62 98 165
62 98 160
61 97 162
62 97 165
61 96 162
60 96 156
62 98 165
62 98 168
61 97 160
62 98 166
60 95 151
61 96 157
61 97 166
62 98 169
61 97 168
61 96 159
62 97 165
61 97 166
62 97 165
104 130 182
206 225 252
210 229 255
210 229 255
210 229 255
210 229 255
210 229 255
210 229 255
210 229 255
210 229 255
210 229 255
210 229 255
210 229 255
210 229 255
210 229 255
210 229 255
210 229 255
210 229 255
210 230 255
210 230 255
210 230 255
211 230 255
211 230 255
211 230 255
211 230 255
211 230 255
211 230 255
211 230 255
211 230 255
211 230 255
211 230 255
211 230 255
211 230 255
197 202 192
181 174 114
178 173 114
176 172 114
174 171 114
173 171 114
172 170 114
171 170 114
170 169 114
170 169 114
169 169 114
168 168 114
168 168 114
167 168 114
167 168 114
167 168 114
166 168 114
166 167 114
166 167 114
165 167 114
165 167 114
165 167 114
165 167 114
165 167 114
165 167 114
164 167 114
164 167 114
164 167 114
164 167 114
164 167 114
164 167 114
164 167 114
164 167 114
164 167 114
164 167 114
164 167 114
164 167 114
164 167 114
164 167 114
164 167 114
164 167 114
164 167 114
164 167 114
165 167 114
165 167 114
165 167 114
165 167 114
165 167 114
165 167 114
165 167 114
165 167 114
165 167 114
166 167 114
166 167 114
166 167 114
166 167 114
166 168 114
166 168 114
166 168 114
167 168 114
167 168 114
167 168 114
167 168 114
167 168 114
167 168 114
168 168 114
168 168 114
168 168 114
168 168 114
168 168 114
168 169 114
169 169 114
169 169 114
169 169 114
169 169 114
169 169 114
170 169 114
170 169 114
170 169 114
170 169 114
170 169 114
170 169 114
171 170 114
171 170 114
171 170 114
171 170 114
171 170 114
172 170 114
172 170 114
172 170 114
172 170 114
172 170 114
173 170 114
173 170 114
173 171 114
173 171 114
173 171 114
174 171 114
174 171 114
174 171 114
174 171 114
174 171 114
175 171 114
175 171 114
175 171 114
175 172 114
175 172 114
175 172 114
176 172 114
176 172 114
176 172 114
176 172 114
177 172 114
177 172 114
177 172 114
177 172 114
177 173 114
178 173 114
178 173 114
178 173 114
178 173 114
178 173 114
179 173 114
179 173 114
179 173 114
179 173 114
179 174 114
180 174 114
180 174 114
180 174 114
180 174 114
181 174 114
181 201 228
181 201 228
180 201 228
180 201 228
180 201 228
180 201 228
180 201 228
179 200 228
179 200 228
179 200 228
179 200 228
179 200 228
178 200 228
178 200 228
178 200 228
178 200 228
177 199 228
177 199 228
177 199 228
177 199 228
177 199 228
177 199 228
176 199 228
176 199 228
176 199 228
176 199 228
176 198 228
175 198 228
175 198 228
175 198 228
175 198 228
175 198 228
174 198 228
174 198 228
174 198 228
174 197 228
174 197 228
173 197 228
173 197 228
173 197 228
173 197 228
173 197 228
172 197 228
172 197 228
172 197 228
172 196 228
172 196 228
172 196 228
171 196 228
171 196 228
171 196 228
171 196 228
171 196 228
170 196 228
170 196 228
170 196 228
170 195 228
170 195 228
170 195 228
169 195 228
169 195 228
169 195 228
169 195 228
169 195 228
169 195 228
168 195 228
168 195 228
168 194 228
168 194 228
168 194 228
168 194 228
167 194 228
167 194 228
167 194 228
167 194 228
167 194 228
167 194 228
167 194 228
166 194 228
166 194 228
166 193 228
166 193 228
166 193 228
166 193 228
166 193 228
165 193 228
165 193 228
165 193 228
165 193 228
165 193 228
165 193 228
165 193 228
165 193 228
165 193 228
165 193 228
165 193 228
165 193 228
165 193 228
165 193 228
165 193 228
165 193 228
165 193 228
165 193 228
165 193 228
165 193 228
165 193 228
165 193 228
165 193 228
165 193 228
165 193 228
165 193 228
165 193 228
166 193 228
166 193 228
166 193 228
166 194 228
167 194 228
167 194 228
167 194 228
168 194 228
168 195 228
169 195 228
169 195 228
170 195 228
171 196 228
172 196 228
172 197 228
174 197 228
175 198 228
176 199 228
178 200 228
181 201 228
196 215 240
211 230 255
211 230 255
211 230 255
211 230 255
211 230 255
211 230 255
211 230 255
211 230 255
211 230 255
211 230 255
211 230 255
211 230 255
211 230 255
211 230 255
211 230 255
211 230 255
211 230 255
211 230 255
211 230 255
210 230 255
210 230 255
210 230 255
210 230 255
210 229 255
210 229 255
210 229 255
210 229 255
210 229 255
210 229 255
205 225 252
108 134 191
61 97 171
61 98 171
62 98 172
62 98 171
62 98 169
61 97 163
61 97 168
61 97 160
62 98 169
61 97 161
62 98 167
62 98 160
62 98 162
62 98 166
62 98 163
62 98 168
62 99 168
62 98 164
61 97 160
61 98 164
62 98 168
61 97 162
62 98 160
61 97 159
62 98 159
62 98 163
62 98 162
62 98 159
62 98 159
63 99 171
62 98 167
61 97 158
62 98 166
61 97 162
61 97 157
62 98 165
62 98 157
62 98 161
62 98 163
62 98 161
62 98 163
61 97 161
62 98 158
61 97 161
62 98 161
62 98 164
63 99 165
62 98 168
62 98 164
62 98 168
62 97 158
62 97 156
62 98 163
62 98 163
62 98 164
62 98 165
61 97 164
62 98 163
61 96 160
62 98 165
61 97 160
61 97 159
61 97 164
61 97 161
62 97 168
61 96 158
62 98 163
61 96 160
61 97 166
60 95 159
61 96 161
61 95 160
109 134 183
198 218 247
210 229 255
210 229 255
210 229 255
210 229 255
210 229 255
210 229 255
210 230 255
210 230 255
210 230 255
211 230 255
211 230 255
211 230 255
211 230 255
211 230 255
211 230 255
211 230 255
211 230 255
211 230 255
211 230 255
211 230 255
211 230 255
211 230 255
211 230 255
211 230 255
211 230 255
211 230 255
211 230 255
211 230 255
211 229 254
199 206 202
181 174 114
178 173 114
176 172 114
175 171 114
174 171 114
173 170 114
172 170 114
171 170 114
170 169 114
169 169 114
169 169 114
168 168 114
168 168 114
167 168 114
167 168 114
167 168 114
166 168 114
166 167 114
166 167 114
166 167 114
165 167 114
165 167 114
165 167 114
165 167 114
165 167 114
165 167 114
165 167 114
165 167 114
165 167 114
165 167 114
165 167 114
165 167 114
165 167 114
165 167 114
165 167 114
165 167 114
165 167 114
165 167 114
165 167 114
165 167 114
165 167 114
165 167 114
165 167 114
165 167 114
165 167 114
165 167 114
166 167 114
166 167 114
166 167 114
166 167 114
166 167 114
166 167 114
166 168 114
166 168 114
167 168 114
167 168 114
167 168 114
167 168 114
167 168 114
167 168 114
167 168 114
168 168 114
168 168 114
168 168 114
168 168 114
168 168 114
168 168 114
169 169 114
169 169 114
169 169 114
169 169 114
169 169 114
169 169 114
170 169 114
170 169 114
170 169 114
170 169 114
170 169 114
170 169 114
171 170 114
171 170 114
171 170 114
171 170 114
171 170 114
172 170 114
172 170 114
172 170 114
172 170 114
172 170 114
172 170 114
173 170 114
173 171 114
173 171 114
173 171 114
173 171 114
174 171 114
174 171 114
174 171 114
174 171 114
174 171 114
175 171 114
175 171 114
175 171 114
175 172 114
175 172 114
176 172 114
176 172 114
176 172 114
176 172 114
176 172 114
176 172 114
177 172 114
177 172 114
177 172 114
177 173 114
177 173 114
178 173 114
178 173 114
178 173 114
178 173 114
179 173 114
179 173 114
179 173 114
179 173 114
179 174 114
180 174 114
180 174 114
180 174 114
180 174 114
180 174 114
181 174 114
181 174 114
181 201 228
181 201 228
181 201 228
180 201 228
180 201 228
180 201 228
180 201 228
180 201 228
179 201 228
179 200 228
179 200 228
179 200 228
179 200 228
178 200 228
178 200 228
178 200 228
178 200 228
178 200 228
178 199 228
177 199 228
177 199 228
177 199 228
177 199 228
177 199 228
176 199 228
176 199 228
176 199 228
176 199 228
176 198 228
175 198 228
175 198 228
175 198 228
175 198 228
175 198 228
175 198 228
174 198 228
174 198 228
174 198 228
174 197 228
174 197 228
173 197 228
173 197 228
173 197 228
173 197 228
173 197 228
172 197 228
172 197 228
172 197 228
172 196 228
172 196 228
172 196 228
171 196 228
171 196 228
171 196 228
171 196 228
171 196 228
170 196 228
170 196 228
170 196 228
170 195 228
170 195 228
170 195 228
169 195 228
169 195 228
169 195 228
169 195 228
169 195 228
169 195 228
169 195 228
168 195 228
168 195 228
168 194 228
168 194 228
168 194 228
168 194 228
167 194 228
167 194 228
167 194 228
167 194 228
167 194 228
167 194 228
167 194 228
167 194 228
166 194 228
166 194 228
166 193 228
166 193 228
166 193 228
166 193 228
166 193 228
166 193 228
166 193 228
165 193 228
165 193 228
165 193 228
165 193 228
165 193 228
165 193 228
165 193 228
165 193 228
165 193 228
165 193 228
165 193 228
165 193 228
165 193 228
165 193 228
165 193 228
165 193 228
165 193 228
166 193 228
166 193 228
166 193 228
166 193 228
166 194 228
166 194 228
167 194 228
167 194 228
167 194 228
168 194 228
168 194 228
168 195 228
169 195 228
169 195 228
170 195 228
170 196 228
171 196 228
172 197 228
173 197 228
174 198 228
175 198 228
177 199 228
179 200 228
182 202 228
196 215 240
211 230 255
211 230 255
211 230 255
211 230 255
211 230 255
211 230 255
211 230 255
211 230 255
211 230 255
211 230 255
211 230 255
211 230 255
211 230 255
211 230 255
211 230 255
211 230 255
211 230 255
211 230 255
211 230 255
211 230 255
211 230 255
211 230 255
211 230 255
211 230 255
211 230 255
211 230 255
211 230 255
204 223 250
121 145 195
61 98 170
61 96 161
62 97 162
62 98 166
61 97 166
61 97 169
61 97 159
61 97 162
61 97 162
62 98 164
61 97 162
62 98 164
62 98 165
62 98 164
62 98 164
62 98 162
61 98 163
61 97 161
61 97 160
62 97 158
61 97 162
62 97 161
62 98 159
62 98 162
62 97 158
61 97 158
62 98 162
63 98 164
61 97 156
61 97 162
61 97 162
63 99 166
62 99 167
62 98 159
62 98 160
61 96 155
61 97 156
62 98 159
63 99 168
62 98 159
62 98 163
62 98 163
62 98 163
62 98 163
62 98 161
62 97 157
62 98 166
61 97 161
61 97 162
62 98 164
62 98 165
62 98 167
62 97 153
60 96 155
61 97 156
62 98 160
62 99 171
62 98 165
62 98 168
62 99 168
62 97 155
62 98 162
61 95 153
62 98 169
61 96 158
62 97 159
60 95 153
61 97 164
61 96 162
61 96 163
61 96 156
61 96 161
60 95 159
61 96 163
100 125 177
207 226 252
211 230 255
211 230 255
211 230 255
211 230 255
211 230 255
211 230 255
211 230 255
211 230 255
211 230 255
211 230 255
211 230 255
211 230 255
211 230 255
211 230 255
211 230 255
211 230 255
211 230 255
211 230 255
211 230 255
211 230 255
211 230 255
211 230 255
211 230 255
211 230 255
211 230 255
211 230 255
211 230 255
197 203 192
182 175 114
179 173 114
177 172 114
175 172 114
174 171 114
173 171 114
172 170 114
171 170 114
170 169 114
170 169 114
169 169 114
169 169 114
168 168 114
168 168 114
168 168 114
167 168 114
167 168 114
167 168 114
166 168 114
166 168 114
166 167 114
166 167 114
166 167 114
166 167 114
165 167 114
165 167 114
165 167 114
165 167 114
165 167 114
165 167 114
165 167 114
165 167 114
165 167 114
165 167 114
165 167 114
165 167 114
165 167 114
165 167 114
165 167 114
165 167 114
165 167 114
166 167 114
166 167 114
166 167 114
166 167 114
166 167 114
166 167 114
166 168 114
166 168 114
166 168 114
166 168 114
167 168 114
167 168 114
167 168 114
167 168 114
167 168 114
167 168 114
167 168 114
168 168 114
168 168 114
168 168 114
168 168 114
168 168 114
168 168 114
169 169 114
169 169 114
169 169 114
169 169 114
169 169 114
169 169 114
170 169 114
170 169 114
170 169 114
170 169 114
170 169 114
170 169 114
171 169 114
171 170 114
171 170 114
171 170 114
171 170 114
171 170 114
172 170 114
172 170 114
172 170 114
172 170 114
172 170 114
172 170 114
173 170 114
173 171 114
173 171 114
173 171 114
173 171 114
174 171 114
174 171 114
174 171 114
174 171 114
174 171 114
175 171 114
175 171 114
175 171 114
175 172 114
175 172 114
175 172 114
176 172 114
176 172 114
176 172 114
176 172 114
176 172 114
177 172 114
177 172 114
177 172 114
177 173 114
177 173 114
178 173 114
178 173 114
178 173 114
178 173 114
178 173 114
178 173 114
179 173 114
179 173 114
179 173 114
179 173 114
179 174 114
180 174 114
180 174 114
180 174 114
180 174 114
180 174 114
181 174 114
181 174 114
181 174 114
181 202 228
181 201 228
181 201 228
181 201 228
181 201 228
180 201 228
180 201 228
180 201 228
180 201 228
180 201 228
179 201 228
179 200 228
179 200 228
179 200 228
179 200 228
179 200 228
178 200 228
178 200 228
178 200 228
178 200 228
178 199 228
177 199 228
177 199 228
177 199 228
177 199 228
177 199 228
176 199 228
176 199 228
176 199 228
176 199 228
176 199 228
176 198 228
175 198 228
175 198 228
175 198 228
175 198 228
175 198 228
174 198 228
174 198 228
174 198 228
174 198 228
174 197 228
174 197 228
173 197 228
173 197 228
173 197 228
173 197 228
173 197 228
173 197 228
172 197 228
172 197 228
172 197 228
172 196 228
172 196 228
171 196 228
171 196 228
171 196 228
171 196 228
171 196 228
171 196 228
170 196 228
170 196 228
170 196 228
170 195 228
170 195 228
170 195 228
169 195 228
169 195 228
169 195 228
169 195 228
169 195 228
169 195 228
169 195 228
168 195 228
168 195 228
168 195 228
168 194 228
168 194 228
168 194 228
168 194 228
167 194 228
167 194 228
167 194 228
167 194 228
167 194 228
167 194 228
167 194 228
167 194 228
166 194 228
166 194 228
166 194 228
166 194 228
166 194 228
166 193 228
166 193 228
166 193 228
166 193 228
166 193 228
166 193 228
166 193 228
166 193 228
166 193 228
166 193 228
166 193 228
166 193 228
166 193 228
166 193 228
166 193 228
166 193 228
166 193 228
166 194 228
166 194 228
166 194 228
167 194 228
167 194 228
167 194 228
167 194 228
167 194 228
168 194 228
168 194 228
168 195 228
169 195 228
169 195 228
170 195 228
170 196 228
171 196 228
172 196 228
173 197 228
173 197 228
174 198 228
176 199 228
177 199 228
179 200 228
182 202 228
199 217 242
212 230 255
212 230 255
212 230 255
212 230 255
211 230 255
211 230 255
211 230 255
211 230 255
211 230 255
211 230 255
211 230 255
211 230 255
211 230 255
211 230 255
211 230 255
211 230 255
211 230 255
211 230 255
211 230 255
211 230 255
211 230 255
211 230 255
211 230 255
211 230 255
211 230 255
211 230 255
116 140 190
61 97 169
61 97 169
60 96 161
62 98 168
61 97 168
62 97 168
60 96 161
61 97 164
60 96 158
61 97 165
61 97 162
61 98 162
61 98 164
62 98 160
62 99 169
62 98 170
62 98 164
62 98 163
62 98 159
62 98 164
62 98 161
62 98 164
62 99 170
63 99 164
61 97 154
62 98 164
61 97 155
61 97 155
62 98 159
63 99 166
61 97 159
62 98 164
62 97 157
60 97 157
62 98 163
60 95 151
62 97 157
62 98 162
61 96 155
62 97 155
61 97 154
62 98 166
62 98 159
61 97 158
62 97 160
63 99 164
61 97 150
62 98 162
62 98 161
62 98 157
61 97 158
61 97 156
61 97 161
61 97 159
61 97 157
62 98 165
62 99 165
62 98 156
62 98 162
62 97 161
63 98 161
61 96 157
62 98 163
62 97 160
62 98 161
61 96 158
62 98 164
60 95 146
62 97 160
61 95 150
61 97 164
61 96 159
61 96 161
61 95 158
59 94 158
62 97 165
112 136 187
210 229 255
211 230 255
211 230 255
211 230 255
211 230 255
211 230 255
211 230 255
211 230 255
211 230 255
211 230 255
211 230 255
211 230 255
211 230 255
211 230 255
211 230 255
211 230 255
211 230 255
211 230 255
211 230 255
211 230 255
211 230 255
211 230 255
212 230 255
212 230 255
212 230 255
212 230 255
198 203 192
182 175 114
179 173 114
177 173 114
176 172 114
175 171 114
173 171 114
173 170 114
172 170 114
171 170 114
170 169 114
170 169 114
169 169 114
169 169 114
168 169 114
168 168 114
168 168 114
167 168 114
167 168 114
167 168 114
167 168 114
167 168 114
166 168 114
166 168 114
166 168 114
166 167 114
166 167 114
166 167 114
166 167 114
166 167 114
166 167 114
166 167 114
166 167 114
166 167 114
166 167 114
166 167 114
166 167 114
166 167 114
166 167 114
166 167 114
166 167 114
166 167 114
166 168 114
166 168 114
166 168 114
166 168 114
167 168 114
167 168 114
167 168 114
167 168 114
167 168 114
167 168 114
167 168 114
167 168 114
167 168 114
168 168 114
168 168 114
168 168 114
168 168 114
168 168 114
168 168 114
168 169 114
169 169 114
169 169 114
169 169 114
169 169 114
169 169 114
169 169 114
169 169 114
170 169 114
170 169 114
170 169 114
170 169 114
170 169 114
170 169 114
171 170 114
171 170 114
171 170 114
171 170 114
171 170 114
171 170 114
172 170 114
172 170 114
172 170 114
172 170 114
172 170 114
173 170 114
173 170 114
173 171 114
173 171 114
173 171 114
173 171 114
174 171 114
174 171 114
174 171 114
174 171 114
174 171 114
174 171 114
175 171 114
175 171 114
175 172 114
175 172 114
175 172 114
176 172 114
176 172 114
176 172 114
176 172 114
176 172 114
176 172 114
177 172 114
177 172 114
177 172 114
177 173 114
177 173 114
178 173 114
178 173 114
178 173 114
178 173 114
178 173 114
178 173 114
179 173 114
179 173 114
179 173 114
179 174 114
179 174 114
180 174 114
180 174 114
180 174 114
180 174 114
180 174 114
181 174 114
181 174 114
181 174 114
181 174 114
181 174 114
182 202 228
182 202 228
181 202 228
181 201 228
181 201 228
181 201 228
181 201 228
180 201 228
180 201 228
180 201 228
180 201 228
180 201 228
179 201 228
179 200 228
179 200 228
179 200 228
179 200 228
179 200 228
178 200 228
178 200 228
178 200 228
178 200 228
178 200 228
177 199 228
177 199 228
177 199 228
177 199 228
177 199 228
177 199 228
176 199 228
176 199 228
176 199 228
176 199 228
176 199 228
176 198 228
175 198 228
175 198 228
175 198 228
175 198 228
175 198 228
175 198 228
174 198 228
174 198 228
174 198 228
174 198 228
174 197 228
174 197 228
173 197 228
173 197 228
173 197 228
173 197 228
173 197 228
173 197 228
172 197 228
172 197 228
172 197 228
172 196 228
172 196 228
171 196 228
171 196 228
171 196 228
171 196 228
171 196 228
171 196 228
170 196 228
170 196 228
170 196 228
170 195 228
170 195 228
170 195 228
170 195 228
169 195 228
169 195 228
169 195 228
169 195 228
169 195 228
169 195 228
169 195 228
168 195 228
168 195 228
168 195 228
168 194 228
168 194 228
168 194 228
168 194 228
168 194 228
167 194 228
167 194 228
167 194 228
167 194 228
167 194 228
167 194 228
167 194 228
167 194 228
167 194 228
167 194 228
167 194 228
167 194 228
166 194 228
166 194 228
166 194 228
166 194 228
166 194 228
166 194 228
166 194 228
166 194 228
166 194 228
166 194 228
167 194 228
167 194 228
167 194 228
167 194 228
167 194 228
167 194 228
167 194 228
167 194 228
168 194 228
168 194 228
168 194 228
168 195 228
169 195 228
169 195 228
169 195 228
170 195 228
170 196 228
171 196 228
172 196 228
172 197 228
173 197 228
174 198 228
175 198 228
176 199 228
178 200 228
180 201 228
182 202 228
202 221 246
212 230 255
212 230 255
212 230 255
212 230 255
212 230 255
212 230 255
212 230 255
212 230 255
212 230 255
212 230 255
212 230 255
211 230 255
211 230 255
211 230 255
211 230 255
211 230 255
211 230 255
211 230 255
211 230 255
211 230 255
211 230 255
211 230 255
211 230 255
211 230 255
145 166 210
60 97 167
61 96 166
61 97 164
61 97 162
61 96 163
61 97 162
61 97 162
61 96 164
60 96 158
61 97 164
61 97 155
62 98 166
61 97 162
61 98 162
62 98 166
62 98 162
62 98 163
61 97 159
61 97 159
61 97 155
62 98 162
62 98 161
62 98 164
62 98 164
61 97 156
61 97 160
62 98 162
61 97 162
62 98 164
63 98 161
62 98 163
62 98 161
62 98 168
62 97 158
61 97 156
64 100 172
62 98 158
62 98 166
63 99 163
62 97 157
63 99 163
62 98 165
62 98 162
62 98 160
62 98 161
61 97 156
62 97 160
61 98 160
62 97 155
61 97 159
62 98 163
62 98 159
63 100 172
62 98 159
62 97 159
62 97 162
62 98 161
61 96 154
63 98 166
62 97 155
62 98 161
62 97 161
63 98 168
62 97 156
60 95 151
61 97 160
62 97 161
62 98 162
62 97 161
61 96 156
61 96 162
61 97 162
62 96 158
62 97 165
61 95 159
60 94 153
62 96 160
60 94 155
137 160 206
211 230 255
211 230 255
211 230 255
211 230 255
211 230 255
211 230 255
211 230 255
211 230 255
211 230 255
211 230 255
211 230 255
211 230 255
211 230 255
212 230 255
212 230 255
212 230 255
212 230 255
212 230 255
212 230 255
212 230 255
212 230 255
212 230 255
212 230 255
212 230 255
199 204 194
183 175 114
180 174 114
178 173 114
176 172 114
175 172 114
174 171 114
173 171 114
172 170 114
172 170 114
171 170 114
170 169 114
170 169 114
169 169 114
169 169 114
169 169 114
168 169 114
168 168 114
168 168 114
168 168 114
167 168 114
167 168 114
167 168 114
167 168 114
167 168 114
167 168 114
167 168 114
167 168 114
166 168 114
166 168 114
166 168 114
166 168 114
166 168 114
166 168 114
166 168 114
166 168 114
166 168 114
166 168 114
167 168 114
167 168 114
167 168 114
167 168 114
167 168 114
167 168 114
167 168 114
167 168 114
167 168 114
167 168 114
167 168 114
167 168 114
168 168 114
168 168 114
168 168 114
168 168 114
168 168 114
168 168 114
168 168 114
168 169 114
169 169 114
169 169 114
169 169 114
169 169 114
169 169 114
169 169 114
169 169 114
170 169 114
170 169 114
170 169 114
170 169 114
170 169 114
170 169 114
170 169 114
171 170 114
171 170 114
171 170 114
171 170 114
171 170 114
171 170 114
172 170 114
172 170 114
172 170 114
172 170 114
172 170 114
172 170 114
173 170 114
173 171 114
173 171 114
173 171 114
173 171 114
173 171 114
174 171 114
174 171 114
174 171 114
174 171 114
174 171 114
174 171 114
175 171 114
175 171 114
175 172 114
175 172 114
175 172 114
176 172 114
176 172 114
176 172 114
176 172 114
176 172 114
176 172 114
177 172 114
177 172 114
177 172 114
177 173 114
177 173 114
178 173 114
178 173 114
178 173 114
178 173 114
178 173 114
178 173 114
179 173 114
179 173 114
179 173 114
179 173 114
179 173 114
179 174 114
180 174 114
180 174 114
180 174 114
180 174 114
180 174 114
181 174 114
181 174 114
181 174 114
181 174 114
181 174 114
182 175 114
182 175 114
182 202 228
182 202 228
182 202 228
182 202 228
181 202 228
181 201 228
181 201 228
181 201 228
181 201 228
180 201 228
180 201 228
180 201 228
180 201 228
180 201 228
180 201 228
179 200 228
179 200 228
179 200 228
179 200 228
179 200 228
179 200 228
178 200 228
178 200 228
178 200 228
178 200 228
178 200 228
177 199 228
177 199 228
177 199 228
177 199 228
177 199 228
177 199 228
176 199 228
176 199 228
176 199 228
176 199 228
176 199 228
176 198 228
175 198 228
175 198 228
175 198 228
175 198 228
175 198 228
175 198 228
174 198 228
174 198 228
174 198 228
174 198 228
174 197 228
174 197 228
173 197 228
173 197 228
173 197 228
173 197 228
173 197 228
173 197 228
172 197 228
172 197 228
172 197 228
172 196 228
172 196 228
172 196 228
171 196 228
171 196 228
171 196 228
171 196 228
171 196 228
171 196 228
171 196 228
170 196 228
170 196 228
170 196 228
170 195 228
170 195 228
170 195 228
170 195 228
169 195 228
169 195 228
169 195 228
169 195 228
169 195 228
169 195 228
169 195 228
169 195 228
168 195 228
168 195 228
168 195 228
168 194 228
168 194 228
168 194 228
168 194 228
168 194 228
168 194 228
167 194 228
167 194 228
167 194 228
167 194 228
167 194 228
167 194 228
167 194 228
167 194 228
167 194 228
167 194 228
167 194 228
167 194 228
167 194 228
167 194 228
167 194 228
167 194 228
167 194 228
167 194 228
167 194 228
167 194 228
168 194 228
168 194 228
168 194 228
168 194 228
168 195 228
168 195 228
169 195 228
169 195 228
169 195 228
170 195 228
170 196 228
171 196 228
171 196 228
172 196 228
172 197 228
173 197 228
174 197 228
175 198 228
176 198 228
177 199 228
179 200 228
180 201 228
184 203 228
205 223 248
212 230 255
212 230 255
212 230 255
212 230 255
212 230 255
212 230 255
212 230 255
212 230 255
212 230 255
212 230 255
212 230 255
212 230 255
212 230 255
212 230 255
212 230 255
212 230 255
212 230 255
212 230 255
212 230 255
212 230 255
212 230 255
211 230 255
161 181 221
60 96 167
61 97 167
61 96 160
60 96 163
61 97 168
61 97 165
61 96 162
61 97 159
62 98 168
62 98 161
62 98 161
61 97 157
62 98 160
61 97 161
62 98 163
62 97 162
61 97 161
62 97 157
61 97 155
61 97 160
61 97 156
61 97 158
61 96 151
62 98 161
61 97 159
62 98 163
62 97 159
62 98 158
61 96 153
62 97 156
62 98 164
61 97 156
62 98 162
61 97 156
61 97 155
61 97 157
61 97 165
61 97 156
62 98 157
62 98 159
61 97 155
62 98 156
62 98 160
62 98 161
62 98 164
62 98 163
63 99 162
63 99 163
61 96 154
62 97 153
62 98 170
61 97 157
62 98 161
62 98 159
62 97 160
62 97 159
61 97 161
61 96 154
61 96 158
61 97 151
63 98 159
63 99 166
62 98 161
61 97 158
61 97 158
61 97 161
61 96 156
62 98 163
62 97 164
62 98 163
62 97 157
62 98 163
61 95 157
60 94 149
61 95 155
61 96 154
61 96 161
61 96 159
61 96 163
62 96 163
167 187 220
211 230 255
211 230 255
211 230 255
212 230 255
212 230 255
212 230 255
212 230 255
212 230 255
212 230 255
212 230 255
212 230 255
212 230 255
212 230 255
212 230 255
212 230 255
212 230 255
212 230 255
212 230 255
212 230 255
212 230 255
212 230 255
212 230 255
206 218 228
184 176 116
180 174 114
178 173 114
177 172 114
176 172 114
175 171 114
174 171 114
173 171 114
172 170 114
172 170 114
171 170 114
171 169 114
170 169 114
170 169 114
169 169 114
169 169 114
169 169 114
168 169 114
168 168 114
168 168 114
168 168 114
168 168 114
168 168 114
167 168 114
167 168 114
167 168 114
167 168 114
167 168 114
167 168 114
167 168 114
167 168 114
167 168 114
167 168 114
167 168 114
167 168 114
167 168 114
167 168 114
167 168 114
167 168 114
167 168 114
167 168 114
167 168 114
167 168 114
168 168 114
168 168 114
168 168 114
168 168 114
168 168 114
168 168 114
168 168 114
168 168 114
168 169 114
169 169 114
169 169 114
169 169 114
169 169 114
169 169 114
169 169 114
169 169 114
169 169 114
170 169 114
170 169 114
170 169 114
170 169 114
170 169 114
170 169 114
170 169 114
171 169 114
171 170 114
171 170 114
171 170 114
171 170 114
171 170 114
171 170 114
172 170 114
172 170 114
172 170 114
172 170 114
172 170 114
172 170 114
173 170 114
173 170 114
173 171 114
173 171 114
173 171 114
173 171 114
174 171 114
174 171 114
174 171 114
174 171 114
174 171 114
174 171 114
175 171 114
175 171 114
175 171 114
175 172 114
175 172 114
175 172 114
176 172 114
176 172 114
176 172 114
176 172 114
176 172 114
176 172 114
177 172 114
177 172 114
177 172 114
177 172 114
177 173 114
177 173 114
178 173 114
178 173 114
178 173 114
178 173 114
178 173 114
179 173 114
179 173 114
179 173 114
179 173 114
179 173 114
179 174 114
180 174 114
180 174 114
180 174 114
180 174 114
180 174 114
180 174 114
181 174 114
181 174 114
181 174 114
181 174 114
181 174 114
182 175 114
182 175 114
182 175 114
182 175 114
182 202 228
182 202 228
182 202 228
182 202 228
182 202 228
182 202 228
181 202 228
181 201 228
181 201 228
181 201 228
181 201 228
181 201 228
180 201 228
180 201 228
180 201 228
180 201 228
180 201 228
180 201 228
179 200 228
179 200 228
179 200 228
179 200 228
179 200 228
179 200 228
178 200 228
178 200 228
178 200 228
178 200 228
178 200 228
177 199 228
177 199 228
177 199 228
177 199 228
177 199 228
177 199 228
177 199 228
176 199 228
176 199 228
176 199 228
176 199 228
176 198 228
176 198 228
175 198 228
175 198 228
175 198 228
175 198 228
175 198 228
175 198 228
174 198 228
174 198 228
174 198 228
174 198 228
174 197 228
174 197 228
173 197 228
173 197 228
173 197 228
173 197 228
173 197 228
173 197 228
172 197 228
172 197 228
172 197 228
172 197 228
172 196 228
172 196 228
172 196 228
171 196 228
171 196 228
171 196 228
171 196 228
171 196 228
171 196 228
171 196 228
170 196 228
170 196 228
170 196 228
170 195 228
170 195 228
170 195 228
170 195 228
169 195 228
169 195 228
169 195 228
169 195 228
169 195 228
169 195 228
169 195 228
169 195 228
169 195 228
168 195 228
168 195 228
168 195 228
168 195 228
168 195 228
168 194 228
168 194 228
168 194 228
168 194 228
168 194 228
168 194 228
168 194 228
168 194 228
168 194 228
168 194 228
168 194 228
168 194 228
168 194 228
168 194 228
168 194 228
168 194 228
168 194 228
168 194 228
168 195 228
168 195 228
168 195 228
169 195 228
169 195 228
169 195 228
169 195 228
169 195 228
170 195 228
170 196 228
170 196 228
171 196 228
171 196 228
172 196 228
172 197 228
173 197 228
174 197 228
174 198 228
175 198 228
176 199 228
178 200 228
179 200 228
181 201 228
185 204 229
207 225 249
212 231 255
212 231 255
212 231 255
212 231 255
212 231 255
212 230 255
212 230 255
212 230 255
212 230 255
212 230 255
212 230 255
212 230 255
212 230 255
212 230 255
212 230 255
212 230 255
212 230 255
212 230 255
212 230 255
212 230 255
184 203 236
67 100 170
61 96 167
60 95 166
62 98 166
61 97 165
60 96 161
61 96 164
61 97 164
61 96 163
61 97 161
61 97 161
62 98 162
61 96 152
62 98 161
61 97 164
61 96 153
62 98 164
60 96 153
61 97 166
62 98 159
63 99 166
62 97 155
62 97 161
61 97 153
62 98 165
62 97 156
62 98 159
62 98 161
62 98 157
61 97 160
61 97 156
62 98 161
61 97 158
61 96 153
62 98 159
62 97 158
61 98 165
62 98 160
61 96 152
62 98 160
62 98 160
60 96 143
62 97 155
62 97 151
62 98 162
61 97 157
61 97 159
62 98 163
61 97 158
61 97 154
61 97 160
62 98 160
62 97 163
61 97 161
61 97 153
60 95 144
61 96 154
61 97 159
63 98 162
62 98 154
61 96 158
62 98 156
61 97 155
62 97 158
62 98 160
61 97 157
61 96 155
62 98 168
62 97 161
62 97 160
62 97 160
62 96 154
62 98 163
61 95 157
61 96 159
61 96 163
61 96 159
60 95 157
61 96 160
61 95 161
60 95 161
69 100 163
191 210 238
212 230 255
212 230 255
212 230 255
212 230 255
212 230 255
212 230 255
212 230 255
212 230 255
212 230 255
212 230 255
212 230 255
212 230 255
212 230 255
212 230 255
212 230 255
212 231 255
212 231 255
212 231 255
212 231 255
212 231 255
207 219 230
185 178 123
181 174 114
179 173 114
178 173 114
176 172 114
175 172 114
174 171 114
174 171 114
173 171 114
172 170 114
172 170 114
171 170 114
171 170 114
170 169 114
170 169 114
170 169 114
169 169 114
169 169 114
169 169 114
169 169 114
169 169 114
168 169 114
168 168 114
168 168 114
168 168 114
168 168 114
168 168 114
168 168 114
168 168 114
168 168 114
168 168 114
168 168 114
168 168 114
168 168 114
168 168 114
168 168 114
168 168 114
168 168 114
168 168 114
168 168 114
168 168 114
168 168 114
168 168 114
168 168 114
168 168 114
168 169 114
168 169 114
169 169 114
169 169 114
169 169 114
169 169 114
169 169 114
169 169 114
169 169 114
169 169 114
169 169 114
170 169 114
170 169 114
170 169 114
170 169 114
170 169 114
170 169 114
170 169 114
171 169 114
171 170 114
171 170 114
171 170 114
171 170 114
171 170 114
171 170 114
172 170 114
172 170 114
172 170 114
172 170 114
172 170 114
172 170 114
172 170 114
173 170 114
173 170 114
173 171 114
173 171 114
173 171 114
173 171 114
174 171 114
174 171 114
174 171 114
174 171 114
174 171 114
174 171 114
175 171 114
175 171 114
175 171 114
175 172 114
175 172 114
175 172 114
176 172 114
176 172 114
176 172 114
176 172 114
176 172 114
176 172 114
177 172 114
177 172 114
177 172 114
177 172 114
177 173 114
177 173 114
177 173 114
178 173 114
178 173 114
178 173 114
178 173 114
178 173 114
178 173 114
179 173 114
179 173 114
179 173 114
179 173 114
179 174 114
180 174 114
180 174 114
180 174 114
180 174 114
180 174 114
180 174 114
181 174 114
181 174 114
181 174 114
181 174 114
181 174 114
181 174 114
182 175 114
182 175 114
182 175 114
182 175 114
182 175 114
182 175 114
183 202 228
183 202 228
183 202 228
182 202 228
182 202 228
182 202 228
182 202 228
182 202 228
181 202 228
181 202 228
181 201 228
181 201 228
181 201 228
181 201 228
181 201 228
180 201 228
180 201 228
180 201 228
180 201 228
180 201 228
180 201 228
179 200 228
179 200 228
179 200 228
179 200 228
179 200 228
179 200 228
178 200 228
178 200 228
178 200 228
178 200 228
178 200 228
178 199 228
177 199 228
177 199 228
177 199 228
177 199 228
177 199 228
177 199 228
176 199 228
176 199 228
176 199 228
176 199 228
176 199 228
176 198 228
176 198 228
175 198 228
175 198 228
175 198 228
175 198 228
175 198 228
175 198 228
174 198 228
174 198 228
174 198 228
174 198 228
174 197 228
174 197 228
174 197 228
173 197 228
173 197 228
173 197 228
173 197 228
173 197 228
173 197 228
172 197 228
172 197 228
172 197 228
172 197 228
172 196 228
172 196 228
172 196 228
171 196 228
171 196 228
171 196 228
171 196 228
171 196 228
171 196 228
171 196 228
171 196 228
170 196 228
170 196 228
170 196 228
170 195 228
170 195 228
170 195 228
170 195 228
170 195 228
169 195 228
169 195 228
169 195 228
169 195 228
169 195 228
169 195 228
169 195 228
169 195 228
169 195 228
169 195 228
169 195 228
169 195 228
169 195 228
169 195 228
168 195 228
168 195 228
168 195 228
168 195 228
168 195 228
168 195 228
168 195 228
168 195 228
169 195 228
169 195 228
169 195 228
169 195 228
169 195 228
169 195 228
169 195 228
169 195 228
169 195 228
170 195 228
170 195 228
170 196 228
170 196 228
171 196 228
171 196 228
172 196 228
172 197 228
172 197 228
173 197 228
174 197 228
174 198 228
175 198 228
176 199 228
177 199 228
178 200 228
180 201 228
182 202 228
191 209 234
210 229 253
213 231 255
213 231 255
213 231 255
212 231 255
212 231 255
212 231 255
212 231 255
212 231 255
212 231 255
212 231 255
212 231 255
212 231 255
212 231 255
212 231 255
212 230 255
212 230 255
212 230 255
212 230 255
205 224 250
95 122 181
59 94 156
60 95 162
60 96 162
61 96 166
61 97 164
61 97 166
60 96 157
61 96 158
61 96 159
61 97 161
61 96 156
61 97 165
61 97 160
62 98 163
62 98 166
60 96 155
62 97 157
60 96 155
61 96 158
61 97 157
62 98 163
62 97 159
62 98 164
61 96 156
62 98 160
61 97 160
62 98 156
61 97 159
61 97 158
61 96 153
61 97 157
62 97 160
62 98 155
62 98 161
63 98 163
60 96 154
62 98 161
62 98 159
62 97 156
61 97 153
61 97 158
61 97 154
61 97 155
61 97 152
61 97 154
62 97 155
62 97 158
61 97 158
62 98 163
61 96 151
61 97 158
62 98 159
63 99 162
63 99 164
62 97 158
61 97 150
62 97 162
61 96 148
61 97 159
61 97 157
63 98 161
62 97 161
60 95 148
62 98 160
61 96 154
61 96 160
62 97 159
62 98 164
62 97 161
61 97 159
61 97 163
62 97 160
61 97 160
61 97 161
61 95 152
62 97 159
61 96 160
61 95 155
61 94 150
61 95 157
59 93 152
60 94 158
87 113 160
212 230 255
212 230 255
212 230 255
212 230 255
212 230 255
212 231 255
212 231 255
212 231 255
212 231 255
212 231 255
212 231 255
212 231 255
212 231 255
212 231 255
212 231 255
213 231 255
213 231 255
213 231 255
213 231 255
211 227 247
188 181 131
182 175 114
180 174 114
178 173 114
177 172 114
176 172 114
175 172 114
174 171 114
174 171 114
173 171 114
172 170 114
172 170 114
172 170 114
171 170 114
171 170 114
170 169 114
170 169 114
170 169 114
170 169 114
169 169 114
169 169 114
169 169 114
169 169 114
169 169 114
169 169 114
169 169 114
169 169 114
169 169 114
169 169 114
168 169 114
168 169 114
168 169 114
168 169 114
168 169 114
168 169 114
168 169 114
169 169 114
169 169 114
169 169 114
169 169 114
169 169 114
169 169 114
169 169 114
169 169 114
169 169 114
169 169 114
169 169 114
169 169 114
169 169 114
169 169 114
170 169 114
170 169 114
170 169 114
170 169 114
170 169 114
170 169 114
170 169 114
170 169 114
170 169 114
171 170 114
171 170 114
171 170 114
171 170 114
171 170 114
171 170 114
171 170 114
172 170 114
172 170 114
172 170 114
172 170 114
172 170 114
172 170 114
172 170 114
173 170 114
173 170 114
173 171 114
173 171 114
173 171 114
173 171 114
173 171 114
174 171 114
174 171 114
174 171 114
174 171 114
174 171 114
174 171 114
175 171 114
175 171 114
175 171 114
175 172 114
175 172 114
175 172 114
176 172 114
176 172 114
176 172 114
176 172 114
176 172 114
176 172 114
176 172 114
177 172 114
177 172 114
177 172 114
177 172 114
177 173 114
177 173 114
178 173 114
178 173 114
178 173 114
178 173 114
178 173 114
178 173 114
179 173 114
179 173 114
179 173 114
179 173 114
179 173 114
179 174 114
180 174 114
180 174 114
180 174 114
180 174 114
180 174 114
180 174 114
180 174 114
181 174 114
181 174 114
181 174 114
181 174 114
181 174 114
182 175 114
182 175 114
182 175 114
182 175 114
182 175 114
182 175 114
183 175 114
183 175 114
183 175 114
183 203 228
183 202 228
183 202 228
183 202 228
183 202 228
182 202 228
182 202 228
182 202 228
182 202 228
182 202 228
182 202 228
181 202 228
181 202 228
181 201 228
181 201 228
181 201 228
181 201 228
181 201 228
180 201 228
180 201 228
180 201 228
180 201 228
180 201 228
180 201 228
179 200 228
179 200 228
179 200 228
179 200 228
179 200 228
179 200 228
178 200 228
178 200 228
178 200 228
178 200 228
178 200 228
178 200 228
178 199 228
177 199 228
177 199 228
177 199 228
177 199 228
177 199 228
177 199 228
176 199 228
176 199 228
176 199 228
176 199 228
176 199 228
176 198 228
176 198 228
175 198 228
175 198 228
175 198 228
175 198 228
175 198 228
175 198 228
174 198 228
174 198 228
174 198 228
174 198 228
174 198 228
174 197 228
174 197 228
173 197 228
173 197 228
173 197 228
173 197 228
173 197 228
173 197 228
173 197 228
172 197 228
172 197 228
172 197 228
172 197 228
172 196 228
172 196 228
172 196 228
172 196 228
171 196 228
171 196 228
171 196 228
171 196 228
171 196 228
171 196 228
171 196 228
171 196 228
170 196 228
170 196 228
170 196 228
170 196 228
170 196 228
170 195 228
170 195 228
170 195 228
170 195 228
170 195 228
170 195 228
170 195 228
169 195 228
169 195 228
169 195 228
169 195 228
169 195 228
169 195 228
169 195 228
169 195 228
169 195 228
169 195 228
169 195 228
169 195 228
169 195 228
169 195 228
169 195 228
169 195 228
170 195 228
170 195 228
170 195 228
170 195 228
170 196 228
170 196 228
170 196 228
171 196 228
171 196 228
171 196 228
172 196 228
172 196 228
172 197 228
173 197 228
173 197 228
174 197 228
174 198 228
175 198 228
176 199 228
177 199 228
178 200 228
179 200 228
181 201 228
183 202 228
195 213 237
212 230 255
213 231 255
213 231 255
213 231 255
213 231 255
213 231 255
213 231 255
213 231 255
213 231 255
213 231 255
213 231 255
213 231 255
213 231 255
212 231 255
212 231 255
212 231 255
212 231 255
212 231 255
126 148 189
58 93 163
59 95 160
60 96 165
61 97 166
61 97 165
60 95 152
61 97 164
61 97 159
61 97 163
62 98 165
61 97 158
61 98 167
61 96 155
61 97 156
60 96 155
61 97 164
60 95 145
62 97 159
61 96 156
62 98 161
60 95 146
60 96 153
62 97 159
61 97 160
62 98 159
61 97 157
61 97 158
61 97 151
62 98 160
62 97 161
62 98 162
63 99 167
62 99 166
62 98 158
62 98 156
62 98 155
62 98 166
63 98 156
62 97 156
61 96 158
61 97 161
62 97 162
61 97 153
61 97 154
61 97 158
61 97 152
61 97 158
61 96 158
63 98 159
62 98 157
62 97 154
61 98 159
60 96 143
61 97 157
61 97 160
60 96 151
62 97 157
62 98 160
61 96 154
62 98 161
61 97 151
61 96 149
61 97 162
62 98 160
62 97 161
61 96 153
62 98 164
62 98 161
62 97 162
61 96 151
62 97 155
61 96 151
61 96 160
62 97 156
62 97 158
61 95 148
61 96 161
60 94 150
59 92 139
61 95 157
61 95 155
59 93 145
60 93 153
62 95 159
146 167 208
212 231 255
212 231 255
212 231 255
212 231 255
212 231 255
213 231 255
213 231 255
213 231 255
213 231 255
213 231 255
213 231 255
213 231 255
213 231 255
213 231 255
213 231 255
213 231 255
213 231 255
213 231 255
195 195 171
183 175 114
181 174 114
179 173 114
178 173 114
177 172 114
176 172 114
175 172 114
174 171 114
174 171 114
173 171 114
173 170 114
172 170 114
172 170 114
172 170 114
171 170 114
171 170 114
171 170 114
170 169 114
170 169 114
170 169 114
170 169 114
170 169 114
170 169 114
170 169 114
169 169 114
169 169 114
169 169 114
169 169 114
169 169 114
169 169 114
169 169 114
169 169 114
169 169 114
169 169 114
169 169 114
169 169 114
169 169 114
169 169 114
169 169 114
169 169 114
170 169 114
170 169 114
170 169 114
170 169 114
170 169 114
170 169 114
170 169 114
170 169 114
170 169 114
170 169 114
170 169 114
170 169 114
171 170 114
171 170 114
171 170 114
171 170 114
171 170 114
171 170 114
171 170 114
171 170 114
172 170 114
172 170 114
172 170 114
172 170 114
172 170 114
172 170 114
172 170 114
172 170 114
173 170 114
173 170 114
173 171 114
173 171 114
173 171 114
173 171 114
173 171 114
174 171 114
174 171 114
174 171 114
174 171 114
174 171 114
174 171 114
174 171 114
175 171 114
175 171 114
175 171 114
175 172 114
175 172 114
175 172 114
176 172 114
176 172 114
176 172 114
176 172 114
176 172 114
176 172 114
176 172 114
177 172 114
177 172 114
177 172 114
177 172 114
177 173 114
177 173 114
178 173 114
178 173 114
178 173 114
178 173 114
178 173 114
178 173 114
178 173 114
179 173 114
179 173 114
179 173 114
179 173 114
179 173 114
179 174 114
180 174 114
180 174 114
180 174 114
180 174 114
180 174 114
180 174 114
181 174 114
181 174 114
181 174 114
181 174 114
181 174 114
181 174 114
181 175 114
182 175 114
182 175 114
182 175 114
182 175 114
182 175 114
182 175 114
183 175 114
183 175 114
183 175 114
183 175 114
183 175 114
184 203 228
183 203 228
183 203 228
183 203 228
183 202 228
183 202 228
183 202 228
183 202 228
182 202 228
182 202 228
182 202 228
182 202 228
182 202 228
182 202 228
181 202 228
181 202 228
181 201 228
181 201 228
181 201 228
181 201 228
181 201 228
180 201 228
180 201 228
180 201 228
180 201 228
180 201 228
180 201 228
179 201 228
179 200 228
179 200 228
179 200 228
179 200 228
179 200 228
179 200 228
178 200 228
178 200 228
178 200 228
178 200 228
178 200 228
178 200 228
178 199 228
177 199 228
177 199 228
177 199 228
177 199 228
177 199 228
177 199 228
177 199 228
176 199 228
176 199 228
176 199 228
176 199 228
176 199 228
176 198 228
175 198 228
175 198 228
175 198 228
175 198 228
175 198 228
175 198 228
175 198 228
174 198 228
174 198 228
174 198 228
174 198 228
174 198 228
174 197 228
174 197 228
173 197 228
173 197 228
173 197 228
173 197 228
173 197 228
173 197 228
173 197 228
173 197 228
172 197 228
172 197 228
172 197 228
172 197 228
172 197 228
172 196 228
172 196 228
172 196 228
171 196 228
171 196 228
171 196 228
171 196 228
171 196 228
171 196 228
171 196 228
171 196 228
171 196 228
171 196 228
171 196 228
170 196 228
170 196 228
170 196 228
170 196 228
170 196 228
170 196 228
170 196 228
170 196 228
170 196 228
170 196 228
170 195 228
170 195 228
170 195 228
170 195 228
170 195 228
170 196 228
170 196 228
170 196 228
170 196 228
170 196 228
170 196 228
170 196 228
171 196 228
171 196 228
171 196 228
171 196 228
171 196 228
171 196 228
172 196 228
172 197 228
172 197 228
173 197 228
173 197 228
173 197 228
174 198 228
175 198 228
175 198 228
176 199 228
177 199 228
178 199 228
179 200 228
180 201 228
182 202 228
184 203 228
200 218 242
213 231 255
213 231 255
213 231 255
213 231 255
213 231 255
213 231 255
213 231 255
213 231 255
213 231 255
213 231 255
213 231 255
213 231 255
213 231 255
213 231 255
213 231 255
213 231 255
192 211 241
59 94 165
61 96 167
60 95 158
60 96 163
61 97 167
60 96 158
61 96 163
59 95 155
62 97 162
62 97 160
61 96 159
61 96 154
61 96 154
62 98 162
62 97 157
62 97 154
61 97 158
62 97 159
61 97 155
62 97 154
61 97 154
61 97 162
62 97 155
62 97 156
63 99 167
61 97 155
60 95 147
61 97 155
61 96 156
61 97 159
61 96 157
62 98 158
62 98 156
61 96 150
62 97 154
61 97 157
63 99 161
62 98 159
61 97 156
61 97 153
61 97 156
63 99 163
60 96 151
63 98 161
61 97 152
61 97 156
62 98 164
61 97 153
62 97 155
61 97 155
61 97 155
62 98 163
60 95 136
63 99 160
61 97 155
61 96 153
61 97 159
62 97 156
63 98 163
61 96 148
61 96 156
61 96 153
61 97 161
60 96 153
61 97 159
61 97 160
62 97 158
62 98 157
62 97 161
62 97 160
61 96 154
61 95 149
61 96 153
62 97 156
61 96 153
62 97 156
62 96 157
61 95 150
61 96 156
61 97 160
60 94 155
61 94 155
60 94 151
60 94 156
58 91 145
59 91 151
174 192 221
213 231 255
213 231 255
213 231 255
213 231 255
213 231 255
213 231 255
213 231 255
213 231 255
213 231 255
213 231 255
213 231 255
213 231 255
213 231 255
213 231 255
213 231 255
213 231 255
200 205 196
184 176 114
182 175 114
180 174 114
179 173 114
178 173 114
177 172 114
176 172 114
175 172 114
175 171 114
174 171 114
173 171 114
173 171 114
173 170 114
172 170 114
172 170 114
172 170 114
171 170 114
171 170 114
171 170 114
171 170 114
171 170 114
171 169 114
170 169 114
170 169 114
170 169 114
170 169 114
170 169 114
170 169 114
170 169 114
170 169 114
170 169 114
170 169 114
170 169 114
170 169 114
170 169 114
170 169 114
170 169 114
170 169 114
170 169 114
170 169 114
170 169 114
170 169 114
170 169 114
170 169 114
171 169 114
171 169 114
171 170 114
171 170 114
171 170 114
171 170 114
171 170 114
171 170 114
171 170 114
171 170 114
171 170 114
172 170 114
172 170 114
172 170 114
172 170 114
172 170 114
172 170 114
172 170 114
172 170 114
173 170 114
173 170 114
173 171 114
173 171 114
173 171 114
173 171 114
173 171 114
174 171 114
174 171 114
174 171 114
174 171 114
174 171 114
174 171 114
174 171 114
175 171 114
175 171 114
175 171 114
175 171 114
175 172 114
175 172 114
175 172 114
175 172 114
176 172 114
176 172 114
176 172 114
176 172 114
176 172 114
176 172 114
177 172 114
177 172 114
177 172 114
177 172 114
177 172 114
177 173 114
177 173 114
178 173 114
178 173 114
178 173 114
178 173 114
178 173 114
178 173 114
178 173 114
179 173 114
179 173 114
179 173 114
179 173 114
179 173 114
179 174 114
179 174 114
180 174 114
180 174 114
180 174 114
180 174 114
180 174 114
180 174 114
181 174 114
181 174 114
181 174 114
181 174 114
181 174 114
181 174 114
181 175 114
182 175 114
182 175 114
182 175 114
182 175 114
182 175 114
182 175 114
183 175 114
183 175 114
183 175 114
183 175 114
183 175 114
183 175 114
183 175 114
184 176 114
184 203 228
184 203 228
184 203 228
184 203 228
183 203 228
183 203 228
183 203 228
183 202 228
183 202 228
183 202 228
183 202 228
182 202 228
182 202 228
182 202 228
182 202 228
182 202 228
182 202 228
182 202 228
181 202 228
181 201 228
181 201 228
181 201 228
181 201 228
181 201 228
181 201 228
180 201 228
180 201 228
180 201 228
180 201 228
180 201 228
180 201 228
179 201 228
179 200 228
179 200 228
179 200 228
179 200 228
179 200 228
179 200 228
178 200 228
178 200 228
178 200 228
178 200 228
178 200 228
178 200 228
178 200 228
178 199 228
177 199 228
177 199 228
177 199 228
177 199 228
177 199 228
177 199 228
176 199 228
176 199 228
176 199 228
176 199 228
176 199 228
176 199 228
176 198 228
176 198 228
175 198 228
175 198 228
175 198 228
175 198 228
175 198 228
175 198 228
175 198 228
174 198 228
174 198 228
174 198 228
174 198 228
174 198 228
174 197 228
174 197 228
173 197 228
173 197 228
173 197 228
173 197 228
173 197 228
173 197 228
173 197 228
173 197 228
172 197 228
172 197 228
172 197 228
172 197 228
172 197 228
172 197 228
172 197 228
172 196 228
172 196 228
172 196 228
172 196 228
171 196 228
171 196 228
171 196 228
171 196 228
171 196 228
171 196 228
171 196 228
171 196 228
171 196 228
171 196 228
171 196 228
171 196 228
171 196 228
171 196 228
171 196 228
171 196 228
171 196 228
171 196 228
171 196 228
171 196 228
171 196 228
171 196 228
171 196 228
171 196 228
171 196 228
171 196 228
172 196 228
172 196 228
172 196 228
172 197 228
172 197 228
173 197 228
173 197 228
173 197 228
174 197 228
174 198 228
174 198 228
175 198 228
175 198 228
176 199 228
177 199 228
178 199 228
178 200 228
180 201 228
181 201 228
183 202 228
186 204 229
208 225 249
213 231 255
213 231 255
213 231 255
213 231 255
213 231 255
213 231 255
213 231 255
213 231 255
213 231 255
213 231 255
213 231 255
213 231 255
213 231 255
213 231 255
208 226 252
88 116 178
60 96 165
60 96 166
61 97 162
61 95 158
60 95 163
59 95 160
61 97 160
61 96 158
59 95 155
61 97 159
61 97 162
61 96 153
60 96 151
60 96 156
60 96 153
61 97 159
63 99 165
62 97 158
60 95 150
60 95 149
61 96 152
62 97 162
62 98 166
60 95 149
62 98 163
62 97 158
62 97 152
61 97 156
61 97 159
60 95 146
62 97 154
61 96 152
61 97 155
62 97 155
62 98 159
62 97 152
62 97 154
62 97 158
61 96 150
61 96 151
61 97 153
62 98 158
61 97 150
61 97 151
62 98 158
61 97 153
61 96 150
61 97 152
62 98 163
60 96 151
61 96 158
61 96 153
62 98 159
60 95 146
62 98 159
62 97 156
61 96 150
62 98 155
62 98 160
61 96 151
61 97 152
62 97 155
61 97 162
61 96 152
60 94 136
61 96 152
59 93 141
60 95 151
61 97 157
61 97 156
61 96 149
61 95 143
61 96 147
61 97 159
61 97 155
61 95 155
61 95 153
61 95 155
61 96 154
61 95 154
60 94 152
61 94 152
61 96 159
60 94 147
61 95 160
59 92 154
95 120 168
209 227 250
213 231 255
213 231 255
213 231 255
213 231 255
213 231 255
213 231 255
213 231 255
213 231 255
213 231 255
213 231 255
213 231 255
213 231 255
213 231 255
213 231 255
207 218 226
186 178 118
183 175 114
181 174 114
180 174 114
178 173 114
178 173 114
177 172 114
176 172 114
175 172 114
175 171 114
174 171 114
174 171 114
174 171 114
173 171 114
173 171 114
173 170 114
172 170 114
172 170 114
172 170 114
172 170 114
172 170 114
171 170 114
171 170 114
171 170 114
171 170 114
171 170 114
171 170 114
171 170 114
171 170 114
171 170 114
171 170 114
171 170 114
171 170 114
171 170 114
171 170 114
171 170 114
171 170 114
171 170 114
171 170 114
171 170 114
171 170 114
171 170 114
171 170 114
171 170 114
171 170 114
171 170 114
171 170 114
172 170 114
172 170 114
172 170 114
172 170 114
172 170 114
172 170 114
172 170 114
172 170 114
172 170 114
172 170 114
173 170 114
173 170 114
173 171 114
173 171 114
173 171 114
173 171 114
173 171 114
173 171 114
173 171 114
174 171 114
174 171 114
174 171 114
174 171 114
174 171 114
174 171 114
174 171 114
175 171 114
175 171 114
175 171 114
175 171 114
175 172 114
175 172 114
175 172 114
176 172 114
176 172 114
176 172 114
176 172 114
176 172 114
176 172 114
176 172 114
176 172 114
177 172 114
177 172 114
177 172 114
177 172 114
177 173 114
177 173 114
178 173 114
178 173 114
178 173 114
178 173 114
178 173 114
178 173 114
178 173 114
179 173 114
179 173 114
179 173 114
179 173 114
179 173 114
179 173 114
179 174 114
180 174 114
180 174 114
180 174 114
180 174 114
180 174 114
180 174 114
180 174 114
181 174 114
181 174 114
181 174 114
181 174 114
181 174 114
181 174 114
181 174 114
182 175 114
182 175 114
182 175 114
182 175 114
182 175 114
182 175 114
182 175 114
183 175 114
183 175 114
183 175 114
183 175 114
183 175 114
183 175 114
183 175 114
184 176 114
184 176 114
184 176 114
184 176 114
185 203 228
184 203 228
184 203 228
184 203 228
184 203 228
184 203 228
184 203 228
183 203 228
183 203 228
183 203 228
183 202 228
183 202 228
183 202 228
183 202 228
183 202 228
182 202 228
182 202 228
182 202 228
182 202 228
182 202 228
182 202 228
182 202 228
181 202 228
181 201 228
181 201 228
181 201 228
181 201 228
181 201 228
181 201 228
180 201 228
180 201 228
180 201 228
180 201 228
180 201 228
180 201 228
180 201 228
179 200 228
179 200 228
179 200 228
179 200 228
179 200 228
179 200 228
179 200 228
178 200 228
178 200 228
178 200 228
178 200 228
178 200 228
178 200 228
178 200 228
177 199 228
177 199 228
177 199 228
177 199 228
177 199 228
177 199 228
177 199 228
177 199 228
176 199 228
176 199 228
176 199 228
176 199 228
176 199 228
176 199 228
176 198 228
176 198 228
175 198 228
175 198 228
175 198 228
175 198 228
175 198 228
175 198 228
175 198 228
174 198 228
174 198 228
174 198 228
174 198 228
174 198 228
174 198 228
174 197 228
174 197 228
173 197 228
173 197 228
173 197 228
173 197 228
173 197 228
173 197 228
173 197 228
173 197 228
173 197 228
173 197 228
173 197 228
172 197 228
172 197 228
172 197 228
172 197 228
172 197 228
172 197 228
172 197 228
172 197 228
172 196 228
172 196 228
172 196 228
172 196 228
172 196 228
172 196 228
172 196 228
172 196 228
172 196 228
172 196 228
172 196 228
172 196 228
172 196 228
172 196 228
172 196 228
172 196 228
172 197 228
172 197 228
172 197 228
172 197 228
172 197 228
173 197 228
173 197 228
173 197 228
173 197 228
173 197 228
174 197 228
174 198 228
174 198 228
175 198 228
175 198 228
176 198 228
176 199 228
177 199 228
178 199 228
178 200 228
179 200 228
180 201 228
182 202 228
184 203 228
192 210 234
213 231 255
214 231 255
214 231 255
214 231 255
214 231 255
214 231 255
214 231 255
213 231 255
213 231 255
213 231 255
213 231 255
213 231 255
213 231 255
213 231 255
151 171 210
58 93 158
60 95 161
60 95 160
60 96 161
60 96 164
61 96 158
60 95 156
60 95 154
60 96 161
61 96 156
60 95 159
62 97 156
62 98 165
61 97 155
61 97 162
60 96 147
62 97 163
61 97 158
61 96 154
60 96 154
60 96 155
61 97 159
60 96 148
62 98 161
61 96 151
61 96 158
60 96 145
61 97 151
62 97 153
61 97 149
62 97 152
61 96 154
61 97 160
61 96 148
62 98 159
62 97 150
61 97 150
61 97 150
61 97 154
61 97 153
61 97 156
61 97 153
62 98 164
61 96 150
62 98 157
62 97 151
61 96 149
61 96 152
61 97 153
60 96 158
62 97 155
63 99 165
61 97 151
62 97 150
62 98 158
62 97 154
61 97 152
61 97 153
62 97 152
62 98 161
62 98 160
61 96 149
61 96 154
62 97 151
61 97 153
61 97 161
60 95 154
61 96 156
62 97 161
62 97 153
62 97 159
61 96 152
61 96 149
60 94 139
61 96 155
61 95 151
60 95 148
61 95 150
61 95 152
61 96 155
61 96 154
61 95 152
61 95 156
61 95 157
60 93 151
61 96 161
59 92 149
58 89 143
149 169 202
213 231 255
213 231 255
213 231 255
213 231 255
213 231 255
213 231 255
213 231 255
213 231 255
214 231 255
214 231 255
214 231 255
214 231 255
214 231 255
212 227 246
190 184 137
184 176 114
182 175 114
181 174 114
179 174 114
178 173 114
178 173 114
177 172 114
176 172 114
176 172 114
175 172 114
175 171 114
174 171 114
174 171 114
174 171 114
173 171 114
173 171 114
173 171 114
173 170 114
173 170 114
172 170 114
172 170 114
172 170 114
172 170 114
172 170 114
172 170 114
172 170 114
172 170 114
172 170 114
172 170 114
172 170 114
172 170 114
172 170 114
172 170 114
172 170 114
172 170 114
172 170 114
172 170 114
172 170 114
172 170 114
172 170 114
172 170 114
172 170 114
172 170 114
172 170 114
172 170 114
172 170 114
172 170 114
172 170 114
172 170 114
173 170 114
173 170 114
173 170 114
173 171 114
173 171 114
173 171 114
173 171 114
173 171 114
173 171 114
173 171 114
174 171 114
174 171 114
174 171 114
174 171 114
174 171 114
174 171 114
174 171 114
174 171 114
175 171 114
175 171 114
175 171 114
175 171 114
175 172 114
175 172 114
175 172 114
175 172 114
176 172 114
176 172 114
176 172 114
176 172 114
176 172 114
176 172 114
176 172 114
177 172 114
177 172 114
177 172 114
177 172 114
177 172 114
177 173 114
177 173 114
178 173 114
178 173 114
178 173 114
178 173 114
178 173 114
178 173 114
178 173 114
178 173 114
179 173 114
179 173 114
179 173 114
179 173 114
179 173 114
179 174 114
179 174 114
180 174 114
180 174 114
180 174 114
180 174 114
180 174 114
180 174 114
180 174 114
181 174 114
181 174 114
181 174 114
181 174 114
181 174 114
181 174 114
181 174 114
182 175 114
182 175 114
182 175 114
182 175 114
182 175 114
182 175 114
182 175 114
182 175 114
183 175 114
183 175 114
183 175 114
183 175 114
183 175 114
183 175 114
184 175 114
184 176 114
184 176 114
184 176 114
184 176 114
184 176 114
184 176 114
185 176 114
185 203 228
185 203 228
185 203 228
185 203 228
184 203 228
184 203 228
184 203 228
184 203 228
184 203 228
184 203 228
184 203 228
183 203 228
183 203 228
183 203 228
183 202 228
183 202 228
183 202 228
183 202 228
182 202 228
182 202 228
182 202 228
182 202 228
182 202 228
182 202 228
182 202 228
182 202 228
181 202 228
181 201 228
181 201 228
181 201 228
181 201 228
181 201 228
181 201 228
180 201 228
180 201 228
180 201 228
180 201 228
180 201 228
180 201 228
180 201 228
180 201 228
179 200 228
179 200 228
179 200 228
179 200 228
179 200 228
179 200 228
179 200 228
178 200 228
178 200 228
178 200 228
178 200 228
178 200 228
178 200 228
178 200 228
178 199 228
177 199 228
177 199 228
177 199 228
177 199 228
177 199 228
177 199 228
177 199 228
177 199 228
176 199 228
176 199 228
176 199 228
176 199 228
176 199 228
176 199 228
176 198 228
176 198 228
175 198 228
175 198 228
175 198 228
175 198 228
175 198 228
175 198 228
175 198 228
175 198 228
174 198 228
174 198 228
174 198 228
174 198 228
174 198 228
174 198 228
174 198 228
174 197 228
174 197 228
174 197 228
173 197 228
173 197 228
173 197 228
173 197 228
173 197 228
173 197 228
173 197 228
173 197 228
173 197 228
173 197 228
173 197 228
173 197 228
173 197 228
173 197 228
173 197 228
172 197 228
172 197 228
172 197 228
172 197 228
172 197 228
172 197 228
173 197 228
173 197 228
173 197 228
173 197 228
173 197 228
173 197 228
173 197 228
173 197 228
173 197 228
173 197 228
173 197 228
173 197 228
174 197 228
174 197 228
174 198 228
174 198 228
175 198 228
175 198 228
175 198 228
176 198 228
176 199 228
177 199 228
177 199 228
178 200 228
178 200 228
179 200 228
180 201 228
182 202 228
183 202 228
185 204 228
198 215 239
214 231 255
214 231 255
214 231 255
214 231 255
214 231 255
214 231 255
214 231 255
214 231 255
214 231 255
214 231 255
214 231 255
214 231 255
200 218 245
67 98 159
58 92 153
59 94 160
60 95 159
59 94 148
59 94 155
60 96 157
59 95 153
61 96 155
61 97 162
61 97 158
62 98 162
61 96 158
61 97 154
61 97 155
62 97 159
60 95 150
62 97 161
61 96 158
60 96 146
62 98 162
62 98 156
61 96 149
61 96 150
60 96 148
61 97 153
61 96 152
60 96 155
62 97 154
61 97 151
62 97 155
62 98 159
61 97 150
61 97 152
61 96 148
62 97 154
61 97 149
62 97 150
60 96 145
62 98 155
61 96 148
62 97 153
61 97 156
61 96 152
62 98 157
61 97 152
61 97 154
61 97 151
61 96 152
62 97 150
60 95 148
63 98 156
61 96 154
62 97 153
61 97 154
62 97 155
61 96 153
61 96 150
61 96 152
61 96 148
61 96 153
61 96 146
61 96 147
61 96 156
60 96 151
62 97 157
61 96 147
62 97 161
61 95 146
62 98 161
61 96 154
63 97 156
61 96 151
62 96 151
60 96 154
61 96 155
60 95 153
61 96 155
61 96 155
61 96 158
62 96 154
60 94 148
61 96 150
61 95 149
62 96 153
60 93 143
60 93 152
60 93 150
60 93 149
72 101 155
200 218 243
214 231 255
214 231 255
214 231 255
214 231 255
214 231 255
214 231 255
214 231 255
214 231 255
214 231 255
214 231 255
214 231 255
214 231 255
198 200 181
185 176 114
183 175 114
182 175 114
180 174 114
179 174 114
178 173 114
178 173 114
177 173 114
177 172 114
176 172 114
176 172 114
175 172 114
175 171 114
175 171 114
174 171 114
174 171 114
174 171 114
174 171 114
173 171 114
173 171 114
173 171 114
173 171 114
173 171 114
173 170 114
173 170 114
173 170 114
173 170 114
173 170 114
173 170 114
172 170 114
173 170 114
172 170 114
172 170 114
172 170 114
173 170 114
173 170 114
173 170 114
173 170 114
173 170 114
173 170 114
173 170 114
173 170 114
173 171 114
173 171 114
173 171 114
173 171 114
173 171 114
173 171 114
173 171 114
173 171 114
174 171 114
174 171 114
174 171 114
174 171 114
174 171 114
174 171 114
174 171 114
174 171 114
174 171 114
174 171 114
174 171 114
175 171 114
175 171 114
175 171 114
175 171 114
175 172 114
175 172 114
175 172 114
175 172 114
176 172 114
176 172 114
176 172 114
176 172 114
176 172 114
176 172 114
176 172 114
176 172 114
177 172 114
177 172 114
177 172 114
177 172 114
177 172 114
177 173 114
177 173 114
177 173 114
178 173 114
178 173 114
178 173 114
178 173 114
178 173 114
178 173 114
178 173 114
178 173 114
179 173 114
179 173 114
179 173 114
179 173 114
179 173 114
179 173 114
179 174 114
180 174 114
180 174 114
180 174 114
180 174 114
180 174 114
180 174 114
180 174 114
180 174 114
181 174 114
181 174 114
181 174 114
181 174 114
181 174 114
181 174 114
181 174 114
182 175 114
182 175 114
182 175 114
182 175 114
182 175 114
182 175 114
182 175 114
183 175 114
183 175 114
183 175 114
183 175 114
183 175 114
183 175 114
183 175 114
183 175 114
184 175 114
184 176 114
184 176 114
184 176 114
184 176 114
184 176 114
184 176 114
185 176 114
185 176 114
185 176 114
185 176 114
185 204 228
185 204 228
185 204 228
185 204 228
185 203 228
185 203 228
185 203 228
184 203 228
184 203 228
184 203 228
184 203 228
184 203 228
184 203 228
184 203 228
184 203 228
183 203 228
183 203 228
183 203 228
183 202 228
183 202 228
183 202 228
183 202 228
183 202 228
182 202 228
182 202 228
182 202 228
182 202 228
182 202 228
182 202 228
182 202 228
181 202 228
181 202 228
181 201 228
181 201 228
181 201 228
181 201 228
181 201 228
181 201 228
180 201 228
180 201 228
180 201 228
180 201 228
180 201 228
180 201 228
180 201 228
180 201 228
179 200 228
179 200 228
179 200 228
179 200 228
179 200 228
179 200 228
179 200 228
179 200 228
178 200 228
178 200 228
178 200 228
178 200 228
178 200 228
178 200 228
178 200 228
178 199 228
177 199 228
177 199 228
177 199 228
177 199 228
177 199 228
177 199 228
177 199 228
177 199 228
176 199 228
176 199 228
176 199 228
176 199 228
176 199 228
176 199 228
176 199 228
176 198 228
176 198 228
175 198 228
175 198 228
175 198 228
175 198 228
175 198 228
175 198 228
175 198 228
175 198 228
175 198 228
175 198 228
174 198 228
174 198 228
174 198 228
174 198 228
174 198 228
174 198 228
174 198 228
174 198 228
174 197 228
174 197 228
174 197 228
174 197 228
174 197 228
174 197 228
173 197 228
173 197 228
173 197 228
173 197 228
173 197 228
173 197 228
173 197 228
173 197 228
173 197 228
173 197 228
173 197 228
173 197 228
173 197 228
174 197 228
174 197 228
174 197 228
174 197 228
174 198 228
174 198 228
174 198 228
174 198 228
175 198 228
175 198 228
175 198 228
175 198 228
175 198 228
176 199 228
176 199 228
177 199 228
177 199 228
178 199 228
178 200 228
179 200 228
179 200 228
180 201 228
181 202 228
183 202 228
184 203 228
187 205 229
209 226 250
214 232 255
214 232 255
214 232 255
214 232 255
214 232 255
214 232 255
214 232 255
214 231 255
214 231 255
214 231 255
214 231 255
139 159 199
59 94 161
60 95 157
60 95 165
60 95 158
60 96 159
60 96 156
61 96 160
59 95 146
60 95 152
60 95 152
61 96 158
61 97 159
59 94 145
61 97 163
61 96 149
60 96 156
60 96 153
61 96 153
61 96 153
60 95 148
60 96 155
61 97 154
61 97 152
61 96 152
61 97 151
60 96 153
62 98 158
60 96 154
61 96 154
61 97 154
61 97 150
62 98 158
61 97 153
61 96 145
61 96 151
61 96 147
62 98 162
61 96 151
61 97 155
62 98 155
61 96 145
62 98 155
62 98 157
61 97 152
62 97 154
60 96 151
61 97 155
63 98 154
60 95 143
62 98 153
60 95 144
61 97 145
62 97 156
62 98 163
61 96 151
61 97 160
61 96 155
62 98 160
62 97 150
61 97 159
62 97 153
60 96 154
62 97 154
62 98 166
61 96 148
61 96 150
60 95 154
61 96 155
61 95 149
60 95 145
61 96 151
61 96 157
61 97 154
61 96 158
61 96 151
60 95 148
61 96 151
60 94 146
60 95 153
61 96 158
60 94 147
60 93 144
61 95 148
60 94 158
61 96 160
60 94 150
60 94 151
59 93 151
59 91 142
60 92 147
141 162 200
214 231 255
214 231 255
214 231 255
214 231 255
214 232 255
214 232 255
214 232 255
214 232 255
214 232 255
214 232 255
214 232 255
208 219 228
187 178 118
184 176 114
183 175 114
181 174 114
180 174 114
179 174 114
179 173 114
178 173 114
177 173 114
177 172 114
177 172 114
176 172 114
176 172 114
175 172 114
175 172 114
175 171 114
175 171 114
175 171 114
174 171 114
174 171 114
174 171 114
174 171 114
174 171 114
174 171 114
174 171 114
174 171 114
173 171 114
173 171 114
173 171 114
173 171 114
173 171 114
173 171 114
173 171 114
173 171 114
173 171 114
173 171 114
173 171 114
173 171 114
174 171 114
174 171 114
174 171 114
174 171 114
174 171 114
174 171 114
174 171 114
174 171 114
174 171 114
174 171 114
174 171 114
174 171 114
174 171 114
174 171 114
174 171 114
174 171 114
175 171 114
175 171 114
175 171 114
175 171 114
175 172 114
175 172 114
175 172 114
175 172 114
175 172 114
176 172 114
176 172 114
176 172 114
176 172 114
176 172 114
176 172 114
176 172 114
176 172 114
176 172 114
177 172 114
177 172 114
177 172 114
177 172 114
177 172 114
177 173 114
177 173 114
177 173 114
178 173 114
178 173 114
178 173 114
178 173 114
178 173 114
178 173 114
178 173 114
178 173 114
179 173 114
179 173 114
179 173 114
179 173 114
179 173 114
179 173 114
179 173 114
179 174 114
180 174 114
180 174 114
180 174 114
180 174 114
180 174 114
180 174 114
180 174 114
181 174 114
181 174 114
181 174 114
181 174 114
181 174 114
181 174 114
181 174 114
181 174 114
182 175 114
182 175 114
182 175 114
182 175 114
182 175 114
182 175 114
182 175 114
182 175 114
183 175 114
183 175 114
183 175 114
183 175 114
183 175 114
183 175 114
183 175 114
183 175 114
184 175 114
184 176 114
184 176 114
184 176 114
184 176 114
184 176 114
184 176 114
184 176 114
185 176 114
185 176 114
185 176 114
185 176 114
185 176 114
185 176 114
185 176 114
186 204 228
186 204 228
186 204 228
186 204 228
185 204 228
185 204 228
185 204 228
185 203 228
185 203 228
185 203 228
185 203 228
184 203 228
184 203 228
184 203 228
184 203 228
184 203 228
184 203 228
184 203 228
184 203 228
184 203 228
183 203 228
183 203 228
183 202 228
183 202 228
183 202 228
183 202 228
183 202 228
183 202 228
182 202 228
182 202 228
182 202 228
182 202 228
182 202 228
182 202 228
182 202 228
182 202 228
181 202 228
181 201 228
181 201 228
181 201 228
181 201 228
181 201 228
181 201 228
181 201 228
180 201 228
180 201 228
180 201 228
180 201 228
180 201 228
180 201 228
180 201 228
180 201 228
179 200 228
179 200 228
179 200 228
179 200 228
179 200 228
179 200 228
179 200 228
179 200 228
178 200 228
178 200 228
178 200 228
178 200 228
178 200 228
178 200 228
178 200 228
178 200 228
178 199 228
177 199 228
177 199 228
177 199 228
177 199 228
177 199 228
177 199 228
177 199 228
177 199 228
177 199 228
176 199 228
176 199 228
176 199 228
176 199 228
176 199 228
176 199 228
176 199 228
176 198 228
176 198 228
176 198 228
175 198 228
175 198 228
175 198 228
175 198 228
175 198 228
175 198 228
175 198 228
175 198 228
175 198 228
175 198 228
175 198 228
175 198 228
174 198 228
174 198 228
174 198 228
174 198 228
174 198 228
174 198 228
174 198 228
174 198 228
174 198 228
174 198 228
174 198 228
174 198 228
174 198 228
174 198 228
174 198 228
174 198 228
174 198 228
174 198 228
175 198 228
175 198 228
175 198 228
175 198 228
175 198 228
175 198 228
175 198 228
175 198 228
176 198 228
176 199 228
176 199 228
176 199 228
177 199 228
177 199 228
178 199 228
178 200 228
178 200 228
179 200 228
180 201 228
180 201 228
181 201 228
182 202 228
184 203 228
185 204 228
193 210 234
214 232 255
214 232 255
214 232 255
214 232 255
214 232 255
214 232 255
214 232 255
214 232 255
214 232 255
214 232 255
203 220 244
57 91 156
59 93 155
59 95 161
59 94 163
58 93 153
60 96 161
59 94 152
61 97 158
60 95 157
61 97 162
61 96 150
62 97 161
61 96 155
60 96 156
60 95 148
61 96 156
61 97 155
61 97 160
60 96 153
60 96 145
61 96 158
61 96 149
61 97 154
61 96 145
62 98 157
62 97 158
60 95 142
61 97 146
61 96 154
62 98 150
60 96 150
61 97 162
61 97 156
61 96 142
61 97 157
61 96 151
62 97 155
62 97 155
62 98 158
62 98 159
62 97 154
62 98 158
61 97 153
61 97 153
61 97 152
60 96 144
62 97 156
62 97 153
62 98 154
62 97 155
62 97 147
62 97 160
63 99 164
61 97 143
62 97 149
62 97 149
61 97 153
61 97 154
61 96 147
62 98 158
62 97 156
60 95 151
62 98 159
62 98 159
61 96 151
61 96 158
61 96 148
60 95 142
60 96 154
61 95 150
60 96 151
62 97 154
62 97 150
61 96 149
60 95 149
62 97 156
61 96 156
61 96 154
61 96 153
61 95 149
61 95 151
62 96 156
60 94 146
59 92 137
60 94 154
60 95 148
60 94 151
60 93 145
59 93 147
59 91 143
59 92 146
60 90 141
200 217 243
214 232 255
214 232 255
214 232 255
214 232 255
214 232 255
214 232 255
214 232 255
214 232 255
214 232 255
214 232 255
193 187 146
186 176 114
184 176 114
182 175 114
181 174 114
180 174 114
180 174 114
179 173 114
178 173 114
178 173 114
178 173 114
177 172 114
177 172 114
176 172 114
176 172 114
176 172 114
176 172 114
175 172 114
175 172 114
175 172 114
175 171 114
175 171 114
175 171 114
175 171 114
175 171 114
174 171 114
174 171 114
174 171 114
174 171 114
174 171 114
174 171 114
174 171 114
174 171 114
174 171 114
174 171 114
174 171 114
174 171 114
174 171 114
174 171 114
174 171 114
174 171 114
174 171 114
175 171 114
175 171 114
175 171 114
175 171 114
175 171 114
175 171 114
175 171 114
175 172 114
175 172 114
175 172 114
175 172 114
175 172 114
175 172 114
176 172 114
176 172 114
176 172 114
176 172 114
176 172 114
176 172 114
176 172 114
176 172 114
176 172 114
176 172 114
176 172 114
177 172 114
177 172 114
177 172 114
177 172 114
177 172 114
177 173 114
177 173 114
177 173 114
178 173 114
178 173 114
178 173 114
178 173 114
178 173 114
178 173 114
178 173 114
178 173 114
179 173 114
179 173 114
179 173 114
179 173 114
179 173 114
179 173 114
179 173 114
179 174 114
179 174 114
180 174 114
180 174 114
180 174 114
180 174 114
180 174 114
180 174 114
180 174 114
180 174 114
181 174 114
181 174 114
181 174 114
181 174 114
181 174 114
181 174 114
181 174 114
181 174 114
182 175 114
182 175 114
182 175 114
182 175 114
182 175 114
182 175 114
182 175 114
182 175 114
183 175 114
183 175 114
183 175 114
183 175 114
183 175 114
183 175 114
183 175 114
183 175 114
183 175 114
184 175 114
184 176 114
184 176 114
184 176 114
184 176 114
184 176 114
184 176 114
184 176 114
185 176 114
185 176 114
185 176 114
185 176 114
185 176 114
185 176 114
185 176 114
186 176 114
186 176 114
186 177 114
186 177 114
186 204 228
186 204 228
186 204 228
186 204 228
186 204 228
186 204 228
186 204 228
186 204 228
185 204 228
185 204 228
185 204 228
185 204 228
185 203 228
185 203 228
185 203 228
185 203 228
184 203 228
184 203 228
184 203 228
184 203 228
184 203 228
184 203 228
184 203 228
184 203 228
184 203 228
183 203 228
183 203 228
183 203 228
183 202 228
183 202 228
183 202 228
183 202 228
183 202 228
182 202 228
182 202 228
182 202 228
182 202 228
182 202 228
182 202 228
182 202 228
182 202 228
182 202 228
181 202 228
181 201 228
181 201 228
181 201 228
181 201 228
181 201 228
181 201 228
181 201 228
180 201 228
180 201 228
180 201 228
180 201 228
180 201 228
180 201 228
180 201 228
180 201 228
179 201 228
179 200 228
179 200 228
179 200 228
179 200 228
179 200 228
179 200 228
179 200 228
179 200 228
178 200 228
178 200 228
178 200 228
178 200 228
178 200 228
178 200 228
178 200 228
178 200 228
178 200 228
178 199 228
177 199 228
177 199 228
177 199 228
177 199 228
177 199 228
177 199 228
177 199 228
177 199 228
177 199 228
177 199 228
176 199 228
176 199 228
176 199 228
176 199 228
176 199 228
176 199 228
176 199 228
176 199 228
176 199 228
176 199 228
176 198 228
176 198 228
176 198 228
175 198 228
175 198 228
175 198 228
175 198 228
175 198 228
175 198 228
175 198 228
175 198 228
175 198 228
175 198 228
175 198 228
175 198 228
175 198 228
175 198 228
175 198 228
175 198 228
175 198 228
175 198 228
175 198 228
175 198 228
176 198 228
176 198 228
176 199 228
176 199 228
176 199 228
176 199 228
176 199 228
177 199 228
177 199 228
177 199 228
177 199 228
178 200 228
178 200 228
178 200 228
179 200 228
179 200 228
180 201 228
181 201 228
181 202 228
182 202 228
184 203 228
185 203 228
187 205 228
205 222 245
215 232 255
215 232 255
215 232 255
215 232 255
215 232 255
215 232 255
215 232 255
215 232 255
215 232 255
140 160 199
58 93 160
58 93 151
58 92 153
59 95 150
59 94 154
59 94 151
60 95 155
60 95 152
60 95 156
61 96 156
60 95 150
60 96 154
61 96 154
62 97 158
61 96 150
60 95 148
59 94 148
60 96 150
61 96 148
62 98 159
60 96 148
61 96 148
61 96 152
60 95 143
60 95 140
61 96 149
60 96 150
61 96 143
61 96 151
60 96 150
61 97 155
61 96 149
61 96 149
62 96 152
62 98 158
61 96 150
62 97 155
62 97 154
62 98 157
62 97 152
61 97 151
62 98 155
61 96 146
61 97 150
61 96 149
62 97 155
61 96 153
60 96 150
62 97 156
60 95 145
61 96 144
61 96 147
61 96 147
61 97 155
62 98 162
62 98 154
60 96 147
61 96 149
60 94 142
61 95 140
62 98 163
62 97 161
62 97 154
61 96 153
60 95 142
60 95 147
60 95 149
61 97 153
61 95 147
60 94 146
61 96 148
61 96 150
61 96 159
61 95 145
61 96 152
61 95 148
62 96 151
60 94 142
60 94 146
61 96 151
60 95 148
61 96 156
60 93 141
60 93 140
60 94 150
61 94 147
59 92 144
59 93 146
58 91 139
58 90 140
58 90 133
58 91 150
149 167 193
215 232 255
215 232 255
215 232 255
215 232 255
215 232 255
215 232 255
215 232 255
215 232 255
215 232 255
207 215 218
187 177 114
185 176 114
184 175 114
182 175 114
181 175 114
181 174 114
180 174 114
179 174 114
179 173 114
178 173 114
178 173 114
178 173 114
177 173 114
177 172 114
177 172 114
177 172 114
176 172 114
176 172 114
176 172 114
176 172 114
176 172 114
176 172 114
176 172 114
175 172 114
175 172 114
175 172 114
175 172 114
175 172 114
175 172 114
175 172 114
175 172 114
175 172 114
175 172 114
175 172 114
175 172 114
175 172 114
175 172 114
175 172 114
175 172 114
175 172 114
175 172 114
175 172 114
175 172 114
176 172 114
176 172 114
176 172 114
176 172 114
176 172 114
176 172 114
176 172 114
176 172 114
176 172 114
176 172 114
176 172 114
176 172 114
176 172 114
177 172 114
177 172 114
177 172 114
177 172 114
177 172 114
177 172 114
177 172 114
177 173 114
177 173 114
177 173 114
178 173 114
178 173 114
178 173 114
178 173 114
178 173 114
178 173 114
178 173 114
178 173 114
178 173 114
179 173 114
179 173 114
179 173 114
179 173 114
179 173 114
179 173 114
179 173 114
179 173 114
179 174 114
180 174 114
180 174 114
180 174 114
180 174 114
180 174 114
180 174 114
180 174 114
180 174 114
180 174 114
181 174 114
181 174 114
181 174 114
181 174 114
181 174 114
181 174 114
181 174 114
181 174 114
181 175 114
182 175 114
182 175 114
182 175 114
182 175 114
182 175 114
182 175 114
182 175 114
182 175 114
183 175 114
183 175 114
183 175 114
183 175 114
183 175 114
183 175 114
183 175 114
183 175 114
184 175 114
184 176 114
184 176 114
184 176 114
184 176 114
184 176 114
184 176 114
184 176 114
184 176 114
185 176 114
185 176 114
185 176 114
185 176 114
185 176 114
185 176 114
185 176 114
185 176 114
185 176 114
186 176 114
186 177 114
186 177 114
186 177 114
186 177 114
186 177 114
186 177 114
187 205 228
187 204 228
187 204 228
186 204 228
186 204 228
186 204 228
186 204 228
186 204 228
186 204 228
186 204 228
186 204 228
186 204 228
185 204 228
185 204 228
185 204 228
185 204 228
185 204 228
185 203 228
185 203 228
185 203 228
185 203 228
184 203 228
184 203 228
184 203 228
184 203 228
184 203 228
184 203 228
184 203 228
184 203 228
184 203 228
183 203 228
183 203 228
183 203 228
183 202 228
183 202 228
183 202 228
183 202 228
183 202 228
183 202 228
182 202 228
182 202 228
182 202 228
182 202 228
182 202 228
182 202 228
182 202 228
182 202 228
182 202 228
181 202 228
181 201 228
181 201 228
181 201 228
181 201 228
181 201 228
181 201 228
181 201 228
181 201 228
180 201 228
180 201 228
180 201 228
180 201 228
180 201 228
180 201 228
180 201 228
180 201 228
180 201 228
179 200 228
179 200 228
179 200 228
179 200 228
179 200 228
179 200 228
179 200 228
179 200 228
179 200 228
179 200 228
178 200 228
178 200 228
178 200 228
178 200 228
178 200 228
178 200 228
178 200 228
178 200 228
178 200 228
178 199 228
177 199 228
177 199 228
177 199 228
177 199 228
177 199 228
177 199 228
177 199 228
177 199 228
177 199 228
177 199 228
177 199 228
177 199 228
177 199 228
176 199 228
176 199 228
176 199 228
176 199 228
176 199 228
176 199 228
176 199 228
176 199 228
176 199 228
176 199 228
176 199 228
176 199 228
176 199 228
176 199 228
176 199 228
176 199 228
176 199 228
176 199 228
176 199 228
176 199 228
176 199 228
176 199 228
176 199 228
177 199 228
177 199 228
177 199 228
177 199 228
177 199 228
176 198 227
161 183 217
139 161 202
135 157 198
133 155 198
136 158 198
154 176 211
174 196 225
180 201 228
180 201 228
181 201 228
182 202 228
183 202 228
184 203 228
185 203 228
186 204 228
193 210 233
215 232 255
215 232 255
215 232 255
215 232 255
215 232 255
215 232 255
215 232 255
215 232 255
208 225 250
63 95 149
57 92 158
57 92 148
59 93 152
58 93 153
59 95 156
60 96 154
61 96 153
59 95 149
60 95 150
61 96 154
61 96 156
62 98 165
61 96 155
60 95 147
61 97 157
61 96 149
62 97 162
61 97 155
61 97 155
61 96 156
61 97 156
61 96 153
61 97 153
61 96 149
61 96 149
60 96 148
61 96 146
61 97 150
62 97 153
58 93 139
62 97 156
61 96 151
61 96 142
61 96 149
60 95 143
61 97 151
61 96 141
62 98 153
60 96 144
62 97 154
62 98 157
62 98 153
61 97 152
61 97 152
61 96 153
61 96 155
61 96 145
61 96 151
60 96 150
61 96 142
61 97 154
61 96 152
62 98 159
61 97 150
61 97 155
62 98 152
60 95 143
60 95 142
61 97 154
62 97 151
60 95 143
60 95 144
60 94 143
62 97 155
61 97 158
61 97 151
60 95 138
61 97 151
60 95 142
61 96 154
61 95 143
60 95 145
61 96 151
60 94 144
60 94 140
61 96 154
61 95 144
61 95 148
61 95 143
61 96 151
61 95 145
61 94 148
60 95 147
61 95 153
60 94 145
62 96 157
61 95 157
60 94 150
60 93 145
58 90 142
59 92 146
58 90 140
68 96 142
207 224 249
215 232 255
215 232 255
215 232 255
215 232 255
215 232 255
215 232 255
215 232 255
214 230 251
193 187 142
186 177 114
185 176 114
184 175 114
183 175 114
182 175 114
181 174 114
180 174 114
180 174 114
174 169 112
155 152 104
139 139 99
133 134 98
145 145 102
145 144 101
162 160 108
177 173 114
177 173 114
177 172 114
177 172 114
177 172 114
177 172 114
177 172 114
176 172 114
176 172 114
176 172 114
176 172 114
176 172 114
176 172 114
176 172 114
176 172 114
176 172 114
176 172 114
176 172 114
176 172 114
176 172 114
176 172 114
176 172 114
176 172 114
176 172 114
176 172 114
176 172 114
176 172 114
176 172 114
176 172 114
176 172 114
177 172 114
177 172 114
177 172 114
177 172 114
177 172 114
177 172 114
177 172 114
177 172 114
177 173 114
177 173 114
177 173 114
177 173 114
178 173 114
178 173 114
178 173 114
178 173 114
178 173 114
178 173 114
178 173 114
178 173 114
178 173 114
178 173 114
178 173 114
179 173 114
179 173 114
179 173 114
179 173 114
179 173 114
179 173 114
179 173 114
179 174 114
179 174 114
180 174 114
180 174 114
180 174 114
180 174 114
180 174 114
180 174 114
180 174 114
180 174 114
180 174 114
181 174 114
181 174 114
181 174 114
181 174 114
181 174 114
181 174 114
181 174 114
181 174 114
181 175 114
182 175 114
182 175 114
182 175 114
182 175 114
182 175 114
182 175 114
182 175 114
182 175 114
182 175 114
183 175 114
183 175 114
183 175 114
183 175 114
183 175 114
183 175 114
183 175 114
183 175 114
183 175 114
184 175 114
184 176 114
184 176 114
184 176 114
184 176 114
184 176 114
184 176 114
184 176 114
184 176 114
185 176 114
185 176 114
185 176 114
185 176 114
185 176 114
185 176 114
185 176 114
185 176 114
185 176 114
186 176 114
186 176 114
186 177 114
186 177 114
186 177 114
186 177 114
186 177 114
186 177 114
186 177 114
187 177 114
187 177 114
187 177 114
187 205 228
187 205 228
187 205 228
187 205 228
187 205 228
187 204 228
187 204 228
187 204 228
186 204 228
186 204 228
186 204 228
186 204 228
186 204 228
186 204 228
186 204 228
186 204 228
186 204 228
185 204 228
185 204 228
185 204 228
185 204 228
185 204 228
185 203 228
185 203 228
185 203 228
185 203 228
185 203 228
184 203 228
184 203 228
184 203 228
184 203 228
184 203 228
184 203 228
184 203 228
184 203 228
184 203 228
183 203 228
183 203 228
183 203 228
183 202 228
183 202 228
183 202 228
183 202 228
183 202 228
183 202 228
182 202 228
182 202 228
182 202 228
182 202 228
182 202 228
182 202 228
182 202 228
182 202 228
182 202 228
182 202 228
181 202 228
181 202 228
181 201 228
181 201 228
181 201 228
181 201 228
181 201 228
181 201 228
181 201 228
180 201 228
180 201 228
180 201 228
180 201 228
180 201 228
180 201 228
180 201 228
180 201 228
180 201 228
180 201 228
179 200 228
179 200 228
179 200 228
179 200 228
179 200 228
179 200 228
179 200 228
179 200 228
179 200 228
179 200 228
179 200 228
178 200 228
178 200 228
178 200 228
178 200 228
178 200 228
178 200 228
178 200 228
178 200 228
178 200 228
178 200 228
178 200 228
178 200 228
178 199 228
178 199 228
177 199 228
177 199 228
177 199 228
177 199 228
177 199 228
177 199 228
177 199 228
177 199 228
177 199 228
177 199 228
177 199 228
177 199 228
177 199 228
177 199 228
177 199 228
177 199 228
177 199 228
177 199 228
177 199 228
177 199 228
177 199 228
177 199 228
177 199 228
177 199 228
178 199 228
178 200 228
169 191 222
136 158 198
74 103 164
54 87 155
54 86 155
54 86 155
53 85 155
53 86 155
54 86 152
66 95 160
111 134 183
152 173 208
181 202 228
182 202 228
183 202 228
184 203 228
185 203 228
186 204 228
188 205 228
207 224 247
215 232 255
215 232 255
215 232 255
215 232 255
215 232 255
215 232 255
215 232 255
143 162 201
58 92 157
57 92 152
58 93 158
59 93 149
60 95 158
59 94 142
60 96 155
59 93 151
62 97 156
61 96 159
59 95 152
61 97 160
61 97 158
61 96 153
61 96 150
60 96 152
60 95 146
62 97 158
62 97 159
61 96 154
60 95 152
61 96 146
61 96 150
62 98 162
60 95 153
61 96 146
62 97 156
61 96 149
60 96 142
61 97 158
62 97 150
61 97 150
61 96 147
62 97 153
63 98 167
61 96 158
61 96 151
60 96 146
61 97 151
61 97 153
61 96 152
62 97 154
61 97 158
61 96 141
61 96 148
60 95 140
61 96 154
62 98 152
62 97 157
62 98 157
60 94 136
62 97 155
61 97 151
60 95 147
62 97 158
60 96 144
61 95 141
62 97 155
60 95 145
60 95 143
61 96 153
61 96 150
61 97 145
62 97 153
61 96 151
61 96 151
60 95 146
60 94 146
61 97 157
61 96 151
61 95 149
61 95 149
61 95 151
61 95 147
61 96 154
60 95 149
60 95 142
61 96 145
61 95 144
61 95 147
60 94 149
61 95 147
61 95 153
60 94 148
61 95 150
60 93 148
58 91 132
60 94 137
60 93 145
60 93 145
59 92 144
58 89 141
58 89 139
56 86 125
155 172 200
215 232 255
215 232 255
215 232 255
215 232 255
215 232 255
215 232 255
215 232 255
206 212 211
188 178 114
186 177 114
185 176 114
184 176 114
183 175 114
182 175 114
181 175 114
157 153 104
115 119 90
70 84 77
54 72 70
54 74 74
52 71 69
54 73 71
54 73 72
54 74 75
80 92 81
126 129 95
168 164 110
178 173 114
178 173 114
177 173 114
177 173 114
177 173 114
177 173 114
177 173 114
177 173 114
177 172 114
177 172 114
177 172 114
177 172 114
177 172 114
177 172 114
177 172 114
177 172 114
177 172 114
177 172 114
177 172 114
177 173 114
177 173 114
177 173 114
177 173 114
177 173 114
177 173 114
177 173 114
177 173 114
178 173 114
178 173 114
178 173 114
178 173 114
178 173 114
178 173 114
178 173 114
178 173 114
178 173 114
178 173 114
178 173 114
178 173 114
178 173 114
179 173 114
179 173 114
179 173 114
179 173 114
179 173 114
179 173 114
179 173 114
179 173 114
179 174 114
179 174 114
180 174 114
180 174 114
180 174 114
180 174 114
180 174 114
180 174 114
180 174 114
180 174 114
180 174 114
180 174 114
180 174 114
181 174 114
181 174 114
181 174 114
181 174 114
181 174 114
181 174 114
181 174 114
181 174 114
181 175 114
182 175 114
182 175 114
182 175 114
182 175 114
182 175 114
182 175 114
182 175 114
182 175 114
182 175 114
182 175 114
183 175 114
183 175 114
183 175 114
183 175 114
183 175 114
183 175 114
183 175 114
183 175 114
183 175 114
184 176 114
184 176 114
184 176 114
184 176 114
184 176 114
184 176 114
184 176 114
184 176 114
184 176 114
185 176 114
185 176 114
185 176 114
185 176 114
185 176 114
185 176 114
185 176 114
185 176 114
185 176 114
185 176 114
186 176 114
186 176 114
186 177 114
186 177 114
186 177 114
186 177 114
186 177 114
186 177 114
186 177 114
187 177 114
187 177 114
187 177 114
187 177 114
187 177 114
187 177 114
187 177 114
187 177 114
188 205 228
188 205 228
188 205 228
188 205 228
187 205 228
187 205 228
187 205 228
187 205 228
187 205 228
187 205 228
187 204 228
187 204 228
187 204 228
186 204 228
186 204 228
186 204 228
186 204 228
186 204 228
186 204 228
186 204 228
186 204 228
186 204 228
186 204 228
185 204 228
185 204 228
185 204 228
185 204 228
185 204 228
185 203 228
185 203 228
185 203 228
185 203 228
185 203 228
184 203 228
184 203 228
184 203 228
184 203 228
184 203 228
184 203 228
184 203 228
184 203 228
184 203 228
184 203 228
183 203 228
183 203 228
183 203 228
183 202 228
183 202 228
183 202 228
183 202 228
183 202 228
183 202 228
183 202 228
182 202 228
182 202 228
182 202 228
182 202 228
182 202 228
182 202 228
182 202 228
182 202 228
182 202 228
181 202 228
181 202 228
181 202 228
181 201 228
181 201 228
181 201 228
181 201 228
181 201 228
181 201 228
181 201 228
181 201 228
180 201 228
180 201 228
180 201 228
180 201 228
180 201 228
180 201 228
180 201 228
180 201 228
180 201 228
180 201 228
180 201 228
179 200 228
179 200 228
179 200 228
179 200 228
179 200 228
179 200 228
179 200 228
179 200 228
179 200 228
179 200 228
179 200 228
179 200 228
179 200 228
179 200 228
178 200 228
178 200 228
178 200 228
178 200 228
178 200 228
178 200 228
178 200 228
178 200 228
178 200 228
178 200 228
178 200 228
178 200 228
178 200 228
178 200 228
178 200 228
178 200 228
178 200 228
178 200 228
178 200 228
178 200 228
178 200 228
178 200 228
178 200 228
178 200 228
178 200 228
175 197 226
140 163 202
59 90 155
54 87 149
55 87 151
53 85 149
54 86 154
54 86 156
53 85 152
53 85 154
53 85 151
53 85 153
52 83 151
51 82 150
112 134 181
166 186 216
183 202 228
184 203 228
185 203 228
186 204 228
187 205 228
192 209 231
215 232 255
216 232 255
216 232 255
216 232 255
215 232 255
215 232 255
215 232 255
82 110 165
59 93 156
58 92 150
60 94 161
59 94 159
59 94 155
59 93 146
59 94 148
60 96 155
60 95 156
61 96 159
59 94 144
59 94 147
60 94 147
60 95 143
59 94 141
61 96 147
61 97 151
61 96 150
61 97 151
61 96 150
60 96 155
61 97 155
61 97 154
60 95 148
62 98 159
61 97 153
62 97 150
60 96 147
61 96 151
61 95 145
60 95 140
60 94 142
60 95 144
61 96 144
61 96 147
61 96 151
59 95 141
61 96 154
60 95 147
61 96 147
60 96 143
60 95 151
61 96 144
61 96 148
61 96 145
60 96 150
61 96 143
61 97 149
61 96 141
61 96 150
60 95 144
61 95 147
62 97 151
61 96 149
62 97 155
61 96 153
61 96 145
61 96 146
61 96 145
62 97 154
60 95 138
60 95 137
61 95 141
61 96 155
60 95 147
61 96 145
60 95 150
60 95 146
62 97 151
59 93 141
60 95 151
61 96 147
62 96 152
60 95 146
60 95 146
60 95 147
60 94 153
61 96 149
61 96 150
62 97 154
60 95 152
59 93 140
61 95 150
60 93 140
61 95 148
60 93 143
59 92 139
61 94 147
60 94 139
60 92 139
59 91 138
59 91 138
59 91 139
59 92 144
76 101 143
212 229 252
215 232 255
216 232 255
216 232 255
216 232 255
216 232 255
215 232 254
195 191 155
187 177 114
186 177 114
185 176 114
184 176 114
183 175 114
162 157 105
99 105 83
54 73 72
53 71 70
53 70 68
53 72 70
52 70 69
53 72 70
53 71 66
54 74 73
54 72 68
54 73 71
54 73 71
62 80 76
134 135 98
178 172 114
178 173 114
178 173 114
178 173 114
178 173 114
178 173 114
178 173 114
178 173 114
178 173 114
178 173 114
178 173 114
178 173 114
178 173 114
178 173 114
178 173 114
178 173 114
178 173 114
178 173 114
178 173 114
178 173 114
178 173 114
178 173 114
178 173 114
178 173 114
178 173 114
178 173 114
179 173 114
179 173 114
179 173 114
179 173 114
179 173 114
179 173 114
179 173 114
179 173 114
179 173 114
179 173 114
179 173 114
179 173 114
179 174 114
179 174 114
180 174 114
180 174 114
180 174 114
180 174 114
180 174 114
180 174 114
180 174 114
180 174 114
180 174 114
180 174 114
180 174 114
181 174 114
181 174 114
181 174 114
181 174 114
181 174 114
181 174 114
181 174 114
181 174 114
181 174 114
181 174 114
182 175 114
182 175 114
182 175 114
182 175 114
182 175 114
182 175 114
182 175 114
182 175 114
182 175 114
182 175 114
183 175 114
183 175 114
183 175 114
183 175 114
183 175 114
183 175 114
183 175 114
183 175 114
183 175 114
183 175 114
184 175 114
184 176 114
184 176 114
184 176 114
184 176 114
184 176 114
184 176 114
184 176 114
184 176 114
184 176 114
185 176 114
185 176 114
185 176 114
185 176 114
185 176 114
185 176 114
185 176 114
185 176 114
185 176 114
185 176 114
186 176 114
186 176 114
186 177 114
186 177 114
186 177 114
186 177 114
186 177 114
186 177 114
186 177 114
186 177 114
187 177 114
187 177 114
187 177 114
187 177 114
187 177 114
187 177 114
187 177 114
187 177 114
187 177 114
187 177 114
188 177 114
188 177 114
188 177 114
188 205 228
188 205 228
188 205 228
188 205 228
188 205 228
188 205 228
188 205 228
188 205 228
188 205 228
187 205 228
187 205 228
187 205 228
187 205 228
187 205 228
187 205 228
187 205 228
187 204 228
187 204 228
187 204 228
186 204 228
186 204 228
186 204 228
186 204 228
186 204 228
186 204 228
186 204 228
186 204 228
186 204 228
186 204 228
186 204 228
185 204 228
185 204 228
185 204 228
185 204 228
185 204 228
185 203 228
185 203 228
185 203 228
185 203 228
185 203 228
184 203 228
184 203 228
184 203 228
184 203 228
184 203 228
184 203 228
184 203 228
184 203 228
184 203 228
184 203 228
184 203 228
183 203 228
183 203 228
183 203 228
183 202 228
183 202 228
183 202 228
183 202 228
183 202 228
183 202 228
183 202 228
182 202 228
182 202 228
182 202 228
182 202 228
182 202 228
182 202 228
182 202 228
182 202 228
182 202 228
182 202 228
182 202 228
181 202 228
181 202 228
181 201 228
181 201 228
181 201 228
181 201 228
181 201 228
181 201 228
181 201 228
181 201 228
181 201 228
180 201 228
180 201 228
180 201 228
180 201 228
180 201 228
180 201 228
180 201 228
180 201 228
180 201 228
180 201 228
180 201 228
180 201 228
180 201 228
180 201 228
180 201 228
179 200 228
179 200 228
179 200 228
179 200 228
179 200 228
179 200 228
179 200 228
179 200 228
179 200 228
179 200 228
179 200 228
179 200 228
179 200 228
179 200 228
179 200 228
179 200 228
179 200 228
179 200 228
179 200 228
179 200 228
179 200 228
179 200 228
179 200 228
179 200 228
172 193 223
99 123 175
54 87 151
54 87 156
54 86 147
55 87 153
54 87 154
53 84 150
53 84 150
52 84 150
52 83 150
52 84 150
51 81 145
53 84 150
52 83 150
51 82 147
58 87 152
148 167 202
184 203 228
185 204 228
186 204 228
187 205 228
189 206 228
209 225 248
216 233 255
216 233 255
216 233 255
216 232 255
216 232 255
181 198 229
54 87 150
58 93 153
59 93 158
60 94 154
59 95 156
59 93 144
60 95 151
60 96 153
60 96 154
59 93 140
59 94 152
62 97 160
61 96 150
60 95 149
61 96 157
60 95 151
60 95 147
61 96 153
61 97 154
61 96 153
61 96 145
61 96 150
62 97 156
60 96 147
61 97 147
61 96 146
61 96 149
60 96 150
60 96 149
61 96 144
61 96 148
62 97 154
61 97 154
61 96 147
61 96 149
60 95 141
61 97 155
59 95 141
60 95 148
60 95 144
61 97 151
61 96 142
61 96 151
60 95 145
61 96 149
61 96 150
60 95 140
62 98 150
62 98 153
62 97 155
60 96 156
60 95 145
61 96 144
60 94 132
61 95 147
62 97 150
61 96 145
61 96 148
62 98 157
61 96 152
60 95 147
62 97 153
61 96 145
60 95 148
61 96 147
61 96 156
60 95 147
61 96 152
60 94 145
60 95 149
61 96 152
61 96 153
61 96 147
61 96 144
61 96 151
61 96 143
62 96 152
59 93 139
59 93 143
60 94 134
61 94 134
61 96 149
61 95 153
59 92 139
60 93 138
60 93 139
60 93 147
59 92 146
60 93 144
58 90 136
59 93 150
60 92 143
59 92 144
59 90 140
57 87 132
56 87 131
173 191 219
216 232 255
216 232 255
216 233 255
216 233 255
216 233 255
209 217 221
189 178 114
187 177 114
186 177 114
185 176 114
184 176 114
139 137 95
63 78 71
50 67 62
53 70 68
51 68 64
52 71 70
53 70 66
52 69 66
52 71 66
53 72 71
53 72 68
54 74 72
54 73 68
53 73 72
54 73 68
55 74 73
87 98 83
171 166 111
179 173 114
179 173 114
179 173 114
179 173 114
179 173 114
179 173 114
179 173 114
179 173 114
179 173 114
179 173 114
179 173 114
179 173 114
179 173 114
179 173 114
179 173 114
179 173 114
179 173 114
179 173 114
179 173 114
179 173 114
179 174 114
179 174 114
179 174 114
179 174 114
180 174 114
180 174 114
180 174 114
180 174 114
180 174 114
180 174 114
180 174 114
180 174 114
180 174 114
180 174 114
180 174 114
180 174 114
180 174 114
180 174 114
180 174 114
181 174 114
181 174 114
181 174 114
181 174 114
181 174 114
181 174 114
181 174 114
181 174 114
181 174 114
181 174 114
181 174 114
182 175 114
182 175 114
182 175 114
182 175 114
182 175 114
182 175 114
182 175 114
182 175 114
182 175 114
182 175 114
182 175 114
183 175 114
183 175 114
183 175 114
183 175 114
183 175 114
183 175 114
183 175 114
183 175 114
183 175 114
183 175 114
184 175 114
184 176 114
184 176 114
184 176 114
184 176 114
184 176 114
184 176 114
184 176 114
184 176 114
184 176 114
184 176 114
185 176 114
185 176 114
185 176 114
185 176 114
185 176 114
185 176 114
185 176 114
185 176 114
185 176 114
185 176 114
186 176 114
186 176 114
186 177 114
186 177 114
186 177 114
186 177 114
186 177 114
186 177 114
186 177 114
186 177 114
186 177 114
187 177 114
187 177 114
187 177 114
187 177 114
187 177 114
187 177 114
187 177 114
187 177 114
187 177 114
187 177 114
187 177 114
188 177 114
188 177 114
188 178 114
188 178 114
188 178 114
188 178 114
188 178 114
188 178 114
189 206 228
189 206 228
189 205 228
189 205 228
188 205 228
188 205 228
188 205 228
188 205 228
188 205 228
188 205 228
188 205 228
188 205 228
188 205 228
188 205 228
188 205 228
187 205 228
187 205 228
187 205 228
187 205 228
187 205 228
187 205 228
187 205 228
187 204 228
187 204 228
187 204 228
187 204 228
186 204 228
186 204 228
186 204 228
186 204 228
186 204 228
186 204 228
186 204 228
186 204 228
186 204 228
186 204 228
186 204 228
185 204 228
185 204 228
185 204 228
185 204 228
185 204 228
185 204 228
185 203 228
185 203 228
185 203 228
185 203 228
185 203 228
184 203 228
184 203 228
184 203 228
184 203 228
184 203 228
184 203 228
184 203 228
184 203 228
184 203 228
184 203 228
184 203 228
183 203 228
183 203 228
183 203 228
183 203 228
183 202 228
183 202 228
183 202 228
183 202 228
183 202 228
183 202 228
183 202 228
183 202 228
182 202 228
182 202 228
182 202 228
182 202 228
182 202 228
182 202 228
182 202 228
182 202 228
182 202 228
182 202 228
182 202 228
182 202 228
181 202 228
181 202 228
181 201 228
181 201 228
181 201 228
181 201 228
181 201 228
181 201 228
181 201 228
181 201 228
181 201 228
181 201 228
181 201 228
181 201 228
180 201 228
180 201 228
180 201 228
180 201 228
180 201 228
180 201 228
180 201 228
180 201 228
180 201 228
180 201 228
180 201 228
180 201 228
180 201 228
180 201 228
180 201 228
180 201 228
180 201 228
180 201 228
180 201 228
180 201 228
180 201 228
180 201 228
180 201 228
180 201 228
167 187 218
81 108 164
55 88 152
54 87 150
53 85 148
53 85 150
54 85 150
53 86 152
54 85 150
52 84 144
51 82 143
51 82 142
52 83 151
52 83 148
51 81 146
50 80 145
51 82 147
50 81 146
49 79 144
137 157 194
185 204 228
186 204 228
187 205 228
189 205 228
198 214 236
216 233 255
216 233 255
216 233 255
216 233 255
216 233 255
128 148 189
56 90 150
57 90 145
58 93 153
58 92 145
59 94 150
58 93 145
60 95 150
60 95 155
60 95 149
60 95 150
60 95 157
60 96 149
61 95 152
61 96 152
60 95 147
60 95 148
61 96 155
60 95 148
61 96 143
61 96 145
62 97 153
60 96 150
60 94 142
60 95 146
60 96 149
61 96 142
61 96 149
61 97 156
61 96 149
60 95 140
61 96 150
62 97 158
60 95 137
60 95 145
61 96 143
60 95 142
60 95 146
61 96 154
61 97 153
61 97 154
60 96 141
62 98 158
62 97 149
61 96 147
60 95 135
61 96 143
60 96 143
62 98 156
60 95 141
60 96 140
61 96 146
62 97 155
61 96 145
61 97 150
62 98 160
62 98 155
60 96 145
61 96 150
61 96 147
62 97 155
61 96 153
60 95 140
62 97 149
62 97 152
60 95 141
61 96 146
60 96 149
61 95 138
61 96 145
62 97 150
61 96 152
61 95 146
60 94 145
60 94 143
61 95 145
60 94 146
60 94 145
61 96 144
61 95 144
60 93 141
61 95 140
60 94 145
60 94 146
59 92 137
60 93 135
60 94 140
60 93 144
60 94 148
60 92 144
60 93 146
60 93 146
58 89 136
59 92 143
59 90 139
57 88 134
57 87 132
134 152 182
216 233 255
216 233 255
216 233 255
216 233 255
216 233 255
196 191 153
189 178 114
187 177 114
186 177 114
185 176 114
127 126 88
50 66 60
49 65 60
50 67 64
51 68 63
51 67 62
51 68 63
53 71 67
51 69 64
53 71 68
53 71 69
54 72 68
55 74 72
53 71 66
55 73 71
54 72 69
54 73 70
54 74 73
81 93 80
172 167 110
180 174 114
180 174 114
180 174 114
180 174 114
180 174 114
180 174 114
180 174 114
180 174 114
180 174 114
180 174 114
180 174 114
180 174 114
180 174 114
180 174 114
180 174 114
180 174 114
180 174 114
180 174 114
180 174 114
180 174 114
180 174 114
180 174 114
180 174 114
180 174 114
181 174 114
181 174 114
181 174 114
181 174 114
181 174 114
181 174 114
181 174 114
181 174 114
181 174 114
181 174 114
181 174 114
181 174 114
181 174 114
181 174 114
182 175 114
182 175 114
182 175 114
182 175 114
182 175 114
182 175 114
182 175 114
182 175 114
182 175 114
182 175 114
182 175 114
182 175 114
183 175 114
183 175 114
183 175 114
183 175 114
183 175 114
183 175 114
183 175 114
183 175 114
183 175 114
183 175 114
183 175 114
183 175 114
184 176 114
184 176 114
184 176 114
184 176 114
184 176 114
184 176 114
184 176 114
184 176 114
184 176 114
184 176 114
184 176 114
185 176 114
185 176 114
185 176 114
185 176 114
185 176 114
185 176 114
185 176 114
185 176 114
185 176 114
185 176 114
185 176 114
186 176 114
186 176 114
186 177 114
186 177 114
186 177 114
186 177 114
186 177 114
186 177 114
186 177 114
186 177 114
186 177 114
187 177 114
187 177 114
187 177 114
187 177 114
187 177 114
187 177 114
187 177 114
187 177 114
187 177 114
187 177 114
187 177 114
188 177 114
188 177 114
188 177 114
188 177 114
188 178 114
188 178 114
188 178 114
188 178 114
188 178 114
188 178 114
188 178 114
189 178 114
189 178 114
189 178 114
189 178 114
189 206 228
189 206 228
189 206 228
189 206 228
189 206 228
189 206 228
189 206 228
189 206 228
189 205 228
189 205 228
188 205 228
188 205 228
188 205 228
188 205 228
188 205 228
188 205 228
188 205 228
188 205 228
188 205 228
188 205 228
188 205 228
188 205 228
187 205 228
187 205 228
187 205 228
187 205 228
187 205 228
187 205 228
187 205 228
187 205 228
187 204 228
187 204 228
187 204 228
187 204 228
186 204 228
186 204 228
186 204 228
186 204 228
186 204 228
186 204 228
186 204 228
186 204 228
186 204 228
186 204 228
186 204 228
185 204 228
185 204 228
185 204 228
185 204 228
185 204 228
185 204 228
185 203 228
185 203 228
185 203 228
185 203 228
185 203 228
185 203 228
184 203 228
184 203 228
184 203 228
184 203 228
184 203 228
184 203 228
184 203 228
184 203 228
184 203 228
184 203 228
184 203 228
184 203 228
183 203 228
183 203 228
183 203 228
183 203 228
183 202 228
183 202 228
183 202 228
183 202 228
183 202 228
183 202 228
183 202 228
183 202 228
183 202 228
182 202 228
182 202 228
182 202 228
182 202 228
182 202 228
182 202 228
182 202 228
182 202 228
182 202 228
182 202 228
182 202 228
182 202 228
182 202 228
182 202 228
181 202 228
181 202 228
181 202 228
181 202 228
181 202 228
181 201 228
181 201 228
181 201 228
181 201 228
181 201 228
181 201 228
181 201 228
181 201 228
181 201 228
181 201 228
181 201 228
181 201 228
181 201 228
181 201 228
181 201 228
181 201 228
181 201 228
181 201 228
181 201 228
175 196 223
93 117 169
55 87 149
54 86 150
53 85 148
53 85 146
53 85 144
53 85 144
52 82 145
52 83 140
52 83 143
51 82 143
53 84 144
51 82 146
50 80 141
52 83 146
49 78 139
46 75 136
50 81 149
50 81 148
50 80 146
131 150 189
186 204 228
187 205 228
189 205 228
190 206 228
212 228 250
216 233 255
216 233 255
216 233 255
213 230 253
63 95 149
56 89 152
58 92 147
58 92 151
57 90 145
60 96 159
59 94 146
58 93 146
59 94 146
61 96 155
60 95 147
60 95 148
61 97 158
62 97 156
61 95 143
60 95 139
61 96 152
62 97 161
60 95 145
61 96 153
61 97 153
61 97 149
61 97 150
61 97 149
62 97 153
60 96 148
60 95 146
62 97 156
60 94 135
59 94 137
61 96 144
61 97 154
60 95 136
61 97 155
61 96 152
60 95 139
61 96 143
61 96 152
60 95 137
61 96 148
61 96 145
61 96 142
62 97 158
62 97 156
61 97 147
62 98 155
62 97 150
60 96 144
61 97 152
61 96 152
62 97 152
62 97 151
61 96 148
60 96 139
60 96 147
60 94 139
61 95 144
61 97 153
61 96 146
61 95 141
62 97 155
61 95 137
61 96 148
61 95 149
61 97 154
62 97 146
62 97 156
61 96 152
61 96 141
61 95 147
61 96 140
61 96 152
61 96 149
62 97 152
61 96 146
59 93 139
60 95 145
60 94 145
61 96 147
62 97 152
61 95 144
60 95 145
61 95 151
61 95 151
60 93 131
61 94 150
58 91 133
59 92 135
58 91 135
58 89 134
60 92 145
59 92 138
59 92 137
58 91 137
58 90 133
57 87 132
58 89 139
59 88 136
212 229 251
216 233 255
216 233 255
216 233 255
215 230 248
190 179 114
189 178 114
187 177 114
186 177 114
135 133 94
50 66 61
49 64 56
48 63 57
48 63 58
50 67 61
51 67 61
50 67 63
50 66 58
51 68 61
52 70 66
51 70 66
52 69 64
52 69 65
53 72 68
53 72 69
53 71 65
54 73 67
54 74 71
55 75 73
87 97 81
173 167 110
181 174 114
181 174 114
181 174 114
181 174 114
181 174 114
181 174 114
181 174 114
181 174 114
181 174 114
181 174 114
181 174 114
181 174 114
181 174 114
181 174 114
181 174 114
181 174 114
181 174 114
181 174 114
181 174 114
181 174 114
181 174 114
181 174 114
181 175 114
182 175 114
182 175 114
182 175 114
182 175 114
182 175 114
182 175 114
182 175 114
182 175 114
182 175 114
182 175 114
182 175 114
182 175 114
182 175 114
182 175 114
182 175 114
183 175 114
183 175 114
183 175 114
183 175 114
183 175 114
183 175 114
183 175 114
183 175 114
183 175 114
183 175 114
183 175 114
183 175 114
183 175 114
184 175 114
184 175 114
184 176 114
184 176 114
184 176 114
184 176 114
184 176 114
184 176 114
184 176 114
184 176 114
184 176 114
184 176 114
185 176 114
185 176 114
185 176 114
185 176 114
185 176 114
185 176 114
185 176 114
185 176 114
185 176 114
185 176 114
185 176 114
185 176 114
186 176 114
186 176 114
186 177 114
186 177 114
186 177 114
186 177 114
186 177 114
186 177 114
186 177 114
186 177 114
186 177 114
186 177 114
187 177 114
187 177 114
187 177 114
187 177 114
187 177 114
187 177 114
187 177 114
187 177 114
187 177 114
187 177 114
187 177 114
188 177 114
188 177 114
188 177 114
188 177 114
188 178 114
188 178 114
188 178 114
188 178 114
188 178 114
188 178 114
188 178 114
188 178 114
189 178 114
189 178 114
189 178 114
189 178 114
189 178 114
189 178 114
189 178 114
189 178 114
189 178 114
189 178 114
190 206 228
190 206 228
190 206 228
190 206 228
189 206 228
189 206 228
189 206 228
189 206 228
189 206 228
189 206 228
189 206 228
189 206 228
189 206 228
189 206 228
189 206 228
189 205 228
189 205 228
188 205 228
188 205 228
188 205 228
188 205 228
188 205 228
188 205 228
188 205 228
188 205 228
188 205 228
188 205 228
188 205 228
188 205 228
188 205 228
187 205 228
187 205 228
187 205 228
187 205 228
187 205 228
187 205 228
187 205 228
187 205 228
187 204 228
187 204 228
187 204 228
187 204 228
187 204 228
186 204 228
186 204 228
186 204 228
186 204 228
186 204 228
186 204 228
186 204 228
186 204 228
186 204 228
186 204 228
186 204 228
186 204 228
185 204 228
185 204 228
185 204 228
185 204 228
185 204 228
185 204 228
185 203 228
185 203 228
185 203 228
185 203 228
185 203 228
185 203 228
185 203 228
184 203 228
184 203 228
184 203 228
184 203 228
184 203 228
184 203 228
184 203 228
184 203 228
184 203 228
184 203 228
184 203 228
184 203 228
184 203 228
183 203 228
183 203 228
183 203 228
183 203 228
183 203 228
183 203 228
183 202 228
183 202 228
183 202 228
183 202 228
183 202 228
183 202 228
183 202 228
183 202 228
183 202 228
183 202 228
182 202 228
182 202 228
182 202 228
182 202 228
182 202 228
182 202 228
182 202 228
182 202 228
182 202 228
182 202 228
182 202 228
182 202 228
182 202 228
182 202 228
182 202 228
182 202 228
182 202 228
182 202 228
182 202 228
182 202 228
182 202 228
182 202 228
182 202 228
122 144 184
55 88 151
55 87 143
55 86 143
55 87 146
53 85 143
53 85 141
52 84 142
53 85 146
51 82 143
52 83 145
51 81 141
51 82 143
51 81 139
51 81 140
50 81 141
48 77 140
48 78 142
48 77 139
45 73 130
47 76 139
47 77 136
134 153 190
188 205 228
189 205 228
190 206 228
203 219 241
217 233 255
217 233 255
217 233 255
161 180 213
57 90 148
57 90 150
57 90 147
59 93 146
59 94 146
58 92 151
58 92 147
59 94 149
59 93 147
60 95 151
61 97 157
60 95 150
59 94 139
60 95 142
60 95 144
61 96 149
59 94 148
60 95 145
60 95 149
59 94 141
60 96 152
60 95 145
59 95 149
61 96 149
60 95 142
60 95 143
62 97 154
61 96 147
61 97 149
60 96 144
60 95 140
62 97 151
61 96 138
61 96 142
62 97 154
62 98 153
61 96 149
61 96 151
60 95 136
62 98 155
61 96 141
61 97 152
60 95 144
61 97 155
60 95 144
62 98 155
61 96 148
61 96 147
62 97 153
60 95 143
61 96 150
61 96 142
61 95 145
60 96 144
61 96 152
61 96 148
61 96 147
60 95 138
61 96 151
60 95 135
61 96 149
60 95 136
61 96 148
61 97 154
61 96 147
61 95 152
61 96 148
60 95 139
58 92 131
61 96 150
60 95 142
61 96 150
60 95 142
61 96 145
60 93 140
61 96 151
61 95 144
60 93 138
61 96 146
60 94 140
60 94 143
61 95 139
61 94 142
60 94 139
60 94 146
60 93 142
60 94 142
60 93 143
60 93 142
59 91 134
59 92 139
59 92 139
58 90 138
56 87 134
58 91 143
58 89 133
56 87 134
56 86 133
172 189 214
217 233 255
217 233 255
217 233 255
204 206 194
190 179 114
189 178 114
188 177 114
140 136 91
47 62 57
48 65 61
48 64 60
48 63 58
46 61 54
49 65 58
48 63 57
49 65 59
51 67 60
52 69 66
51 69 65
52 69 62
52 69 65
52 70 67
53 72 70
54 72 67
54 73 70
53 72 66
55 74 71
54 74 69
56 76 72
118 121 91
182 175 114
182 175 114
182 175 114
182 175 114
182 175 114
182 175 114
182 175 114
182 175 114
182 175 114
182 175 114
182 175 114
182 175 114
182 175 114
182 175 114
182 175 114
182 175 114
182 175 114
182 175 114
182 175 114
182 175 114
182 175 114
182 175 114
182 175 114
183 175 114
183 175 114
183 175 114
183 175 114
183 175 114
183 175 114
183 175 114
183 175 114
183 175 114
183 175 114
183 175 114
183 175 114
183 175 114
183 175 114
183 175 114
183 175 114
184 175 114
184 176 114
184 176 114
184 176 114
184 176 114
184 176 114
184 176 114
184 176 114
184 176 114
184 176 114
184 176 114
184 176 114
184 176 114
185 176 114
185 176 114
185 176 114
185 176 114
185 176 114
185 176 114
185 176 114
185 176 114
185 176 114
185 176 114
185 176 114
185 176 114
185 176 114
186 176 114
186 176 114
186 176 114
186 177 114
186 177 114
186 177 114
186 177 114
186 177 114
186 177 114
186 177 114
186 177 114
186 177 114
187 177 114
187 177 114
187 177 114
187 177 114
187 177 114
187 177 114
187 177 114
187 177 114
187 177 114
187 177 114
187 177 114
187 177 114
187 177 114
188 177 114
188 177 114
188 177 114
188 177 114
188 178 114
188 178 114
188 178 114
188 178 114
188 178 114
188 178 114
188 178 114
188 178 114
188 178 114
189 178 114
189 178 114
189 178 114
189 178 114
189 178 114
189 178 114
189 178 114
189 178 114
189 178 114
189 178 114
189 178 114
189 178 114
190 178 114
190 178 114
190 178 114
190 178 114
190 178 114
190 206 228
190 206 228
190 206 228
190 206 228
190 206 228
190 206 228
190 206 228
190 206 228
190 206 228
190 206 228
190 206 228
190 206 228
189 206 228
189 206 228
189 206 228
189 206 228
189 206 228
189 206 228
189 206 228
189 206 228
189 206 228
189 206 228
189 206 228
189 206 228
189 205 228
188 205 228
188 205 228
188 205 228
188 205 228
188 205 228
188 205 228
188 205 228
188 205 228
188 205 228
188 205 228
188 205 228
188 205 228
188 205 228
188 205 228
187 205 228
187 205 228
187 205 228
187 205 228
187 205 228
187 205 228
187 205 228
187 205 228
187 205 228
187 204 228
187 204 228
187 204 228
187 204 228
186 204 228
186 204 228
186 204 228
186 204 228
186 204 228
186 204 228
186 204 228
186 204 228
186 204 228
186 204 228
186 204 228
186 204 228
186 204 228
186 204 228
185 204 228
185 204 228
185 204 228
185 204 228
185 204 228
185 204 228
185 204 228
185 204 228
185 203 228
185 203 228
185 203 228
185 203 228
185 203 228
185 203 228
185 203 228
184 203 228
184 203 228
184 203 228
184 203 228
184 203 228
184 203 228
184 203 228
184 203 228
184 203 228
184 203 228
184 203 228
184 203 228
184 203 228
184 203 228
184 203 228
184 203 228
184 203 228
183 203 228
183 203 228
183 203 228
183 203 228
183 203 228
183 203 228
183 203 228
183 203 228
183 202 228
183 202 228
183 202 228
183 202 228
183 202 228
183 202 228
183 202 228
183 202 228
183 202 228
183 202 228
183 202 228
183 202 228
183 202 228
144 165 197
55 88 151
54 86 142
55 87 147
54 86 145
54 86 148
53 85 144
54 85 140
50 80 132
52 84 142
52 82 143
50 80 137
51 82 139
50 80 137
49 79 137
49 78 137
50 80 140
49 79 144
46 74 136
46 74 135
46 74 136
44 71 133
47 76 140
49 77 135
168 185 212
189 206 228
190 206 228
196 212 233
217 233 255
217 233 255
217 233 255
148 166 198
56 89 145
56 89 148
57 91 147
59 94 150
60 95 155
58 93 148
59 93 145
58 92 143
59 93 137
59 94 148
59 94 143
60 95 155
59 94 146
59 94 149
60 94 145
59 93 137
60 94 146
60 95 140
61 97 156
60 95 150
60 94 137
61 97 156
60 95 146
60 94 138
62 96 148
61 96 154
60 94 143
60 95 141
61 95 141
61 96 145
60 95 145
60 96 151
61 96 147
61 96 146
61 96 148
62 98 157
60 96 142
61 96 148
61 96 143
60 95 145
61 96 145
61 96 137
60 95 144
61 96 145
62 97 148
60 95 142
61 96 145
60 95 144
60 95 147
61 96 148
59 93 134
61 96 142
60 95 141
62 97 145
61 96 143
61 96 145
61 96 144
61 96 147
61 97 154
61 96 149
61 95 137
60 95 143
60 95 140
60 95 143
61 95 140
60 95 145
59 94 138
60 95 143
60 95 147
61 96 152
61 96 145
61 95 143
60 95 140
61 97 154
60 94 139
60 94 139
61 95 145
59 94 142
61 96 145
60 95 145
59 92 140
60 94 147
61 95 144
60 94 147
60 94 145
58 90 128
60 95 145
60 94 141
59 92 142
60 93 146
59 91 136
60 93 147
58 90 135
58 89 124
58 90 133
58 90 142
58 89 137
53 81 115
137 154 182
217 233 255
217 233 255
217 233 255
194 184 131
190 179 114
189 178 114
167 159 104
47 61 55
44 57 50
46 61 56
47 62 57
46 61 56
47 63 57
48 63 56
47 62 53
49 65 59
50 65 59
50 66 62
50 66 59
52 69 61
52 70 64
53 70 64
51 69 61
53 71 66
53 72 65
53 71 66
54 73 69
54 73 68
55 74 69
55 75 72
144 142 98
183 175 114
183 175 114
183 175 114
183 175 114
183 175 114
183 175 114
183 175 114
183 175 114
183 175 114
183 175 114
183 175 114
183 175 114
183 175 114
183 175 114
183 175 114
183 175 114
183 175 114
183 175 114
183 175 114
183 175 114
183 175 114
184 175 114
184 175 114
184 176 114
184 176 114
184 176 114
184 176 114
184 176 114
184 176 114
184 176 114
184 176 114
184 176 114
184 176 114
184 176 114
184 176 114
184 176 114
184 176 114
184 176 114
185 176 114
185 176 114
185 176 114
185 176 114
185 176 114
185 176 114
185 176 114
185 176 114
185 176 114
185 176 114
185 176 114
185 176 114
185 176 114
185 176 114
185 176 114
186 176 114
186 176 114
186 176 114
186 177 114
186 177 114
186 177 114
186 177 114
186 177 114
186 177 114
186 177 114
186 177 114
186 177 114
186 177 114
187 177 114
187 177 114
187 177 114
187 177 114
187 177 114
187 177 114
187 177 114
187 177 114
187 177 114
187 177 114
187 177 114
187 177 114
187 177 114
187 177 114
188 177 114
188 177 114
188 177 114
188 177 114
188 178 114
188 178 114
188 178 114
188 178 114
188 178 114
188 178 114
188 178 114
188 178 114
188 178 114
189 178 114
189 178 114
189 178 114
189 178 114
189 178 114
189 178 114
189 178 114
189 178 114
189 178 114
189 178 114
189 178 114
189 178 114
189 178 114
189 178 114
190 178 114
190 178 114
190 178 114
190 178 114
190 178 114
190 178 114
190 179 114
190 179 114
190 179 114
190 179 114
190 179 114
190 179 114
191 207 228
191 207 228
191 207 228
191 207 228
191 207 228
191 207 228
190 207 228
190 206 228
190 206 228
190 206 228
190 206 228
190 206 228
190 206 228
190 206 228
190 206 228
190 206 228
190 206 228
190 206 228
190 206 228
190 206 228
190 206 228
189 206 228
189 206 228
189 206 228
189 206 228
189 206 228
189 206 228
189 206 228
189 206 228
189 206 228
189 206 228
189 206 228
189 206 228
189 205 228
189 205 228
188 205 228
188 205 228
188 205 228
188 205 228
188 205 228
188 205 228
188 205 228
188 205 228
188 205 228
188 205 228
188 205 228
188 205 228
188 205 228
188 205 228
187 205 228
187 205 228
187 205 228
187 205 228
187 205 228
187 205 228
187 205 228
187 205 228
187 205 228
187 205 228
187 205 228
187 204 228
187 204 228
187 204 228
187 204 228
186 204 228
186 204 228
186 204 228
186 204 228
186 204 228
186 204 228
186 204 228
186 204 228
186 204 228
186 204 228
186 204 228
186 204 228
186 204 228
186 204 228
186 204 228
185 204 228
185 204 228
185 204 228
185 204 228
185 204 228
185 204 228
185 204 228
185 204 228
185 203 228
185 203 228
185 203 228
185 203 228
185 203 228
185 203 228
185 203 228
185 203 228
185 203 228
185 203 228
185 203 228
184 203 228
184 203 228
184 203 228
184 203 228
184 203 228
184 203 228
184 203 228
184 203 228
184 203 228
184 203 228
184 203 228
184 203 228
184 203 228
184 203 228
184 203 228
184 203 228
184 203 228
184 203 228
184 203 228
184 203 228
179 198 225
71 99 149
55 87 149
54 86 145
54 85 143
54 85 145
53 84 139
55 86 146
52 83 134
52 83 138
52 83 135
51 82 133
49 78 134
49 79 137
50 80 139
49 79 138
49 78 136
49 79 138
47 75 133
47 77 138
44 71 130
44 72 133
46 74 136
43 70 133
44 72 136
91 112 159
188 205 227
190 206 228
191 207 228
213 229 251
217 233 255
216 232 255
82 107 152
57 91 148
57 91 147
58 92 146
58 93 146
58 92 135
58 92 147
58 92 141
58 92 138
59 93 147
59 94 142
58 92 143
59 94 145
60 95 144
61 96 148
59 94 140
59 93 145
61 96 146
62 97 152
60 94 136
59 93 134
60 94 146
59 94 141
60 94 145
61 97 157
60 95 143
60 95 147
61 96 151
62 97 152
60 95 144
61 95 149
61 96 151
61 95 139
60 95 139
61 97 148
61 96 150
61 96 143
61 95 144
60 95 140
60 94 133
60 95 141
62 97 152
61 96 149
61 96 151
61 95 138
61 96 144
62 97 151
60 95 142
60 95 143
60 95 140
60 95 136
60 95 140
61 96 142
60 95 142
59 94 134
61 96 146
61 96 141
60 95 140
62 97 150
61 97 152
61 96 148
61 96 147
60 95 141
61 95 143
60 95 150
61 96 148
60 95 144
60 94 139
62 96 154
60 95 145
60 95 144
59 93 140
61 96 141
60 95 142
62 96 152
61 95 147
60 94 140
60 94 137
60 95 140
60 95 152
61 96 148
59 92 127
61 96 144
60 93 139
59 93 139
59 92 134
60 94 143
60 93 141
60 94 139
60 92 140
59 90 132
58 90 130
59 93 144
58 90 139
57 89 135
60 91 133
58 89 134
57 88 132
56 85 125
94 113 135
217 233 255
217 233 255
212 222 230
192 179 114
190 179 114
187 177 113
83 88 68
43 56 50
44 58 51
43 56 48
43 56 47
48 62 55
47 62 56
46 60 53
46 60 51
49 65 59
50 66 59
50 67 62
51 68 63
52 69 64
53 70 66
52 70 63
53 71 65
52 70 65
53 71 65
53 71 64
54 72 67
55 74 69
54 73 70
55 75 72
65 80 71
179 171 112
184 176 114
184 176 114
184 176 114
184 176 114
184 176 114
184 176 114
184 176 114
184 176 114
184 176 114
184 176 114
184 176 114
184 176 114
184 176 114
184 176 114
184 176 114
184 176 114
184 176 114
184 176 114
184 176 114
184 176 114
184 176 114
185 176 114
185 176 114
185 176 114
185 176 114
185 176 114
185 176 114
185 176 114
185 176 114
185 176 114
185 176 114
185 176 114
185 176 114
185 176 114
185 176 114
185 176 114
185 176 114
185 176 114
186 176 114
186 176 114
186 176 114
186 177 114
186 177 114
186 177 114
186 177 114
186 177 114
186 177 114
186 177 114
186 177 114
186 177 114
186 177 114
186 177 114
186 177 114
186 177 114
187 177 114
187 177 114
187 177 114
187 177 114
187 177 114
187 177 114
187 177 114
187 177 114
187 177 114
187 177 114
187 177 114
187 177 114
187 177 114
187 177 114
188 177 114
188 177 114
188 177 114
188 177 114
188 177 114
188 178 114
188 178 114
188 178 114
188 178 114
188 178 114
188 178 114
188 178 114
188 178 114
188 178 114
188 178 114
189 178 114
189 178 114
189 178 114
189 178 114
189 178 114
189 178 114
189 178 114
189 178 114
189 178 114
189 178 114
189 178 114
189 178 114
189 178 114
189 178 114
189 178 114
190 178 114
190 178 114
190 178 114
190 178 114
190 178 114
190 179 114
190 179 114
190 179 114
190 179 114
190 179 114
190 179 114
190 179 114
190 179 114
190 179 114
191 179 114
191 179 114
191 179 114
191 179 114
191 179 114
191 179 114
191 207 228
191 207 228
191 207 228
191 207 228
191 207 228
191 207 228
191 207 228
191 207 228
191 207 228
191 207 228
191 207 228
191 207 228
191 207 228
191 207 228
190 207 228
190 206 228
190 206 228
190 206 228
190 206 228
190 206 228
190 206 228
190 206 228
190 206 228
190 206 228
190 206 228
190 206 228
190 206 228
190 206 228
190 206 228
190 206 228
190 206 228
189 206 228
189 206 228
189 206 228
189 206 228
189 206 228
189 206 228
189 206 228
189 206 228
189 206 228
189 206 228
189 206 228
189 206 228
189 206 228
189 205 228
189 205 228
189 205 228
188 205 228
188 205 228
188 205 228
188 205 228
188 205 228
188 205 228
188 205 228
188 205 228
188 205 228
188 205 228
188 205 228
188 205 228
188 205 228
188 205 228
188 205 228
187 205 228
187 205 228
187 205 228
187 205 228
187 205 228
187 205 228
187 205 228
187 205 228
187 205 228
187 205 228
187 205 228
187 204 228
187 204 228
187 204 228
187 204 228
187 204 228
187 204 228
186 204 228
186 204 228
186 204 228
186 204 228
186 204 228
186 204 228
186 204 228
186 204 228
186 204 228
186 204 228
186 204 228
186 204 228
186 204 228
186 204 228
186 204 228
186 204 228
186 204 228
186 204 228
186 204 228
185 204 228
185 204 228
185 204 228
185 204 228
185 204 228
185 204 228
185 204 228
185 204 228
185 204 228
185 204 228
185 204 228
185 204 228
185 204 228
185 204 228
185 204 228
185 204 228
185 204 228
185 204 228
185 204 228
185 204 228
131 151 191
55 87 144
55 87 146
54 86 141
54 85 140
54 85 141
54 85 147
52 83 136
51 82 137
53 84 139
51 82 140
50 80 139
51 81 133
49 79 136
50 79 138
49 79 136
46 74 128
47 77 135
48 77 136
46 74 130
44 71 128
42 69 128
41 67 128
45 72 133
40 67 126
45 73 131
150 166 194
190 206 228
192 207 228
207 222 243
218 233 255
205 221 244
55 87 137
56 90 146
55 88 137
59 93 152
58 92 150
58 92 152
59 93 150
58 93 146
58 92 145
59 93 139
60 95 140
60 95 144
59 93 143
60 95 146
60 94 137
59 93 135
61 96 155
61 96 144
60 95 147
61 96 149
59 94 142
60 95 150
60 95 140
60 95 145
60 94 142
61 96 149
60 95 148
60 96 147
61 96 147
61 95 141
59 94 140
60 95 138
61 96 146
61 97 145
61 96 141
61 96 147
61 95 143
62 97 150
61 96 147
62 97 144
61 96 148
60 96 142
61 96 148
61 96 145
62 97 149
59 93 131
62 98 155
61 96 150
61 97 143
61 97 145
61 96 143
61 96 149
61 96 145
60 95 135
61 96 151
62 97 154
61 96 154
59 93 139
60 95 141
61 96 146
60 95 136
60 95 140
61 96 153
61 96 145
61 95 140
61 95 140
61 95 134
60 95 142
61 96 147
60 94 141
59 94 137
60 94 143
61 95 140
60 95 146
60 94 139
61 94 139
62 96 151
60 95 146
59 93 131
59 93 136
61 95 144
60 94 136
60 94 146
61 95 143
59 93 137
59 93 139
59 94 144
60 93 138
60 93 140
59 93 134
59 90 125
59 91 135
59 92 139
59 92 144
59 92 145
58 90 137
59 91 142
58 90 136
57 87 130
54 81 112
208 224 246
218 234 255
207 212 206
192 179 114
190 179 114
147 141 93
45 58 51
42 55 46
45 59 53
43 57 51
44 57 49
42 55 47
47 62 54
46 61 52
47 61 51
48 63 56
48 64 57
50 67 62
49 64 54
52 69 64
51 66 60
51 68 58
51 68 59
51 69 59
52 70 62
53 72 64
53 72 67
54 72 67
53 73 69
54 74 71
55 75 71
137 136 95
185 176 114
185 176 114
185 176 114
185 176 114
185 176 114
185 176 114
185 176 114
185 176 114
185 176 114
185 176 114
185 176 114
185 176 114
185 176 114
185 176 114
185 176 114
185 176 114
185 176 114
185 176 114
185 176 114
185 176 114
186 176 114
186 176 114
186 176 114
186 176 114
186 176 114
186 177 114
186 177 114
186 177 114
186 177 114
186 177 114
186 177 114
186 177 114
186 177 114
186 177 114
186 177 114
186 177 114
186 177 114
186 177 114
186 177 114
187 177 114
187 177 114
187 177 114
187 177 114
187 177 114
187 177 114
187 177 114
187 177 114
187 177 114
187 177 114
187 177 114
187 177 114
187 177 114
187 177 114
187 177 114
187 177 114
187 177 114
187 177 114
188 177 114
188 177 114
188 177 114
188 178 114
188 178 114
188 178 114
188 178 114
188 178 114
188 178 114
188 178 114
188 178 114
188 178 114
188 178 114
188 178 114
188 178 114
189 178 114
189 178 114
189 178 114
189 178 114
189 178 114
189 178 114
189 178 114
189 178 114
189 178 114
189 178 114
189 178 114
189 178 114
189 178 114
189 178 114
189 178 114
189 178 114
190 178 114
190 178 114
190 178 114
190 178 114
190 178 114
190 179 114
190 179 114
190 179 114
190 179 114
190 179 114
190 179 114
190 179 114
190 179 114
190 179 114
190 179 114
191 179 114
191 179 114
191 179 114
191 179 114
191 179 114
191 179 114
191 179 114
191 179 114
191 179 114
191 179 114
191 179 114
191 179 114
191 179 114
191 179 114
191 179 114
192 207 228
192 207 228
192 207 228
192 207 228
192 207 228
192 207 228
192 207 228
192 207 228
191 207 228
191 207 228
191 207 228
191 207 228
191 207 228
191 207 228
191 207 228
191 207 228
191 207 228
191 207 228
191 207 228
191 207 228
191 207 228
191 207 228
191 207 228
191 207 228
191 207 228
190 207 228
190 206 228
190 206 228
190 206 228
190 206 228
190 206 228
190 206 228
190 206 228
190 206 228
190 206 228
190 206 228
190 206 228
190 206 228
190 206 228
190 206 228
190 206 228
190 206 228
189 206 228
189 206 228
189 206 228
189 206 228
189 206 228
189 206 228
189 206 228
189 206 228
189 206 228
189 206 228
189 206 228
189 206 228
189 206 228
189 206 228
189 206 228
189 205 228
189 205 228
189 205 228
188 205 228
188 205 228
188 205 228
188 205 228
188 205 228
188 205 228
188 205 228
188 205 228
188 205 228
188 205 228
188 205 228
188 205 228
188 205 228
188 205 228
188 205 228
188 205 228
188 205 228
187 205 228
187 205 228
187 205 228
187 205 228
187 205 228
187 205 228
187 205 228
187 205 228
187 205 228
187 205 228
187 205 228
187 205 228
187 205 228
187 205 228
187 204 228
187 204 228
187 204 228
187 204 228
187 204 228
187 204 228
187 204 228
187 204 228
186 204 228
186 204 228
186 204 228
186 204 228
186 204 228
186 204 228
186 204 228
186 204 228
186 204 228
186 204 228
186 204 228
186 204 228
186 204 228
186 204 228
186 204 228
186 204 228
186 204 228
186 204 228
182 200 224
72 100 153
54 86 139
53 84 133
54 86 139
54 85 137
53 84 135
52 84 142
52 83 134
51 82 138
52 83 136
51 81 136
50 80 131
50 79 135
50 80 134
49 79 131
48 76 130
47 75 130
48 77 133
46 74 132
44 71 127
44 71 126
43 70 124
42 69 126
39 64 120
40 66 124
42 68 125
71 92 142
186 202 225
192 207 228
198 213 234
218 234 255
178 195 221
57 90 145
55 88 142
56 89 137
57 90 147
57 91 145
59 93 148
59 94 151
59 93 143
60 95 142
59 93 146
59 94 147
59 93 142
59 94 144
60 95 149
59 94 146
59 94 144
61 96 145
60 94 141
60 95 143
61 96 150
61 96 152
60 95 140
58 92 133
60 94 137
60 95 140
60 95 142
60 95 141
61 95 148
59 94 138
60 95 136
60 95 147
61 96 147
61 95 141
60 95 145
60 95 142
61 96 143
60 95 138
60 95 139
60 96 141
60 95 139
60 95 140
60 95 143
60 95 140
62 97 151
62 98 155
60 95 141
60 94 136
61 96 145
61 96 139
60 94 141
61 96 145
60 95 143
61 96 143
60 95 132
62 97 152
61 96 144
60 95 141
62 97 150
60 95 143
61 96 140
61 95 134
61 96 141
60 95 138
61 95 143
61 97 147
61 96 140
59 94 143
60 94 136
61 96 143
61 95 145
60 95 142
61 96 140
60 94 137
60 95 138
59 94 141
61 96 146
60 95 143
59 93 134
60 94 138
60 95 148
60 93 132
59 93 135
61 95 146
60 94 135
60 94 138
59 92 132
60 93 138
60 93 142
59 91 137
59 92 141
60 93 141
60 93 138
59 91 135
57 89 117
57 87 121
57 89 126
57 87 133
58 89 132
56 85 124
53 81 116
165 181 203
218 234 255
199 193 156
192 179 114
189 177 113
63 72 57
40 52 44
40 52 43
43 56 48
44 57 50
42 55 46
44 58 48
44 57 46
43 56 47
47 62 56
46 62 56
50 66 59
49 64 57
51 67 58
50 67 60
50 67 58
50 66 57
51 68 57
53 71 63
53 71 63
53 71 64
53 71 60
53 71 62
53 71 61
54 73 68
54 73 68
69 84 70
182 173 112
186 177 114
186 177 114
186 177 114
186 177 114
186 177 114
186 177 114
186 177 114
186 177 114
186 177 114
186 177 114
186 177 114
186 177 114
186 177 114
186 177 114
186 177 114
186 177 114
186 177 114
186 177 114
187 177 114
187 177 114
187 177 114
187 177 114
187 177 114
187 177 114
187 177 114
187 177 114
187 177 114
187 177 114
187 177 114
187 177 114
187 177 114
187 177 114
187 177 114
187 177 114
187 177 114
187 177 114
187 177 114
187 177 114
187 177 114
187 177 114
187 177 114
188 177 114
188 177 114
188 177 114
188 177 114
188 178 114
188 178 114
188 178 114
188 178 114
188 178 114
188 178 114
188 178 114
188 178 114
188 178 114
188 178 114
188 178 114
188 178 114
189 178 114
189 178 114
189 178 114
189 178 114
189 178 114
189 178 114
189 178 114
189 178 114
189 178 114
189 178 114
189 178 114
189 178 114
189 178 114
189 178 114
189 178 114
189 178 114
189 178 114
189 178 114
190 178 114
190 178 114
190 178 114
190 178 114
190 178 114
190 178 114
190 179 114
190 179 114
190 179 114
190 179 114
190 179 114
190 179 114
190 179 114
190 179 114
190 179 114
190 179 114
190 179 114
191 179 114
191 179 114
191 179 114
191 179 114
191 179 114
191 179 114
191 179 114
191 179 114
191 179 114
191 179 114
191 179 114
191 179 114
191 179 114
191 179 114
191 179 114
191 179 114
191 179 114
192 179 114
192 179 114
192 179 114
192 179 114
192 179 114
192 179 114
192 179 114
192 179 114
192 208 228
192 208 228
192 208 228
192 208 228
192 207 228
192 207 228
192 207 228
192 207 228
192 207 228
192 207 228
192 207 228
192 207 228
192 207 228
192 207 228
192 207 228
192 207 228
192 207 228
192 207 228
192 207 228
191 207 228
191 207 228
191 207 228
191 207 228
191 207 228
191 207 228
191 207 228
191 207 228
191 207 228
191 207 228
191 207 228
191 207 228
191 207 228
191 207 228
191 207 228
191 207 228
191 207 228
191 207 228
191 207 228
190 207 228
190 206 228
190 206 228
190 206 228
190 206 228
190 206 228
190 206 228
190 206 228
190 206 228
190 206 228
190 206 228
190 206 228
190 206 228
190 206 228
190 206 228
190 206 228
190 206 228
190 206 228
190 206 228
189 206 228
189 206 228
189 206 228
189 206 228
189 206 228
189 206 228
189 206 228
189 206 228
189 206 228
189 206 228
189 206 228
189 206 228
189 206 228
189 206 228
189 206 228
189 206 228
189 205 228
189 205 228
189 205 228
188 205 228
188 205 228
188 205 228
188 205 228
188 205 228
188 205 228
188 205 228
188 205 228
188 205 228
188 205 228
188 205 228
188 205 228
188 205 228
188 205 228
188 205 228
188 205 228
188 205 228
188 205 228
188 205 228
188 205 228
188 205 228
188 205 228
188 205 228
187 205 228
187 205 228
187 205 228
187 205 228
187 205 228
187 205 228
187 205 228
187 205 228
187 205 228
187 205 228
187 205 228
187 205 228
187 205 228
187 205 228
187 205 228
187 205 228
187 205 228
187 205 228
149 168 200
55 87 139
55 87 141
54 85 137
54 86 140
54 85 140
52 83 130
53 83 138
52 82 139
51 82 135
52 83 136
50 80 132
50 81 128
50 80 129
49 78 134
48 77 122
46 74 125
46 74 125
47 75 130
47 76 133
45 73 129
43 69 121
42 69 121
42 69 127
43 70 130
40 66 117
38 63 117
41 67 127
129 145 178
192 207 228
193 208 228
217 233 254
148 166 197
55 88 139
56 89 142
56 90 146
57 91 140
56 89 131
58 93 145
58 92 138
59 93 140
59 94 145
59 93 141
58 91 133
59 93 139
60 95 145
59 94 148
60 94 135
60 95 140
61 95 138
60 95 140
59 94 139
60 95 145
62 97 150
60 94 136
60 95 140
60 96 144
59 94 140
59 94 138
60 95 143
60 95 135
61 96 148
60 95 143
60 96 150
59 94 131
61 97 149
60 95 131
61 96 146
61 96 145
61 96 143
61 96 144
60 95 139
61 96 136
61 95 151
61 96 141
60 95 138
62 97 150
60 95 137
62 97 149
60 95 137
60 95 142
60 95 139
60 95 142
61 96 141
61 96 145
61 96 152
60 94 135
61 96 145
59 94 134
60 95 139
60 95 142
61 96 149
61 96 151
59 93 139
60 94 140
59 93 133
60 95 139
61 96 145
61 96 144
59 94 138
60 95 145
59 93 136
61 95 140
60 94 139
59 94 142
60 94 141
61 95 142
61 96 148
60 93 135
60 95 140
61 96 147
60 94 143
58 92 131
61 95 143
60 94 135
59 93 137
61 95 142
59 92 136
59 93 137
59 92 136
60 93 142
59 91 132
59 90 137
60 94 140
60 93 138
59 93 138
58 90 129
57 89 126
58 90 136
57 87 126
55 85 121
57 87 124
56 85 122
130 146 172
217 231 250
194 181 116
192 180 114
147 140 91
40 52 45
38 49 40
38 50 45
40 53 46
42 55 50
40 52 40
45 60 50
44 58 51
48 63 54
47 62 54
48 63 57
48 62 51
48 63 56
50 66 58
51 67 59
51 67 58
50 66 58
51 68 56
52 70 66
51 68 58
53 70 62
53 71 64
53 71 65
55 74 68
54 73 64
55 74 68
55 75 69
140 137 93
187 177 114
187 177 114
187 177 114
187 177 114
187 177 114
187 177 114
187 177 114
187 177 114
187 177 114
187 177 114
187 177 114
187 177 114
187 177 114
187 177 114
187 177 114
187 177 114
187 177 114
188 177 114
188 177 114
188 177 114
188 177 114
188 177 114
188 177 114
188 177 114
188 177 114
188 178 114
188 178 114
188 178 114
188 178 114
188 178 114
188 178 114
188 178 114
188 178 114
188 178 114
188 178 114
188 178 114
188 178 114
188 178 114
188 178 114
188 178 114
188 178 114
189 178 114
189 178 114
189 178 114
189 178 114
189 178 114
189 178 114
189 178 114
189 178 114
189 178 114
189 178 114
189 178 114
189 178 114
189 178 114
189 178 114
189 178 114
189 178 114
189 178 114
189 178 114
189 178 114
190 178 114
190 178 114
190 178 114
190 178 114
190 178 114
190 178 114
190 178 114
190 178 114
190 179 114
190 179 114
190 179 114
190 179 114
190 179 114
190 179 114
190 179 114
190 179 114
190 179 114
190 179 114
190 179 114
190 179 114
191 179 114
191 179 114
191 179 114
191 179 114
191 179 114
191 179 114
191 179 114
191 179 114
191 179 114
191 179 114
191 179 114
191 179 114
191 179 114
191 179 114
191 179 114
191 179 114
191 179 114
191 179 114
192 179 114
192 179 114
192 179 114
192 179 114
192 179 114
192 179 114
192 179 114
192 179 114
192 179 114
192 180 114
192 179 114
192 180 114
192 180 114
192 180 114
192 180 114
192 180 114
192 180 114
192 180 114
192 180 114
193 208 228
193 208 228
193 208 228
193 208 228
193 208 228
193 208 228
193 208 228
193 208 228
193 208 228
193 208 228
193 208 228
192 208 228
192 208 228
192 208 228
192 208 228
192 208 228
192 207 228
192 207 228
192 207 228
192 207 228
192 207 228
192 207 228
192 207 228
192 207 228
192 207 228
192 207 228
192 207 228
192 207 228
192 207 228
192 207 228
192 207 228
192 207 228
191 207 228
191 207 228
191 207 228
191 207 228
191 207 228
191 207 228
191 207 228
191 207 228
191 207 228
191 207 228
191 207 228
191 207 228
191 207 228
191 207 228
191 207 228
191 207 228
191 207 228
191 207 228
191 207 228
191 207 228
190 207 228
191 207 228
190 206 228
190 206 228
190 206 228
190 206 228
190 206 228
190 206 228
190 206 228
190 206 228
190 206 228
190 206 228
190 206 228
190 206 228
190 206 228
190 206 228
190 206 228
190 206 228
190 206 228
190 206 228
190 206 228
190 206 228
190 206 228
189 206 228
189 206 228
189 206 228
189 206 228
189 206 228
189 206 228
189 206 228
189 206 228
189 206 228
189 206 228
189 206 228
189 206 228
189 206 228
189 206 228
189 206 228
189 206 228
189 206 228
189 206 228
189 206 228
189 206 228
189 206 228
189 206 228
189 205 228
189 205 228
189 205 228
189 205 228
189 205 228
188 205 228
188 205 228
188 205 228
188 205 228
188 205 228
188 205 228
188 205 228
188 205 228
188 205 228
188 205 228
188 205 228
188 205 228
188 205 228
188 205 228
188 205 228
104 126 165
55 87 144
54 86 135
54 86 138
54 85 135
53 85 140
53 85 138
53 84 136
52 82 130
50 80 127
52 83 140
50 80 130
48 77 130
51 81 138
50 80 133
49 78 129
48 77 132
46 74 128
44 72 120
47 75 128
44 72 128
45 72 127
43 70 122
37 61 108
40 66 119
38 63 116
34 57 109
38 62 119
66 85 131
192 208 228
193 208 228
214 229 251
110 129 172
53 84 126
56 90 139
54 86 126
56 90 141
56 89 137
60 94 148
58 93 142
60 95 148
60 95 150
59 94 145
60 94 143
60 95 147
59 93 139
61 96 148
59 94 143
60 94 143
60 95 146
59 94 147
59 94 138
60 94 142
60 95 137
60 95 141
60 95 144
59 93 134
59 93 132
61 97 152
61 96 149
61 96 145
60 95 142
60 95 142
61 96 151
61 96 145
60 95 142
61 97 151
60 95 136
61 96 145
61 97 145
61 96 145
61 96 142
60 95 142
61 96 148
62 98 156
60 95 140
62 98 151
61 96 143
61 96 145
61 96 148
60 95 141
61 96 138
61 96 150
61 97 152
61 96 145
61 96 142
60 94 141
61 96 144
62 97 150
61 96 141
61 95 143
61 95 142
60 93 129
62 97 146
60 96 144
61 95 139
60 94 135
60 94 141
60 95 142
61 95 143
60 95 145
60 95 145
60 95 137
59 93 131
61 96 148
59 94 139
59 93 133
60 94 137
60 95 146
60 94 131
61 95 144
59 92 139
60 94 143
60 95 138
59 93 142
59 94 140
60 94 139
59 91 129
61 95 148
60 92 133
59 92 136
59 93 136
58 90 132
58 91 127
61 94 144
58 89 122
56 87 122
59 91 131
57 87 120
56 87 123
55 86 130
56 86 119
55 83 117
107 124 149
212 220 224
193 180 114
192 180 114
50 57 44
38 50 41
36 48 42
38 51 44
39 51 45
40 52 44
42 55 46
44 57 48
42 55 40
46 61 52
47 62 54
48 63 52
47 63 50
48 63 55
50 65 57
50 66 56
51 68 58
49 65 54
51 68 57
51 69 61
52 70 60
52 71 63
51 68 59
52 70 61
53 72 65
54 72 63
54 73 67
55 74 69
99 105 81
188 178 114
188 178 114
188 178 114
188 178 114
188 178 114
188 178 114
188 178 114
188 178 114
188 178 114
188 178 114
188 178 114
188 178 114
188 178 114
188 178 114
188 178 114
188 178 114
188 178 114
189 178 114
189 178 114
189 178 114
189 178 114
189 178 114
189 178 114
189 178 114
189 178 114
189 178 114
189 178 114
189 178 114
189 178 114
189 178 114
189 178 114
189 178 114
189 178 114
189 178 114
189 178 114
189 178 114
189 178 114
189 178 114
189 178 114
189 178 114
189 178 114
189 178 114
189 178 114
190 178 114
190 178 114
190 178 114
190 178 114
190 178 114
190 178 114
190 178 114
190 178 114
190 179 114
190 179 114
190 179 114
190 179 114
190 179 114
190 179 114
190 179 114
190 179 114
190 179 114
190 179 114
190 179 114
190 179 114
190 179 114
191 179 114
191 179 114
191 179 114
191 179 114
191 179 114
191 179 114
191 179 114
191 179 114
191 179 114
191 179 114
191 179 114
191 179 114
191 179 114
191 179 114
191 179 114
191 179 114
191 179 114
191 179 114
191 179 114
191 179 114
191 179 114
192 179 114
192 179 114
192 179 114
192 179 114
192 179 114
192 179 114
192 179 114
192 179 114
192 179 114
192 179 114
192 180 114
192 180 114
192 180 114
192 180 114
192 180 114
192 180 114
192 180 114
192 180 114
192 180 114
192 180 114
192 180 114
193 180 114
193 180 114
193 180 114
193 180 114
193 180 114
193 180 114
193 180 114
193 180 114
193 180 114
193 180 114
193 180 114
194 208 228
193 208 228
193 208 228
193 208 228
193 208 228
193 208 228
193 208 228
193 208 228
193 208 228
193 208 228
193 208 228
193 208 228
193 208 228
193 208 228
193 208 228
193 208 228
193 208 228
193 208 228
193 208 228
193 208 228
193 208 228
193 208 228
193 208 228
193 208 228
193 208 228
192 208 228
192 208 228
192 208 228
192 208 228
192 208 228
192 208 228
192 208 228
192 207 228
192 207 228
192 207 228
192 207 228
192 207 228
192 207 228
192 207 228
192 207 228
192 207 228
192 207 228
192 207 228
192 207 228
192 207 228
192 207 228
192 207 228
192 207 228
192 207 228
191 207 228
191 207 228
191 207 228
191 207 228
191 207 228
191 207 228
191 207 228
191 207 228
191 207 228
191 207 228
191 207 228
191 207 228
191 207 228
191 207 228
191 207 228
191 207 228
191 207 228
191 207 228
191 207 228
191 207 228
191 207 228
191 207 228
191 207 228
191 207 228
191 207 228
190 206 228
190 206 228
190 206 228
190 206 228
190 206 228
190 206 228
190 206 228
190 206 228
190 206 228
190 206 228
190 206 228
190 206 228
190 206 228
190 206 228
190 206 228
190 206 228
190 206 228
190 206 228
190 206 228
190 206 228
190 206 228
190 206 228
190 206 228
190 206 228
190 206 228
190 206 228
190 206 228
189 206 228
189 206 228
189 206 228
189 206 228
189 206 228
189 206 228
189 206 228
189 206 228
189 206 228
189 206 228
189 206 228
189 206 228
189 206 228
189 206 228
189 206 228
178 195 219
60 90 144
54 85 133
54 86 133
53 85 131
52 82 131
52 82 125
52 82 127
53 84 136
50 80 123
52 82 134
49 78 122
50 80 128
50 80 130
49 79 132
49 79 126
47 75 122
46 74 119
46 75 121
46 73 124
43 70 113
46 74 125
41 67 116
43 70 125
38 63 109
38 63 115
38 63 119
35 59 109
33 55 110
38 62 116
167 183 207
194 208 228
209 223 244
75 99 144
55 88 131
57 90 142
57 91 144
56 89 129
57 90 133
58 93 143
58 93 140
58 92 136
58 92 139
58 92 142
60 94 145
60 94 144
60 94 145
61 96 148
59 94 142
60 95 142
59 94 139
59 93 131
60 95 143
60 95 145
59 94 134
60 94 136
61 96 153
60 94 138
60 94 139
60 95 138
61 96 147
61 96 145
61 96 145
61 96 148
61 96 146
60 95 135
59 94 139
60 95 145
59 94 129
61 96 143
60 94 136
61 96 146
61 95 140
60 95 139
60 95 148
61 96 143
61 96 144
61 96 145
61 96 147
60 95 136
60 95 144
62 97 146
59 94 140
60 95 139
60 95 135
60 95 139
61 96 142
61 96 149
62 97 144
61 95 136
61 96 152
61 96 142
60 95 146
60 94 136
60 95 143
60 95 142
61 95 144
60 95 140
60 94 136
60 94 137
61 95 145
61 96 141
62 97 153
62 96 146
60 95 141
60 95 141
59 93 128
61 95 139
60 95 142
59 93 131
60 94 136
61 96 144
61 96 147
60 95 138
57 91 123
59 93 135
59 93 133
60 93 138
60 94 143
60 93 134
60 94 137
60 93 142
59 92 142
59 92 136
60 93 140
59 91 139
60 92 139
57 88 119
58 89 131
57 89 123
58 89 129
56 85 118
57 88 131
54 80 104
75 95 117
207 209 196
194 180 114
171 160 103
36 48 41
37 48 39
39 51 42
36 47 38
38 49 41
39 50 41
42 55 44
40 53 45
45 58 48
43 57 48
46 59 51
48 63 56
49 64 54
49 63 52
49 64 54
48 64 51
48 64 58
51 67 58
49 65 54
52 69 59
51 69 60
51 68 59
52 71 65
52 71 63
53 72 62
55 74 65
54 73 65
55 75 71
58 77 68
175 166 109
189 178 114
189 178 114
189 178 114
189 178 114
189 178 114
189 178 114
189 178 114
189 178 114
189 178 114
189 178 114
189 178 114
189 178 114
190 178 114
190 178 114
190 178 114
190 178 114
190 178 114
190 178 114
190 178 114
190 178 114
190 178 114
190 178 114
190 178 114
190 178 114
190 178 114
190 178 114
190 178 114
190 178 114
190 179 114
190 179 114
190 179 114
190 179 114
190 179 114
190 179 114
190 179 114
190 179 114
190 179 114
190 179 114
190 179 114
190 179 114
190 179 114
190 179 114
191 179 114
190 179 114
191 179 114
191 179 114
191 179 114
191 179 114
191 179 114
191 179 114
191 179 114
191 179 114
191 179 114
191 179 114
191 179 114
191 179 114
191 179 114
191 179 114
191 179 114
191 179 114
191 179 114
191 179 114
191 179 114
191 179 114
191 179 114
191 179 114
191 179 114
192 179 114
192 179 114
192 179 114
192 179 114
192 179 114
192 179 114
192 179 114
192 179 114
192 179 114
192 179 114
192 179 114
192 179 114
192 180 114
192 180 114
192 180 114
192 180 114
192 180 114
192 180 114
192 180 114
192 180 114
192 180 114
192 180 114
192 180 114
192 180 114
193 180 114
193 180 114
193 180 114
193 180 114
193 180 114
193 180 114
193 180 114
193 180 114
193 180 114
193 180 114
193 180 114
193 180 114
193 180 114
193 180 114
193 180 114
193 180 114
193 180 114
193 180 114
193 180 114
193 180 114
193 180 114
193 180 114
193 180 114
193 180 114
194 180 114
194 208 228
194 208 228
194 208 228
194 208 228
194 208 228
194 208 228
194 208 228
194 208 228
194 208 228
194 208 228
194 208 228
194 208 228
194 208 228
194 208 228
194 208 228
193 208 228
193 208 228
193 208 228
193 208 228
193 208 228
193 208 228
193 208 228
193 208 228
193 208 228
193 208 228
193 208 228
193 208 228
193 208 228
193 208 228
193 208 228
193 208 228
193 208 228
193 208 228
193 208 228
193 208 228
193 208 228
193 208 228
193 208 228
193 208 228
193 208 228
193 208 228
193 208 228
193 208 228
193 208 228
192 208 228
192 208 228
192 208 228
192 208 228
192 208 228
192 208 228
192 207 228
192 207 228
192 207 228
192 207 228
192 207 228
192 207 228
192 207 228
192 207 228
192 207 228
192 207 228
192 207 228
192 207 228
192 207 228
192 207 228
192 207 228
192 207 228
192 207 228
192 207 228
192 207 228
192 207 228
191 207 228
191 207 228
191 207 228
191 207 228
191 207 228
191 207 228
191 207 228
191 207 228
191 207 228
191 207 228
191 207 228
191 207 228
191 207 228
191 207 228
191 207 228
191 207 228
191 207 228
191 207 228
191 207 228
191 207 228
191 207 228
191 207 228
191 207 228
191 207 228
191 207 228
191 207 228
191 207 228
191 207 228
191 207 228
191 207 228
191 207 228
191 207 228
191 207 228
191 207 228
190 207 228
190 207 228
190 207 228
190 206 228
190 206 228
190 206 228
190 206 228
190 206 228
190 206 228
190 206 228
190 206 228
190 206 228
158 175 201
54 86 128
55 87 142
53 83 128
53 84 124
54 85 128
53 84 134
51 82 122
51 81 127
53 83 127
51 81 127
49 78 122
48 76 115
49 78 120
49 77 118
48 77 125
48 77 126
46 74 125
48 76 123
44 71 119
45 72 123
41 66 112
41 67 120
40 65 112
39 64 111
38 63 116
36 59 110
35 57 108
34 57 109
35 58 108
131 146 175
194 208 228
198 213 233
52 83 133
54 86 132
54 86 129
56 89 139
56 89 127
58 92 142
58 92 142
58 92 142
58 92 138
58 92 140
58 92 133
59 93 140
59 93 135
59 93 137
60 95 143
59 94 139
60 94 137
59 94 136
59 94 141
61 95 139
59 93 134
59 94 143
59 94 140
60 94 138
60 95 142
59 93 130
58 91 130
59 93 132
60 95 145
58 93 128
59 93 132
61 96 144
60 94 140
60 94 137
61 96 149
61 96 147
61 96 140
60 95 137
60 94 140
60 95 141
61 95 137
60 95 145
61 96 145
60 95 143
62 97 151
61 96 147
59 93 126
61 96 142
60 95 137
60 94 125
61 96 145
60 95 143
61 96 150
59 93 139
60 95 138
60 95 134
61 97 148
61 96 140
61 96 142
59 94 135
61 95 138
59 94 134
60 94 131
61 95 144
61 95 139
60 94 135
60 95 142
59 92 129
60 94 135
61 95 141
59 93 133
60 94 136
60 94 134
60 94 139
60 94 137
61 96 145
60 94 137
61 95 139
59 93 132
58 91 121
60 93 144
59 93 136
59 93 138
59 90 118
60 93 135
59 92 127
59 91 131
61 94 133
58 90 130
60 94 144
59 91 134
58 90 123
58 91 134
59 91 136
59 91 136
58 89 128
57 89 126
55 86 124
56 86 118
55 84 117
56 84 113
50 77 111
197 190 151
194 180 114
128 122 80
32 42 32
33 43 36
37 48 40
39 51 43
37 49 41
38 50 39
40 53 41
43 55 43
43 57 47
44 57 41
44 57 47
44 56 44
46 61 50
48 62 51
48 63 53
49 65 55
49 65 52
51 67 57
50 67 53
50 67 56
52 69 59
53 71 62
53 71 60
53 72 64
54 72 64
52 71 60
54 73 65
55 74 66
54 74 67
154 149 101
190 179 114
190 179 114
190 179 114
190 179 114
190 179 114
190 179 114
190 179 114
190 179 114
190 179 114
191 179 114
190 179 114
190 179 114
190 179 114
191 179 114
191 179 114
191 179 114
191 179 114
191 179 114
191 179 114
191 179 114
191 179 114
191 179 114
191 179 114
191 179 114
191 179 114
191 179 114
191 179 114
191 179 114
191 179 114
191 179 114
191 179 114
191 179 114
191 179 114
191 179 114
191 179 114
191 179 114
191 179 114
191 179 114
191 179 114
191 179 114
191 179 114
191 179 114
191 179 114
191 179 114
191 179 114
191 179 114
192 179 114
192 179 114
192 179 114
192 179 114
192 179 114
192 179 114
192 179 114
192 179 114
192 179 114
192 179 114
192 179 114
192 179 114
192 179 114
192 180 114
192 180 114
192 180 114
192 180 114
192 180 114
192 180 114
192 180 114
192 180 114
192 180 114
192 180 114
192 180 114
192 180 114
192 180 114
192 180 114
193 180 114
193 180 114
193 180 114
193 180 114
193 180 114
193 180 114
193 180 114
193 180 114
193 180 114
193 180 114
193 180 114
193 180 114
193 180 114
193 180 114
193 180 114
193 180 114
193 180 114
193 180 114
193 180 114
193 180 114
193 180 114
193 180 114
193 180 114
193 180 114
193 180 114
193 180 114
193 180 114
194 180 114
194 180 114
194 180 114
194 180 114
194 180 114
194 180 114
194 180 114
194 180 114
194 180 114
194 180 114
194 180 114
194 180 114
194 180 114
194 180 114
194 180 114
194 180 114
195 209 228
195 209 228
195 209 228
195 209 228
194 209 228
194 209 228
194 209 228
194 209 228
194 209 228
194 209 228
194 209 228
194 209 228
194 209 228
194 209 228
194 209 228
194 209 228
194 209 228
194 209 228
194 209 228
194 208 228
194 208 228
194 208 228
194 208 228
194 208 228
194 208 228
194 208 228
194 208 228
194 208 228
194 208 228
194 208 228
194 208 228
194 208 228
194 208 228
194 208 228
194 208 228
194 208 228
193 208 228
193 208 228
193 208 228
193 208 228
193 208 228
193 208 228
193 208 228
193 208 228
193 208 228
193 208 228
193 208 228
193 208 228
193 208 228
193 208 228
193 208 228
193 208 228
193 208 228
193 208 228
193 208 228
193 208 228
193 208 228
193 208 228
193 208 228
193 208 228
193 208 228
193 208 228
193 208 228
193 208 228
193 208 228
193 208 228
193 208 228
192 208 228
192 208 228
192 208 228
192 208 228
192 208 228
192 208 228
192 208 228
192 208 228
192 208 228
192 208 228
192 207 228
192 207 228
192 207 228
192 207 228
192 207 228
192 207 228
192 207 228
192 207 228
192 207 228
192 207 228
192 207 228
192 207 228
192 207 228
192 207 228
192 207 228
192 207 228
192 207 228
192 207 228
192 207 228
192 207 228
192 207 228
192 207 228
192 207 228
192 207 228
192 207 228
192 207 228
192 207 228
192 207 228
192 207 228
192 207 228
192 207 228
191 207 228
191 207 228
192 207 228
192 207 228
191 207 228
191 207 228
191 207 228
187 200 212
125 132 132
54 85 136
53 84 123
52 83 127
54 86 136
54 85 133
52 82 125
53 83 134
52 82 128
51 82 127
51 81 123
50 79 120
51 81 131
51 80 128
49 78 126
46 75 120
47 75 117
46 74 119
47 74 121
44 71 110
43 70 119
44 71 122
41 66 112
39 63 112
37 61 107
38 62 109
35 58 104
36 60 107
31 51 98
34 56 103
73 89 127
194 209 228
177 191 213
48 77 117
52 84 114
55 88 135
56 89 126
58 92 143
57 90 139
59 93 142
59 94 150
59 93 142
59 93 147
59 94 140
58 92 135
58 92 129
58 92 139
60 95 144
61 96 143
59 94 137
59 94 135
59 93 142
58 92 133
60 94 142
60 95 145
59 93 133
60 94 142
58 92 131
60 95 134
59 94 134
59 93 133
61 95 150
60 95 143
59 94 136
59 94 131
60 95 137
60 95 138
61 96 136
59 94 134
60 95 138
60 94 132
60 95 140
60 95 140
61 96 142
60 94 139
60 94 132
59 94 130
59 94 141
59 94 136
60 94 136
60 95 141
60 95 137
60 94 141
60 95 143
60 95 143
60 95 143
60 95 140
60 94 136
59 93 137
61 97 145
59 93 132
59 94 133
61 96 146
61 95 134
60 95 138
61 95 146
60 94 134
60 95 139
61 95 145
61 96 149
60 95 138
61 95 139
59 93 134
60 94 134
61 96 146
60 94 144
61 95 147
61 95 143
59 93 139
60 94 133
61 95 149
59 93 132
60 94 135
60 94 135
61 95 142
60 94 137
59 93 134
59 92 134
59 93 131
59 92 138
59 92 132
59 92 136
59 92 132
59 91 134
59 91 123
58 90 127
57 89 125
57 89 129
58 90 130
57 87 128
56 86 130
55 84 113
56 87 130
53 82 119
52 78 105
175 165 114
194 181 114
76 77 53
31 41 36
32 42 33
36 46 33
39 50 41
36 47 39
40 52 42
40 53 45
43 56 46
43 56 46
42 54 41
43 57 43
45 59 49
48 63 49
47 62 52
48 63 50
47 61 48
51 68 58
49 64 51
50 65 52
52 69 60
51 68 58
52 69 61
52 69 60
53 71 61
53 71 63
54 72 61
54 72 64
54 73 63
54 74 64
111 114 81
188 177 113
191 179 114
191 179 114
191 179 114
191 179 114
191 179 114
191 179 114
191 179 114
191 179 114
192 179 114
192 179 114
192 179 114
192 179 114
192 179 114
192 179 114
192 179 114
192 179 114
192 179 114
192 179 114
192 179 114
192 179 114
192 179 114
192 179 114
192 179 114
192 179 114
192 179 114
192 179 114
192 179 114
192 179 114
192 179 114
192 180 114
192 180 114
192 180 114
192 180 114
192 180 114
192 180 114
192 180 114
192 180 114
192 180 114
192 180 114
192 180 114
192 180 114
192 180 114
192 180 114
192 180 114
192 180 114
192 180 114
192 180 114
192 180 114
193 180 114
193 180 114
193 180 114
193 180 114
193 180 114
193 180 114
193 180 114
193 180 114
193 180 114
193 180 114
193 180 114
193 180 114
193 180 114
193 180 114
193 180 114
193 180 114
193 180 114
193 180 114
193 180 114
193 180 114
193 180 114
193 180 114
193 180 114
193 180 114
193 180 114
193 180 114
193 180 114
193 180 114
193 180 114
193 180 114
193 180 114
194 180 114
194 180 114
194 180 114
194 180 114
194 180 114
194 180 114
194 180 114
194 180 114
194 180 114
194 180 114
194 180 114
194 180 114
194 180 114
194 180 114
194 180 114
194 180 114
194 180 114
194 180 114
194 180 114
194 180 114
194 181 114
194 181 114
194 181 114
194 181 114
194 181 114
194 181 114
194 181 114
194 181 114
194 181 114
194 181 114
194 181 114
194 181 114
194 181 114
195 181 114
195 181 114
195 181 114
195 209 228
195 209 228
195 209 228
195 209 228
195 209 228
195 209 228
195 209 228
195 209 228
195 209 228
195 209 228
195 209 228
195 209 228
195 209 228
195 209 228
195 209 228
195 209 228
195 209 228
195 209 228
195 209 228
195 209 228
195 209 228
195 209 228
195 209 228
195 209 228
195 209 228
194 209 228
194 209 228
194 209 228
194 209 228
194 209 228
194 209 228
194 209 228
194 209 228
194 209 228
194 209 228
194 209 228
194 209 228
194 209 228
194 209 228
194 209 228
194 209 228
194 208 228
194 208 228
194 208 228
194 208 228
194 208 228
194 208 228
194 208 228
194 208 228
194 208 228
194 208 228
194 208 228
194 208 228
194 208 228
194 208 228
194 208 228
194 208 228
194 208 228
194 208 228
194 208 228
194 208 228
194 208 228
194 208 228
194 208 228
193 208 228
193 208 228
193 208 228
193 208 228
193 208 228
193 208 228
193 208 228
193 208 228
193 208 228
193 208 228
193 208 228
193 208 228
193 208 228
193 208 228
193 208 228
193 208 228
193 208 228
193 208 228
193 208 228
193 208 228
193 208 228
193 208 228
193 208 228
193 208 228
193 208 228
193 208 228
193 208 228
193 208 228
193 208 228
193 208 228
193 208 228
193 208 228
193 208 228
193 208 228
193 208 228
193 208 228
193 208 228
193 208 228
193 208 228
193 208 228
193 208 228
193 208 228
193 208 228
193 208 228
193 208 228
193 208 228
193 208 228
193 208 228
193 208 228
193 208 228
193 208 228
172 172 147
93 107 120
53 84 126
54 86 130
53 84 130
53 83 127
54 85 131
53 84 138
52 82 127
51 81 121
52 82 129
50 79 116
51 81 132
49 78 123
49 78 121
48 76 116
47 75 120
48 77 118
48 76 118
43 70 114
43 70 117
46 73 120
43 68 112
40 65 110
40 65 108
40 65 114
37 60 106
36 59 99
33 55 102
32 53 99
31 52 96
31 51 98
186 200 219
159 174 195
50 80 131
54 86 132
54 87 131
55 87 129
56 88 142
57 90 133
59 93 142
57 90 135
58 92 133
59 93 135
59 93 137
58 92 130
59 93 130
58 93 136
60 94 143
59 94 138
60 95 140
61 97 153
60 94 137
60 94 136
60 94 139
59 94 146
60 94 142
59 94 138
60 95 141
59 94 137
61 97 151
61 96 140
61 96 149
60 95 142
61 96 146
60 94 138
60 95 136
60 95 139
61 95 141
61 96 146
60 95 139
61 96 141
60 95 134
60 94 139
59 94 131
60 95 136
59 94 134
62 97 149
59 93 133
60 95 139
59 94 131
59 93 135
61 96 144
59 93 140
60 95 142
61 96 139
58 92 130
61 95 146
59 93 133
60 95 144
60 95 141
61 96 143
59 94 129
61 96 139
60 95 138
60 95 143
61 96 145
60 95 134
60 94 140
60 94 134
61 95 144
61 96 149
61 95 146
60 95 134
61 95 138
60 95 143
61 95 143
60 95 145
60 94 134
60 95 134
59 93 134
59 93 137
59 92 132
59 93 133
58 90 126
58 91 133
59 93 134
58 91 131
58 91 132
59 92 132
61 94 142
60 93 134
58 91 128
60 93 138
59 93 135
58 90 125
58 91 132
58 90 126
57 88 134
58 90 123
57 88 128
57 88 129
56 86 118
56 86 123
54 82 115
52 78 104
160 152 107
183 171 108
38 46 34
32 42 34
29 37 26
36 47 37
34 44 35
37 47 36
39 50 34
41 54 45
39 50 37
42 55 43
43 56 43
46 60 47
45 58 45
45 59 44
46 60 49
48 64 54
47 62 51
48 63 53
50 66 54
52 68 61
52 69 57
50 66 54
52 70 56
52 70 63
53 70 54
52 70 59
53 72 63
54 73 62
52 71 57
54 73 67
91 99 75
171 162 104
193 180 114
193 180 114
193 180 114
193 180 114
192 180 114
193 180 114
193 180 114
193 180 114
193 180 114
193 180 114
193 180 114
193 180 114
193 180 114
193 180 114
193 180 114
193 180 114
193 180 114
193 180 114
193 180 114
193 180 114
193 180 114
193 180 114
193 180 114
193 180 114
193 180 114
193 180 114
193 180 114
193 180 114
193 180 114
193 180 114
193 180 114
193 180 114
193 180 114
193 180 114
193 180 114
193 180 114
193 180 114
193 180 114
193 180 114
193 180 114
193 180 114
193 180 114
193 180 114
193 180 114
193 180 114
193 180 114
193 180 114
193 180 114
193 180 114
193 180 114
193 180 114
194 180 114
193 180 114
194 180 114
194 180 114
194 180 114
194 180 114
194 180 114
194 180 114
194 180 114
194 180 114
194 180 114
194 180 114
194 180 114
194 180 114
194 180 114
194 180 114
194 180 114
194 180 114
194 180 114
194 180 114
194 180 114
194 180 114
194 181 114
194 181 114
194 181 114
194 181 114
194 181 114
194 181 114
194 181 114
194 181 114
194 181 114
194 181 114
194 181 114
194 181 114
194 181 114
194 181 114
194 181 114
194 181 114
194 181 114
195 181 114
195 181 114
195 181 114
195 181 114
195 181 114
195 181 114
195 181 114
195 181 114
195 181 114
195 181 114
195 181 114
195 181 114
195 181 114
195 181 114
195 181 114
195 181 114
195 181 114
195 181 114
195 181 114
195 181 114
195 181 114
195 181 114
195 181 114
195 181 114
195 181 114
196 209 228
196 209 228
196 209 228
196 209 228
196 209 228
196 209 228
196 209 228
195 209 228
195 209 228
195 209 228
195 209 228
195 209 228
195 209 228
195 209 228
195 209 228
195 209 228
195 209 228
195 209 228
195 209 228
195 209 228
195 209 228
195 209 228
195 209 228
195 209 228
195 209 228
195 209 228
195 209 228
195 209 228
195 209 228
195 209 228
195 209 228
195 209 228
195 209 228
195 209 228
195 209 228
195 209 228
195 209 228
195 209 228
195 209 228
195 209 228
195 209 228
195 209 228
195 209 228
195 209 228
195 209 228
195 209 228
195 209 228
195 209 228
195 209 228
195 209 228
195 209 228
195 209 228
195 209 228
195 209 228
195 209 228
194 209 228
195 209 228
194 209 228
194 209 228
194 209 228
194 209 228
194 209 228
194 209 228
194 209 228
194 209 228
194 209 228
194 209 228
194 209 228
194 209 228
194 209 228
194 209 228
194 209 228
194 209 228
194 209 228
194 209 228
194 209 228
194 209 228
194 208 228
194 209 228
194 208 228
194 209 228
194 208 228
194 208 228
194 208 228
194 208 228
194 208 228
194 208 228
194 208 228
194 208 228
194 208 228
194 208 228
194 208 228
194 208 228
194 208 228
194 208 228
194 208 228
194 208 228
194 208 228
194 208 228
194 208 228
194 208 228
194 208 228
194 208 228
194 208 228
194 208 228
194 208 228
194 208 228
194 208 228
194 208 228
194 208 228
194 208 228
194 208 228
194 208 228
194 208 228
188 198 207
164 157 102
65 91 130
54 85 135
54 86 134
53 84 134
54 85 133
51 81 115
51 81 120
50 80 118
52 82 126
52 83 130
51 81 126
49 78 116
49 78 114
47 75 121
48 77 120
47 75 115
46 73 114
46 74 117
45 72 118
43 69 107
43 69 110
42 67 105
38 63 100
37 60 98
37 61 98
40 64 106
33 55 98
30 50 95
27 46 88
26 45 88
28 46 85
166 180 200
152 167 196
49 79 127
55 87 135
54 86 127
57 90 126
57 91 137
57 90 143
57 90 136
57 91 131
58 92 129
59 93 140
60 94 145
58 92 129
58 93 136
59 93 138
58 92 140
58 92 133
59 93 133
59 93 136
58 93 129
60 94 142
59 93 136
59 94 134
58 92 126
60 95 139
58 92 124
59 93 137
59 94 135
60 94 135
61 96 151
61 97 149
59 93 131
61 96 139
60 94 136
61 95 141
60 94 135
60 94 136
62 97 148
59 94 135
60 94 133
60 95 135
60 94 134
60 95 145
60 94 141
60 95 141
59 93 134
60 95 140
60 95 137
60 94 136
59 94 134
60 95 141
60 95 136
60 94 129
61 96 147
60 95 136
60 94 144
61 96 150
58 92 122
59 94 126
60 94 130
60 94 135
60 95 140
61 96 148
61 95 140
61 95 135
60 94 137
60 95 141
61 96 144
60 93 137
61 95 143
60 94 135
59 93 139
60 93 136
60 94 137
60 94 129
60 93 143
61 95 145
59 94 139
60 94 133
58 92 135
60 94 141
60 94 136
60 94 134
58 91 117
59 92 130
60 94 140
59 93 136
59 92 131
58 91 129
59 93 135
59 92 134
59 93 139
59 92 134
58 91 132
59 92 134
58 89 131
57 87 116
58 89 129
57 87 126
57 88 126
56 85 125
52 80 108
50 76 96
162 154 109
160 150 95
29 38 27
29 36 24
32 43 38
29 37 27
33 43 33
38 49 38
36 48 39
39 51 38
41 53 40
42 55 45
44 57 46
44 57 44
45 59 47
47 63 49
46 59 45
47 62 52
45 59 46
49 65 51
49 66 54
48 63 48
51 67 54
51 69 55
51 68 57
53 71 60
51 68 52
53 71 59
52 71 60
51 69 55
54 73 61
54 73 62
66 81 66
163 156 102
185 173 110
194 180 114
194 180 114
194 180 114
194 180 114
194 180 114
194 180 114
194 180 114
194 180 114
194 180 114
194 180 114
194 180 114
194 180 114
194 180 114
194 180 114
194 180 114
194 180 114
194 180 114
194 180 114
194 180 114
194 180 114
194 180 114
194 180 114
194 180 114
194 180 114
194 180 114
194 180 114
194 180 114
194 180 114
194 180 114
194 180 114
194 180 114
194 180 114
194 180 114
194 180 114
194 180 114
194 181 114
194 181 114
194 181 114
194 181 114
194 181 114
194 181 114
194 181 114
194 181 114
194 181 114
194 181 114
194 181 114
194 181 114
194 181 114
194 181 114
194 181 114
194 181 114
194 181 114
194 181 114
194 181 114
194 181 114
194 181 114
194 181 114
195 181 114
195 181 114
195 181 114
195 181 114
195 181 114
195 181 114
195 181 114
195 181 114
195 181 114
195 181 114
195 181 114
195 181 114
195 181 114
195 181 114
195 181 114
195 181 114
195 181 114
195 181 114
195 181 114
195 181 114
195 181 114
195 181 114
195 181 114
195 181 114
195 181 114
195 181 114
195 181 114
195 181 114
195 181 114
195 181 114
195 181 114
195 181 114
195 181 114
195 181 114
195 181 114
195 181 114
195 181 114
195 181 114
195 181 114
195 181 114
195 181 114
195 181 114
195 181 114
195 181 114
195 181 114
195 181 114
195 181 114
195 181 114
195 181 114
196 181 114
196 181 114
196 181 114
196 181 114
196 181 114
196 181 114
196 181 114
196 181 114
196 210 228
196 210 228
196 210 228
196 210 228
196 210 228
196 210 228
196 210 228
196 210 228
196 210 228
196 210 228
196 210 228
196 210 228
196 210 228
196 210 228
196 210 228
196 210 228
196 210 228
196 210 228
196 210 228
196 210 228
196 210 228
196 210 228
196 210 228
196 209 228
196 210 228
196 209 228
196 209 228
196 209 228
196 209 228
196 209 228
196 209 228
196 209 228
196 209 228
196 209 228
196 209 228
196 209 228
196 209 228
196 209 228
196 209 228
196 209 228
196 209 228
196 209 228
196 209 228
196 209 228
196 209 228
196 209 228
195 209 228
195 209 228
195 209 228
195 209 228
195 209 228
195 209 228
195 209 228
195 209 228
195 209 228
195 209 228
195 209 228
195 209 228
195 209 228
195 209 228
195 209 228
195 209 228
195 209 228
195 209 228
195 209 228
195 209 228
195 209 228
195 209 228
195 209 228
195 209 228
195 209 228
195 209 228
195 209 228
195 209 228
195 209 228
195 209 228
195 209 228
195 209 228
195 209 228
195 209 228
195 209 228
195 209 228
195 209 228
195 209 228
195 209 228
195 209 228
195 209 228
195 209 228
195 209 228
195 209 228
195 209 228
195 209 228
195 209 228
195 209 228
195 209 228
195 209 228
195 209 228
195 209 228
195 209 228
195 209 228
195 209 228
195 209 228
195 209 228
195 209 228
195 209 228
195 209 228
195 209 228
195 209 228
195 209 228
195 209 228
195 209 228
195 209 228
195 209 228
195 209 228
176 173 143
158 152 104
53 84 124
54 86 131
52 83 118
53 84 127
53 84 134
52 82 128
52 82 117
51 81 126
50 80 119
50 80 118
50 79 117
49 78 121
48 76 111
49 77 121
50 79 123
49 78 120
46 73 114
42 69 109
46 73 116
44 70 116
43 69 113
42 67 106
38 62 100
40 64 102
41 65 109
33 54 84
29 48 88
27 46 84
30 50 89
28 46 86
30 49 92
147 160 184
143 159 183
53 85 124
55 87 135
57 90 140
54 87 131
56 88 121
57 90 142
58 91 133
57 90 131
57 90 128
59 93 140
58 92 133
58 92 132
58 92 126
60 94 142
59 93 131
58 91 138
59 94 137
59 94 138
59 94 140
60 94 142
59 93 129
60 94 140
60 94 144
59 93 132
61 95 146
60 95 141
61 95 142
60 95 144
58 92 127
60 95 134
61 95 139
59 94 136
61 96 144
60 95 138
60 95 139
60 94 134
60 94 138
59 94 126
60 94 136
60 94 136
59 94 132
60 95 142
60 95 143
60 94 135
60 94 125
60 95 138
60 95 136
61 95 145
60 95 138
60 95 139
60 94 139
60 94 138
60 94 131
60 95 133
60 94 136
61 96 143
59 93 137
60 94 130
61 96 147
59 93 125
60 95 137
59 94 134
60 93 134
61 95 139
60 94 139
60 95 140
61 96 145
60 94 134
60 94 137
60 94 135
61 95 148
61 95 147
60 94 125
60 94 135
60 94 134
60 94 140
60 94 138
60 94 132
59 93 137
59 93 134
60 93 142
60 94 139
60 93 134
58 91 127
59 92 134
59 92 134
59 93 135
58 89 121
59 92 131
59 92 133
57 89 127
58 91 128
57 88 128
57 88 127
57 88 126
57 88 122
55 86 116
56 85 117
54 83 109
56 85 126
54 81 114
55 81 107
152 146 101
150 140 89
29 38 27
26 32 22
30 40 32
34 43 33
34 45 36
35 44 29
35 45 26
36 46 29
38 51 39
38 50 35
40 53 42
45 58 46
45 60 48
43 55 38
46 60 48
48 63 49
46 61 50
48 64 51
50 65 52
51 68 60
50 66 52
49 65 48
53 69 59
51 68 55
52 69 58
53 71 60
54 73 62
53 71 58
53 71 57
54 73 64
54 74 65
160 153 100
175 164 105
195 181 114
195 181 114
195 181 114
195 181 114
195 181 114
195 181 114
195 181 114
195 181 114
195 181 114
195 181 114
195 181 114
195 181 114
195 181 114
195 181 114
195 181 114
195 181 114
195 181 114
195 181 114
195 181 114
195 181 114
195 181 114
195 181 114
195 181 114
195 181 114
195 181 114
195 181 114
195 181 114
195 181 114
195 181 114
195 181 114
195 181 114
195 181 114
195 181 114
195 181 114
195 181 114
195 181 114
195 181 114
195 181 114
195 181 114
195 181 114
195 181 114
195 181 114
195 181 114
195 181 114
195 181 114
195 181 114
195 181 114
195 181 114
195 181 114
195 181 114
195 181 114
195 181 114
195 181 114
195 181 114
195 181 114
195 181 114
195 181 114
195 181 114
195 181 114
195 181 114
195 181 114
195 181 114
195 181 114
195 181 114
195 181 114
195 181 114
195 181 114
195 181 114
195 181 114
196 181 114
196 181 114
196 181 114
196 181 114
196 181 114
196 181 114
196 181 114
196 181 114
196 181 114
196 181 114
196 181 114
196 181 114
196 181 114
196 181 114
196 181 114
196 181 114
196 181 114
196 181 114
196 181 114
196 181 114
196 181 114
196 181 114
196 181 114
196 181 114
196 181 114
196 181 114
196 181 114
196 181 114
196 181 114
196 181 114
196 181 114
196 181 114
196 181 114
196 181 114
196 181 114
196 181 114
196 181 114
196 181 114
196 181 114
196 182 114
196 182 114
196 182 114
196 182 114
196 182 114
196 182 114
197 210 228
197 210 228
197 210 228
197 210 228
197 210 228
197 210 228
197 210 228
197 210 228
197 210 228
197 210 228
197 210 228
197 210 228
197 210 228
197 210 228
197 210 228
197 210 228
197 210 228
197 210 228
197 210 228
197 210 228
197 210 228
197 210 228
196 210 228
197 210 228
197 210 228
196 210 228
196 210 228
196 210 228
196 210 228
196 210 228
196 210 228
196 210 228
196 210 228
196 210 228
196 210 228
196 210 228
196 210 228
196 210 228
196 210 228
196 210 228
196 210 228
196 210 228
196 210 228
196 210 228
196 210 228
196 210 228
196 210 228
196 210 228
196 210 228
196 210 228
196 210 228
196 210 228
196 210 228
196 210 228
196 210 228
196 210 228
196 210 228
196 210 228
196 210 228
196 210 228
196 210 228
196 210 228
196 210 228
196 210 228
196 210 228
196 210 228
196 210 228
196 210 228
196 210 228
196 210 228
196 210 228
196 210 228
196 210 228
196 210 228
196 210 228
196 210 228
196 210 228
196 210 228
196 210 228
196 210 228
196 210 228
196 210 228
196 210 228
196 210 228
196 210 228
196 210 228
196 210 228
196 210 228
196 210 228
196 209 228
196 210 228
196 209 228
196 209 228
196 209 228
196 209 228
196 209 228
196 209 228
196 209 228
196 209 228
196 209 228
196 209 228
196 209 228
196 209 228
196 209 228
196 209 228
196 209 228
196 209 228
196 209 228
196 209 228
196 209 228
196 209 228
196 209 228
196 209 228
194 206 222
172 161 104
157 150 106
54 86 131
53 84 122
53 84 125
53 84 129
52 83 123
53 83 127
50 79 115
51 80 120
51 81 122
50 79 118
51 81 126
48 76 109
47 75 112
48 76 114
45 73 112
45 72 107
47 74 110
45 72 106
42 69 110
43 69 114
42 68 114
41 66 98
41 66 107
38 63 102
38 62 96
33 54 93
29 48 87
28 47 86
29 48 79
27 46 87
26 43 77
144 156 173
146 161 187
51 82 122
54 85 130
57 91 137
55 87 124
55 87 121
57 89 134
57 90 129
59 93 138
59 93 135
59 93 134
57 92 134
58 92 135
58 91 123
60 95 138
59 94 135
58 92 141
59 93 141
60 94 139
58 92 132
59 92 130
60 94 129
58 92 119
58 93 136
60 94 139
61 96 147
60 95 142
59 93 131
61 96 145
60 95 140
59 93 132
59 94 136
61 95 139
61 95 147
62 96 137
60 95 138
61 95 143
62 97 150
59 94 132
59 94 131
59 93 130
61 96 147
60 95 141
60 95 141
61 96 144
60 95 141
60 95 134
60 95 139
60 95 135
59 93 125
62 97 149
59 94 130
60 94 136
61 96 147
59 93 129
61 95 139
59 94 138
60 94 129
60 95 139
60 95 138
59 93 129
59 93 129
60 94 142
59 94 128
61 97 147
61 96 136
60 94 133
60 94 128
60 95 139
61 96 144
61 96 140
60 94 131
60 94 133
59 93 133
59 93 136
58 91 124
60 94 133
58 92 123
58 92 130
58 92 128
60 94 138
58 91 118
60 93 134
59 93 131
58 91 129
57 90 123
59 92 137
59 91 132
59 91 131
59 91 131
60 92 136
60 93 140
58 90 128
57 88 126
58 89 126
57 88 121
58 89 123
57 87 117
57 87 119
57 87 120
55 83 109
56 87 122
52 78 104
137 133 101
145 136 85
24 32 23
24 31 20
25 33 24
28 36 25
30 38 27
37 48 36
38 48 32
38 48 31
39 50 35
41 53 40
43 56 42
45 58 47
42 55 43
44 58 40
46 60 43
49 64 49
47 63 52
51 67 52
48 63 48
49 65 52
50 66 50
49 64 47
50 66 53
51 67 51
51 68 59
52 70 57
53 71 59
52 70 56
54 73 67
54 73 65
53 73 62
160 152 98
172 161 102
194 180 113
196 181 114
196 181 114
196 181 114
196 181 114
196 181 114
196 181 114
196 181 114
196 181 114
196 181 114
196 181 114
196 181 114
196 181 114
196 181 114
196 181 114
196 181 114
196 181 114
196 181 114
196 181 114
196 181 114
196 181 114
196 181 114
196 181 114
196 181 114
196 181 114
196 181 114
196 181 114
196 181 114
196 181 114
196 181 114
196 181 114
196 181 114
196 181 114
196 181 114
196 181 114
196 181 114
196 181 114
196 181 114
196 181 114
196 181 114
196 181 114
196 181 114
196 181 114
196 181 114
196 181 114
196 181 114
196 181 114
196 181 114
196 181 114
196 181 114
196 181 114
196 181 114
196 181 114
196 182 114
196 182 114
196 182 114
196 182 114
196 182 114
196 182 114
196 182 114
196 182 114
196 182 114
196 182 114
196 182 114
196 182 114
196 182 114
196 182 114
196 182 114
196 182 114
196 182 114
196 182 114
196 182 114
196 182 114
196 182 114
196 182 114
196 182 114
196 182 114
196 182 114
196 182 114
196 182 114
196 182 114
196 182 114
196 182 114
196 182 114
196 182 114
196 182 114
196 182 114
196 182 114
196 182 114
196 182 114
196 182 114
197 182 114
197 182 114
197 182 114
197 182 114
197 182 114
197 182 114
197 182 114
197 182 114
197 182 114
197 182 114
197 182 114
197 182 114
197 182 114
197 182 114
197 182 114
197 182 114
197 182 114
197 182 114
197 182 114
197 182 114
197 182 114
197 182 114
197 182 114
197 210 228
197 210 228
197 210 228
197 210 228
197 210 228
197 210 228
197 210 228
197 210 228
197 210 228
197 210 228
197 210 228
197 210 228
197 210 228
197 210 228
197 210 228
197 210 228
197 210 228
197 210 228
197 210 228
197 210 228
197 210 228
197 210 228
197 210 228
197 210 228
197 210 228
197 210 228
197 210 228
197 210 228
197 210 228
197 210 228
197 210 228
197 210 228
197 210 228
197 210 228
197 210 228
197 210 228
197 210 228
197 210 228
197 210 228
197 210 228
197 210 228
197 210 228
197 210 228
197 210 228
197 210 228
197 210 228
197 210 228
197 210 228
197 210 228
197 210 228
197 210 228
197 210 228
197 210 228
197 210 228
197 210 228
197 210 228
197 210 228
197 210 228
197 210 228
197 210 228
197 210 228
197 210 228
197 210 228
197 210 228
197 210 228
197 210 228
197 210 228
197 210 228
197 210 228
197 210 228
197 210 228
197 210 228
197 210 228
197 210 228
197 210 228
197 210 228
197 210 228
197 210 228
197 210 228
197 210 228
197 210 228
197 210 228
197 210 228
197 210 228
197 210 228
197 210 228
197 210 228
197 210 228
197 210 228
197 210 228
197 210 228
197 210 228
197 210 228
197 210 228
197 210 228
197 210 228
197 210 228
197 210 228
197 210 228
197 210 228
197 210 228
197 210 228
197 210 228
197 210 228
197 210 228
197 210 228
197 210 228
197 210 228
197 210 228
197 210 228
197 210 228
197 210 228
197 210 228
192 201 208
174 162 102
149 143 105
52 83 118
53 83 118
54 84 123
51 80 113
51 81 112
52 81 119
52 82 124
52 82 121
51 81 120
49 78 107
48 77 114
49 78 113
50 79 119
47 76 117
49 77 117
45 72 109
47 76 115
45 72 105
45 72 115
43 68 96
40 64 100
41 66 101
38 62 96
37 60 100
38 61 96
30 50 79
30 50 83
31 50 85
26 44 75
22 36 67
26 44 79
128 140 158
148 162 184
51 81 118
51 82 120
55 87 128
56 90 137
55 87 125
57 91 132
58 91 131
57 90 140
58 91 132
58 91 130
57 91 123
58 91 132
59 92 138
57 90 130
58 92 132
60 95 144
59 94 129
59 93 140
58 93 134
61 96 152
60 94 136
58 92 130
58 92 124
60 95 138
59 94 131
60 94 134
59 93 132
59 92 132
60 94 138
59 94 135
59 93 134
61 96 144
60 94 142
60 95 137
58 92 124
59 93 131
60 95 136
59 93 127
60 94 139
60 95 132
61 95 135
59 93 137
59 93 129
59 93 137
59 93 129
60 94 133
59 93 133
61 96 136
61 95 134
60 95 139
61 95 142
60 95 136
61 96 142
61 96 141
59 92 141
60 96 137
60 95 143
59 93 129
61 95 138
59 93 128
61 96 147
60 95 142
58 92 122
60 95 142
60 93 136
60 94 140
60 93 133
59 94 132
61 95 139
60 94 137
59 93 131
60 94 136
59 93 132
59 93 130
59 93 132
59 93 123
59 93 139
60 93 134
58 91 129
58 91 126
59 93 134
59 92 136
60 94 136
59 92 124
58 91 124
58 90 120
58 91 122
58 91 129
58 91 129
57 90 125
58 89 127
58 90 120
58 89 123
59 92 129
56 87 110
57 88 118
57 87 116
58 89 127
56 86 115
56 86 119
52 79 100
53 80 105
132 129 100
134 126 80
24 31 20
30 39 27
29 37 24
30 38 27
33 42 27
34 45 32
33 44 30
39 51 38
36 47 30
41 53 39
43 55 39
42 54 38
46 60 44
43 56 43
46 59 44
47 62 46
49 64 52
49 64 51
49 64 51
49 64 49
50 66 55
51 67 56
50 67 53
51 68 56
52 70 54
52 70 56
52 69 57
52 70 59
53 71 58
53 71 57
52 71 58
150 142 92
174 162 102
193 179 112
197 182 114
197 182 114
197 182 114
197 182 114
197 182 114
197 182 114
197 182 114
197 182 114
197 182 114
197 182 114
197 182 114
197 182 114
197 182 114
197 182 114
197 182 114
197 182 114
197 182 114
197 182 114
197 182 114
197 182 114
197 182 114
197 182 114
197 182 114
197 182 114
197 182 114
197 182 114
197 182 114
197 182 114
197 182 114
197 182 114
197 182 114
197 182 114
197 182 114
197 182 114
197 182 114
197 182 114
197 182 114
197 182 114
197 182 114
197 182 114
197 182 114
197 182 114
197 182 114
197 182 114
197 182 114
197 182 114
197 182 114
197 182 114
197 182 114
197 182 114
197 182 114
197 182 114
197 182 114
197 182 114
197 182 114
197 182 114
197 182 114
197 182 114
197 182 114
197 182 114
197 182 114
197 182 114
197 182 114
197 182 114
197 182 114
197 182 114
197 182 114
197 182 114
197 182 114
197 182 114
197 182 114
197 182 114
197 182 114
197 182 114
197 182 114
197 182 114
197 182 114
197 182 114
197 182 114
197 182 114
197 182 114
197 182 114
197 182 114
197 182 114
197 182 114
197 182 114
197 182 114
197 182 114
197 182 114
197 182 114
197 182 114
197 182 114
197 182 114
197 182 114
197 182 114
197 182 114
197 182 114
197 182 114
197 182 114
197 182 114
197 182 114
197 182 114
197 182 114
197 182 114
197 182 114
197 182 114
197 182 114
197 182 114
197 182 114
197 182 114
197 182 114
197 182 114
197 182 114
198 211 228
198 211 228
198 211 228
198 211 228
198 211 228
198 211 228
198 211 228
198 211 228
198 211 228
198 211 228
198 211 228
198 211 228
198 211 228
198 211 228
198 211 228
198 211 228
198 211 228
198 211 228
198 211 228
198 211 228
198 211 228
198 211 228
198 211 228
198 211 228
198 211 228
198 211 228
198 211 228
198 211 228
198 211 228
198 211 228
198 211 228
198 211 228
198 211 228
198 211 228
198 211 228
198 211 228
198 211 228
198 211 228
198 211 228
198 211 228
198 211 228
198 211 228
198 211 228
198 211 228
198 211 228
198 211 228
198 211 228
198 211 228
198 211 228
198 211 228
198 211 228
198 211 228
198 211 228
198 211 228
198 211 228
198 211 228
198 211 228
198 211 228
198 211 228
198 211 228
198 211 228
198 211 228
198 211 228
198 211 228
198 211 228
198 211 228
198 211 228
198 211 228
198 211 228
198 211 228
198 211 228
198 211 228
198 211 228
198 211 228
198 211 228
198 211 228
198 211 228
198 211 228
198 211 228
198 211 228
198 211 228
198 211 228
198 211 228
198 211 228
198 211 228
198 211 228
198 211 228
198 211 228
198 211 228
198 211 228
198 211 228
198 211 228
198 211 228
198 211 228
198 211 228
198 211 228
198 211 228
198 211 228
198 211 228
198 211 228
198 211 228
198 211 228
198 211 228
198 211 228
198 211 228
198 211 228
198 211 228
198 211 228
198 211 228
198 211 228
198 211 228
198 211 228
198 211 228
194 202 208
177 163 102
152 145 104
52 83 120
51 81 115
51 81 108
51 81 112
53 83 124
51 81 121
52 82 123
51 81 111
50 79 118
51 81 119
51 80 116
49 78 116
47 75 112
47 75 102
46 74 116
48 76 108
46 73 100
42 69 95
42 68 96
41 66 99
41 66 102
38 61 102
34 56 91
37 60 91
37 59 101
37 60 98
31 51 87
31 51 79
28 46 75
25 42 70
26 43 75
130 141 158
130 145 169
49 79 120
52 83 128
55 88 128
56 89 126
55 87 128
58 91 134
57 91 135
58 91 133
59 92 134
59 93 137
59 93 138
57 91 131
60 94 146
58 92 133
57 91 131
58 93 135
59 93 143
58 92 125
58 92 130
60 94 136
60 94 132
60 94 138
58 93 129
58 93 135
61 96 146
59 92 132
60 94 139
60 94 135
59 93 132
60 95 145
60 95 140
60 95 138
58 92 127
60 94 137
58 93 130
58 92 123
60 94 135
60 94 141
60 95 134
59 94 130
60 95 133
60 94 137
59 94 136
59 94 133
60 95 136
61 96 144
60 95 138
61 96 142
60 94 134
59 94 137
59 94 139
60 95 139
59 94 133
60 95 138
59 94 134
61 96 139
60 95 139
60 94 139
60 95 131
59 94 130
60 94 140
59 93 128
60 94 135
59 93 128
59 92 121
57 90 113
59 92 128
60 94 137
60 94 138
60 94 134
60 94 134
60 94 137
61 95 140
60 94 134
60 93 134
59 93 124
59 93 132
60 94 133
59 92 122
60 93 133
60 94 134
60 94 139
59 93 141
59 92 125
59 92 134
58 91 123
59 92 137
57 90 126
58 92 126
57 88 118
57 89 129
59 92 131
56 87 117
55 84 104
58 89 128
57 89 130
57 88 120
57 88 116
55 85 113
55 83 106
53 83 111
50 76 95
141 135 98
125 117 73
25 33 23
25 32 23
28 36 22
29 38 25
35 44 28
35 45 32
37 46 32
36 47 33
38 49 34
42 54 38
38 49 35
46 60 45
46 59 43
40 53 38
47 60 42
47 62 47
45 59 40
49 64 50
49 64 46
49 65 52
49 65 53
50 67 55
49 65 51
52 69 55
49 65 50
52 69 57
51 69 55
50 68 51
54 73 66
53 72 61
55 74 65
150 141 91
177 163 102
194 179 112
198 182 114
198 182 114
198 182 114
198 182 114
198 182 114
198 182 114
198 182 114
198 182 114
198 182 114
198 182 114
198 182 114
198 182 114
198 182 114
198 182 114
198 182 114
198 182 114
198 182 114
198 182 114
198 182 114
198 182 114
198 182 114
198 182 114
198 182 114
198 182 114
198 182 114
198 182 114
198 182 114
198 182 114
198 182 114
198 182 114
198 182 114
198 182 114
198 182 114
198 182 114
198 182 114
198 182 114
198 182 114
198 182 114
198 182 114
198 182 114
198 182 114
198 182 114
198 182 114
198 182 114
198 182 114
198 182 114
198 182 114
198 182 114
198 182 114
198 182 114
198 182 114
198 182 114
198 182 114
198 182 114
198 182 114
198 182 114
198 182 114
198 182 114
198 182 114
198 182 114
198 182 114
198 182 114
198 182 114
198 182 114
198 182 114
198 182 114
198 182 114
198 182 114
198 182 114
198 182 114
198 182 114
198 182 114
198 182 114
198 182 114
198 182 114
198 182 114
198 182 114
198 182 114
198 182 114
198 182 114
198 182 114
198 182 114
198 182 114
198 182 114
198 182 114
198 182 114
198 182 114
198 182 114
198 182 114
198 182 114
198 182 114
198 182 114
198 182 114
198 182 114
198 182 114
198 182 114
198 182 114
198 182 114
198 182 114
198 182 114
198 182 114
198 182 114
198 182 114
198 182 114
198 182 114
198 182 114
198 182 114
198 182 114
198 182 114
198 182 114
198 182 114
198 182 114
198 182 114
198 211 228
198 211 228
198 211 228
198 211 228
198 211 228
198 211 228
198 211 228
198 211 228
198 211 228
198 211 228
198 211 228
198 211 228
198 211 228
198 211 228
198 211 228
198 211 228
198 211 228
198 211 228
198 211 228
198 211 228
198 211 228
198 211 228
198 211 228
198 211 228
198 211 228
198 211 228
198 211 228
198 211 228
198 211 228
198 211 228
198 211 228
198 211 228
199 211 228
199 211 228
199 211 228
199 211 228
199 211 228
199 211 228
199 211 228
199 211 228
199 211 228
199 211 228
199 211 228
198 211 228
199 211 228
199 211 228
199 211 228
199 211 228
199 211 228
199 211 228
199 211 228
199 211 228
199 211 228
199 211 228
199 211 228
199 211 228
199 211 228
199 211 228
199 211 228
199 211 228
199 211 228
199 211 228
199 211 228
199 211 228
199 211 228
199 211 228
199 211 228
199 211 228
199 211 228
199 211 228
199 211 228
199 211 228
199 211 228
199 211 228
199 211 228
199 211 228
199 211 228
199 211 228
199 211 228
199 211 228
199 211 228
199 211 228
199 211 228
199 211 228
199 211 228
199 211 228
199 211 228
199 211 228
199 211 228
199 211 228
199 211 228
199 211 228
199 211 228
199 211 228
199 211 228
199 211 228
199 211 228
199 211 228
199 211 228
199 211 228
199 211 228
199 211 228
199 211 228
199 211 228
199 211 228
199 211 228
199 211 228
199 211 228
199 211 228
199 211 228
199 211 228
199 211 228
199 211 228
194 200 202
164 154 77
137 134 65
53 83 115
52 82 116
53 83 116
52 83 126
52 82 120
52 81 116
50 78 102
49 78 107
50 80 112
50 80 115
48 77 112
48 76 111
48 76 108
48 76 118
46 74 113
45 72 105
45 72 94
44 71 100
45 72 110
43 69 97
42 68 97
39 64 98
38 62 91
40 65 90
30 49 83
34 55 81
28 47 75
33 54 83
24 40 65
25 41 68
25 41 71
130 142 160
149 163 185
51 81 120
53 84 118
54 86 118
54 86 122
55 87 126
57 90 129
56 90 127
56 88 120
57 91 130
58 92 133
57 90 131
58 92 132
59 93 135
58 91 130
57 90 128
60 94 144
59 94 138
58 92 129
59 93 137
59 94 145
58 91 130
57 91 126
59 92 130
60 94 139
60 94 131
58 92 130
59 92 125
59 93 131
60 94 136
59 92 131
59 93 131
59 94 133
59 93 128
59 93 134
60 94 136
58 92 128
60 94 137
61 96 135
60 94 135
59 94 127
61 95 143
60 94 139
60 95 126
60 94 135
60 93 141
59 93 128
59 93 121
57 90 120
60 94 134
60 94 136
60 95 142
60 94 133
60 95 137
60 94 134
60 95 141
61 96 146
60 94 135
61 96 145
62 97 150
59 93 124
61 95 140
60 95 138
59 93 131
59 93 130
60 95 135
58 92 132
59 93 131
60 94 133
59 93 133
61 95 141
58 92 131
60 94 139
60 93 133
60 94 134
60 93 134
59 93 133
58 92 122
60 95 138
60 94 140
60 94 141
60 94 135
58 91 128
58 92 129
59 92 131
57 90 120
59 92 136
59 92 126
58 91 124
58 91 135
59 91 122
59 90 124
58 90 122
56 87 120
57 88 120
58 90 128
57 89 116
56 86 114
56 86 113
56 84 110
52 80 101
54 82 102
51 76 98
138 133 102
129 120 75
22 28 15
27 35 18
26 34 20
26 34 24
29 38 19
31 40 26
38 49 36
38 50 34
40 51 38
42 54 39
43 56 39
42 56 42
44 56 42
42 55 39
46 59 43
45 59 45
44 58 41
47 62 43
48 63 50
48 63 53
48 64 51
48 62 47
50 66 52
47 63 45
51 68 55
52 70 56
52 70 53
51 69 53
50 67 53
53 71 59
53 72 59
134 131 51
163 152 75
195 179 112
199 183 114
199 183 114
199 183 114
199 183 114
199 183 114
199 183 114
199 183 114
199 183 114
199 183 114
199 183 114
199 183 114
199 183 114
199 183 114
199 183 114
199 183 114
199 183 114
199 183 114
199 183 114
199 183 114
199 183 114
199 183 114
199 183 114
199 183 114
199 183 114
199 183 114
199 183 114
199 183 114
199 183 114
199 183 114
199 183 114
199 183 114
199 183 114
199 183 114
199 183 114
199 183 114
199 183 114
199 183 114
199 183 114
199 183 114
199 183 114
199 183 114
199 183 114
199 183 114
199 183 114
199 183 114
199 183 114
199 183 114
199 183 114
199 183 114
199 183 114
199 183 114
199 183 114
199 183 114
199 183 114
199 183 114
199 183 114
199 183 114
199 183 114
199 183 114
199 183 114
199 183 114
199 183 114
199 183 114
199 183 114
199 183 114
199 183 114
199 183 114
199 183 114
199 183 114
199 183 114
199 183 114
199 183 114
199 183 114
199 183 114
199 183 114
199 183 114
199 183 114
199 183 114
199 183 114
198 183 114
198 183 114
198 183 114
198 183 114
198 183 114
198 183 114
198 183 114
198 183 114
198 183 114
198 183 114
198 183 114
198 183 114
198 183 114
198 183 114
198 183 114
198 183 114
198 183 114
198 183 114
198 183 114
198 183 114
198 183 114
198 183 114
198 183 114
198 183 114
198 183 114
198 183 114
198 183 114
198 183 114
198 183 114
198 183 114
198 183 114
198 183 114
198 183 114
198 183 114
199 211 228
199 211 228
199 211 228
199 211 228
199 211 228
199 211 228
199 211 228
199 211 228
199 211 228
199 211 228
199 211 228
199 211 228
199 211 228
199 211 228
199 211 228
199 211 228
199 211 228
199 211 228
199 211 228
199 211 228
199 211 228
199 211 228
199 211 228
199 211 228
199 211 228
199 211 228
199 211 228
199 211 228
199 211 228
199 211 228
199 211 228
199 211 228
199 211 228
199 211 228
199 211 228
199 211 228
199 211 228
199 211 228
199 211 228
199 211 228
199 211 228
199 211 228
199 211 228
199 211 228
199 211 228
199 211 228
199 211 228
199 211 228
199 211 228
199 211 228
199 211 228
199 212 228
199 211 228
199 212 228
199 211 228
199 212 228
199 212 228
199 212 228
199 212 228
199 212 228
199 212 228
199 212 228
200 212 228
199 212 228
200 212 228
199 212 228
200 212 228
200 212 228
200 212 228
200 212 228
200 212 228
200 212 228
200 212 228
200 212 228
200 212 228
200 212 228
200 212 228
200 212 228
200 212 228
200 212 228
200 212 228
200 212 228
200 212 228
200 212 228
200 212 228
200 212 228
200 212 228
200 212 228
200 212 228
200 212 228
200 212 228
200 212 228
200 212 228
200 212 228
200 212 228
200 212 228
200 212 228
200 212 228
200 212 228
200 212 228
200 212 228
200 212 228
200 212 228
200 212 228
200 212 228
200 212 228
200 212 228
200 212 228
200 212 228
200 212 228
200 212 228
200 212 228
200 212 228
199 211 226
140 138 22
129 128 28
53 83 117
52 82 115
51 81 109
51 81 111
51 80 113
52 82 113
51 81 121
51 81 115
49 78 108
51 81 114
49 78 111
48 77 108
46 74 101
47 74 110
45 72 92
46 73 109
44 70 102
42 67 95
43 69 92
41 66 96
40 65 90
40 64 94
37 59 88
37 61 88
34 54 84
32 52 84
28 48 70
29 49 76
28 47 75
24 40 55
23 39 58
137 148 165
148 163 185
49 79 114
53 85 118
55 88 132
55 88 121
57 91 136
56 89 130
56 89 128
57 90 128
58 91 133
58 92 134
55 88 122
58 92 126
57 90 122
58 91 132
59 93 135
59 93 133
59 93 138
58 92 127
58 91 124
57 90 115
59 93 136
57 91 123
59 93 126
59 93 130
60 94 134
60 94 131
58 92 120
60 94 140
58 93 128
59 93 137
59 94 136
59 94 135
59 93 129
60 94 134
59 93 132
59 94 128
60 93 129
59 94 130
60 94 127
61 95 142
61 96 140
61 96 142
61 95 130
60 94 135
59 93 127
60 94 135
59 93 131
59 93 121
61 95 133
60 95 141
61 95 136
59 93 135
61 96 142
59 94 130
60 94 133
59 93 138
60 95 137
60 94 131
59 93 134
60 95 140
59 93 126
59 92 122
60 95 133
59 93 133
59 94 130
59 93 133
58 92 129
60 93 140
58 92 132
60 94 139
61 95 135
59 93 132
60 94 140
60 94 133
60 93 136
60 94 137
58 91 125
59 92 125
59 93 132
60 94 134
59 92 123
59 93 128
58 90 116
56 88 120
58 91 126
59 92 119
60 93 136
59 91 135
59 91 127
57 90 124
57 89 129
59 91 128
56 88 117
57 88 118
56 87 113
55 84 116
57 87 118
56 87 116
57 87 116
53 81 108
54 81 101
51 77 101
142 137 100
135 126 78
23 30 19
20 26 12
26 33 21
28 36 21
29 37 28
33 42 29
33 43 26
33 44 26
40 51 34
40 51 35
38 49 29
40 51 33
43 55 37
44 57 42
43 56 37
45 60 43
47 61 46
47 61 45
47 62 46
50 66 55
49 65 54
51 67 50
50 66 50
49 65 47
51 67 49
52 69 57
51 68 54
53 71 58
54 72 60
53 71 61
52 71 55
132 130 19
141 138 16
199 183 114
200 183 114
200 183 114
200 183 114
200 183 114
200 183 114
200 183 114
200 183 114
200 183 114
200 183 114
200 183 114
200 183 114
200 183 114
200 183 114
200 183 114
200 183 114
200 183 114
200 183 114
200 183 114
200 183 114
200 183 114
200 183 114
200 183 114
200 183 114
200 183 114
200 183 114
200 183 114
200 183 114
200 183 114
200 183 114
200 183 114
200 183 114
200 183 114
200 183 114
200 183 114
200 183 114
200 183 114
200 183 114
200 183 114
200 183 114
200 183 114
200 183 114
200 183 114
200 183 114
200 183 114
200 183 114
200 183 114
200 183 114
200 183 114
200 183 114
199 183 114
199 183 114
199 183 114
199 183 114
199 183 114
199 183 114
199 183 114
199 183 114
199 183 114
199 183 114
199 183 114
199 183 114
199 183 114
199 183 114
199 183 114
199 183 114
199 183 114
199 183 114
199 183 114
199 183 114
199 183 114
199 183 114
199 183 114
199 183 114
199 183 114
199 183 114
199 183 114
199 183 114
199 183 114
199 183 114
199 183 114
199 183 114
199 183 114
199 183 114
199 183 114
199 183 114
199 183 114
199 183 114
199 183 114
199 183 114
199 183 114
199 183 114
199 183 114
199 183 114
199 183 114
199 183 114
199 183 114
199 183 114
199 183 114
199 183 114
199 183 114
199 183 114
199 183 114
199 183 114
199 183 114
199 183 114
199 183 114
199 183 114
199 183 114
199 183 114
199 183 114
199 183 114
199 183 114
199 183 114
199 212 228
199 212 228
199 212 228
199 212 228
199 212 228
199 212 228
199 212 228
200 212 228
200 212 228
200 212 228
200 212 228
200 212 228
200 212 228
200 212 228
200 212 228
200 212 228
200 212 228
200 212 228
200 212 228
200 212 228
200 212 228
200 212 228
200 212 228
200 212 228
200 212 228
200 212 228
200 212 228
200 212 228
200 212 228
200 212 228
200 212 228
200 212 228
200 212 228
200 212 228
200 212 228
200 212 228
200 212 228
200 212 228
200 212 228
200 212 228
200 212 228
200 212 228
200 212 228
200 212 228
200 212 228
200 212 228
200 212 228
200 212 228
200 212 228
200 212 228
200 212 228
200 212 228
200 212 228
200 212 228
200 212 228
200 212 228
200 212 228
200 212 228
200 212 228
200 212 228
200 212 228
200 212 228
200 212 228
200 212 228
200 212 228
200 212 228
200 212 228
200 212 228
200 212 228
200 212 228
200 212 228
200 212 228
200 212 228
200 212 228
200 212 228
201 212 228
201 212 228
201 212 228
200 212 227
199 211 224
200 212 226
194 207 211
198 210 220
193 206 207
194 207 207
192 205 204
193 206 206
193 206 206
190 204 196
190 203 195
186 201 184
191 204 198
188 202 192
190 204 196
184 199 177
185 199 180
188 202 188
186 200 184
181 197 168
180 195 160
183 198 177
183 198 174
186 200 181
177 194 155
180 196 161
179 195 158
176 192 148
179 194 156
183 198 174
177 193 150
181 196 163
177 193 150
178 194 156
176 193 150
147 150 60
133 132 22
51 81 110
53 83 119
52 82 117
51 81 111
51 80 110
52 82 117
50 80 108
51 80 119
50 79 110
50 79 117
48 77 106
48 77 98
49 78 110
47 74 108
46 73 101
48 77 114
46 73 97
45 72 105
42 67 101
41 66 97
41 65 89
39 63 82
39 63 92
35 56 76
34 55 73
32 53 83
29 48 63
27 46 53
26 44 65
24 40 58
24 39 55
142 153 167
147 160 181
49 79 112
51 82 111
52 83 114
54 86 120
56 89 116
57 89 134
56 89 123
58 91 131
57 91 123
58 92 125
57 91 124
57 91 123
57 91 127
57 90 126
57 90 128
57 90 128
59 93 132
58 91 117
57 91 120
59 93 134
58 92 126
60 94 131
60 94 137
59 93 125
61 95 143
59 93 125
60 95 133
61 96 143
59 92 124
59 94 135
58 91 128
59 93 130
59 93 137
61 95 141
57 91 119
61 95 140
59 93 130
59 93 129
59 94 132
60 94 130
59 94 141
58 91 124
60 94 135
60 95 135
60 95 140
59 93 121
59 94 130
58 92 122
60 94 139
59 94 131
60 95 140
59 93 129
61 95 139
60 94 138
59 93 131
61 96 141
59 93 131
59 93 128
59 94 134
60 94 133
60 93 136
60 94 133
60 94 136
58 92 128
60 94 135
60 94 134
58 92 121
59 93 134
59 93 125
57 90 111
59 93 135
58 92 124
59 93 127
57 90 112
59 93 133
60 94 129
59 92 125
59 93 125
60 94 137
60 94 134
59 91 123
58 91 123
58 90 116
58 91 127
59 91 124
60 93 133
59 91 131
58 90 124
59 91 120
57 89 115
57 88 117
60 91 132
58 91 129
58 89 118
57 88 118
56 86 114
57 88 124
54 84 115
54 83 107
55 84 111
54 81 102
49 72 83
149 142 104
151 140 87
22 29 15
26 34 22
24 32 17
30 37 18
28 36 22
35 45 25
33 43 27
37 47 32
38 49 32
39 49 35
42 54 32
41 52 33
43 56 43
46 59 43
44 58 43
43 56 39
47 61 42
48 64 48
45 60 46
49 64 48
49 64 50
50 66 49
50 67 52
50 67 48
52 70 56
50 67 52
50 68 52
51 69 52
51 69 55
53 71 57
52 71 52
130 130 21
146 143 30
176 167 75
178 168 76
177 167 75
176 167 75
177 167 74
176 166 73
179 169 80
178 168 76
180 169 82
180 169 81
184 172 87
179 169 81
181 170 83
182 170 83
182 171 85
184 172 87
186 173 91
183 171 85
187 174 92
185 173 90
188 175 95
184 172 87
187 174 93
191 177 99
191 177 100
192 177 101
188 175 95
193 178 103
193 178 101
193 178 103
194 179 105
196 180 106
197 181 109
199 182 112
200 183 113
201 184 114
201 184 114
201 184 114
200 184 114
201 184 114
200 184 114
200 184 114
200 184 114
200 184 114
200 184 114
200 184 114
200 184 114
200 184 114
200 184 114
200 184 114
200 184 114
200 184 114
200 184 114
200 184 114
200 184 114
200 184 114
200 184 114
200 184 114
200 184 114
200 183 114
200 183 114
200 183 114
200 183 114
200 183 114
200 183 114
200 183 114
200 183 114
200 183 114
200 183 114
200 183 114
200 183 114
200 183 114
200 183 114
200 183 114
200 183 114
200 183 114
200 183 114
200 183 114
200 183 114
200 183 114
200 183 114
200 183 114
200 183 114
200 183 114
200 183 114
200 183 114
200 183 114
200 183 114
200 183 114
200 183 114
200 183 114
200 183 114
200 183 114
200 183 114
200 183 114
200 183 114
200 183 114
200 183 114
200 183 114
200 183 114
200 183 114
200 183 114
200 183 114
200 183 114
200 183 114
200 183 114
200 183 114
199 183 114
199 183 114
199 183 114
199 183 114
199 183 114
199 183 114
199 183 114
200 212 228
200 212 228
200 212 228
200 212 228
200 212 228
200 212 228
200 212 228
200 212 228
200 212 228
200 212 228
200 212 228
200 212 228
200 212 228
200 212 228
200 212 228
200 212 228
200 212 228
200 212 228
200 212 228
200 212 228
200 212 228
200 212 228
200 212 228
200 212 228
200 212 228
200 212 228
200 212 228
200 212 228
200 212 228
200 212 228
201 212 228
201 212 228
201 212 228
201 212 228
201 212 228
201 212 228
201 212 228
201 212 228
201 212 228
201 212 228
201 212 228
201 212 228
201 212 228
201 212 228
200 212 227
198 210 220
197 209 218
196 209 214
193 206 206
193 206 206
192 205 204
190 203 195
192 205 202
186 200 181
181 197 169
185 199 180
181 196 168
182 197 168
181 196 166
176 193 150
175 191 141
174 191 142
173 190 137
173 190 135
173 190 137
173 190 133
167 185 107
169 186 109
168 186 114
165 184 99
163 182 82
162 182 82
162 181 79
161 181 72
161 180 64
158 179 51
157 178 32
156 177 0
156 177 0
156 177 0
157 177 0
154 176 0
157 177 0
155 176 0
157 177 0
157 177 0
156 177 0
156 177 0
156 177 0
155 176 0
155 176 0
156 177 0
155 177 0
156 177 0
155 176 0
155 176 0
155 176 0
157 177 0
156 177 0
156 177 0
155 176 0
156 177 0
156 177 0
155 176 0
157 177 0
155 177 0
156 177 0
156 177 0
157 177 0
156 177 0
155 177 0
156 177 0
155 176 0
157 177 0
150 164 0
135 130 0
61 86 106
51 81 113
51 81 110
52 81 118
50 80 92
52 82 110
50 79 114
50 79 104
49 78 110
47 75 110
49 77 105
48 77 110
48 76 106
46 73 101
46 73 101
43 69 92
45 71 95
43 69 95
43 68 85
41 66 91
40 64 87
38 62 85
38 62 82
36 59 87
33 53 79
31 51 65
26 44 61
31 51 66
25 42 58
23 38 50
27 44 59
166 178 195
157 170 190
50 79 112
53 85 118
52 83 113
54 85 122
55 88 122
57 90 121
57 90 133
57 90 127
57 90 124
56 89 123
58 92 139
57 90 121
57 90 125
57 90 131
58 92 129
60 94 135
57 90 123
58 91 116
58 92 133
60 95 138
60 94 139
59 93 136
59 92 129
58 92 120
61 96 146
59 92 120
60 94 132
58 92 128
58 92 133
60 95 142
59 94 132
59 93 133
61 96 145
59 93 125
59 93 131
59 93 134
61 96 139
59 94 126
60 94 137
59 93 128
59 92 127
59 92 122
59 92 125
58 92 127
58 92 126
59 93 133
61 95 136
60 95 139
59 94 129
58 92 129
59 93 125
61 97 149
59 92 130
60 94 131
58 92 125
59 93 125
60 95 137
58 92 120
59 94 130
59 93 131
59 93 131
60 94 137
59 92 129
59 93 125
59 93 135
60 95 133
60 95 135
60 94 131
59 93 136
59 92 135
58 92 119
59 92 124
59 93 130
58 92 126
59 92 126
59 91 123
58 91 125
60 93 132
58 92 132
58 91 134
59 92 130
58 91 122
58 91 120
59 92 131
58 90 124
59 92 128
58 90 124
58 90 131
59 91 132
58 91 129
58 91 127
56 88 123
56 87 116
57 88 116
56 86 109
57 88 121
59 90 124
56 86 118
53 81 104
53 79 101
52 79 96
52 76 98
154 145 97
172 158 98
22 29 15
22 29 12
26 34 14
27 36 19
32 40 24
30 39 25
35 45 28
37 47 26
36 47 30
39 51 28
40 51 33
40 52 31
41 53 34
41 53 35
43 56 36
45 58 43
45 60 40
47 62 47
46 60 40
47 61 43
48 64 46
51 67 50
48 64 44
50 66 50
49 66 51
50 67 45
50 66 51
52 71 57
52 70 53
51 69 51
61 77 52
135 132 0
150 148 0
156 153 0
157 154 0
155 153 0
156 153 0
155 153 0
156 153 0
155 153 0
156 153 0
156 153 0
155 153 0
156 153 0
155 153 0
156 153 0
155 153 0
157 154 0
155 153 0
156 153 0
157 154 0
157 153 0
157 154 0
156 153 0
156 153 0
156 153 0
156 153 0
155 152 0
157 154 0
155 152 0
155 153 0
157 153 0
156 153 0
155 152 0
156 153 0
156 153 0
155 153 0
156 153 0
156 153 0
158 154 0
156 153 0
159 155 25
159 156 32
158 155 25
163 157 37
164 158 47
163 158 44
168 161 54
164 158 47
170 162 60
172 164 66
171 163 62
174 165 69
172 164 64
177 168 76
177 167 74
175 166 71
181 170 83
176 167 72
181 170 82
181 170 82
183 171 84
184 172 88
184 172 87
191 177 100
190 176 98
191 177 100
190 176 98
194 179 104
196 181 108
198 182 109
197 181 109
199 183 112
200 183 113
201 184 114
201 184 114
201 184 114
201 184 114
201 184 114
201 184 114
201 184 114
201 184 114
201 184 114
201 184 114
201 184 114
201 184 114
201 184 114
200 184 114
200 184 114
200 184 114
200 184 114
200 184 114
200 184 114
200 184 114
200 184 114
200 184 114
200 184 114
200 184 114
200 184 114
200 184 114
200 184 114
200 184 114
200 183 114
200 183 114
200 183 114
200 183 114
200 183 114
200 183 114
200 183 114
200 183 114
200 183 114
200 183 114
200 183 114
200 183 114
200 183 114
200 183 114
200 183 114
200 212 228
200 212 228
200 212 228
201 212 228
201 212 228
201 212 228
201 212 228
201 212 228
201 212 228
201 212 228
201 212 228
201 212 228
201 212 228
201 212 228
201 212 228
201 212 228
201 212 228
201 212 228
201 212 228
201 212 228
199 211 223
198 210 220
197 209 217
196 209 214
192 205 199
187 201 186
186 200 180
187 201 186
186 200 183
184 199 177
183 198 171
178 194 153
178 194 153
173 190 135
176 192 146
176 192 146
167 185 112
169 187 114
163 182 82
166 184 94
164 183 91
159 179 56
159 179 39
158 178 22
156 177 0
156 177 0
156 177 0
156 177 0
156 177 0
157 177 0
157 177 0
156 177 0
156 177 0
155 177 0
156 177 0
158 178 0
157 178 0
155 176 0
155 177 0
156 177 0
156 177 0
157 177 0
156 177 0
154 176 0
156 177 0
156 177 0
155 177 0
154 176 0
156 177 0
155 176 0
156 177 0
157 177 0
154 176 0
154 176 0
156 177 0
155 177 0
156 177 0
157 177 0
156 177 0
156 176 0
155 176 0
155 176 0
157 177 0
156 177 0
155 177 0
156 177 0
155 176 0
154 175 0
155 176 0
155 176 0
156 177 0
155 176 0
156 177 0
157 177 0
155 176 0
154 175 0
154 174 0
156 177 0
155 176 0
155 176 0
154 176 0
157 177 0
156 176 0
156 176 0
154 174 0
156 177 0
156 177 0
155 177 0
155 176 0
156 176 0
155 176 0
156 176 0
155 175 0
155 175 0
156 176 0
142 143 0
69 88 102
52 82 111
51 80 112
50 79 110
49 78 104
50 79 105
51 80 113
49 78 107
50 79 112
49 78 106
47 75 103
46 74 98
46 74 99
46 73 98
45 72 86
43 69 95
40 64 79
43 68 95
45 71 99
39 62 85
38 61 80
39 62 85
38 62 87
36 58 82
34 55 66
29 48 58
29 47 58
30 49 67
24 39 45
28 46 54
31 50 57
188 200 211
169 181 197
49 78 103
52 82 115
51 81 113
55 87 118
54 86 126
57 90 132
56 89 131
56 89 118
58 91 127
57 90 134
58 91 130
58 91 122
58 91 125
58 91 129
58 92 120
58 92 136
57 91 120
59 93 134
59 93 133
57 89 127
57 90 116
58 91 119
59 94 133
60 94 136
57 91 127
58 91 126
60 94 136
60 95 140
58 91 130
57 90 127
59 93 136
60 95 140
61 96 134
59 93 137
60 94 132
58 92 123
59 93 137
60 94 137
59 94 130
57 90 121
60 95 138
59 94 126
59 92 131
61 96 139
58 93 121
59 93 130
59 93 125
59 94 140
59 93 121
60 94 130
60 94 142
59 94 134
60 94 131
59 93 126
62 97 155
60 94 134
59 93 133
58 91 121
59 93 121
60 94 137
58 92 126
59 93 133
58 91 128
59 94 133
58 92 126
59 93 126
58 92 128
60 95 139
58 92 125
59 92 126
59 93 131
57 90 123
58 91 124
58 92 121
60 94 134
60 94 137
61 95 138
59 92 129
58 91 121
58 92 121
57 90 120
59 91 133
58 92 129
60 94 134
58 91 122
57 89 124
58 91 125
58 91 126
56 87 110
58 89 121
59 92 131
55 86 106
57 88 120
58 88 121
58 90 115
57 86 121
56 85 113
55 85 107
54 83 107
54 82 113
52 79 102
50 75 90
159 149 106
190 175 106
30 38 20
27 34 14
27 35 17
28 35 20
29 37 19
31 40 21
32 41 27
34 44 29
38 48 28
39 50 31
40 52 36
38 48 22
42 54 35
44 56 37
44 57 37
43 55 36
47 61 40
48 63 45
47 61 44
47 62 39
47 62 43
50 65 50
50 66 46
49 66 50
50 66 51
51 68 51
50 66 47
50 67 53
52 70 55
52 70 55
77 87 45
140 138 0
155 153 0
157 154 0
157 153 0
155 153 0
155 152 0
155 152 0
154 152 0
157 154 0
155 152 0
155 153 0
156 153 0
156 153 0
154 151 0
156 153 0
155 153 0
155 153 0
155 152 0
154 152 0
157 154 0
155 153 0
154 152 0
155 152 0
155 153 0
155 153 0
156 153 0
157 154 0
156 153 0
156 153 0
157 153 0
155 153 0
155 153 0
155 152 0
156 153 0
156 153 0
155 153 0
156 153 0
155 153 0
156 153 0
155 153 0
156 153 0
157 153 0
157 153 0
157 154 0
157 153 0
157 154 0
154 152 0
156 153 0
156 153 0
156 153 0
155 152 0
156 153 0
158 154 0
156 153 0
155 153 0
155 153 0
156 153 0
155 153 0
157 154 0
156 153 0
157 153 0
156 153 0
155 153 0
156 153 0
157 153 0
155 153 0
157 154 0
155 153 0
156 153 0
157 154 0
155 153 0
156 153 0
156 153 11
157 154 16
161 157 34
161 156 37
162 157 37
166 160 48
165 159 52
170 163 62
176 167 73
172 164 65
175 166 68
177 167 75
182 171 84
183 171 86
184 172 88
183 172 86
185 173 91
186 173 91
191 177 98
190 177 99
197 181 108
197 181 109
198 182 109
200 183 113
201 184 114
201 184 114
201 184 114
201 184 114
201 184 114
201 184 114
201 184 114
201 184 114
201 184 114
201 184 114
201 184 114
201 184 114
201 184 114
201 184 114
201 184 114
201 184 114
201 184 114
200 184 114
200 184 114
200 184 114
201 212 228
201 212 228
201 212 228
199 211 223
195 208 212
194 207 208
190 203 194
191 204 198
185 199 177
179 195 161
177 193 153
175 191 141
175 192 144
174 190 135
175 192 144
167 186 109
166 184 102
163 182 82
159 179 51
158 178 39
156 177 0
156 177 0
155 176 0
156 177 0
156 177 0
155 176 0
157 177 0
155 176 0
156 177 0
157 177 0
156 177 0
156 177 0
156 177 0
157 177 0
156 177 0
155 176 0
154 176 0
157 177 0
155 176 0
155 176 0
155 176 0
156 177 0
156 177 0
156 177 0
156 177 0
156 177 0
157 178 0
156 177 0
155 176 0
156 177 0
157 177 0
156 177 0
156 177 0
156 177 0
156 177 0
155 177 0
156 177 0
157 177 0
155 176 0
155 176 0
155 176 0
156 177 0
156 176 0
157 178 0
155 176 0
155 176 0
156 177 0
155 177 0
156 177 0
156 176 0
156 177 0
156 177 0
156 177 0
156 177 0
157 177 0
155 176 0
157 177 0
156 177 0
154 175 0
155 176 0
156 176 0
156 177 0
156 176 0
156 176 0
153 175 0
154 175 0
155 176 0
155 176 0
155 175 0
156 176 0
154 176 0
156 177 0
155 176 0
154 175 0
156 176 0
156 176 0
155 175 0
155 175 0
155 176 0
155 176 0
154 175 0
156 176 0
155 175 0
156 176 0
155 175 0
155 176 0
155 175 0
155 175 0
154 173 0
155 176 0
152 173 0
155 172 0
154 174 0
153 173 0
154 174 0
152 170 0
94 105 87
51 81 110
51 81 107
50 80 103
49 77 93
49 78 106
51 80 111
49 78 107
48 76 102
49 78 105
49 77 104
50 79 108
45 72 89
44 70 95
44 69 90
43 69 89
41 66 83
42 68 83
43 69 99
45 71 91
41 65 88
34 56 75
34 55 68
35 57 72
35 56 74
33 54 69
31 51 60
27 45 51
25 41 57
25 41 53
62 77 61
168 186 114
170 183 198
53 83 121
52 83 107
53 85 121
54 85 119
55 88 120
55 87 116
58 92 140
56 90 120
56 89 130
58 92 128
59 92 133
59 93 134
55 87 110
58 92 122
58 92 124
57 91 128
58 91 118
59 93 134
59 94 127
58 92 133
59 94 132
58 92 132
58 92 132
60 94 130
59 93 124
58 92 138
58 93 126
60 95 139
60 95 135
59 94 137
59 93 127
57 91 121
60 94 137
59 93 131
60 94 130
59 94 128
59 93 123
59 94 142
60 95 135
59 93 131
58 92 125
60 94 137
59 93 127
60 95 142
60 95 137
59 94 133
58 92 121
59 93 130
59 93 136
57 90 118
60 94 134
59 92 128
60 94 128
59 94 134
60 95 139
59 93 121
61 95 141
60 95 137
60 94 132
60 95 134
58 92 125
58 92 132
59 92 120
59 93 132
59 93 121
59 93 124
58 91 129
61 95 138
59 93 129
60 95 139
61 95 139
59 92 130
58 91 126
60 94 138
59 92 128
59 92 127
60 93 129
58 91 117
59 92 128
57 89 121
59 90 118
59 92 122
61 94 142
57 88 118
57 90 118
58 91 123
59 91 121
56 88 121
56 87 111
59 91 128
58 90 124
57 87 128
57 88 111
57 88 114
58 89 122
56 87 117
54 84 103
55 84 107
55 84 106
53 81 104
51 77 101
50 75 96
181 170 122
169 162 57
68 70 15
23 30 7
25 32 14
31 38 19
32 40 17
30 38 20
33 42 22
34 43 26
36 47 24
41 52 32
40 51 31
41 52 34
40 51 31
42 55 34
43 56 36
44 57 39
48 62 45
46 59 41
45 59 40
49 64 44
47 61 41
46 60 38
49 66 45
49 65 45
50 66 46
48 65 46
50 68 52
52 70 52
51 69 54
52 69 48
97 102 44
153 151 0
153 151 0
154 151 0
154 151 0
155 152 0
155 153 0
153 151 0
155 152 0
155 152 0
156 153 0
154 151 0
155 152 0
156 153 0
154 151 0
153 151 0
156 153 0
153 150 0
154 152 0
155 153 0
155 153 0
155 153 0
157 153 0
155 152 0
155 152 0
155 153 0
155 153 0
156 153 0
157 153 0
154 152 0
155 153 0
155 152 0
155 153 0
156 153 0
156 153 0
155 152 0
155 153 0
155 153 0
154 152 0
153 151 0
155 152 0
156 153 0
155 152 0
155 153 0
156 153 0
156 153 0
155 153 0
158 154 0
153 151 0
153 151 0
156 152 0
155 152 0
155 153 0
156 153 0
155 152 0
156 153 0
156 153 0
156 153 0
155 153 0
156 153 0
157 154 0
156 153 0
157 153 0
156 153 0
154 152 0
156 153 0
157 153 0
156 153 0
157 154 0
156 153 0
154 152 0
155 153 0
155 153 0
156 153 0
156 153 0
156 153 0
155 153 0
155 153 0
157 153 0
156 153 0
155 153 0
155 153 0
155 153 0
156 153 0
156 153 0
156 153 0
155 153 0
155 153 0
157 154 0
156 153 0
155 153 0
156 153 0
157 153 0
156 153 0
155 153 0
155 152 0
155 153 0
159 155 25
159 155 28
163 158 44
165 159 47
165 159 48
166 160 52
171 163 63
174 165 67
178 168 79
180 169 81
185 173 90
184 172 87
188 174 92
189 176 96
194 179 103
195 180 105
198 182 110
201 184 113
201 184 114
201 184 114
162 182 75
159 179 56
157 178 32
157 177 0
156 177 0
155 177 0
156 177 0
157 177 0
157 177 0
155 177 0
157 177 0
157 177 0
157 177 0
156 177 0
156 177 0
156 177 0
157 177 0
155 177 0
157 177 0
156 177 0
156 177 0
155 177 0
156 177 0
155 177 0
156 176 0
155 176 0
156 177 0
157 177 0
157 177 0
156 177 0
156 177 0
155 176 0
156 177 0
157 177 0
156 177 0
156 177 0
157 177 0
156 176 0
156 177 0
155 177 0
156 177 0
155 176 0
155 176 0
156 177 0
156 177 0
156 177 0
156 177 0
156 177 0
155 176 0
155 176 0
155 176 0
156 176 0
155 176 0
156 177 0
156 177 0
155 177 0
156 177 0
155 176 0
155 176 0
155 176 0
156 177 0
156 176 0
154 176 0
154 175 0
157 177 0
156 177 0
156 177 0
155 176 0
154 175 0
157 178 0
155 177 0
152 173 0
156 177 0
156 177 0
154 175 0
155 176 0
155 177 0
158 178 0
157 177 0
156 177 0
156 177 0
156 176 0
156 176 0
154 175 0
154 175 0
153 174 0
154 175 0
155 176 0
156 176 0
156 176 0
154 174 0
154 175 0
155 176 0
153 174 0
154 175 0
154 175 0
155 174 0
153 174 0
155 176 0
152 172 0
155 175 0
153 173 0
152 172 0
154 174 0
153 172 0
157 176 0
151 172 0
152 171 0
152 172 0
151 168 0
153 173 0
152 171 0
151 168 0
152 167 0
150 166 0
150 164 0
122 140 66
51 81 104
48 77 91
52 82 112
49 78 96
50 79 97
48 76 90
50 79 108
48 77 103
48 77 106
47 74 108
48 76 102
46 73 98
46 73 90
45 72 90
45 71 86
45 71 98
43 69 86
42 67 95
42 67 82
41 65 79
40 64 86
36 59 64
36 58 78
32 52 72
33 54 67
29 48 50
29 48 56
27 44 56
26 44 43
102 120 49
157 177 0
196 209 219
51 81 110
50 80 105
53 84 109
53 84 108
56 88 128
54 86 106
55 87 118
57 90 123
58 92 124
57 91 120
57 91 123
57 90 133
57 90 124
58 91 128
56 89 119
58 92 130
58 91 128
59 92 134
59 93 134
57 91 118
59 93 134
58 92 123
58 92 121
57 91 120
58 93 133
58 92 119
57 91 122
58 91 128
59 93 127
58 92 126
59 93 125
58 91 124
59 93 131
59 93 126
58 91 119
59 94 129
62 97 153
61 96 136
60 94 130
60 94 131
59 93 125
59 94 136
59 94 130
60 94 130
59 93 134
58 91 123
59 93 126
60 94 131
59 93 128
60 94 134
58 92 126
59 92 127
59 92 123
59 93 130
60 95 129
60 95 130
60 94 127
59 93 124
59 93 130
60 94 130
59 93 134
58 91 131
59 93 125
60 95 137
58 91 118
60 93 130
60 94 135
59 93 131
59 93 128
58 91 128
60 94 136
59 92 128
59 93 125
60 94 134
59 93 132
60 94 130
59 92 122
59 92 126
59 92 139
60 93 131
58 90 118
57 89 114
58 91 128
58 91 120
58 90 126
59 93 134
57 88 113
57 89 129
59 92 130
57 89 126
56 88 116
57 88 118
57 87 109
58 89 123
58 89 123
53 81 99
54 82 106
53 81 100
54 81 97
53 82 107
50 77 96
48 72 78
192 187 151
156 153 0
108 108 18
28 34 11
29 38 21
31 39 14
28 34 15
30 39 26
33 43 23
34 44 24
36 45 19
38 49 29
38 50 31
41 53 34
40 51 28
44 56 40
45 58 34
44 57 38
44 57 42
46 60 44
47 62 43
47 61 43
50 66 49
48 63 43
47 62 43
49 65 51
49 65 48
51 68 47
50 67 48
50 67 46
50 67 49
52 70 51
125 125 29
148 146 0
153 149 0
153 150 0
153 150 0
152 149 0
152 150 0
152 149 0
154 151 0
154 151 0
153 151 0
155 152 0
154 151 0
154 152 0
156 152 0
155 152 0
155 152 0
156 153 0
153 151 0
153 151 0
154 152 0
153 151 0
155 152 0
155 152 0
153 151 0
153 151 0
155 152 0
155 152 0
155 151 0
155 152 0
153 151 0
155 152 0
155 152 0
154 152 0
155 153 0
155 152 0
154 152 0
154 152 0
154 152 0
157 153 0
154 152 0
155 151 0
156 153 0
154 152 0
154 152 0
155 153 0
155 153 0
154 152 0
156 153 0
155 152 0
155 152 0
156 153 0
157 153 0
156 153 0
157 153 0
155 152 0
156 153 0
156 153 0
156 152 0
153 151 0
154 152 0
156 153 0
156 153 0
156 153 0
156 153 0
155 153 0
154 152 0
156 153 0
155 153 0
155 153 0
154 152 0
155 152 0
153 152 0
157 153 0
155 152 0
154 152 0
158 154 0
157 154 0
155 153 0
155 152 0
156 153 0
154 152 0
156 153 0
156 153 0
155 153 0
153 152 0
154 152 0
156 153 0
156 153 0
156 153 0
157 153 0
155 153 0
157 154 0
156 153 0
157 153 0
157 153 0
155 153 0
156 153 0
155 153 0
156 153 0
156 153 0
156 153 0
156 153 0
155 153 0
156 153 0
157 154 0
157 154 0
156 153 0
157 154 0
156 153 0
156 153 0
155 153 0
157 154 0
155 153 0
157 154 11
160 155 30
162 157 39
156 177 0
158 178 0
156 177 0
156 177 0
155 177 0
156 177 0
155 177 0
157 178 0
157 177 0
157 177 0
156 177 0
155 177 0
155 176 0
156 177 0
156 177 0
156 177 0
156 177 0
155 176 0
156 177 0
154 175 0
155 177 0
156 177 0
156 177 0
155 176 0
155 176 0
157 177 0
154 176 0
156 177 0
155 176 0
155 176 0
156 176 0
155 177 0
156 177 0
156 177 0
154 176 0
155 176 0
156 177 0
156 177 0
155 176 0
156 177 0
156 177 0
157 177 0
155 176 0
155 176 0
157 177 0
155 177 0
155 176 0
156 177 0
156 177 0
157 177 0
156 177 0
155 177 0
153 174 0
156 176 0
156 177 0
156 177 0
157 177 0
155 176 0
155 176 0
155 176 0
153 175 0
157 177 0
154 175 0
155 176 0
155 175 0
154 176 0
154 176 0
155 176 0
155 176 0
156 176 0
155 176 0
154 176 0
154 175 0
156 176 0
154 175 0
154 176 0
152 173 0
156 177 0
153 175 0
152 172 0
155 176 0
154 175 0
155 176 0
153 174 0
156 176 0
153 174 0
153 174 0
154 175 0
156 176 0
155 176 0
154 175 0
155 175 0
149 169 0
154 174 0
154 175 0
152 172 0
154 175 0
152 173 0
152 173 0
152 172 0
152 172 0
153 172 0
152 173 0
152 173 0
152 173 0
151 171 0
152 172 0
151 169 0
151 168 0
150 167 0
151 168 0
151 167 0
147 159 0
149 163 0
146 157 0
146 155 0
141 151 22
51 80 99
50 78 98
51 80 111
49 77 98
47 75 93
48 77 99
48 77 94
48 75 99
47 75 92
49 77 108
47 75 93
46 73 92
46 74 92
45 72 95
43 69 83
43 68 82
39 63 72
38 62 66
39 62 75
40 64 72
37 60 81
38 61 68
32 53 65
35 56 69
34 55 48
31 50 60
30 49 56
28 46 50
30 50 49
128 147 33
155 176 0
204 218 215
86 107 132
51 81 108
53 84 116
56 88 125
54 86 118
55 87 115
56 88 115
54 86 118
55 86 115
58 91 123
55 87 113
59 94 131
57 91 127
58 91 128
57 90 114
59 92 130
58 91 128
58 92 126
58 91 125
58 92 116
60 94 131
60 94 129
58 92 132
60 95 133
59 92 131
59 92 131
59 93 131
56 90 125
58 92 128
59 93 131
58 92 125
59 93 123
59 92 126
60 94 135
58 92 124
57 90 102
60 94 130
60 94 136
59 93 127
60 94 137
60 95 135
58 92 118
58 92 125
59 93 125
61 95 137
60 95 136
59 93 131
59 93 135
58 92 124
59 92 129
60 95 135
60 94 136
59 93 125
59 93 137
59 93 124
59 92 126
60 94 135
59 93 117
59 93 129
58 92 130
59 93 138
58 91 116
59 92 124
59 94 126
60 93 122
59 93 133
58 91 119
61 96 142
61 95 133
59 93 128
57 90 125
58 91 123
57 91 121
59 93 136
59 94 124
60 93 129
58 90 114
59 92 125
59 93 136
59 92 124
57 89 107
60 95 138
58 90 118
57 89 113
59 92 121
57 89 114
55 86 110
58 89 117
58 89 112
55 86 102
58 89 123
56 88 110
55 86 109
55 84 106
55 84 100
57 88 121
56 86 114
54 82 103
53 80 97
55 84 111
52 80 104
75 92 101
204 208 196
154 152 0
133 131 8
30 38 15
30 39 12
28 36 19
31 39 19
32 40 23
36 46 25
35 44 20
36 47 27
39 51 32
41 54 31
40 51 30
38 50 28
43 57 34
45 58 38
44 58 41
45 58 37
43 56 35
46 61 40
45 58 38
48 62 46
46 59 35
50 67 49
47 64 41
48 64 44
49 66 50
48 65 45
51 68 50
50 67 47
52 70 55
138 135 16
142 139 0
146 142 0
148 145 0
147 144 0
148 146 0
150 146 0
149 146 0
150 147 0
151 149 0
151 148 0
152 149 0
150 148 0
152 150 0
152 150 0
154 151 0
154 151 0
153 150 0
153 150 0
151 149 0
152 150 0
156 153 0
155 152 0
152 150 0
155 152 0
153 150 0
152 150 0
153 151 0
153 151 0
152 150 0
155 151 0
153 151 0
155 152 0
154 151 0
153 151 0
154 152 0
154 151 0
155 152 0
154 151 0
155 153 0
155 152 0
156 153 0
155 152 0
157 153 0
155 152 0
156 153 0
157 154 0
154 152 0
156 153 0
154 152 0
156 153 0
156 153 0
155 152 0
156 153 0
155 153 0
153 151 0
154 152 0
155 152 0
157 153 0
156 153 0
152 150 0
156 152 0
155 153 0
156 153 0
155 152 0
156 153 0
156 153 0
156 153 0
157 154 0
154 152 0
155 153 0
155 153 0
154 152 0
156 153 0
156 153 0
155 152 0
156 153 0
157 154 0
155 153 0
156 153 0
155 152 0
155 152 0
156 153 0
157 154 0
156 153 0
155 153 0
154 152 0
155 153 0
155 153 0
156 153 0
157 154 0
155 153 0
157 154 0
156 153 0
157 154 0
157 154 0
155 153 0
155 153 0
156 153 0
155 152 0
155 153 0
156 153 0
156 153 0
155 153 0
156 153 0
156 153 0
156 153 0
156 153 0
155 153 0
155 153 0
157 154 0
157 154 0
157 154 0
157 154 0
156 153 0
157 153 0
156 153 0
156 177 0
155 177 0
158 178 0
157 177 0
156 176 0
155 176 0
157 178 0
156 177 0
156 177 0
156 177 0
155 177 0
153 175 0
156 177 0
156 177 0
155 177 0
156 177 0
156 177 0
156 177 0
155 176 0
156 177 0
157 177 0
158 178 0
156 177 0
156 177 0
153 175 0
156 176 0
157 177 0
156 177 0
155 176 0
156 177 0
155 176 0
156 177 0
157 177 0
156 177 0
156 177 0
155 177 0
156 176 0
155 176 0
155 176 0
156 177 0
155 176 0
155 175 0
156 176 0
156 176 0
155 177 0
155 176 0
156 176 0
156 177 0
157 177 0
156 176 0
155 176 0
155 176 0
156 176 0
153 175 0
155 177 0
155 176 0
156 176 0
153 174 0
155 176 0
155 176 0
156 177 0
156 176 0
155 176 0
155 176 0
156 177 0
154 175 0
154 175 0
156 177 0
153 175 0
155 176 0
154 176 0
155 176 0
155 175 0
155 175 0
155 175 0
156 177 0
156 177 0
153 175 0
155 176 0
155 175 0
151 171 0
153 174 0
153 175 0
153 175 0
154 175 0
153 174 0
152 172 0
153 174 0
155 176 0
153 174 0
152 172 0
154 173 0
152 172 0
152 171 0
151 172 0
150 170 0
152 171 0
153 173 0
151 171 0
152 172 0
148 168 0
149 168 0
150 170 0
150 170 0
146 165 0
148 165 0
150 169 0
149 167 0
146 164 0
148 165 0
143 159 0
145 159 0
144 155 0
144 154 0
143 155 0
140 148 0
135 139 0
75 94 82
50 79 100
50 78 102
49 77 87
49 78 102
46 74 87
48 76 96
48 75 96
47 75 100
44 71 79
47 74 106
44 70 79
45 72 91
47 74 93
43 69 83
42 68 82
43 68 85
44 69 99
37 60 70
38 61 75
38 62 77
38 62 72
35 56 65
33 54 63
33 54 56
28 46 49
30 49 55
31 51 53
55 71 39
154 174 0
154 176 0
211 225 228
118 133 149
53 83 116
52 83 113
49 79 101
54 86 117
56 88 122
57 90 131
56 89 119
55 88 117
54 86 115
56 89 115
56 88 121
57 91 126
58 92 125
60 94 137
59 93 131
55 87 105
57 91 121
56 89 121
57 91 125
57 91 121
59 93 123
59 93 124
59 94 131
57 91 120
58 92 129
58 92 118
59 94 133
58 92 122
57 91 126
57 91 123
58 92 122
58 92 122
58 92 131
59 94 123
59 93 132
59 93 131
58 92 125
59 93 120
58 92 125
59 93 130
60 94 126
60 95 133
59 93 131
58 93 120
59 93 126
58 91 121
60 95 136
60 94 137
57 91 118
57 91 117
59 93 134
58 92 115
58 92 118
60 95 135
59 93 129
60 94 133
58 92 122
61 96 135
59 92 129
60 94 133
59 93 124
59 92 124
59 93 129
58 91 121
59 93 127
60 95 135
58 92 130
59 93 133
59 93 130
59 92 128
59 92 128
57 89 117
61 95 134
59 92 123
59 92 128
58 92 126
59 92 136
60 93 128
57 89 113
58 91 125
58 90 122
57 89 118
59 92 132
59 92 127
59 92 127
56 88 119
57 89 120
59 91 122
55 86 118
58 90 115
57 88 116
57 88 127
56 88 110
58 90 118
55 84 108
53 82 108
52 80 99
53 81 101
56 84 109
53 79 97
103 116 124
213 222 227
156 153 0
154 152 0
63 67 20
28 35 7
29 37 13
31 39 18
32 41 17
33 43 20
36 46 23
38 49 30
36 46 25
38 50 24
42 54 32
38 50 33
42 54 32
43 55 32
44 57 35
44 58 38
46 60 39
48 64 49
44 57 38
46 60 38
47 62 46
48 63 40
47 62 45
48 64 42
48 65 41
50 66 48
49 65 47
48 65 46
71 81 45
137 131 0
139 135 0
141 137 0
145 141 0
146 142 0
146 142 0
145 142 0
146 144 0
145 142 0
149 146 0
147 145 0
150 148 0
151 149 0
148 146 0
149 146 0
151 148 0
150 148 0
154 151 0
153 151 0
153 150 0
154 151 0
151 149 0
151 150 0
150 147 0
149 148 0
151 149 0
153 151 0
153 150 0
153 151 0
154 151 0
154 151 0
154 151 0
153 150 0
156 153 0
155 152 0
155 152 0
153 150 0
153 151 0
154 152 0
154 152 0
153 151 0
153 151 0
155 152 0
153 151 0
155 152 0
155 153 0
155 153 0
155 153 0
156 153 0
154 151 0
154 152 0
155 152 0
154 151 0
155 153 0
155 153 0
156 153 0
155 153 0
155 152 0
155 153 0
154 151 0
155 152 0
155 153 0
153 151 0
155 153 0
157 153 0
154 152 0
156 153 0
154 152 0
156 153 0
154 152 0
155 152 0
156 153 0
153 151 0
154 152 0
155 153 0
155 153 0
155 153 0
156 153 0
155 152 0
154 152 0
156 153 0
154 152 0
155 152 0
156 153 0
156 153 0
155 152 0
155 152 0
156 153 0
156 153 0
156 153 0
155 152 0
155 153 0
155 153 0
157 154 0
155 153 0
155 153 0
156 152 0
156 153 0
156 153 0
157 153 0
155 153 0
155 153 0
156 153 0
156 153 0
156 153 0
155 153 0
157 154 0
156 153 0
156 153 0
156 153 0
156 153 0
157 153 0
154 152 0
154 152 0
154 152 0
156 153 0
157 154 0
155 177 0
156 177 0
154 176 0
156 177 0
154 176 0
156 177 0
155 176 0
155 176 0
156 177 0
155 176 0
156 177 0
155 176 0
155 176 0
155 176 0
153 175 0
157 178 0
156 177 0
157 177 0
155 176 0
156 177 0
155 176 0
155 176 0
156 177 0
155 176 0
156 177 0
153 175 0
156 177 0
157 177 0
155 177 0
157 177 0
156 177 0
157 178 0
156 177 0
156 177 0
156 176 0
156 177 0
156 177 0
157 177 0
156 176 0
157 177 0
155 176 0
156 176 0
155 176 0
156 176 0
156 176 0
156 177 0
155 176 0
156 177 0
156 177 0
157 177 0
155 176 0
156 177 0
154 175 0
156 176 0
154 175 0
153 175 0
155 176 0
155 177 0
152 173 0
154 175 0
154 175 0
156 176 0
155 176 0
156 177 0
155 176 0
154 174 0
153 175 0
154 175 0
153 174 0
154 175 0
152 173 0
155 176 0
155 175 0
156 176 0
154 174 0
153 174 0
154 174 0
155 176 0
153 172 0
154 175 0
153 173 0
155 175 0
154 175 0
154 174 0
154 175 0
154 174 0
154 174 0
155 175 0
149 169 0
150 170 0
153 173 0
150 172 0
148 169 0
152 172 0
151 170 0
153 173 0
151 170 0
151 172 0
151 171 0
148 168 0
149 169 0
148 167 0
148 167 0
146 163 0
150 169 0
146 165 0
146 164 0
147 165 0
148 165 0
143 160 0
140 156 0
145 159 0
145 158 0
138 152 0
130 140 0
136 145 0
128 135 0
116 129 45
50 79 92
50 80 108
48 76 94
48 76 96
50 79 97
47 75 85
49 77 104
48 76 96
48 76 97
48 76 95
44 70 83
47 74 93
46 72 93
42 67 72
42 67 77
41 66 80
41 65 92
40 64 68
36 58 69
37 59 65
36 58 55
35 57 55
35 56 64
32 52 56
30 49 46
32 52 44
32 52 50
119 138 37
154 176 0
157 178 32
222 235 250
141 156 169
50 79 102
53 85 115
55 87 118
51 81 98
53 85 111
56 88 118
53 84 109
56 88 117
55 88 125
57 89 130
56 88 117
58 92 125
58 91 120
58 91 124
57 90 120
57 90 123
58 91 125
58 92 135
60 93 138
59 92 131
58 92 122
59 93 127
60 94 134
58 91 120
58 91 125
59 93 131
59 93 125
59 94 131
59 92 128
58 92 135
58 92 121
59 93 123
58 91 129
59 93 128
59 93 129
58 92 126
60 94 134
57 91 119
59 93 134
58 91 121
58 91 117
60 94 134
59 92 126
59 93 130
60 94 142
60 94 134
59 92 130
60 94 137
60 94 130
57 90 115
60 94 129
60 94 137
58 91 126
59 93 126
57 90 118
57 90 124
59 92 131
60 95 135
61 94 137
59 93 126
58 92 129
58 91 131
59 93 131
58 92 116
59 92 126
58 91 132
57 90 120
57 91 115
58 91 123
59 92 121
58 92 126
58 91 120
59 93 125
60 94 129
59 93 119
59 92 121
58 91 123
58 92 123
57 90 121
59 92 126
58 90 117
59 92 122
57 89 120
55 86 105
60 93 134
58 91 126
57 88 118
56 86 108
56 86 111
57 89 113
58 90 123
56 88 107
55 84 108
53 81 101
55 85 108
55 85 110
54 82 103
54 82 102
52 78 99
48 72 77
123 137 144
220 232 246
156 153 11
157 153 0
113 112 13
30 38 15
31 41 10
30 39 13
30 39 16
32 41 20
34 44 21
37 47 27
37 48 24
36 46 24
39 50 31
39 51 27
42 54 30
39 51 28
44 57 35
44 58 43
44 58 32
44 57 35
46 61 42
47 63 42
44 59 40
47 62 44
47 63 45
47 62 43
49 66 47
51 68 46
50 67 46
50 67 46
96 98 30
134 131 0
127 124 0
136 134 0
138 135 0
135 133 0
140 138 0
142 140 0
144 141 0
146 143 0
143 142 0
145 142 0
148 146 0
148 146 0
146 145 0
149 147 0
147 145 0
147 146 0
150 147 0
151 148 0
150 149 0
147 145 0
150 148 0
150 148 0
154 151 0
150 148 0
154 151 0
152 150 0
153 150 0
151 149 0
153 150 0
151 149 0
152 150 0
152 149 0
153 150 0
154 151 0
155 152 0
152 150 0
153 151 0
155 153 0
154 150 0
155 152 0
156 153 0
154 151 0
155 152 0
154 151 0
155 152 0
155 152 0
155 152 0
153 151 0
156 153 0
153 151 0
153 151 0
153 151 0
155 152 0
154 152 0
155 151 0
156 153 0
155 152 0
155 152 0
155 152 0
153 151 0
157 153 0
156 153 0
155 152 0
155 152 0
153 151 0
157 153 0
155 153 0
156 153 0
155 152 0
154 152 0
155 153 0
155 153 0
155 152 0
156 153 0
154 152 0
156 153 0
155 152 0
157 153 0
154 152 0
155 152 0
155 153 0
155 153 0
156 153 0
157 153 0
154 152 0
154 152 0
156 153 0
156 153 0
156 153 0
156 153 0
156 153 0
156 153 0
155 152 0
157 153 0
155 152 0
154 152 0
157 153 0
158 154 0
155 152 0
157 153 0
156 153 0
156 153 0
155 153 0
156 153 0
155 152 0
155 153 0
155 153 0
156 153 0
157 154 0
156 153 0
155 153 0
158 154 0
156 153 0
156 153 0
155 153 0
157 153 0
154 176 0
156 176 0
157 177 0
154 176 0
155 176 0
155 176 0
155 176 0
155 176 0
156 177 0
155 177 0
156 177 0
155 177 0
154 175 0
157 177 0
156 177 0
154 176 0
156 177 0
156 177 0
155 176 0
156 177 0
156 177 0
157 178 0
154 176 0
155 177 0
155 176 0
156 177 0
154 176 0
153 175 0
156 176 0
155 176 0
156 176 0
155 175 0
156 177 0
158 178 0
154 174 0
155 176 0
156 177 0
155 176 0
156 176 0
155 176 0
154 176 0
156 177 0
154 175 0
155 177 0
153 175 0
156 177 0
155 176 0
155 176 0
155 175 0
153 174 0
157 177 0
153 174 0
152 173 0
155 175 0
154 175 0
154 175 0
153 175 0
155 175 0
153 175 0
156 176 0
155 175 0
156 176 0
152 173 0
154 174 0
155 176 0
152 173 0
152 173 0
153 173 0
155 176 0
155 175 0
153 175 0
154 174 0
154 174 0
153 174 0
154 175 0
155 175 0
154 175 0
152 174 0
152 173 0
153 173 0
150 171 0
151 171 0
152 172 0
152 173 0
151 172 0
153 174 0
151 171 0
150 170 0
152 171 0
152 171 0
154 174 0
151 172 0
152 172 0
150 171 0
150 170 0
145 164 0
148 168 0
147 167 0
148 168 0
148 168 0
148 168 0
146 166 0
151 172 0
150 169 0
148 168 0
145 164 0
144 162 0
140 158 0
144 161 0
142 159 0
138 154 0
138 153 0
137 153 0
140 154 0
130 141 0
136 147 0
129 139 0
122 133 0
58 83 84
47 74 91
47 75 88
50 79 98
49 77 89
47 75 90
46 73 86
45 72 88
43 69 82
45 72 78
45 72 85
43 70 84
44 70 85
43 69 79
43 68 72
38 60 76
42 67 73
39 63 70
38 61 61
37 59 62
36 59 54
33 54 49
32 52 54
30 49 41
30 48 34
31 51 51
54 72 48
148 168 9
155 176 0
167 187 92
217 232 234
168 183 172
49 78 85
50 80 111
52 82 101
52 83 107
53 84 113
54 85 113
55 87 114
55 87 113
55 87 112
56 89 116
55 88 113
55 87 116
58 92 116
57 91 128
58 91 123
58 91 126
57 91 119
58 92 123
57 90 122
58 91 126
58 92 131
59 94 132
59 93 133
58 92 120
57 90 119
59 93 136
59 93 129
57 90 120
58 91 121
57 91 114
57 91 117
59 92 117
59 93 126
58 91 117
58 92 122
58 92 133
57 91 115
58 91 126
59 92 118
58 92 117
58 92 128
59 94 130
61 95 130
57 91 128
58 92 130
57 91 109
59 94 131
59 93 134
59 93 132
60 95 142
59 93 131
58 91 113
59 93 126
58 92 130
58 92 118
60 94 126
58 91 126
58 92 126
57 90 122
56 89 104
59 93 126
58 92 130
59 92 129
58 91 124
59 93 131
61 95 137
58 91 121
56 88 108
58 92 120
59 93 138
58 91 118
56 89 112
59 93 129
58 92 128
59 93 129
58 92 129
58 90 117
57 90 116
58 91 126
58 90 117
56 88 107
59 92 128
58 91 127
57 89 125
56 87 112
58 90 119
56 87 118
57 89 119
56 87 113
56 87 114
57 88 120
55 85 115
56 86 105
55 86 110
54 83 100
56 87 113
52 81 100
54 81 104
51 77 81
50 76 91
178 191 194
218 232 237
171 174 108
155 153 0
149 147 5
50 54 8
29 37 15
32 41 10
34 43 17
33 41 13
34 44 24
33 43 16
38 48 25
40 51 29
41 53 29
42 53 32
41 53 25
40 52 32
41 53 31
44 57 40
45 58 37
45 60 34
46 61 42
47 62 44
47 62 47
47 62 42
47 63 45
46 61 39
49 65 45
49 65 48
48 65 46
55 70 43
127 125 8
127 125 0
122 122 0
137 135 0
140 137 0
138 136 0
140 138 0
138 137 0
139 138 0
142 140 0
141 139 0
138 137 0
149 146 0
141 139 0
145 142 0
148 146 0
150 148 0
149 146 0
145 143 0
150 147 0
153 150 0
151 149 0
153 150 0
149 147 0
149 147 0
150 148 0
149 147 0
152 149 0
153 151 0
149 146 0
150 148 0
151 149 0
153 151 0
152 149 0
152 151 0
152 150 0
152 149 0
152 150 0
154 151 0
154 152 0
154 151 0
151 149 0
154 152 0
153 150 0
153 151 0
156 153 0
150 147 0
155 152 0
156 152 0
154 152 0
154 152 0
153 151 0
153 150 0
155 152 0
154 151 0
152 150 0
154 152 0
153 149 0
152 150 0
155 152 0
154 152 0
154 151 0
155 152 0
155 153 0
154 152 0
154 151 0
154 152 0
156 153 0
155 152 0
154 152 0
155 153 0
157 153 0
154 152 0
155 152 0
154 152 0
157 153 0
155 153 0
154 151 0
156 153 0
155 152 0
154 152 0
155 153 0
156 153 0
155 152 0
155 152 0
156 153 0
157 153 0
155 153 0
156 152 0
154 152 0
156 153 0
155 153 0
156 153 0
156 153 0
155 152 0
155 152 0
157 154 0
153 151 0
156 153 0
156 152 0
156 153 0
155 153 0
155 152 0
154 152 0
156 153 0
156 153 0
155 152 0
154 151 0
156 153 0
157 154 0
154 152 0
156 153 0
156 153 0
156 153 0
155 153 0
156 153 0
156 153 0
156 153 0
155 176 0
155 176 0
156 177 0
154 175 0
156 177 0
154 175 0
156 177 0
156 177 0
155 176 0
156 177 0
155 176 0
156 177 0
154 175 0
155 176 0
155 176 0
156 177 0
156 176 0
154 175 0
155 176 0
154 176 0
156 177 0
156 177 0
155 176 0
155 176 0
155 176 0
156 177 0
155 176 0
154 174 0
154 175 0
153 174 0
155 175 0
154 175 0
155 176 0
154 175 0
155 175 0
153 175 0
153 174 0
154 176 0
154 175 0
155 176 0
156 176 0
154 176 0
154 176 0
154 175 0
155 176 0
154 175 0
155 175 0
155 176 0
154 175 0
153 174 0
155 175 0
155 175 0
154 175 0
154 175 0
156 176 0
155 176 0
155 175 0
152 173 0
152 173 0
154 175 0
155 175 0
156 176 0
155 175 0
154 176 0
153 174 0
155 176 0
153 174 0
152 173 0
154 175 0
151 173 0
152 172 0
152 173 0
155 175 0
153 174 0
154 174 0
154 174 0
154 174 0
149 170 0
154 175 0
150 170 0
151 171 0
151 172 0
150 172 0
152 173 0
152 172 0
152 172 0
149 170 0
150 170 0
152 172 0
151 172 0
152 172 0
149 169 0
150 170 0
147 167 0
146 166 0
149 169 0
149 170 0
151 171 0
143 163 0
147 167 0
147 167 0
145 163 0
144 162 0
139 158 0
146 165 0
139 158 0
141 159 0
142 159 0
139 156 0
145 164 0
141 158 0
141 157 0
136 151 0
132 149 0
137 154 0
132 146 0
123 138 0
123 136 0
90 109 57
48 76 85
48 75 92
49 77 94
45 72 86
47 75 85
46 73 80
47 74 86
46 73 81
45 71 88
45 71 76
45 71 72
42 68 75
44 70 85
43 68 70
41 66 65
38 61 73
41 65 67
37 60 54
37 61 63
35 56 57
34 56 43
35 57 51
32 51 51
32 52 28
33 53 38
114 133 32
155 176 0
156 177 0
164 186 0
175 198 0
163 185 27
49 78 100
48 77 86
52 83 104
54 85 120
55 87 114
55 87 115
56 88 118
55 86 104
56 88 119
58 92 130
56 88 118
55 88 118
57 90 119
57 90 118
57 90 123
58 92 126
56 89 116
59 92 130
55 87 108
58 91 124
58 92 123
58 92 123
58 92 127
57 91 116
58 92 122
58 92 126
60 94 134
59 93 135
58 92 125
58 92 129
57 91 125
60 93 127
59 93 136
59 92 126
59 93 128
58 91 120
58 92 124
58 92 131
57 91 118
59 92 127
57 90 114
61 95 136
59 93 141
59 92 126
58 92 118
58 91 120
58 92 121
58 92 124
59 93 130
57 90 115
58 92 121
59 93 130
60 94 139
60 94 130
61 95 136
55 88 101
58 92 118
59 93 133
57 90 120
57 91 108
58 91 125
59 92 125
58 91 128
59 93 124
59 92 131
58 92 123
58 92 122
58 92 124
57 90 115
58 92 126
58 91 117
59 94 135
58 92 122
57 89 117
59 93 124
58 92 121
58 91 112
57 89 117
58 91 120
58 91 132
58 91 125
57 89 113
59 92 133
57 89 115
57 89 118
56 88 111
56 87 105
57 90 116
56 87 107
57 89 121
56 86 105
57 88 118
57 89 120
55 85 99
54 82 100
54 83 106
53 81 105
53 81 99
51 75 90
47 69 73
160 181 11
173 197 0
166 179 0
154 151 0
151 149 0
110 110 15
34 44 19
29 36 7
30 39 13
37 47 22
33 42 14
37 48 27
36 47 18
38 49 28
37 48 24
39 50 19
38 50 27
41 53 27
42 55 30
43 56 31
44 57 36
47 62 41
46 60 34
43 56 29
46 62 41
46 60 42
47 63 39
46 62 40
47 64 41
48 64 43
49 66 48
94 99 30
119 119 0
125 123 0
133 131 0
134 132 0
135 134 0
131 129 0
140 138 0
141 139 0
134 133 0
141 139 0
143 142 0
145 142 0
146 145 0
140 139 0
146 143 0
144 142 0
148 146 0
144 142 0
146 144 0
146 144 0
149 146 0
148 146 0
147 146 0
147 145 0
148 146 0
149 147 0
151 149 0
148 146 0
148 146 0
151 149 0
151 149 0
153 149 0
151 149 0
153 150 0
150 148 0
151 149 0
153 151 0
152 150 0
152 150 0
152 150 0
151 149 0
155 152 0
151 148 0
152 150 0
154 151 0
154 151 0
154 151 0
153 151 0
152 150 0
153 149 0
154 152 0
153 151 0
154 151 0
154 152 0
153 151 0
153 151 0
152 150 0
154 151 0
153 151 0
153 150 0
154 151 0
155 151 0
152 150 0
155 152 0
152 150 0
154 152 0
155 152 0
154 152 0
155 152 0
155 152 0
155 153 0
154 151 0
155 152 0
154 152 0
155 152 0
155 152 0
154 151 0
153 151 0
155 152 0
153 150 0
154 151 0
155 153 0
155 152 0
155 152 0
153 151 0
155 153 0
155 152 0
155 152 0
157 153 0
157 153 0
155 152 0
153 151 0
154 152 0
155 153 0
157 154 0
156 153 0
155 153 0
155 153 0
155 152 0
156 153 0
156 152 0
155 153 0
157 153 0
157 153 0
156 152 0
154 152 0
155 152 0
157 153 0
155 153 0
156 153 0
154 152 0
156 153 0
154 152 0
155 153 0
157 154 0
157 153 0
156 153 0
157 153 0
155 176 0
156 177 0
156 177 0
155 176 0
154 175 0
156 177 0
154 176 0
155 176 0
157 177 0
157 178 0
155 176 0
157 177 0
156 176 0
156 177 0
155 176 0
154 176 0
156 177 0
155 176 0
154 175 0
156 177 0
155 176 0
156 177 0
156 177 0
155 176 0
155 176 0
155 177 0
153 175 0
154 176 0
154 175 0
155 176 0
154 175 0
155 176 0
156 177 0
153 174 0
153 175 0
153 174 0
154 176 0
156 177 0
156 177 0
156 177 0
153 175 0
156 176 0
156 177 0
156 176 0
153 175 0
156 176 0
151 172 0
154 176 0
155 176 0
156 176 0
153 174 0
155 176 0
155 176 0
153 175 0
155 175 0
155 176 0
153 174 0
153 175 0
152 173 0
154 174 0
154 175 0
154 175 0
156 176 0
153 174 0
151 172 0
153 174 0
153 173 0
152 174 0
151 171 0
152 172 0
153 175 0
154 174 0
151 171 0
151 173 0
153 173 0
151 172 0
152 173 0
153 174 0
154 175 0
153 173 0
152 173 0
153 174 0
153 173 0
149 170 0
153 173 0
150 171 0
149 169 0
154 174 0
148 169 0
149 169 0
149 171 0
147 168 0
148 169 0
147 168 0
143 162 0
148 168 0
146 167 0
143 163 0
148 166 0
148 167 0
144 164 0
142 162 0
143 163 0
143 163 0
141 159 0
140 159 0
140 158 0
141 160 0
139 157 0
130 147 0
139 156 0
133 150 0
141 159 0
133 149 0
127 143 0
128 144 0
122 138 0
117 131 0
117 132 16
58 83 82
47 74 85
46 73 80
46 73 77
48 76 81
46 73 94
43 69 76
44 69 76
44 70 77
46 73 85
43 68 79
44 71 76
41 65 74
41 65 77
42 66 79
40 64 76
37 60 61
40 64 64
36 58 49
33 54 54
33 54 43
34 56 42
31 50 40
37 59 50
54 74 49
151 171 0
155 176 0
154 176 0
169 192 0
173 196 0
172 196 16
74 98 78
52 83 112
53 84 95
54 85 108
55 87 113
55 87 119
53 84 105
56 89 124
55 87 108
56 89 123
56 89 125
57 89 120
56 88 115
57 91 123
57 91 120
58 91 132
56 89 123
57 90 123
58 92 120
60 94 137
57 90 125
58 91 114
59 93 131
57 91 119
60 94 133
56 89 112
58 91 115
57 91 124
58 92 121
58 92 121
57 90 126
59 92 134
60 94 129
58 92 123
58 91 118
60 93 139
60 94 126
57 91 121
60 94 137
58 92 126
59 93 129
58 92 121
58 92 125
59 93 124
57 91 114
59 93 124
59 93 120
58 91 111
59 93 130
59 93 126
59 93 129
59 94 130
60 95 140
59 93 128
58 92 129
56 88 114
58 91 113
57 90 117
58 92 108
59 93 121
59 93 125
58 90 111
57 90 120
57 91 113
58 92 120
58 92 125
59 92 125
59 93 132
57 90 116
57 90 114
59 92 120
60 94 139
59 92 125
59 93 124
58 91 122
58 91 120
57 89 120
58 90 124
56 88 103
56 88 109
58 91 120
59 91 121
57 89 116
57 88 117
57 89 111
58 89 117
58 89 120
57 89 118
57 89 116
56 86 114
56 86 115
54 83 104
54 83 94
56 85 105
56 86 112
54 83 101
51 79 92
52 79 87
49 74 78
72 91 62
175 198 0
175 198 0
173 193 0
154 151 0
154 151 0
152 149 0
73 77 26
33 43 14
34 42 21
33 41 17
34 43 15
35 44 12
35 44 23
36 46 27
39 50 22
40 52 28
39 51 29
42 54 31
41 53 31
44 59 29
45 60 38
47 61 38
44 58 37
46 60 37
48 64 39
45 59 31
47 63 44
48 64 43
50 67 51
47 63 40
56 70 40
120 119 11
119 119 0
127 125 0
137 135 0
130 128 0
133 131 0
130 128 0
131 130 0
133 133 0
131 130 0
142 140 0
141 141 0
142 140 0
139 137 0
143 141 0
141 139 0
147 145 0
146 144 0
146 144 0
149 147 0
147 144 0
149 147 0
151 149 0
150 148 0
152 150 0
148 145 0
148 146 0
149 146 0
147 145 0
152 148 0
153 150 0
152 149 0
152 149 0
150 147 0
150 148 0
149 147 0
152 149 0
149 147 0
148 146 0
151 149 0
151 149 0
155 152 0
153 150 0
154 151 0
152 149 0
152 150 0
153 150 0
154 151 0
152 150 0
154 151 0
152 149 0
154 152 0
153 150 0
151 149 0
154 151 0
155 152 0
153 150 0
153 151 0
155 152 0
154 151 0
156 152 0
155 152 0
153 151 0
155 152 0
155 152 0
154 151 0
156 152 0
154 151 0
155 151 0
155 152 0
153 150 0
152 150 0
155 152 0
154 151 0
154 151 0
154 152 0
153 151 0
155 152 0
153 151 0
154 152 0
155 151 0
157 154 0
155 152 0
154 150 0
154 151 0
155 153 0
156 153 0
154 151 0
156 153 0
154 152 0
155 152 0
153 151 0
155 153 0
156 152 0
155 152 0
156 153 0
155 153 0
154 151 0
154 152 0
156 153 0
155 152 0
153 152 0
155 153 0
154 152 0
156 153 0
157 153 0
154 152 0
156 153 0
155 152 0
156 153 0
156 153 0
155 153 0
155 152 0
154 152 0
156 153 0
156 153 0
157 153 0
155 153 0
156 153 0
156 176 0
154 176 0
154 175 0
156 176 0
156 177 0
155 177 0
155 176 0
153 175 0
157 177 0
155 176 0
156 177 0
156 177 0
154 175 0
154 175 0
157 177 0
157 177 0
153 175 0
154 176 0
155 176 0
154 176 0
154 175 0
155 176 0
155 176 0
156 176 0
156 177 0
155 176 0
155 176 0
156 177 0
155 176 0
154 175 0
156 176 0
155 176 0
154 176 0
155 176 0
154 175 0
151 172 0
153 174 0
153 174 0
155 176 0
155 176 0
155 176 0
155 176 0
154 175 0
154 175 0
152 173 0
153 175 0
153 174 0
154 175 0
153 174 0
154 175 0
154 175 0
155 175 0
152 174 0
152 173 0
154 175 0
154 175 0
154 176 0
152 172 0
154 174 0
155 176 0
153 173 0
153 173 0
153 173 0
154 174 0
151 172 0
154 175 0
153 174 0
154 175 0
151 172 0
150 171 0
155 175 0
153 173 0
150 171 0
152 173 0
153 174 0
153 172 0
150 172 0
146 166 0
150 171 0
150 172 0
152 173 0
148 168 0
151 171 0
147 167 0
147 167 0
151 171 0
149 170 0
149 168 0
152 171 0
150 171 0
144 164 0
142 162 0
147 168 0
149 170 0
145 165 0
149 169 0
147 167 0
142 161 0
144 163 0
146 166 0
142 161 0
143 164 0
144 162 0
146 165 0
140 159 0
133 152 0
136 155 0
138 157 0
140 159 0
134 151 0
136 156 0
130 147 0
129 146 0
133 150 0
120 136 0
123 138 0
115 130 0
117 133 0
115 131 0
93 110 56
46 72 75
48 75 85
46 73 75
43 69 73
44 70 74
43 68 72
44 69 88
44 69 76
44 71 77
44 70 71
39 62 59
41 66 62
42 68 81
41 65 65
42 67 77
37 59 57
37 59 62
36 58 48
36 59 44
33 54 39
35 56 39
35 56 55
37 58 47
130 149 24
153 174 0
153 173 0
158 179 0
175 198 0
173 197 0
174 198 0
113 134 62
52 82 109
51 81 102
54 85 116
53 84 101
51 81 107
53 84 106
56 88 117
54 86 107
56 88 117
58 91 118
56 89 120
57 90 118
57 91 129
59 92 119
58 92 130
57 90 123
58 92 121
56 88 112
58 91 119
56 89 115
59 94 127
57 89 117
59 92 127
58 92 110
58 91 119
57 90 122
58 92 122
59 93 132
56 89 106
56 89 118
57 90 112
58 92 115
57 91 119
58 92 126
57 91 113
59 92 122
59 92 125
56 88 112
58 92 121
58 91 118
59 93 130
59 93 121
57 90 120
59 93 121
57 90 122
57 91 113
58 91 114
57 90 114
59 92 117
58 91 125
59 93 124
57 91 125
58 92 131
57 90 111
58 92 122
59 92 121
58 92 121
58 91 114
58 91 126
58 92 125
57 90 124
58 92 118
59 93 129
57 91 120
58 91 117
59 92 125
59 92 120
58 91 120
58 91 124
58 91 121
57 90 117
58 91 118
58 90 117
57 90 123
57 90 111
58 92 124
57 90 123
57 90 121
58 90 120
60 93 125
59 92 125
58 90 114
58 91 120
58 90 117
55 85 107
57 89 108
56 87 113
57 88 108
58 90 120
55 85 111
56 86 100
56 86 121
54 83 97
55 85 103
53 82 97
53 82 95
53 81 106
49 74 87
105 123 46
175 198 0
174 197 0
175 198 0
156 156 0
152 150 0
150 147 0
121 121 2
39 47 18
35 45 19
36 45 14
36 46 16
32 41 16
38 48 27
36 48 20
37 47 19
39 51 25
40 51 28
44 56 36
43 55 32
44 58 32
43 56 31
44 57 33
44 58 29
45 60 39
45 60 36
43 57 35
46 61 42
43 58 29
46 63 40
47 63 41
95 98 22
117 117 0
125 122 0
116 116 0
128 127 0
127 126 0
116 117 0
123 122 0
134 132 0
135 134 0
136 135 0
135 134 0
139 138 0
144 142 0
141 140 0
141 139 0
140 138 0
142 140 0
148 146 0
143 142 0
143 141 0
146 144 0
146 143 0
145 144 0
144 142 0
149 146 0
143 142 0
145 144 0
147 145 0
148 146 0
147 145 0
146 143 0
150 147 0
148 146 0
144 143 0
146 144 0
152 149 0
153 150 0
150 147 0
153 150 0
148 147 0
147 146 0
150 148 0
148 146 0
149 147 0
151 149 0
153 150 0
150 148 0
151 149 0
152 151 0
152 150 0
153 151 0
152 150 0
156 152 0
152 150 0
154 151 0
156 153 0
152 150 0
153 151 0
154 151 0
152 150 0
155 152 0
152 150 0
153 151 0
154 151 0
153 150 0
152 149 0
153 150 0
154 151 0
153 150 0
152 150 0
153 151 0
155 152 0
154 151 0
154 151 0
155 152 0
153 150 0
155 153 0
156 153 0
154 152 0
154 151 0
154 151 0
155 152 0
153 150 0
156 153 0
154 150 0
153 151 0
155 151 0
156 152 0
154 151 0
155 152 0
154 152 0
155 152 0
153 150 0
157 153 0
155 152 0
155 152 0
154 152 0
155 152 0
156 153 0
156 153 0
154 151 0
155 153 0
156 153 0
155 152 0
152 150 0
156 153 0
155 152 0
155 152 0
156 153 0
156 152 0
155 153 0
154 152 0
155 152 0
153 151 0
156 153 0
156 153 0
154 152 0
156 152 0
155 152 0
157 177 0
154 176 0
157 178 0
156 177 0
156 177 0
155 176 0
155 176 0
156 177 0
155 176 0
156 177 0
156 177 0
155 176 0
156 176 0
156 177 0
155 176 0
156 177 0
156 176 0
156 177 0
155 176 0
156 177 0
156 177 0
155 176 0
155 175 0
155 176 0
156 177 0
155 176 0
154 175 0
153 174 0
154 175 0
153 175 0
153 174 0
155 176 0
156 177 0
156 177 0
155 176 0
154 175 0
154 175 0
153 174 0
155 175 0
154 175 0
155 175 0
155 176 0
154 175 0
154 174 0
154 175 0
155 176 0
152 173 0
154 175 0
154 175 0
154 175 0
154 174 0
156 176 0
152 173 0
153 174 0
154 174 0
155 175 0
152 173 0
152 173 0
154 174 0
151 172 0
155 175 0
153 175 0
153 174 0
155 176 0
149 169 0
153 173 0
154 175 0
154 176 0
150 171 0
153 174 0
150 171 0
151 172 0
153 173 0
150 170 0
149 170 0
151 171 0
151 172 0
150 171 0
152 173 0
148 169 0
149 169 0
150 170 0
150 170 0
146 168 0
151 172 0
147 167 0
149 169 0
147 168 0
149 169 0
147 168 0
147 167 0
148 168 0
149 168 0
146 167 0
142 159 0
148 168 0
137 157 0
147 167 0
144 164 0
145 164 0
143 165 0
139 158 0
140 159 0
141 161 0
144 163 0
141 160 0
132 150 0
136 155 0
133 151 0
135 155 0
122 141 0
134 152 0
132 150 0
131 148 0
120 137 0
116 133 0
112 128 0
115 131 0
111 127 0
109 125 0
68 86 51
46 73 78
44 70 70
43 69 75
44 71 78
47 74 69
44 70 80
47 74 79
44 70 78
42 67 72
43 69 66
42 67 62
40 64 62
43 68 66
42 67 72
40 64 66
39 62 64
39 63 62
33 53 42
38 61 51
35 56 44
34 55 37
115 135 39
146 166 0
145 166 0
153 174 0
166 188 0
172 196 0
173 197 0
171 195 0
142 164 48
47 75 86
51 81 100
50 79 92
52 83 102
55 87 127
57 90 130
56 88 117
55 87 120
54 86 111
56 88 111
56 88 114
58 92 124
57 90 111
56 90 112
57 91 118
59 92 129
55 87 109
57 90 124
55 88 108
56 89 120
57 91 125
57 90 115
56 89 114
58 91 120
55 88 110
58 91 127
59 93 125
57 90 112
56 89 118
57 90 121
59 93 129
59 93 122
58 93 122
56 88 114
58 92 119
59 92 119
59 93 122
59 93 129
59 93 122
58 91 125
59 94 131
57 90 114
59 94 126
57 90 114
58 91 114
57 91 121
58 92 111
59 92 122
58 92 118
59 93 125
59 92 129
59 92 128
58 91 125
58 92 125
58 91 122
59 93 128
59 92 128
59 94 128
57 89 117
58 92 121
58 91 117
57 89 107
59 92 123
58 91 118
61 95 134
58 91 123
60 93 126
59 93 129
57 89 107
56 89 111
58 91 124
58 91 117
58 92 130
57 89 120
58 90 116
58 91 120
58 91 116
58 90 111
59 92 125
57 89 113
58 91 121
58 89 120
57 89 118
57 88 109
57 88 118
57 88 112
57 88 109
56 86 109
53 83 104
57 88 114
55 84 102
53 82 102
54 82 95
55 84 111
52 80 89
50 77 98
49 75 73
48 71 74
144 167 57
175 198 0
177 199 0
173 197 0
165 176 0
151 149 0
152 150 0
148 145 0
114 115 13
36 46 17
36 46 6
32 40 16
34 43 16
33 42 7
38 49 19
36 47 18
39 50 14
40 52 26
42 54 29
40 52 24
40 54 26
44 57 28
42 56 30
42 56 33
45 60 37
44 59 34
45 60 40
46 62 38
45 60 37
46 61 42
74 82 28
104 104 0
114 113 0
111 110 0
114 115 0
120 120 0
122 122 0
131 130 0
128 127 0
124 123 0
133 131 0
140 138 0
136 134 0
137 136 0
135 133 0
144 142 0
137 136 0
139 137 0
147 144 0
138 137 0
136 135 0
140 140 0
143 140 0
144 143 0
140 139 0
145 143 0
144 142 0
145 143 0
146 144 0
151 149 0
148 146 0
152 150 0
146 144 0
142 141 0
149 147 0
151 148 0
150 146 0
148 146 0
151 149 0
147 145 0
150 147 0
148 146 0
146 144 0
154 151 0
153 149 0
148 147 0
149 147 0
148 147 0
151 149 0
149 147 0
153 150 0
154 151 0
153 150 0
154 151 0
154 151 0
154 150 0
152 151 0
153 150 0
151 149 0
153 151 0
154 151 0
152 149 0
152 151 0
153 150 0
153 151 0
153 151 0
154 151 0
155 151 0
154 150 0
152 150 0
153 150 0
155 152 0
154 152 0
152 149 0
154 151 0
152 149 0
154 151 0
153 150 0
155 152 0
154 152 0
154 151 0
154 152 0
156 153 0
154 151 0
154 151 0
155 151 0
155 152 0
155 153 0
154 152 0
156 153 0
155 152 0
156 153 0
154 152 0
154 152 0
155 152 0
156 152 0
154 151 0
155 152 0
155 152 0
156 153 0
154 152 0
157 153 0
155 152 0
154 151 0
154 152 0
155 152 0
155 152 0
156 152 0
155 152 0
154 152 0
156 153 0
157 153 0
156 153 0
154 151 0
155 153 0
155 152 0
155 152 0
155 152 0
155 153 0
156 153 0
154 151 0
156 177 0
156 177 0
156 177 0
156 177 0
154 174 0
155 175 0
154 175 0
154 175 0
155 176 0
156 177 0
154 176 0
154 175 0
156 177 0
156 177 0
155 175 0
154 176 0
153 174 0
154 175 0
156 177 0
155 176 0
154 175 0
156 176 0
154 175 0
155 176 0
155 176 0
156 177 0
154 175 0
153 174 0
156 177 0
154 175 0
154 175 0
153 174 0
153 174 0
156 176 0
154 175 0
153 174 0
151 172 0
153 174 0
154 175 0
153 175 0
154 175 0
153 173 0
155 175 0
155 175 0
154 174 0
151 173 0
153 173 0
154 175 0
155 177 0
152 173 0
153 174 0
156 176 0
154 175 0
154 175 0
152 173 0
152 174 0
150 170 0
153 174 0
153 175 0
151 173 0
152 173 0
152 172 0
151 173 0
153 174 0
151 171 0
152 173 0
151 171 0
152 173 0
154 175 0
149 170 0
152 172 0
152 172 0
148 169 0
148 168 0
151 172 0
153 174 0
152 172 0
152 172 0
147 167 0
147 168 0
149 168 0
151 172 0
149 169 0
149 169 0
151 171 0
149 170 0
149 170 0
140 161 0
150 171 0
148 168 0
146 165 0
141 161 0
142 163 0
144 164 0
144 164 0
140 161 0
144 165 0
136 156 0
144 163 0
141 160 0
138 158 0
133 152 0
138 157 0
130 149 0
136 154 0
135 156 0
129 148 0
141 161 0
132 151 0
126 144 0
121 139 0
128 146 0
126 146 0
118 137 0
115 131 0
124 141 0
106 122 0
112 127 0
118 133 0
112 127 0
109 122 16
44 68 69
44 70 70
46 73 83
44 70 72
42 68 58
43 68 65
43 68 69
41 66 66
42 67 61
40 64 60
41 65 68
39 62 50
40 64 54
38 61 60
38 62 55
39 63 56
36 58 55
36 57 53
35 56 38
36 58 41
97 116 32
146 166 0
148 170 0
151 172 0
152 172 0
172 194 0
173 196 0
176 198 0
176 198 0
170 194 16
53 83 88
53 84 111
52 83 109
52 82 98
52 83 104
55 87 114
54 86 106
56 89 111
56 89 109
57 90 121
54 86 98
57 90 114
55 88 105
57 90 124
58 91 129
56 88 115
58 91 124
57 90 120
59 93 118
56 90 110
56 89 116
57 90 113
59 93 125
57 90 127
59 93 123
57 91 113
57 89 121
59 93 130
59 92 122
58 91 117
58 92 129
58 91 119
57 89 121
57 90 109
58 92 118
59 93 128
58 91 124
59 92 128
56 90 124
59 92 125
59 93 130
56 89 115
57 90 115
60 94 134
59 92 120
57 91 119
58 92 120
59 92 125
59 92 121
57 90 117
57 89 117
57 90 108
60 94 131
59 92 125
58 91 124
58 92 125
57 89 108
60 94 129
60 93 134
57 90 111
58 91 126
55 86 114
57 89 108
59 92 123
58 91 121
58 91 118
58 91 117
57 90 110
57 89 116
56 89 105
59 92 117
58 92 118
58 91 118
58 91 119
59 93 130
59 93 129
57 90 112
57 89 118
58 91 123
57 88 100
53 83 86
57 89 114
56 88 105
59 90 120
55 87 106
57 87 110
55 85 100
56 86 106
56 87 108
55 85 103
56 85 118
54 83 92
55 84 101
55 84 103
54 83 93
52 79 95
51 78 87
65 88 83
170 193 18
174 198 0
175 198 0
174 197 0
172 192 0
152 149 0
152 150 0
152 149 0
144 143 0
97 99 17
35 44 14
37 47 16
37 47 19
39 50 15
38 49 24
36 46 11
41 53 24
40 52 26
39 50 20
42 55 33
41 53 24
45 59 31
43 56 39
43 57 30
45 58 32
43 57 32
43 58 35
45 60 40
41 56 27
52 63 26
99 100 0
96 96 0
109 108 0
109 110 0
124 122 0
120 120 0
121 119 0
124 123 0
131 129 0
126 124 0
128 128 0
131 129 0
133 131 0
135 134 0
142 140 0
133 133 0
133 131 0
143 140 0
143 141 0
141 139 0
139 136 0
143 140 0
141 140 0
142 141 0
142 140 0
148 147 0
143 141 0
145 143 0
145 143 0
142 139 0
149 147 0
144 142 0
145 144 0
148 145 0
146 145 0
149 148 0
147 145 0
150 148 0
148 146 0
150 148 0
148 146 0
151 148 0
149 147 0
150 147 0
147 145 0
152 149 0
150 148 0
151 148 0
151 149 0
148 146 0
150 147 0
149 147 0
151 148 0
152 150 0
154 151 0
149 147 0
152 149 0
154 151 0
153 150 0
151 148 0
151 147 0
152 149 0
156 152 0
152 149 0
154 150 0
154 151 0
155 151 0
151 149 0
153 150 0
152 150 0
156 153 0
151 149 0
152 149 0
153 150 0
152 150 0
155 152 0
152 150 0
154 150 0
154 151 0
155 152 0
153 151 0
153 151 0
156 153 0
153 151 0
155 152 0
153 151 0
154 151 0
154 152 0
154 151 0
156 153 0
153 151 0
156 153 0
154 151 0
154 152 0
153 151 0
154 151 0
154 151 0
155 153 0
154 151 0
153 151 0
157 153 0
154 151 0
156 152 0
156 153 0
155 152 0
156 153 0
155 153 0
153 151 0
157 153 0
155 152 0
154 151 0
154 152 0
155 153 0
155 152 0
156 153 0
157 153 0
156 153 0
155 153 0
154 152 0
155 152 0
155 152 0
155 176 0
155 176 0
155 176 0
156 177 0
154 175 0
154 175 0
155 176 0
154 175 0
154 175 0
156 177 0
155 176 0
156 177 0
155 176 0
154 175 0
154 175 0
155 176 0
155 176 0
151 173 0
155 177 0
151 172 0
154 175 0
155 176 0
154 176 0
155 176 0
155 176 0
155 175 0
155 177 0
153 174 0
155 176 0
155 176 0
154 175 0
155 175 0
153 175 0
153 174 0
156 176 0
155 176 0
153 174 0
155 176 0
154 175 0
153 174 0
156 176 0
154 175 0
153 174 0
153 174 0
155 175 0
153 174 0
154 174 0
155 176 0
153 174 0
152 173 0
153 174 0
155 176 0
151 173 0
151 171 0
153 174 0
153 173 0
150 171 0
152 173 0
153 173 0
149 170 0
151 172 0
153 174 0
154 174 0
153 174 0
150 171 0
151 172 0
150 171 0
147 168 0
150 170 0
147 167 0
153 173 0
151 172 0
150 170 0
146 167 0
151 172 0
152 172 0
147 168 0
150 171 0
148 168 0
149 170 0
150 171 0
147 167 0
147 167 0
150 170 0
146 167 0
151 172 0
151 172 0
144 165 0
148 170 0
145 165 0
143 161 0
143 163 0
146 167 0
143 164 0
140 161 0
142 162 0
143 164 0
143 163 0
141 160 0
135 154 0
144 164 0
139 158 0
134 153 0
129 148 0
137 155 0
138 157 0
129 148 0
137 157 0
131 150 0
134 153 0
126 145 0
119 136 0
118 135 0
126 143 0
111 127 0
117 134 0
116 133 0
113 129 0
99 114 0
98 112 0
92 105 0
82 95 28
48 70 63
44 70 77
41 65 60
40 64 61
44 70 67
42 67 69
43 68 69
43 68 72
43 69 65
39 62 61
41 65 61
40 63 62
38 61 53
39 62 50
40 64 48
39 62 52
35 56 36
36 59 34
96 115 41
136 157 0
139 159 0
147 168 0
154 175 0
160 181 0
174 197 0
174 198 0
174 197 0
173 196 0
174 198 0
110 132 66
51 80 96
51 82 95
50 79 97
50 79 95
53 85 106
55 87 110
56 89 110
55 87 105
55 86 107
55 87 118
54 86 106
56 89 125
56 89 110
56 89 116
57 90 126
56 89 108
56 88 120
56 88 111
56 89 106
58 91 122
57 91 117
58 92 128
59 92 128
58 90 120
59 94 133
58 92 120
56 89 113
58 91 126
58 92 129
58 92 122
58 91 117
57 90 118
57 90 118
58 91 125
58 92 115
57 91 118
57 90 115
57 90 110
59 94 141
57 90 115
57 90 119
57 90 117
59 92 122
58 91 112
59 93 117
58 92 121
57 91 123
58 92 115
58 92 117
57 91 115
58 91 126
60 94 129
58 92 134
58 91 123
58 92 122
57 90 110
59 93 124
57 91 117
58 92 129
59 92 119
58 91 120
58 91 120
56 88 108
56 88 103
57 89 118
58 91 123
59 92 125
56 88 99
57 89 110
58 90 123
57 90 125
60 94 134
58 91 124
57 89 120
58 90 122
58 90 112
58 91 123
56 88 115
55 86 104
58 91 115
57 90 115
55 86 106
57 89 113
55 86 102
55 86 108
56 88 115
56 87 111
54 85 108
55 85 92
54 83 104
53 82 95
54 83 100
52 81 103
51 79 91
53 81 97
49 75 87
113 133 64
173 196 0
174 197 0
174 197 0
172 195 0
175 198 0
157 160 0
153 150 0
145 144 0
138 137 0
142 140 0
88 90 14
34 45 13
38 50 22
35 45 18
36 46 16
43 56 27
39 50 19
38 50 15
37 49 12
41 54 24
42 55 25
39 52 18
43 57 31
40 53 27
42 56 31
44 59 29
44 59 36
41 54 29
56 66 29
86 87 8
92 91 0
104 104 0
102 101 0
99 99 0
103 103 0
109 109 0
121 121 0
120 120 0
120 120 0
122 119 0
127 127 0
128 128 0
140 137 0
136 135 0
132 131 0
139 137 0
138 137 0
133 132 0
144 143 0
146 144 0
141 139 0
137 136 0
142 140 0
140 138 0
141 138 0
140 138 0
145 143 0
139 137 0
146 145 0
142 140 0
142 139 0
147 144 0
141 139 0
145 142 0
150 148 0
148 146 0
146 144 0
153 150 0
154 151 0
147 145 0
149 146 0
151 148 0
149 147 0
150 147 0
151 147 0
152 148 0
149 147 0
151 148 0
149 147 0
152 150 0
150 147 0
152 149 0
151 148 0
154 150 0
153 150 0
152 149 0
153 151 0
150 148 0
152 150 0
148 146 0
148 145 0
154 150 0
153 151 0
150 147 0
152 149 0
152 150 0
153 151 0
152 149 0
151 149 0
151 149 0
152 150 0
151 148 0
154 152 0
153 150 0
153 150 0
155 152 0
153 150 0
153 151 0
153 150 0
154 151 0
152 149 0
155 151 0
155 152 0
152 149 0
151 148 0
155 152 0
154 152 0
155 152 0
155 151 0
154 152 0
156 152 0
153 151 0
154 150 0
155 152 0
154 152 0
156 152 0
153 151 0
156 152 0
154 151 0
153 151 0
156 153 0
154 152 0
155 152 0
155 151 0
156 153 0
155 151 0
155 152 0
154 152 0
155 152 0
154 152 0
156 153 0
152 150 0
155 152 0
152 150 0
154 152 0
154 151 0
156 153 0
155 152 0
155 152 0
155 153 0
156 153 0
156 177 0
155 176 0
156 177 0
155 176 0
155 176 0
154 176 0
155 176 0
155 176 0
155 175 0
156 177 0
155 176 0
153 174 0
154 175 0
155 176 0
155 175 0
154 174 0
155 176 0
155 176 0
155 176 0
155 176 0
155 176 0
155 176 0
154 176 0
154 175 0
155 176 0
155 176 0
155 175 0
156 176 0
155 175 0
154 175 0
151 172 0
153 174 0
154 176 0
153 174 0
153 175 0
154 175 0
154 175 0
156 177 0
154 174 0
155 176 0
153 174 0
154 176 0
152 173 0
153 174 0
154 174 0
152 174 0
153 173 0
153 173 0
150 171 0
153 174 0
151 171 0
151 172 0
151 173 0
154 174 0
152 173 0
149 171 0
149 171 0
149 170 0
151 172 0
151 172 0
151 173 0
152 172 0
150 171 0
151 173 0
152 174 0
149 170 0
151 172 0
149 170 0
153 174 0
151 172 0
150 171 0
152 173 0
150 171 0
150 170 0
149 171 0
147 167 0
151 173 0
149 170 0
148 169 0
144 165 0
151 172 0
146 167 0
148 168 0
147 167 0
148 168 0
145 165 0
150 170 0
140 160 0
145 164 0
145 166 0
147 167 0
144 164 0
146 167 0
144 164 0
144 165 0
140 161 0
139 158 0
140 160 0
134 153 0
142 163 0
131 150 0
142 162 0
134 153 0
140 159 0
131 151 0
136 155 0
127 146 0
142 162 0
128 146 0
125 142 0
119 136 0
128 147 0
119 138 0
116 135 0
126 143 0
105 122 0
116 133 0
106 122 0
99 113 0
105 120 0
101 116 0
93 106 0
72 86 0
47 66 42
41 66 53
41 66 63
40 64 57
45 71 69
42 66 69
40 63 49
40 64 57
39 63 45
38 61 59
39 63 57
37 60 49
39 63 38
37 59 36
37 59 41
44 65 44
91 110 28
129 149 0
135 156 0
142 163 0
145 166 0
149 170 0
169 192 0
173 197 0
172 196 0
171 194 0
174 198 0
175 198 0
155 178 46
46 73 83
50 80 94
51 81 95
56 89 110
52 83 106
54 85 104
54 85 112
54 85 109
52 83 99
55 88 107
56 88 117
53 85 106
55 87 116
57 89 118
57 90 121
55 87 103
58 91 123
56 88 111
56 89 111
57 90 119
58 91 128
56 89 111
56 89 121
56 88 109
59 93 125
58 92 117
55 88 111
55 88 106
59 92 125
58 91 121
57 90 115
59 93 128
57 90 115
56 89 119
59 93 128
58 92 125
59 92 127
56 89 102
59 93 125
58 92 121
59 92 126
59 93 134
60 93 125
59 93 122
59 92 125
57 90 126
57 90 114
58 92 124
58 91 125
56 89 108
59 92 125
59 92 129
58 91 117
56 88 111
59 92 128
58 92 121
59 93 124
58 91 117
59 92 128
57 90 118
58 91 125
59 92 124
58 90 116
57 89 113
56 89 108
58 91 125
59 93 134
57 90 121
58 90 114
58 90 123
57 90 127
55 87 101
57 89 112
57 90 116
58 92 118
55 85 96
58 91 122
55 87 111
58 90 104
57 88 106
54 84 102
55 86 106
57 89 115
57 88 118
56 87 101
55 85 100
55 86 106
57 88 121
57 87 114
55 84 111
55 84 103
53 81 100
51 77 88
51 78 83
51 78 76
48 72 73
141 163 45
174 197 0
170 194 0
175 197 0
173 196 0
174 197 0
166 183 0
150 148 0
150 147 0
143 141 0
133 132 0
139 137 0
101 102 3
44 52 18
36 47 12
39 50 20
35 46 17
36 47 14
38 48 16
35 46 11
38 50 24
39 51 24
40 52 25
42 56 34
42 56 29
40 54 27
42 57 33
39 53 21
56 65 29
83 84 8
86 88 0
90 91 0
96 95 0
104 104 0
117 116 0
116 115 0
111 111 0
115 114 0
109 109 0
115 114 0
132 130 0
126 126 0
130 129 0
126 123 0
131 130 0
133 132 0
130 129 0
132 130 0
136 134 0
130 129 0
140 138 0
138 137 0
140 138 0
142 140 0
137 137 0
146 143 0
142 139 0
147 145 0
145 143 0
144 142 0
144 142 0
145 143 0
147 145 0
143 140 0
148 146 0
144 142 0
141 140 0
149 146 0
147 145 0
149 147 0
148 146 0
145 144 0
148 146 0
147 144 0
145 144 0
146 144 0
149 146 0
149 147 0
152 149 0
152 148 0
152 148 0
150 147 0
150 147 0
155 150 0
149 145 0
151 149 0
153 150 0
151 148 0
152 149 0
152 149 0
148 146 0
150 147 0
150 147 0
153 151 0
153 149 0
152 149 0
152 148 0
151 148 0
150 148 0
152 148 0
152 149 0
149 147 0
151 148 0
153 149 0
149 147 0
151 149 0
153 150 0
155 152 0
151 148 0
152 149 0
153 151 0
155 152 0
154 151 0
155 152 0
153 150 0
153 150 0
154 152 0
151 148 0
154 151 0
155 152 0
156 152 0
155 152 0
153 150 0
151 148 0
155 152 0
154 151 0
155 151 0
154 152 0
155 152 0
152 149 0
154 151 0
156 152 0
155 152 0
153 149 0
154 151 0
156 153 0
154 152 0
155 152 0
155 151 0
155 152 0
154 151 0
155 152 0
154 152 0
155 153 0
155 152 0
155 152 0
156 152 0
156 153 0
155 152 0
156 152 0
156 153 0
157 153 0
155 176 0
156 176 0
157 177 0
154 176 0
157 177 0
154 175 0
152 174 0
154 175 0
155 176 0
155 176 0
153 175 0
156 176 0
154 175 0
155 175 0
155 176 0
156 177 0
152 173 0
154 175 0
156 176 0
153 174 0
154 175 0
153 175 0
155 176 0
155 176 0
155 175 0
156 177 0
153 175 0
154 175 0
152 172 0
153 174 0
152 173 0
154 174 0
155 176 0
153 174 0
152 174 0
152 174 0
153 173 0
156 177 0
155 175 0
150 172 0
153 173 0
153 174 0
153 174 0
153 174 0
154 175 0
152 173 0
153 173 0
153 174 0
153 174 0
152 173 0
150 171 0
155 176 0
149 171 0
154 174 0
153 174 0
152 172 0
149 170 0
151 173 0
150 171 0
152 173 0
148 169 0
149 170 0
152 172 0
153 174 0
149 170 0
151 171 0
153 173 0
150 171 0
146 167 0
148 170 0
153 173 0
148 170 0
151 172 0
150 171 0
150 171 0
148 170 0
147 168 0
146 167 0
146 166 0
149 169 0
149 170 0
141 161 0
146 166 0
150 170 0
146 167 0
148 169 0
145 165 0
145 165 0
142 162 0
143 163 0
145 166 0
143 162 0
140 159 0
141 161 0
145 166 0
140 158 0
146 165 0
139 159 0
138 157 0
138 157 0
137 157 0
132 152 0
136 155 0
134 154 0
133 152 0
134 153 0
127 147 0
127 146 0
129 148 0
125 144 0
128 146 0
122 141 0
129 148 0
119 137 0
111 129 0
104 120 0
112 129 0
119 135 0
95 110 0
107 122 0
98 112 0
93 107 0
74 88 0
72 84 0
53 70 32
39 62 57
40 64 65
40 64 52
41 65 42
41 65 61
40 64 53
40 64 49
37 59 38
36 58 39
39 63 43
34 55 32
39 63 47
65 85 30
108 126 0
124 142 0
138 158 0
137 157 0
145 165 0
150 171 0
157 178 0
174 197 0
172 196 0
173 197 0
173 196 0
172 196 0
173 196 0
169 193 18
66 91 75
52 81 87
49 79 95
51 81 93
55 87 107
55 87 113
56 88 119
56 88 108
54 87 107
55 87 107
56 89 116
56 89 123
55 86 102
57 90 112
55 87 107
58 92 129
57 89 110
56 89 115
56 89 108
57 89 121
57 90 118
55 88 106
57 91 119
56 89 109
58 91 122
58 91 122
58 91 118
59 92 120
58 91 120
59 93 134
57 90 124
56 89 105
57 91 121
58 91 115
57 91 113
58 91 117
58 91 115
56 89 111
57 91 118
58 91 115
58 92 121
57 91 124
60 94 134
57 90 120
58 91 115
57 90 114
57 91 114
57 91 115
57 89 114
58 91 124
57 89 108
59 93 124
59 92 120
56 89 109
56 88 117
57 90 118
55 88 103
56 89 107
56 88 111
56 89 115
57 90 114
59 92 124
57 90 118
57 90 113
58 91 123
58 91 120
56 89 114
57 89 115
59 92 126
58 90 126
58 90 115
55 87 111
56 89 117
57 89 122
58 90 123
57 90 128
54 84 104
57 89 111
56 88 110
53 84 99
55 85 106
56 87 110
56 88 118
55 86 104
57 87 108
54 85 106
55 86 107
55 85 105
56 87 102
53 82 100
53 81 92
52 81 94
50 75 81
51 78 93
50 76 85
68 89 66
172 195 8
170 194 0
171 195 0
175 198 0
175 197 0
172 196 0
172 196 0
151 151 0
145 143 0
141 140 0
140 137 0
131 130 0
123 123 0
110 110 0
65 71 16
37 48 14
36 47 14
39 50 22
36 47 17
38 49 14
39 51 20
39 52 18
43 55 28
38 52 24
41 54 22
40 54 18
41 55 31
47 54 14
69 68 8
90 89 0
84 85 0
80 81 0
98 99 0
105 105 0
101 101 0
117 116 0
107 106 0
116 115 0
119 119 0
119 118 0
119 119 0
128 125 0
125 123 0
127 126 0
132 131 0
131 129 0
126 125 0
135 133 0
132 130 0
140 136 0
138 135 0
139 137 0
143 141 0
138 137 0
141 138 0
140 139 0
143 139 0
141 139 0
136 135 0
141 139 0
140 139 0
141 140 0
146 143 0
144 142 0
146 145 0
147 144 0
150 146 0
146 143 0
143 141 0
147 144 0
148 146 0
149 146 0
145 142 0
150 147 0
149 146 0
145 142 0
149 147 0
146 143 0
149 146 0
151 149 0
147 144 0
144 141 0
151 148 0
150 148 0
147 145 0
153 149 0
149 146 0
151 148 0
148 146 0
151 148 0
149 147 0
147 144 0
149 146 0
153 150 0
148 146 0
151 149 0
151 148 0
151 148 0
152 148 0
152 149 0
151 149 0
151 148 0
152 149 0
152 150 0
151 148 0
153 150 0
150 147 0
153 150 0
152 149 0
152 149 0
155 152 0
154 150 0
150 147 0
155 152 0
153 150 0
153 151 0
152 149 0
155 152 0
154 151 0
156 153 0
153 150 0
154 151 0
154 151 0
155 152 0
154 151 0
155 151 0
153 151 0
153 151 0
153 150 0
155 152 0
155 152 0
155 153 0
153 151 0
153 150 0
153 149 0
154 152 0
154 150 0
155 152 0
155 152 0
154 151 0
154 152 0
156 153 0
155 152 0
155 152 0
155 151 0
155 152 0
155 152 0
156 153 0
157 153 0
154 151 0
155 153 0
155 152 0
155 176 0
154 175 0
154 176 0
155 176 0
155 176 0
155 176 0
154 175 0
154 176 0
155 176 0
155 176 0
155 176 0
154 175 0
154 175 0
155 176 0
155 177 0
155 175 0
155 176 0
151 173 0
154 175 0
154 175 0
155 176 0
154 175 0
154 175 0
154 174 0
154 175 0
155 175 0
153 174 0
156 177 0
154 175 0
152 173 0
152 174 0
153 175 0
154 175 0
152 173 0
151 173 0
152 174 0
152 173 0
155 176 0
154 175 0
153 174 0
154 175 0
151 172 0
154 175 0
148 169 0
151 172 0
153 175 0
151 172 0
153 174 0
154 175 0
155 176 0
152 173 0
153 174 0
152 172 0
150 171 0
154 174 0
152 173 0
153 174 0
150 170 0
148 169 0
152 173 0
151 171 0
148 169 0
150 170 0
153 174 0
148 169 0
148 169 0
149 170 0
150 171 0
152 172 0
150 170 0
151 172 0
148 169 0
148 169 0
145 167 0
147 168 0
148 169 0
147 167 0
150 171 0
146 166 0
146 167 0
147 167 0
150 170 0
148 169 0
147 167 0
139 159 0
146 167 0
149 169 0
145 166 0
144 165 0
142 162 0
141 162 0
145 165 0
146 167 0
145 166 0
142 163 0
136 155 0
138 157 0
138 158 0
140 159 0
134 154 0
139 157 0
136 154 0
133 152 0
135 154 0
136 156 0
134 153 0
130 149 0
133 152 0
130 148 0
126 144 0
128 147 0
119 138 0
124 142 0
120 138 0
110 128 0
110 127 0
111 127 0
107 124 0
106 122 0
104 119 0
90 106 0
93 105 0
88 103 0
94 106 0
77 89 0
56 67 16
50 66 42
41 63 44
38 61 42
42 67 45
40 63 48
39 63 37
40 64 55
36 58 35
36 56 28
61 78 31
85 101 21
111 128 0
131 149 0
127 146 0
129 149 0
132 153 0
146 167 0
150 172 0
164 187 0
175 198 0
175 197 0
173 196 0
173 197 0
173 197 0
173 196 0
173 196 0
126 148 68
49 78 95
49 77 85
51 81 89
52 82 90
55 88 105
52 83 102
55 87 113
56 89 115
54 86 106
56 88 120
54 86 100
55 87 96
55 88 106
53 85 100
55 87 97
56 88 113
56 89 124
56 88 114
59 93 121
58 91 123
58 92 119
59 93 131
59 92 125
57 90 107
56 88 115
55 86 106
57 90 117
55 88 108
57 90 118
56 89 117
56 89 118
56 89 106
56 88 113
57 90 113
57 91 114
57 90 115
56 90 105
57 90 109
58 92 114
57 90 111
57 91 114
58 91 115
59 93 123
55 87 97
58 91 117
56 88 111
58 91 111
56 88 95
58 92 122
59 94 133
58 91 117
57 90 115
57 90 113
57 90 108
57 89 113
57 90 116
57 90 113
58 91 125
58 91 110
59 92 124
61 95 130
55 86 107
58 92 122
55 87 103
57 89 120
58 90 125
55 87 100
56 87 101
57 90 110
57 90 113
58 91 117
58 91 126
56 89 114
57 89 113
58 90 119
56 87 105
56 87 106
57 89 118
56 88 103
55 86 103
57 88 113
58 90 118
55 85 103
54 85 87
55 85 109
55 85 108
54 84 98
53 83 94
54 83 106
53 81 96
51 78 83
52 79 85
51 77 82
47 72 72
121 141 45
172 196 0
172 195 0
172 196 0
174 197 0
173 196 0
174 197 0
172 195 0
166 180 0
145 142 0
143 140 0
139 137 0
134 131 0
128 126 0
109 110 0
114 113 0
83 85 8
60 66 12
36 48 24
38 50 22
38 50 18
37 48 16
40 52 25
39 51 24
39 52 27
45 56 30
48 54 19
73 73 0
65 66 0
91 88 0
89 87 0
85 86 0
96 95 0
105 103 0
108 107 0
111 111 0
111 110 0
117 114 0
110 108 0
117 115 0
120 118 0
124 124 0
128 126 0
125 123 0
129 127 0
125 123 0
134 132 0
129 128 0
136 133 0
138 136 0
132 131 0
134 132 0
135 133 0
139 136 0
141 140 0
141 138 0
135 134 0
139 137 0
140 138 0
144 142 0
142 140 0
143 140 0
145 142 0
141 139 0
141 139 0
148 144 0
143 140 0
145 143 0
145 142 0
144 141 0
145 143 0
148 146 0
146 144 0
151 147 0
145 142 0
151 148 0
147 145 0
150 148 0
148 146 0
147 145 0
152 149 0
148 145 0
147 145 0
147 145 0
149 146 0
146 143 0
149 146 0
148 145 0
153 150 0
149 146 0
150 148 0
151 148 0
150 147 0
151 149 0
152 149 0
152 148 0
152 149 0
152 148 0
152 148 0
151 148 0
149 147 0
154 150 0
151 148 0
149 147 0
153 149 0
152 149 0
152 149 0
153 150 0
149 147 0
152 149 0
153 150 0
155 151 0
152 149 0
152 148 0
153 149 0
152 150 0
154 150 0
154 151 0
153 149 0
154 150 0
154 151 0
154 151 0
156 152 0
153 151 0
156 153 0
153 150 0
153 149 0
152 149 0
151 149 0
156 152 0
153 150 0
152 150 0
154 151 0
152 150 0
153 149 0
154 152 0
154 151 0
155 152 0
153 152 0
152 150 0
155 152 0
156 152 0
154 151 0
154 151 0
155 152 0
155 152 0
155 151 0
155 152 0
153 151 0
157 153 0
153 151 0
156 153 0
153 151 0
156 176 0
153 174 0
154 174 0
155 176 0
155 176 0
155 176 0
155 176 0
154 175 0
155 176 0
155 176 0
152 173 0
156 176 0
155 176 0
153 174 0
152 173 0
155 176 0
153 174 0
153 175 0
153 174 0
154 176 0
154 175 0
155 175 0
153 174 0
153 174 0
152 172 0
154 174 0
153 174 0
153 175 0
153 174 0
155 176 0
155 176 0
152 173 0
153 174 0
155 176 0
151 172 0
154 175 0
152 173 0
153 173 0
152 173 0
151 172 0
152 173 0
152 173 0
152 173 0
154 175 0
152 173 0
153 174 0
152 172 0
152 173 0
146 167 0
153 173 0
152 173 0
153 174 0
153 173 0
151 171 0
151 172 0
152 173 0
154 175 0
152 172 0
148 168 0
149 169 0
150 171 0
150 170 0
152 173 0
150 171 0
150 171 0
145 166 0
149 170 0
151 171 0
152 173 0
151 171 0
146 167 0
148 169 0
151 170 0
151 172 0
147 167 0
147 167 0
147 167 0
148 168 0
146 166 0
143 164 0
148 168 0
148 169 0
145 165 0
146 168 0
149 170 0
147 167 0
142 162 0
138 159 0
143 163 0
140 160 0
143 163 0
142 162 0
144 164 0
135 155 0
144 164 0
138 157 0
134 153 0
143 163 0
135 155 0
133 154 0
130 150 0
137 156 0
136 155 0
136 156 0
136 155 0
133 152 0
131 149 0
132 151 0
131 149 0
126 145 0
120 137 0
123 142 0
113 132 0
119 137 0
117 136 0
103 121 0
104 121 0
110 127 0
109 124 0
101 117 0
98 113 0
102 118 0
79 93 0
76 90 0
77 88 0
67 79 0
69 80 0
61 70 0
44 56 0
56 70 28
43 60 31
54 68 36
56 71 28
82 96 21
83 98 0
97 112 0
105 121 0
119 136 0
121 140 0
121 140 0
127 147 0
134 155 0
139 159 0
152 173 0
171 195 0
171 196 0
169 193 0
170 194 0
172 196 0
170 194 0
170 194 0
174 197 0
166 189 25
58 86 94
47 75 77
54 85 102
52 82 101
52 82 99
53 84 99
54 86 103
54 86 102
55 88 113
54 85 107
57 90 117
56 88 109
56 89 116
56 88 106
54 86 99
55 87 100
56 88 100
54 86 104
57 91 114
57 90 118
58 91 120
57 90 113
57 90 113
55 88 104
57 90 113
58 91 115
57 90 126
58 91 115
58 92 126
57 90 116
56 88 105
58 91 117
56 90 98
56 89 108
58 92 115
60 94 134
59 92 122
57 90 124
58 91 122
58 90 121
58 91 123
55 87 105
58 91 115
56 88 100
57 90 122
57 90 117
55 88 99
58 91 126
58 91 113
57 90 105
57 90 107
58 91 121
57 89 108
58 91 117
58 92 120
55 86 113
56 88 111
58 91 122
59 92 120
57 90 124
59 92 122
57 90 115
56 89 110
59 91 129
56 88 113
57 89 118
55 86 101
55 87 110
58 91 113
57 90 115
57 89 113
56 88 114
57 90 118
57 89 119
55 85 104
56 87 118
56 88 118
57 89 112
57 88 110
55 85 105
57 88 110
57 88 114
54 84 97
56 87 111
55 85 99
54 83 103
54 83 95
53 82 98
51 79 82
55 84 108
53 81 96
50 78 99
49 75 81
49 74 67
161 184 19
175 198 0
170 194 0
173 196 0
172 195 0
173 196 0
172 196 0
174 197 0
169 192 0
154 154 0
147 144 0
142 141 0
130 128 0
126 125 0
121 118 0
122 119 0
109 106 0
103 101 0
85 84 0
74 74 8
59 62 8
53 57 14
51 53 16
40 48 14
52 53 11
60 59 0
72 70 0
58 60 0
67 67 0
78 76 0
94 93 0
96 95 0
91 90 0
102 101 0
103 103 0
96 98 0
109 106 0
114 113 0
118 115 0
119 117 0
116 116 0
116 115 0
132 129 0
124 121 0
128 126 0
129 128 0
131 128 0
138 135 0
130 128 0
126 126 0
132 130 0
141 137 0
140 137 0
134 131 0
140 138 0
136 135 0
140 137 0
138 136 0
135 133 0
143 140 0
142 141 0
135 131 0
143 140 0
145 143 0
139 136 0
148 145 0
145 143 0
147 145 0
145 142 0
147 144 0
150 147 0
147 143 0
144 142 0
143 142 0
146 145 0
149 145 0
147 145 0
145 143 0
147 143 0
147 144 0
151 147 0
146 143 0
148 145 0
143 141 0
148 146 0
151 148 0
152 149 0
151 147 0
147 144 0
150 147 0
149 146 0
149 145 0
150 148 0
151 148 0
152 148 0
150 148 0
151 147 0
150 148 0
152 149 0
152 148 0
151 147 0
153 149 0
154 151 0
150 147 0
151 149 0
151 147 0
149 146 0
153 149 0
153 149 0
151 149 0
152 150 0
152 148 0
153 150 0
152 149 0
152 150 0
153 150 0
153 150 0
152 149 0
153 149 0
153 149 0
154 151 0
152 149 0
152 149 0
154 151 0
154 150 0
154 151 0
155 151 0
154 151 0
154 150 0
155 151 0
154 151 0
155 152 0
152 149 0
154 151 0
153 151 0
154 152 0
155 152 0
156 153 0
153 151 0
154 151 0
156 153 0
153 149 0
157 153 0
155 152 0
154 151 0
152 150 0
153 151 0
152 150 0
156 153 0
155 152 0
153 151 0
152 149 0
154 151 0
155 176 0
153 174 0
155 176 0
155 176 0
153 174 0
155 175 0
153 175 0
153 174 0
154 175 0
155 176 0
153 174 0
155 176 0
155 175 0
154 175 0
152 173 0
153 174 0
155 176 0
154 175 0
155 176 0
155 176 0
153 174 0
153 174 0
153 173 0
153 174 0
152 172 0
154 175 0
154 176 0
156 176 0
151 172 0
152 173 0
153 174 0
152 172 0
155 175 0
155 176 0
153 174 0
151 172 0
151 171 0
154 174 0
154 174 0
155 176 0
149 171 0
151 172 0
153 174 0
154 174 0
152 173 0
149 170 0
150 171 0
151 172 0
149 170 0
152 173 0
151 172 0
155 175 0
152 173 0
151 171 0
152 173 0
153 174 0
149 170 0
149 170 0
151 172 0
153 174 0
151 173 0
151 172 0
149 170 0
151 170 0
151 172 0
147 169 0
148 168 0
150 170 0
149 170 0
148 169 0
147 167 0
149 170 0
145 164 0
147 167 0
149 169 0
147 168 0
146 166 0
148 168 0
150 169 0
145 166 0
148 168 0
142 163 0
145 166 0
145 165 0
146 166 0
141 162 0
144 164 0
142 162 0
139 159 0
140 161 0
138 158 0
143 162 0
138 157 0
141 161 0
137 157 0
140 161 0
137 157 0
137 156 0
134 154 0
135 154 0
133 151 0
135 153 0
131 150 0
126 145 0
132 150 0
130 150 0
127 146 0
130 148 0
128 147 0
131 149 0
126 145 0
121 140 0
122 141 0
119 138 0
114 131 0
106 125 0
111 129 0
106 123 0
109 126 0
103 118 0
77 92 0
84 99 0
94 108 0
80 93 0
90 103 0
71 85 0
79 92 0
73 85 0
77 89 0
66 78 0
75 88 0
80 93 0
74 88 0
82 97 0
94 109 0
104 120 0
115 132 0
115 133 0
114 132 0
135 154 0
136 155 0
140 160 0
146 166 0
163 186 0
170 193 0
171 194 0
172 196 0
169 193 0
172 196 0
172 196 0
173 196 0
174 197 0
171 194 0
110 131 65
46 74 73
51 81 87
53 84 106
52 84 85
52 83 94
53 85 102
55 86 113
53 84 104
54 86 108
54 85 105
54 86 110
56 88 109
57 89 118
55 88 110
56 88 108
56 88 103
57 89 123
57 89 110
57 90 123
58 91 120
58 91 116
55 88 119
56 89 114
57 91 115
56 89 112
55 87 102
57 90 122
56 90 106
56 89 114
56 89 103
58 91 114
55 88 108
57 89 110
56 89 109
57 89 114
55 88 105
58 91 118
56 89 107
58 91 117
57 90 111
58 91 114
57 90 117
57 89 118
58 92 118
57 90 117
58 91 120
56 89 110
57 90 108
58 91 118
58 92 120
55 88 97
58 91 126
57 90 120
58 91 113
57 90 97
56 89 113
57 89 110
57 90 117
57 90 107
58 91 117
58 91 121
54 86 108
56 88 103
57 89 112
57 89 110
57 90 121
56 88 103
58 90 124
56 89 106
56 88 107
56 87 110
56 87 108
55 86 104
55 86 102
57 89 112
57 89 120
57 90 113
55 86 103
56 87 110
56 87 116
54 84 100
54 84 97
55 84 97
55 84 111
53 83 92
54 84 96
53 82 90
53 82 88
52 80 95
51 77 88
50 77 73
51 77 86
111 130 54
171 193 0
173 196 0
174 197 0
175 197 0
173 196 0
173 196 0
174 197 0
172 196 0
173 197 0
169 183 0
150 147 0
139 136 0
133 131 0
127 125 0
116 114 0
122 120 0
108 105 0
100 99 0
93 91 0
92 89 0
74 74 0
84 82 0
72 67 0
71 68 0
59 60 0
81 76 0
78 75 0
72 71 0
82 80 0
76 75 0
83 82 0
93 93 0
100 99 0
104 102 0
105 104 0
105 103 0
112 110 0
109 108 0
114 113 0
115 115 0
121 120 0
117 117 0
126 123 0
126 124 0
132 130 0
124 122 0
125 122 0
125 124 0
128 127 0
136 133 0
133 131 0
137 136 0
130 128 0
136 134 0
131 129 0
134 131 0
131 129 0
137 136 0
142 140 0
146 144 0
139 137 0
143 141 0
143 141 0
145 142 0
144 140 0
146 142 0
145 142 0
149 146 0
147 143 0
138 136 0
148 145 0
150 146 0
144 142 0
149 146 0
147 145 0
149 145 0
146 143 0
149 145 0
146 143 0
145 143 0
144 142 0
148 145 0
146 144 0
148 145 0
150 147 0
146 143 0
150 147 0
150 146 0
151 147 0
152 148 0
149 147 0
150 148 0
150 147 0
150 148 0
146 144 0
150 147 0
147 143 0
151 148 0
150 147 0
151 148 0
151 148 0
151 148 0
151 148 0
153 150 0
152 148 0
150 147 0
153 150 0
152 149 0
150 145 0
151 148 0
151 148 0
151 147 0
152 149 0
155 151 0
152 149 0
151 149 0
150 148 0
153 150 0
152 149 0
155 151 0
153 150 0
151 148 0
155 152 0
154 151 0
153 149 0
152 150 0
152 149 0
155 151 0
153 150 0
155 151 0
153 150 0
155 152 0
154 151 0
153 149 0
155 151 0
155 150 0
154 150 0
153 150 0
153 150 0
153 150 0
154 150 0
153 150 0
153 150 0
153 150 0
153 151 0
154 151 0
156 152 0
155 152 0
155 152 0
154 151 0
153 151 0
155 151 0
153 150 0
154 174 0
153 174 0
154 175 0
153 175 0
152 173 0
154 175 0
154 174 0
155 176 0
155 175 0
156 176 0
155 176 0
156 176 0
154 175 0
155 176 0
156 176 0
154 175 0
152 173 0
155 175 0
154 175 0
154 174 0
153 174 0
153 173 0
154 175 0
153 174 0
154 175 0
154 175 0
154 174 0
151 171 0
153 175 0
156 176 0
151 172 0
150 171 0
150 171 0
153 173 0
152 173 0
154 174 0
154 175 0
153 173 0
154 175 0
152 173 0
153 173 0
154 174 0
153 173 0
151 172 0
154 174 0
152 173 0
151 171 0
152 173 0
148 168 0
150 170 0
150 171 0
150 171 0
152 173 0
151 172 0
151 171 0
149 170 0
149 170 0
146 166 0
152 173 0
143 163 0
149 170 0
149 170 0
151 171 0
147 168 0
153 173 0
151 171 0
148 168 0
151 171 0
148 168 0
148 168 0
146 167 0
149 169 0
146 167 0
147 167 0
139 160 0
146 165 0
150 170 0
149 169 0
147 167 0
142 162 0
143 163 0
138 158 0
144 164 0
145 165 0
143 164 0
140 160 0
143 164 0
145 166 0
141 161 0
142 163 0
136 154 0
147 167 0
139 159 0
135 155 0
137 157 0
137 156 0
135 154 0
136 156 0
138 158 0
135 155 0
136 156 0
133 151 0
134 154 0
128 148 0
128 147 0
133 154 0
129 148 0
126 146 0
125 144 0
119 138 0
124 141 0
114 132 0
118 136 0
122 140 0
109 126 0
122 141 0
115 133 0
115 132 0
90 104 0
95 111 0
91 106 0
98 113 0
89 103 0
97 111 0
77 91 0
91 105 0
82 95 0
86 99 0
67 79 0
79 90 0
77 89 0
85 98 0
82 96 0
94 108 0
104 120 0
104 119 0
102 119 0
127 146 0
125 144 0
134 153 0
139 158 0
140 161 0
154 175 0
169 193 0
172 195 0
172 195 0
173 196 0
172 195 0
170 193 0
168 192 0
169 193 0
167 190 0
171 195 0
164 187 40
55 81 78
49 79 83
50 80 90
52 82 102
52 82 83
55 87 116
54 85 112
52 83 95
54 86 102
55 87 103
55 88 114
54 86 102
56 88 107
54 87 112
55 87 105
54 86 90
57 90 116
58 91 122
55 88 112
55 87 110
57 89 114
57 90 111
54 86 105
57 89 114
55 88 98
56 89 100
56 88 103
56 89 112
56 89 103
54 86 102
59 94 129
57 90 114
57 91 123
58 91 120
56 89 111
58 91 113
58 90 117
57 90 105
55 88 106
57 90 115
56 89 115
56 89 108
56 89 110
58 92 120
56 89 115
56 89 110
59 92 125
57 89 120
58 91 121
57 90 118
59 92 121
57 89 117
57 90 118
58 91 110
58 91 129
57 90 113
56 88 114
57 89 103
56 89 95
57 90 113
58 90 120
57 90 102
57 90 117
57 90 113
57 90 110
57 90 108
58 90 113
57 89 116
55 87 95
57 89 117
58 91 123
57 90 120
57 89 115
56 87 110
56 87 114
56 87 112
56 87 106
55 86 114
56 87 108
55 84 101
54 83 96
54 83 99
52 82 95
53 83 94
50 77 82
52 81 91
54 83 87
55 85 102
52 80 92
50 75 74
51 78 80
52 77 82
158 179 26
171 195 0
172 195 0
171 194 0
172 194 0
171 195 0
171 193 0
172 196 0
172 195 0
173 196 0
173 196 0
156 158 0
144 141 0
132 129 0
132 128 0
115 113 0
123 121 0
113 110 0
103 99 0
96 93 0
92 91 0
88 85 0
83 81 0
85 83 0
75 70 0
75 74 0
80 77 0
91 89 0
90 87 0
86 85 0
91 89 0
107 104 0
89 88 0
96 94 0
109 106 0
109 106 0
100 98 0
108 107 0
103 103 0
114 113 0
112 112 0
111 109 0
123 121 0
116 115 0
127 124 0
128 127 0
127 124 0
123 121 0
131 129 0
136 133 0
133 130 0
132 130 0
135 132 0
139 136 0
131 129 0
136 134 0
136 134 0
138 135 0
144 141 0
140 137 0
140 137 0
140 138 0
137 134 0
141 138 0
140 138 0
141 138 0
141 138 0
138 135 0
141 137 0
143 140 0
146 142 0
145 143 0
146 144 0
144 142 0
147 144 0
145 142 0
144 140 0
147 144 0
147 145 0
145 142 0
148 144 0
148 145 0
145 142 0
143 140 0
146 143 0
150 147 0
151 148 0
152 148 0
148 146 0
150 147 0
150 147 0
149 146 0
151 147 0
147 144 0
151 147 0
146 144 0
148 145 0
149 147 0
149 147 0
153 150 0
152 149 0
147 145 0
153 150 0
150 147 0
153 149 0
147 145 0
152 148 0
151 147 0
152 149 0
153 150 0
152 149 0
147 144 0
151 148 0
151 148 0
153 149 0
153 149 0
152 148 0
152 149 0
153 149 0
152 149 0
151 148 0
153 150 0
152 150 0
152 149 0
154 150 0
152 148 0
154 150 0
155 152 0
152 149 0
153 150 0
152 148 0
154 150 0
153 150 0
154 151 0
152 150 0
154 150 0
153 150 0
153 151 0
154 151 0
154 151 0
155 152 0
153 150 0
156 153 0
154 151 0
155 152 0
152 150 0
154 150 0
155 150 0
154 151 0
155 151 0
153 150 0
154 150 0
155 151 0
154 152 0
156 176 0
155 176 0
154 175 0
155 176 0
152 174 0
152 174 0
153 174 0
155 176 0
154 175 0
154 175 0
153 174 0
153 174 0
154 175 0
153 174 0
152 173 0
153 174 0
156 177 0
154 175 0
154 175 0
154 175 0
153 174 0
151 171 0
154 176 0
153 173 0
153 174 0
154 174 0
152 172 0
153 174 0
151 172 0
151 172 0
154 174 0
153 174 0
153 174 0
152 173 0
154 174 0
151 171 0
152 173 0
153 173 0
153 173 0
152 172 0
150 171 0
150 171 0
151 172 0
151 171 0
152 173 0
151 172 0
151 170 0
149 171 0
150 170 0
153 175 0
150 170 0
151 172 0
153 173 0
149 170 0
147 167 0
152 173 0
153 173 0
153 173 0
152 171 0
150 171 0
151 171 0
152 172 0
152 173 0
148 170 0
152 173 0
149 169 0
149 170 0
147 167 0
146 166 0
149 170 0
151 171 0
146 167 0
142 163 0
146 167 0
148 168 0
149 170 0
147 168 0
145 165 0
143 163 0
145 165 0
146 166 0
140 160 0
144 164 0
145 165 0
141 162 0
143 163 0
144 164 0
146 165 0
143 163 0
136 155 0
144 164 0
147 167 0
138 158 0
137 157 0
139 160 0
138 157 0
137 157 0
132 151 0
139 158 0
134 154 0
133 153 0
133 152 0
136 156 0
137 156 0
128 147 0
131 150 0
127 146 0
120 138 0
121 139 0
123 141 0
123 142 0
127 145 0
115 133 0
114 132 0
113 131 0
109 127 0
112 129 0
109 126 0
109 125 0
109 126 0
103 118 0
100 116 0
93 108 0
97 112 0
82 96 0
84 97 0
89 103 0
86 100 0
82 96 0
74 86 0
86 100 0
96 109 0
91 106 0
96 112 0
100 115 0
102 118 0
113 130 0
123 142 0
128 146 0
126 145 0
140 160 0
147 167 0
166 189 0
174 197 0
170 194 0
172 195 0
171 195 0
170 193 0
169 193 0
172 195 0
173 196 0
170 193 0
169 192 0
172 195 0
110 133 67
50 78 85
49 78 100
49 79 87
53 84 101
53 84 96
56 88 110
53 83 102
52 82 94
52 83 97
53 84 96
55 86 97
55 88 96
54 86 94
54 86 97
56 88 108
54 85 105
57 91 112
52 83 89
57 90 112
57 89 119
56 88 105
58 90 117
57 89 103
57 90 116
55 87 97
57 90 115
57 90 111
56 89 117
57 90 111
56 89 113
55 87 96
54 86 106
57 89 102
56 89 115
55 87 108
57 90 110
59 92 126
58 91 115
58 92 117
57 91 107
57 91 109
57 90 111
59 92 114
58 91 117
55 86 100
56 89 107
57 89 115
56 89 114
58 90 107
57 90 117
56 89 101
56 89 107
58 91 125
57 90 110
55 86 103
57 90 117
57 90 121
56 88 111
54 85 96
56 88 108
58 90 118
57 89 115
57 89 110
57 89 114
54 86 110
59 92 118
57 89 117
56 88 109
55 86 103
56 88 113
56 88 115
56 87 110
56 88 110
56 88 114
56 87 116
54 85 99
54 85 104
53 83 96
55 85 109
55 85 98
56 87 110
55 85 101
55 86 111
53 81 97
52 81 102
52 80 85
53 81 86
51 77 88
50 76 87
48 73 80
105 124 54
170 193 0
172 195 0
173 195 0
171 195 0
170 193 0
172 195 0
174 196 0
173 196 0
172 195 0
171 193 0
171 195 0
169 187 0
143 140 0
140 137 0
122 121 0
122 119 0
126 124 0
116 113 0
109 107 0
101 97 0
91 89 0
89 86 0
74 73 0
90 86 0
68 68 0
81 79 0
84 81 0
81 79 0
96 93 0
92 89 0
98 95 0
95 92 0
101 100 0
101 98 0
110 107 0
111 111 0
114 111 0
123 119 0
112 110 0
104 102 0
113 111 0
108 107 0
114 112 0
121 118 0
116 116 0
125 123 0
125 124 0
127 124 0
125 123 0
130 128 0
132 130 0
137 133 0
125 122 0
134 131 0
136 134 0
134 131 0
131 128 0
138 136 0
141 139 0
140 137 0
137 133 0
141 138 0
141 139 0
143 139 0
136 134 0
142 140 0
144 141 0
143 140 0
143 139 0
143 141 0
146 143 0
142 139 0
144 142 0
149 146 0
144 140 0
147 144 0
144 141 0
145 141 0
151 147 0
141 138 0
145 142 0
147 144 0
147 143 0
147 145 0
149 145 0
151 148 0
147 144 0
148 145 0
151 147 0
147 145 0
148 144 0
150 148 0
147 144 0
150 147 0
150 147 0
149 145 0
148 145 0
151 148 0
148 144 0
149 146 0
149 147 0
148 145 0
149 147 0
153 149 0
151 147 0
151 148 0
149 145 0
151 149 0
152 149 0
153 150 0
152 147 0
151 148 0
149 146 0
151 148 0
150 147 0
153 150 0
152 149 0
153 151 0
149 147 0
150 148 0
154 150 0
154 150 0
153 149 0
153 149 0
152 148 0
153 150 0
150 146 0
152 149 0
154 150 0
153 150 0
152 150 0
150 147 0
153 150 0
152 149 0
154 152 0
151 148 0
155 152 0
155 151 0
153 150 0
154 150 0
154 151 0
156 152 0
154 150 0
153 151 0
154 151 0
152 149 0
154 151 0
155 152 0
155 151 0
155 152 0
154 151 0
153 150 0
153 150 0
155 151 0
154 175 0
154 175 0
156 176 0
155 175 0
154 175 0
152 174 0
154 175 0
154 175 0
153 174 0
153 174 0
154 176 0
153 175 0
155 176 0
154 175 0
153 174 0
152 173 0
153 174 0
150 171 0
153 173 0
155 175 0
152 173 0
153 174 0
154 175 0
154 175 0
154 174 0
151 170 0
152 174 0
149 169 0
151 172 0
152 173 0
154 175 0
153 172 0
152 172 0
151 171 0
155 176 0
155 176 0
152 173 0
152 173 0
150 170 0
151 172 0
151 171 0
151 172 0
153 173 0
149 170 0
149 170 0
149 171 0
149 170 0
150 170 0
151 172 0
148 168 0
147 168 0
148 168 0
151 172 0
150 170 0
145 165 0
149 170 0
152 172 0
148 168 0
146 166 0
151 172 0
148 169 0
152 173 0
145 166 0
145 166 0
151 171 0
148 169 0
150 170 0
146 166 0
145 166 0
146 166 0
152 172 0
146 167 0
146 167 0
147 168 0
144 164 0
147 167 0
148 168 0
144 164 0
142 162 0
144 164 0
144 165 0
148 167 0
142 163 0
148 168 0
141 160 0
142 162 0
144 164 0
139 158 0
144 165 0
137 157 0
140 161 0
140 161 0
137 157 0
135 155 0
144 164 0
138 158 0
140 159 0
133 152 0
136 156 0
131 151 0
134 153 0
132 150 0
128 147 0
131 150 0
125 143 0
130 149 0
125 143 0
131 149 0
130 149 0
130 149 0
123 141 0
123 141 0
123 141 0
113 130 0
117 134 0
114 130 0
116 133 0
113 130 0
105 122 0
108 124 0
102 118 0
104 120 0
109 124 0
93 107 0
94 110 0
101 116 0
108 122 0
100 114 0
89 103 0
87 102 0
91 105 0
94 109 0
90 105 0
76 91 0
96 111 0
105 122 0
120 138 0
125 143 0
130 148 0
127 147 0
143 164 0
156 178 0
172 195 0
172 195 0
173 196 0
169 193 0
168 192 0
167 191 0
172 196 0
171 195 0
167 190 0
170 193 0
167 191 0
167 191 0
155 177 35
50 78 73
52 81 104
47 76 85
52 83 99
53 84 89
52 83 99
54 85 102
53 83 103
54 85 100
55 86 96
57 89 114
55 86 110
55 86 105
54 86 90
54 86 100
57 90 118
55 88 109
56 89 106
55 87 103
56 89 103
56 89 109
58 92 117
56 89 107
57 90 109
55 87 108
55 88 112
55 87 109
57 90 115
56 88 117
57 90 100
57 89 105
55 87 108
58 91 117
57 90 108
58 91 115
57 90 118
56 88 108
55 87 110
58 91 114
55 88 102
55 87 100
55 87 105
57 90 110
56 88 99
56 88 108
58 91 118
58 91 111
58 92 115
56 88 107
58 91 123
56 89 115
56 88 94
55 87 113
56 89 108
58 91 118
56 88 99
57 89 105
58 91 118
55 87 101
56 87 111
56 88 103
54 85 110
56 87 106
55 87 96
58 90 116
57 89 116
56 88 103
56 87 103
57 90 115
56 88 104
58 91 114
56 87 110
53 84 101
57 89 104
56 88 105
56 88 108
55 86 98
56 86 113
55 85 98
53 83 97
53 84 96
53 83 96
50 78 87
54 83 98
51 79 78
49 75 91
49 76 81
49 75 82
53 80 89
53 76 67
161 183 26
168 192 0
170 192 0
170 192 0
172 195 0
170 193 0
166 189 0
167 190 0
172 195 0
170 194 0
167 189 0
169 191 0
171 193 0
159 169 0
138 136 0
133 129 0
126 122 0
111 109 0
110 108 0
109 106 0
97 94 0
107 102 0
90 87 0
101 95 0
79 79 0
99 96 0
94 91 0
79 78 0
95 92 0
87 85 0
96 92 0
95 92 0
101 98 0
97 94 0
108 105 0
106 102 0
110 105 0
110 107 0
110 110 0
109 107 0
121 117 0
121 119 0
120 117 0
114 112 0
126 123 0
119 118 0
116 115 0
128 125 0
127 125 0
123 121 0
130 127 0
128 127 0
128 125 0
136 135 0
132 128 0
132 129 0
132 129 0
134 131 0
142 137 0
138 136 0
138 135 0
139 135 0
138 136 0
139 135 0
143 141 0
142 139 0
139 136 0
140 136 0
139 137 0
146 142 0
139 136 0
139 134 0
142 138 0
145 141 0
143 140 0
143 139 0
146 143 0
145 142 0
145 142 0
143 140 0
150 148 0
145 142 0
148 145 0
145 143 0
145 141 0
150 147 0
143 139 0
149 146 0
145 142 0
149 147 0
150 147 0
150 147 0
148 144 0
151 148 0
150 147 0
146 143 0
149 146 0
150 146 0
148 145 0
150 147 0
151 148 0
151 148 0
152 148 0
151 147 0
147 144 0
150 145 0
151 147 0
152 148 0
151 147 0
153 148 0
148 145 0
152 150 0
147 144 0
152 149 0
151 147 0
151 148 0
149 146 0
155 150 0
153 149 0
153 149 0
154 150 0
151 147 0
153 150 0
154 150 0
153 149 0
155 152 0
153 150 0
154 151 0
151 148 0
152 149 0
153 150 0
154 151 0
153 149 0
154 151 0
153 149 0
152 149 0
154 151 0
154 150 0
152 149 0
157 152 0
154 151 0
151 149 0
152 148 0
155 152 0
152 149 0
155 151 0
155 151 0
153 149 0
155 151 0
156 152 0
153 151 0
155 152 0
154 151 0
155 151 0
156 153 0
154 174 0
155 176 0
154 176 0
154 175 0
153 175 0
153 174 0
153 175 0
156 176 0
154 175 0
153 174 0
154 175 0
153 174 0
153 174 0
153 174 0
154 175 0
153 174 0
155 176 0
154 174 0
153 174 0
153 173 0
153 175 0
152 173 0
153 173 0
155 175 0
153 174 0
153 174 0
154 176 0
153 175 0
152 173 0
151 172 0
151 171 0
154 175 0
154 174 0
153 174 0
154 174 0
151 172 0
151 171 0
152 173 0
148 168 0
152 172 0
155 175 0
151 172 0
149 171 0
150 171 0
148 169 0
150 170 0
149 170 0
149 170 0
148 168 0
151 172 0
146 166 0
147 168 0
145 166 0
144 165 0
150 171 0
151 170 0
148 169 0
143 164 0
148 168 0
148 168 0
149 170 0
148 169 0
145 165 0
150 170 0
150 171 0
149 168 0
148 169 0
151 171 0
149 169 0
148 169 0
150 170 0
147 167 0
146 166 0
147 168 0
151 171 0
147 168 0
141 162 0
145 165 0
139 159 0
143 162 0
146 165 0
142 162 0
147 167 0
145 166 0
141 160 0
149 169 0
138 158 0
147 167 0
138 160 0
141 162 0
143 162 0
136 155 0
141 160 0
139 158 0
136 155 0
137 158 0
136 156 0
140 159 0
131 150 0
131 151 0
132 151 0
132 151 0
128 148 0
133 153 0
131 149 0
134 153 0
124 144 0
126 146 0
121 138 0
123 141 0
127 144 0
119 136 0
120 137 0
123 140 0
111 130 0
116 135 0
109 125 0
110 127 0
111 127 0
104 120 0
103 118 0
103 119 0
102 119 0
94 110 0
92 107 0
93 107 0
102 116 0
80 94 0
100 114 0
101 116 0
87 102 0
101 117 0
101 116 0
101 116 0
108 125 0
111 128 0
120 136 0
126 145 0
131 151 0
137 156 0
149 170 0
170 193 0
169 192 0
172 195 0
170 194 0
169 193 0
168 192 0
168 193 0
169 192 0
168 192 0
167 190 0
167 191 0
168 192 0
162 185 0
167 191 0
126 147 44
52 82 92
51 81 82
51 81 91
50 79 87
53 84 95
55 87 96
55 87 99
53 84 97
55 88 113
55 87 102
54 85 109
55 87 103
56 88 113
54 85 98
54 85 100
56 88 105
55 87 104
55 88 109
55 87 98
55 87 99
56 88 104
57 90 102
56 89 116
56 88 113
57 89 113
56 89 106
57 90 117
56 89 117
56 88 108
54 86 103
58 92 127
57 90 118
56 89 112
57 90 118
56 89 115
57 90 115
54 86 105
57 89 115
59 93 117
57 90 108
58 91 123
59 93 127
57 89 113
57 90 113
57 90 115
58 91 111
57 91 114
56 89 108
57 90 115
57 90 111
56 88 111
55 87 105
57 89 109
55 87 107
55 87 92
55 87 103
56 89 107
57 90 111
56 89 113
58 91 125
56 88 111
56 88 113
57 89 110
55 86 94
57 90 117
57 89 104
54 85 99
53 84 99
55 85 96
54 84 96
54 85 94
56 88 109
56 87 107
55 86 108
53 82 92
55 84 98
54 85 100
51 79 90
51 80 86
54 82 94
54 83 97
51 79 70
51 80 92
52 80 91
49 75 83
50 77 78
48 74 70
46 69 63
124 143 41
168 191 0
171 191 0
172 194 0
170 190 0
165 188 0
168 190 0
170 193 0
170 193 0
174 195 0
170 191 0
169 192 0
168 190 0
173 196 0
170 191 0
147 149 0
132 128 0
125 123 0
118 115 0
113 110 0
103 101 0
110 106 0
101 99 0
94 90 0
95 93 0
91 87 0
95 92 0
86 83 0
89 87 0
90 85 0
98 94 0
110 105 0
95 93 0
94 92 0
111 106 0
96 94 0
107 105 0
111 109 0
115 112 0
108 103 0
118 114 0
116 112 0
112 108 0
118 116 0
127 122 0
123 119 0
130 126 0
127 124 0
126 124 0
124 122 0
126 125 0
128 125 0
130 127 0
133 130 0
135 132 0
134 131 0
135 132 0
139 135 0
136 133 0
137 134 0
138 134 0
143 140 0
138 135 0
135 132 0
132 129 0
141 139 0
143 139 0
143 139 0
143 140 0
142 138 0
142 140 0
143 139 0
143 139 0
142 139 0
145 143 0
145 141 0
145 143 0
143 141 0
150 147 0
145 141 0
145 142 0
147 143 0
147 143 0
143 139 0
147 142 0
148 144 0
147 144 0
142 139 0
149 145 0
143 141 0
145 141 0
147 143 0
146 142 0
148 144 0
149 146 0
147 144 0
150 147 0
150 145 0
151 146 0
150 147 0
148 146 0
150 146 0
147 143 0
147 143 0
150 146 0
148 146 0
150 146 0
152 149 0
149 147 0
152 149 0
151 149 0
148 145 0
154 151 0
151 148 0
150 147 0
150 147 0
152 148 0
150 147 0
149 146 0
153 150 0
154 150 0
151 149 0
150 147 0
151 147 0
152 148 0
149 146 0
152 148 0
152 148 0
153 150 0
152 149 0
152 149 0
153 150 0
151 147 0
152 149 0
155 150 0
154 149 0
153 149 0
151 148 0
151 147 0
154 150 0
154 150 0
155 151 0
153 149 0
154 151 0
154 150 0
154 150 0
153 150 0
155 152 0
153 150 0
154 150 0
154 150 0
154 151 0
154 151 0
155 151 0
154 151 0
153 150 0
154 175 0
156 177 0
155 176 0
155 176 0
153 175 0
152 174 0
153 173 0
152 174 0
155 175 0
153 174 0
153 174 0
152 173 0
154 175 0
155 175 0
154 175 0
152 173 0
153 173 0
155 175 0
153 173 0
153 174 0
152 174 0
154 175 0
152 174 0
152 173 0
154 175 0
153 174 0
153 174 0
150 171 0
151 172 0
153 173 0
153 174 0
153 173 0
151 172 0
151 172 0
152 172 0
151 172 0
151 172 0
150 172 0
153 174 0
150 172 0
152 173 0
153 174 0
149 169 0
148 169 0
151 172 0
146 166 0
151 172 0
149 170 0
148 168 0
147 168 0
143 163 0
151 170 0
151 172 0
150 172 0
150 170 0
151 172 0
148 170 0
149 171 0
147 167 0
147 167 0
151 171 0
148 169 0
148 169 0
145 165 0
147 167 0
147 168 0
149 170 0
147 168 0
144 163 0
143 164 0
146 167 0
142 163 0
145 165 0
142 162 0
141 160 0
146 166 0
140 159 0
142 161 0
143 162 0
145 166 0
144 162 0
141 160 0
139 160 0
140 160 0
147 167 0
141 161 0
144 165 0
143 163 0
143 164 0
133 151 0
145 165 0
137 157 0
137 156 0
139 157 0
134 154 0
143 162 0
138 157 0
140 160 0
139 158 0
135 155 0
135 154 0
126 145 0
133 153 0
128 146 0
132 150 0
130 149 0
122 140 0
122 140 0
126 144 0
128 147 0
117 135 0
116 134 0
124 142 0
125 143 0
113 129 0
109 126 0
109 126 0
113 130 0
111 127 0
111 128 0
105 121 0
110 126 0
84 99 0
96 112 0
95 110 0
107 122 0
106 122 0
102 117 0
101 115 0
92 107 0
110 126 0
105 121 0
105 121 0
102 119 0
120 136 0
116 133 0
119 137 0
123 142 0
133 153 0
138 158 0
162 185 0
171 194 0
172 195 0
169 193 0
169 192 0
170 193 0
172 194 0
168 191 0
169 193 0
165 188 0
168 191 0
166 190 0
168 191 0
169 193 0
169 192 0
167 190 0
71 95 73
49 78 84
50 80 82
52 83 94
52 81 89
50 80 95
50 80 94
53 85 84
55 87 104
51 82 80
56 89 109
56 88 108
57 90 115
55 87 106
54 86 102
54 86 99
58 91 116
56 88 105
54 86 95
56 88 106
53 84 100
56 89 113
57 89 112
57 90 115
56 88 110
55 87 108
54 85 105
55 88 113
56 89 106
57 90 117
54 86 95
56 89 105
54 86 102
56 89 110
54 86 95
57 90 105
56 88 110
56 88 111
56 89 105
56 89 114
54 86 105
56 88 105
55 88 102
54 86 102
55 86 108
57 89 110
55 87 103
56 88 105
58 90 120
57 90 112
58 91 104
56 89 110
56 89 102
57 90 118
56 88 121
56 89 102
55 87 104
58 91 110
55 87 105
55 87 115
58 90 113
55 87 103
55 87 104
55 86 101
57 89 113
57 90 113
57 90 107
56 88 111
56 88 114
55 86 104
58 90 120
56 87 107
55 86 101
55 86 109
53 82 93
55 86 98
55 86 98
54 84 101
53 82 94
54 84 102
53 83 102
52 79 97
50 76 75
51 78 89
48 74 77
52 80 91
48 73 72
77 97 56
165 187 18
167 190 0
162 183 0
165 187 0
169 191 0
170 193 0
167 188 0
168 190 0
168 190 0
168 189 0
172 194 0
171 193 0
168 191 0
168 190 0
166 189 0
163 180 0
143 139 0
130 126 0
128 123 0
119 116 0
114 111 0
114 108 0
113 108 0
107 102 0
97 94 0
96 93 0
113 108 0
100 96 0
94 90 0
102 97 0
98 95 0
102 98 0
106 102 0
107 103 0
101 99 0
108 105 0
114 110 0
111 109 0
114 111 0
117 113 0
111 107 0
115 110 0
114 111 0
122 119 0
125 123 0
123 119 0
122 120 0
130 126 0
127 124 0
128 126 0
124 122 0
131 127 0
124 121 0
129 126 0
138 134 0
127 126 0
133 130 0
137 134 0
134 132 0
137 133 0
138 136 0
135 133 0
139 136 0
137 133 0
135 132 0
141 137 0
142 138 0
140 137 0
138 134 0
140 139 0
140 135 0
146 142 0
141 138 0
141 139 0
135 134 0
148 144 0
142 139 0
142 138 0
148 144 0
144 140 0
137 134 0
144 140 0
145 141 0
144 141 0
145 142 0
140 137 0
148 144 0
149 146 0
149 145 0
148 143 0
147 144 0
148 146 0
147 143 0
149 145 0
149 145 0
147 144 0
151 147 0
148 144 0
147 144 0
149 145 0
149 146 0
150 147 0
148 145 0
149 145 0
148 145 0
151 147 0
151 147 0
151 147 0
151 147 0
149 145 0
152 148 0
150 146 0
151 148 0
150 147 0
150 147 0
151 148 0
152 149 0
152 148 0
153 149 0
148 146 0
151 148 0
152 149 0
154 151 0
151 148 0
151 148 0
151 148 0
150 146 0
153 149 0
151 148 0
153 150 0
152 148 0
152 149 0
154 150 0
152 149 0
153 150 0
151 148 0
153 150 0
152 148 0
150 148 0
154 150 0
151 148 0
153 149 0
155 152 0
153 150 0
152 148 0
153 149 0
156 152 0
154 150 0
155 152 0
154 150 0
153 150 0
154 151 0
153 149 0
152 150 0
153 150 0
155 152 0
152 173 0
154 175 0
154 175 0
153 174 0
156 176 0
154 175 0
152 172 0
152 173 0
153 174 0
154 175 0
153 174 0
155 175 0
153 173 0
152 173 0
154 175 0
150 171 0
151 173 0
157 177 0
154 174 0
154 174 0
153 173 0
148 169 0
155 175 0
153 174 0
151 171 0
145 166 0
151 171 0
152 172 0
152 173 0
147 168 0
151 173 0
151 172 0
152 173 0
151 171 0
151 172 0
148 169 0
150 170 0
150 171 0
152 173 0
152 173 0
150 171 0
148 168 0
150 171 0
151 172 0
148 169 0
151 171 0
150 170 0
145 166 0
149 170 0
149 169 0
151 171 0
150 170 0
147 168 0
150 170 0
146 167 0
147 168 0
147 167 0
146 166 0
147 168 0
152 172 0
147 167 0
150 170 0
143 164 0
149 169 0
145 165 0
148 168 0
149 169 0
147 167 0
146 166 0
148 168 0
141 161 0
148 167 0
144 165 0
140 160 0
139 158 0
139 158 0
144 164 0
143 162 0
145 165 0
145 165 0
144 164 0
142 162 0
145 165 0
139 159 0
141 161 0
142 163 0
142 163 0
140 160 0
137 157 0
138 157 0
142 161 0
137 157 0
135 155 0
138 158 0
141 161 0
138 158 0
136 156 0
132 151 0
134 154 0
131 149 0
132 150 0
139 157 0
129 148 0
128 148 0
127 147 0
129 147 0
127 146 0
120 139 0
116 133 0
119 138 0
123 141 0
116 135 0
119 135 0
118 135 0
120 137 0
116 133 0
109 126 0
123 139 0
121 138 0
110 126 0
100 116 0
105 121 0
88 103 0
113 128 0
94 109 0
108 123 0
100 115 0
97 113 0
101 117 0
91 106 0
97 111 0
107 121 0
108 125 0
107 124 0
112 128 0
111 127 0
127 145 0
136 155 0
138 157 0
156 177 0
165 188 0
172 195 0
167 191 0
166 189 0
167 191 0
167 190 0
169 193 0
166 190 0
166 190 0
168 191 0
163 187 0
166 190 0
168 192 0
166 189 0
165 189 0
165 188 0
135 157 47
48 77 73
50 79 82
50 80 93
50 80 82
54 85 101
53 84 96
55 87 103
54 85 112
52 83 86
53 84 103
54 85 106
53 85 98
55 87 91
55 87 104
56 89 106
53 84 98
58 91 120
54 86 97
54 85 108
53 85 103
54 85 108
54 86 103
57 90 118
56 89 107
57 89 121
54 86 100
56 88 105
57 89 117
56 88 113
53 85 97
55 87 99
56 89 108
56 89 103
55 86 107
56 89 110
54 86 107
54 86 95
55 87 102
55 87 108
57 89 115
54 85 102
56 88 110
57 89 111
54 86 107
55 87 113
56 89 102
56 88 107
56 89 120
56 89 115
53 84 100
56 88 102
56 88 105
55 87 100
55 87 107
57 89 114
54 84 93
56 88 119
56 89 114
56 88 106
56 88 111
56 88 102
54 86 97
54 85 105
55 86 103
57 89 107
57 88 101
54 85 92
57 90 113
56 88 111
55 86 107
56 87 104
55 86 93
53 82 95
52 81 83
54 83 90
53 82 88
54 84 93
51 80 82
51 79 89
52 81 102
51 80 91
52 79 83
51 78 82
49 75 78
50 76 70
48 73 65
140 161 55
169 191 0
166 189 0
168 191 0
161 183 0
170 192 0
164 186 0
167 189 0
167 189 0
164 185 0
168 190 0
166 189 0
167 188 0
168 189 0
172 194 0
165 187 0
169 192 0
155 166 0
139 135 0
128 123 0
116 112 0
123 118 0
111 106 0
110 105 0
107 102 0
111 105 0
109 105 0
110 106 0
107 102 0
94 90 0
99 96 0
93 91 0
98 95 0
101 97 0
101 98 0
108 103 0
112 107 0
118 114 0
112 108 0
115 112 0
117 114 0
120 116 0
103 101 0
127 125 0
119 116 0
126 124 0
116 112 0
128 125 0
129 126 0
127 124 0
129 126 0
134 131 0
129 126 0
132 128 0
129 125 0
129 127 0
131 128 0
134 130 0
133 130 0
127 123 0
133 129 0
141 137 0
134 130 0
134 131 0
138 134 0
144 140 0
136 133 0
138 135 0
139 134 0
141 137 0
146 141 0
137 135 0
143 139 0
139 135 0
140 137 0
140 135 0
140 136 0
143 141 0
143 141 0
148 145 0
145 141 0
146 142 0
145 141 0
145 140 0
143 140 0
148 145 0
142 137 0
147 144 0
145 141 0
146 142 0
147 143 0
148 145 0
146 143 0
149 146 0
147 142 0
149 145 0
148 144 0
146 142 0
148 144 0
148 143 0
144 139 0
152 148 0
150 146 0
154 150 0
146 142 0
148 143 0
149 145 0
149 145 0
152 147 0
149 146 0
153 148 0
152 148 0
150 146 0
150 146 0
149 146 0
150 146 0
153 149 0
150 146 0
149 145 0
153 148 0
148 145 0
148 143 0
152 148 0
153 149 0
148 143 0
149 146 0
149 146 0
150 146 0
154 150 0
152 148 0
153 149 0
152 149 0
150 147 0
154 150 0
153 149 0
148 146 0
153 150 0
153 150 0
151 149 0
153 150 0
151 148 0
152 148 0
152 148 0
154 150 0
152 149 0
153 151 0
152 149 0
153 149 0
154 151 0
154 150 0
151 148 0
155 151 0
151 149 0
154 151 0
155 151 0
154 150 0
154 151 0
154 175 0
154 174 0
154 174 0
154 175 0
152 173 0
153 174 0
155 176 0
152 174 0
155 175 0
153 174 0
151 172 0
155 175 0
154 174 0
153 173 0
153 174 0
151 172 0
151 172 0
153 173 0
154 175 0
154 174 0
152 173 0
153 173 0
151 172 0
151 172 0
151 172 0
150 171 0
152 173 0
152 173 0
149 170 0
151 172 0
148 170 0
151 172 0
153 174 0
152 173 0
149 169 0
153 174 0
151 172 0
148 170 0
151 171 0
152 172 0
149 170 0
150 172 0
149 171 0
150 171 0
148 169 0
147 167 0
147 168 0
150 171 0
149 170 0
148 168 0
142 163 0
147 167 0
150 170 0
148 169 0
145 165 0
150 171 0
152 173 0
149 169 0
143 164 0
145 165 0
147 167 0
148 169 0
146 165 0
147 167 0
149 169 0
145 165 0
149 169 0
144 165 0
142 163 0
146 166 0
143 163 0
148 168 0
143 163 0
147 166 0
144 164 0
141 161 0
140 160 0
140 161 0
143 162 0
144 165 0
141 161 0
147 166 0
141 160 0
143 163 0
140 159 0
146 166 0
138 158 0
143 163 0
140 159 0
138 157 0
140 159 0
132 152 0
141 161 0
130 149 0
138 158 0
130 150 0
135 155 0
133 152 0
128 146 0
131 152 0
135 154 0
131 151 0
129 148 0
127 145 0
128 147 0
120 139 0
122 139 0
120 138 0
126 143 0
122 139 0
127 146 0
122 140 0
120 138 0
112 129 0
117 134 0
118 135 0
111 128 0
117 135 0
105 121 0
116 133 0
104 121 0
100 116 0
99 117 0
95 110 0
110 127 0
106 120 0
101 117 0
109 125 0
105 120 0
95 111 0
101 116 0
112 128 0
109 126 0
114 130 0
115 131 0
114 132 0
136 154 0
132 150 0
149 169 0
169 193 0
168 192 0
169 192 0
167 191 0
165 189 0
166 189 0
168 191 0
169 192 0
169 192 0
166 190 0
167 190 0
166 190 0
168 191 0
166 189 0
168 190 0
168 191 0
167 190 0
167 190 0
110 130 52
47 74 70
51 80 90
47 76 79
52 82 102
50 80 90
54 85 109
53 83 93
52 84 90
53 84 94
55 87 112
54 86 104
54 86 102
54 85 100
55 88 113
54 86 94
57 90 109
55 87 91
55 87 103
58 91 117
55 87 102
52 83 84
56 88 113
56 88 118
56 88 103
55 87 103
54 85 94
56 89 114
57 90 102
57 90 114
55 87 97
55 88 103
54 85 99
56 89 111
57 90 114
56 89 108
56 87 110
55 87 103
56 89 112
55 87 103
56 87 102
54 86 100
56 89 113
57 90 120
56 88 107
56 87 108
55 87 100
55 88 99
55 88 100
57 90 107
55 87 110
57 90 107
57 89 100
57 89 107
57 90 111
55 88 108
56 87 105
53 84 79
55 87 111
55 86 108
55 87 104
54 85 99
54 85 105
56 87 103
57 89 113
55 86 102
56 88 111
56 87 99
55 86 107
55 86 93
55 86 100
55 85 104
54 85 99
52 82 93
53 82 104
53 83 93
54 84 84
52 81 81
52 80 91
53 83 95
51 81 94
50 77 82
51 78 77
51 77 80
51 77 72
100 121 65
161 182 0
164 186 0
162 183 0
169 191 0
167 189 0
164 186 0
170 191 0
165 186 0
165 186 0
168 189 0
166 188 0
166 186 0
172 194 0
164 183 0
165 186 0
167 189 0
166 186 0
168 189 0
152 158 0
131 128 0
126 123 0
126 123 0
117 114 0
116 111 0
112 107 0
114 108 0
122 117 0
104 99 0
93 88 0
117 111 0
97 93 0
98 94 0
106 101 0
110 107 0
97 96 0
115 110 0
108 105 0
110 106 0
118 111 0
103 101 0
120 116 0
122 117 0
121 119 0
113 108 0
122 120 0
126 121 0
126 122 0
125 121 0
117 114 0
121 117 0
130 125 0
133 130 0
130 126 0
133 128 0
131 128 0
134 130 0
125 122 0
134 130 0
137 132 0
139 135 0
135 132 0
130 126 0
132 129 0
127 123 0
137 133 0
137 134 0
140 136 0
140 138 0
143 138 0
138 134 0
138 133 0
139 136 0
143 139 0
142 138 0
145 140 0
141 137 0
141 138 0
142 138 0
143 137 0
143 140 0
144 140 0
141 136 0
145 140 0
148 144 0
146 143 0
143 139 0
145 141 0
145 143 0
147 144 0
146 140 0
142 139 0
147 142 0
147 143 0
149 145 0
145 141 0
143 139 0
150 145 0
146 143 0
146 142 0
148 146 0
152 148 0
148 144 0
145 142 0
150 146 0
149 144 0
152 148 0
147 144 0
149 146 0
151 147 0
148 145 0
148 144 0
148 145 0
148 144 0
147 143 0
152 147 0
152 149 0
151 147 0
151 146 0
152 148 0
151 146 0
151 147 0
148 145 0
149 146 0
150 146 0
151 148 0
150 146 0
150 147 0
152 149 0
153 149 0
148 145 0
152 149 0
153 150 0
152 147 0
153 150 0
152 149 0
150 146 0
151 146 0
153 149 0
151 147 0
154 150 0
152 148 0
154 150 0
152 149 0
154 150 0
153 150 0
153 150 0
152 149 0
155 149 0
154 150 0
150 147 0
154 151 0
154 151 0
153 149 0
154 151 0
152 149 0
152 148 0
152 149 0
155 176 0
153 173 0
154 174 0
153 174 0
152 173 0
154 175 0
153 175 0
154 174 0
156 176 0
150 171 0
155 175 0
155 175 0
153 173 0
153 174 0
153 174 0
152 173 0
151 172 0
154 174 0
151 172 0
153 174 0
152 173 0
152 172 0
150 171 0
149 169 0
153 174 0
152 172 0
151 171 0
152 173 0
153 173 0
151 172 0
151 171 0
151 171 0
151 171 0
151 172 0
150 171 0
149 168 0
151 171 0
150 170 0
151 170 0
151 171 0
150 170 0
153 173 0
149 169 0
152 172 0
149 169 0
151 172 0
148 168 0
147 167 0
150 170 0
148 168 0
149 169 0
146 167 0
149 170 0
149 169 0
145 165 0
149 170 0
146 167 0
145 165 0
144 165 0
145 166 0
142 163 0
143 163 0
148 168 0
147 167 0
147 167 0
146 165 0
141 162 0
143 163 0
149 168 0
146 166 0
143 164 0
141 161 0
146 166 0
146 166 0
145 164 0
143 162 0
146 164 0
144 164 0
141 161 0
138 157 0
142 162 0
143 164 0
143 164 0
140 159 0
145 165 0
141 162 0
143 162 0
138 157 0
140 159 0
137 156 0
140 159 0
140 159 0
137 156 0
140 160 0
131 150 0
134 153 0
139 158 0
134 154 0
124 143 0
122 140 0
132 150 0
127 146 0
129 147 0
133 153 0
129 149 0
129 146 0
129 147 0
128 147 0
117 135 0
119 137 0
117 135 0
120 136 0
119 137 0
107 123 0
110 127 0
115 132 0
112 129 0
113 129 0
110 126 0
117 133 0
110 127 0
100 115 0
107 123 0
102 117 0
96 110 0
100 115 0
96 112 0
110 126 0
101 117 0
105 121 0
81 96 0
113 128 0
116 132 0
121 139 0
122 139 0
125 142 0
131 151 0
142 162 0
166 190 0
167 190 0
162 185 0
169 192 0
166 189 0
162 185 0
167 190 0
165 188 0
159 182 0
167 190 0
160 183 0
163 186 0
166 190 0
163 186 0
160 185 0
166 189 0
165 188 0
164 187 0
166 189 0
157 180 22
69 93 82
52 82 84
48 76 80
50 79 87
52 82 103
49 78 71
53 84 89
51 81 95
53 85 90
53 84 91
53 84 101
54 85 91
52 82 101
54 85 107
56 88 109
54 86 98
54 85 102
55 87 109
53 84 89
54 87 103
56 88 108
52 83 90
55 88 108
52 82 97
56 89 113
54 86 103
55 87 95
54 86 93
56 88 110
55 88 100
55 88 100
56 88 95
56 88 107
56 88 107
55 88 99
56 88 109
56 89 100
55 86 111
55 87 93
55 86 103
55 88 107
57 89 107
55 87 103
56 88 107
55 87 102
56 88 99
56 88 103
56 88 110
54 86 85
57 90 117
57 88 103
57 89 111
55 88 95
54 86 102
54 85 103
54 86 108
56 88 105
55 87 102
55 87 103
57 88 111
56 87 103
54 86 92
57 90 118
54 85 102
56 88 117
54 85 99
56 87 112
53 84 89
56 87 111
55 86 96
53 83 93
54 83 104
51 79 101
53 83 97
54 83 101
53 83 82
53 83 86
52 80 71
52 82 80
48 76 71
51 77 80
48 74 78
47 73 66
74 93 61
157 177 25
165 186 0
166 187 0
164 186 0
163 184 0
168 189 0
162 183 0
161 182 0
166 185 0
167 187 0
168 188 0
169 189 0
165 186 0
164 186 0
166 188 0
167 188 0
162 182 0
168 191 0
166 187 0
164 182 0
141 138 0
129 124 0
122 117 0
125 120 0
113 107 0
109 105 0
117 112 0
113 106 0
104 99 0
114 107 0
104 99 0
107 103 0
99 96 0
103 99 0
108 103 0
109 104 0
109 105 0
110 104 0
117 112 0
116 111 0
111 107 0
111 109 0
116 113 0
111 106 0
121 117 0
121 116 0
130 123 0
122 119 0
121 119 0
126 121 0
120 118 0
123 119 0
119 117 0
128 124 0
133 127 0
133 128 0
131 127 0
131 127 0
130 127 0
131 128 0
130 127 0
131 128 0
132 128 0
136 132 0
137 132 0
141 136 0
140 137 0
133 128 0
136 131 0
137 133 0
141 138 0
138 135 0
145 139 0
142 137 0
142 139 0
149 143 0
141 137 0
144 140 0
139 134 0
147 141 0
143 139 0
144 140 0
140 135 0
142 137 0
143 140 0
146 142 0
141 136 0
146 142 0
140 136 0
145 141 0
142 138 0
148 143 0
145 142 0
148 144 0
145 140 0
147 142 0
146 140 0
148 143 0
146 143 0
143 139 0
149 146 0
147 144 0
149 145 0
149 145 0
149 145 0
149 145 0
150 145 0
151 147 0
148 144 0
151 147 0
150 146 0
152 148 0
151 147 0
148 145 0
148 144 0
152 148 0
151 147 0
153 150 0
147 142 0
152 149 0
151 148 0
152 147 0
146 142 0
149 145 0
149 145 0
153 149 0
150 145 0
152 148 0
153 149 0
151 148 0
150 146 0
153 148 0
152 147 0
152 149 0
153 149 0
154 150 0
153 148 0
152 148 0
153 149 0
151 148 0
154 150 0
153 150 0
153 149 0
153 150 0
153 150 0
152 148 0
155 150 0
155 150 0
155 152 0
153 151 0
155 151 0
154 151 0
154 150 0
151 148 0
153 150 0
153 149 0
154 150 0
153 149 0
154 174 0
153 174 0
151 173 0
152 173 0
154 174 0
154 175 0
153 173 0
153 174 0
154 175 0
152 173 0
153 174 0
153 174 0
155 175 0
151 172 0
153 174 0
151 172 0
152 173 0
152 173 0
152 173 0
150 171 0
153 173 0
151 172 0
151 171 0
150 172 0
150 172 0
152 173 0
149 170 0
152 172 0
152 173 0
151 172 0
150 171 0
151 171 0
150 171 0
149 170 0
149 170 0
151 172 0
148 168 0
152 173 0
151 172 0
152 173 0
149 170 0
149 169 0
150 171 0
147 167 0
148 169 0
150 170 0
149 168 0
150 171 0
148 168 0
149 169 0
146 166 0
147 167 0
148 169 0
148 168 0
149 170 0
148 168 0
146 166 0
145 166 0
147 167 0
146 166 0
147 168 0
144 165 0
146 167 0
144 164 0
148 169 0
146 166 0
143 162 0
141 161 0
143 163 0
144 164 0
144 163 0
144 164 0
143 163 0
139 159 0
144 163 0
143 163 0
138 158 0
141 162 0
143 163 0
143 162 0
141 162 0
142 161 0
141 162 0
143 163 0
140 159 0
143 163 0
140 159 0
138 157 0
136 155 0
137 157 0
135 155 0
139 158 0
137 156 0
133 152 0
139 158 0
129 149 0
130 149 0
132 151 0
133 151 0
131 150 0
135 154 0
131 149 0
127 145 0
128 147 0
127 146 0
124 143 0
121 138 0
121 138 0
121 139 0
121 139 0
120 137 0
125 142 0
116 133 0
123 141 0
115 133 0
116 133 0
123 140 0
115 132 0
117 134 0
109 126 0
105 121 0
112 128 0
111 127 0
107 123 0
109 125 0
112 127 0
110 126 0
109 124 0
103 119 0
106 121 0
107 123 0
111 127 0
106 122 0
120 137 0
126 142 0
126 145 0
133 152 0
161 183 0
166 190 0
166 190 0
161 184 0
163 185 0
161 184 0
163 185 0
163 186 0
165 188 0
161 183 0
159 182 0
165 188 0
166 189 0
168 190 0
162 186 0
160 182 0
167 189 0
157 180 0
160 182 0
165 187 0
162 185 0
141 164 36
51 79 71
50 79 71
53 83 93
51 81 75
51 81 96
51 81 82
54 86 112
52 83 97
55 86 103
53 85 91
53 84 97
55 86 94
53 85 105
53 84 102
54 85 95
52 83 91
53 85 93
57 89 114
55 87 94
56 88 108
55 88 113
55 87 109
55 87 111
55 87 97
55 87 97
53 84 97
56 89 106
55 87 86
55 87 102
53 85 92
56 89 103
58 90 121
56 89 114
55 87 95
57 90 108
56 88 115
56 88 110
55 87 102
57 89 115
56 89 110
56 89 117
56 89 113
54 86 100
56 89 103
54 86 100
55 87 103
54 86 94
56 88 108
56 88 105
55 87 105
56 87 110
55 88 102
56 88 95
53 85 92
54 84 100
55 86 103
55 87 95
53 84 87
53 84 104
55 87 99
57 88 107
55 87 101
54 85 101
54 85 92
56 87 107
55 86 110
52 82 90
53 83 95
53 83 97
56 86 108
50 79 83
53 82 96
54 84 93
53 82 95
53 83 100
50 77 86
53 81 103
49 77 71
51 78 85
49 75 86
48 74 79
56 80 70
142 163 31
163 183 0
159 180 0
161 183 0
162 184 0
156 176 0
165 186 0
163 185 0
160 180 0
162 181 0
162 181 0
161 181 0
160 180 0
162 184 0
165 185 0
164 182 0
166 187 0
163 182 0
164 185 0
168 189 0
166 186 0
157 175 0
139 135 0
127 120 0
120 113 0
119 112 0
113 107 0
112 104 0
97 93 0
109 105 0
107 102 0
112 106 0
112 107 0
101 96 0
111 104 0
108 102 0
105 101 0
113 106 0
114 109 0
117 110 0
107 101 0
115 108 0
123 116 0
115 110 0
114 111 0
116 112 0
120 114 0
124 120 0
121 117 0
127 122 0
124 118 0
124 119 0
125 122 0
129 126 0
128 123 0
128 122 0
131 127 0
130 126 0
133 128 0
133 128 0
136 131 0
133 129 0
136 130 0
139 134 0
136 133 0
138 134 0
129 125 0
132 128 0
137 133 0
134 129 0
136 132 0
141 136 0
136 133 0
144 140 0
136 131 0
140 135 0
138 134 0
142 138 0
143 139 0
141 137 0
146 142 0
137 132 0
146 142 0
141 138 0
142 138 0
144 139 0
142 138 0
144 140 0
151 146 0
144 139 0
144 139 0
145 140 0
145 140 0
149 144 0
145 140 0
145 142 0
143 141 0
144 140 0
149 144 0
143 139 0
147 144 0
143 140 0
146 142 0
149 143 0
147 143 0
149 144 0
146 142 0
150 145 0
147 143 0
148 143 0
144 140 0
151 149 0
149 145 0
150 146 0
145 142 0
148 144 0
147 143 0
151 147 0
153 149 0
150 146 0
151 148 0
150 147 0
149 145 0
154 149 0
151 147 0
148 145 0
153 148 0
151 147 0
149 146 0
153 149 0
152 147 0
149 145 0
149 145 0
148 145 0
151 146 0
152 148 0
153 149 0
150 147 0
153 149 0
152 148 0
152 148 0
151 148 0
152 149 0
153 147 0
153 149 0
153 149 0
153 149 0
154 151 0
150 147 0
153 149 0
153 147 0
152 149 0
154 150 0
154 149 0
154 150 0
154 150 0
154 151 0
155 150 0
154 150 0
155 176 0
154 175 0
155 175 0
152 173 0
155 176 0
153 174 0
153 174 0
154 174 0
154 174 0
153 174 0
155 176 0
151 171 0
151 172 0
151 173 0
151 172 0
152 173 0
155 175 0
152 172 0
151 171 0
152 173 0
152 172 0
153 174 0
152 173 0
149 171 0
151 171 0
152 172 0
147 168 0
149 169 0
154 175 0
148 168 0
150 172 0
151 172 0
153 173 0
150 171 0
152 173 0
148 168 0
150 170 0
150 170 0
145 165 0
150 172 0
149 171 0
148 168 0
151 171 0
146 166 0
146 167 0
148 169 0
147 168 0
147 167 0
150 170 0
149 169 0
148 168 0
148 167 0
148 168 0
145 166 0
144 164 0
149 169 0
147 167 0
143 163 0
145 165 0
147 168 0
145 166 0
146 167 0
144 165 0
145 165 0
146 166 0
146 166 0
145 165 0
145 165 0
141 161 0
141 161 0
146 166 0
139 159 0
143 164 0
145 165 0
143 163 0
145 165 0
139 160 0
145 164 0
144 164 0
143 162 0
137 156 0
142 161 0
140 159 0
141 161 0
144 163 0
140 160 0
136 155 0
142 162 0
138 159 0
137 156 0
138 157 0
138 157 0
136 156 0
132 151 0
137 156 0
139 158 0
137 155 0
124 143 0
135 153 0
133 152 0
124 143 0
130 148 0
126 144 0
128 147 0
128 147 0
127 145 0
123 141 0
116 133 0
119 137 0
122 140 0
126 144 0
119 137 0
121 139 0
122 140 0
119 136 0
107 124 0
111 128 0
122 139 0
107 123 0
113 129 0
115 132 0
100 115 0
120 136 0
100 116 0
93 109 0
99 114 0
114 130 0
106 121 0
106 121 0
109 125 0
112 127 0
118 135 0
113 129 0
121 138 0
122 140 0
129 148 0
159 181 0
167 189 0
161 184 0
158 179 0
167 189 0
163 185 0
163 186 0
165 188 0
164 187 0
162 185 0
163 185 0
159 183 0
166 189 0
163 185 0
162 184 0
165 187 0
163 185 0
160 184 0
157 179 0
160 183 0
159 182 0
153 176 0
158 181 0
125 148 29
47 75 73
47 75 79
49 78 82
50 80 81
51 81 87
52 82 81
52 83 100
53 84 99
53 84 91
54 85 91
51 81 89
51 80 91
55 88 98
55 87 106
54 86 100
55 87 107
52 83 84
52 82 98
54 85 98
55 88 111
54 86 97
55 87 93
54 86 108
55 87 97
56 88 90
55 87 102
55 87 106
53 83 84
53 85 99
56 89 108
54 86 103
55 88 98
55 86 107
53 84 98
56 88 109
54 86 94
55 88 103
53 84 91
54 86 107
54 85 100
55 86 105
56 88 97
56 89 100
55 87 103
54 85 89
55 87 99
55 87 100
54 86 102
56 88 113
54 85 111
55 86 103
56 88 99
56 88 108
55 87 105
57 89 113
55 87 99
57 89 107
52 82 90
52 83 92
55 86 103
55 87 101
53 82 100
53 82 89
52 83 78
52 82 90
55 86 100
55 85 98
53 83 99
55 84 98
56 86 99
53 82 90
52 81 84
51 79 86
54 83 93
52 81 82
52 81 80
50 78 96
52 81 96
50 77 75
45 70 57
131 152 45
159 180 0
160 182 0
162 182 0
156 176 0
164 184 0
162 181 0
164 184 0
159 180 0
165 185 0
163 183 0
162 183 0
162 183 0
164 185 0
159 178 0
162 183 0
162 182 0
162 183 0
162 182 0
166 186 0
166 186 0
161 181 0
159 178 0
153 167 0
136 131 0
126 120 0
120 114 0
115 108 0
114 108 0
119 113 0
108 103 0
105 100 0
108 103 0
103 98 0
114 108 0
99 95 0
97 92 0
103 99 0
102 98 0
116 112 0
109 103 0
101 97 0
120 114 0
118 112 0
116 111 0
116 112 0
120 115 0
122 116 0
112 107 0
118 116 0
127 121 0
124 119 0
118 113 0
126 121 0
126 120 0
131 129 0
132 128 0
132 128 0
135 130 0
129 124 0
134 130 0
132 128 0
132 127 0
132 128 0
130 126 0
133 128 0
137 132 0
133 128 0
135 131 0
137 132 0
130 125 0
139 133 0
136 129 0
141 136 0
137 131 0
140 135 0
140 138 0
141 136 0
141 136 0
138 132 0
136 131 0
143 138 0
144 138 0
143 138 0
142 138 0
138 135 0
137 135 0
141 137 0
147 143 0
140 135 0
143 141 0
138 134 0
147 143 0
144 138 0
143 139 0
146 142 0
146 141 0
147 142 0
147 141 0
145 141 0
149 144 0
148 144 0
147 143 0
150 146 0
146 141 0
150 145 0
151 146 0
151 146 0
146 142 0
146 141 0
147 142 0
148 144 0
147 142 0
146 142 0
149 145 0
147 143 0
148 143 0
147 143 0
149 145 0
150 145 0
147 143 0
152 147 0
148 144 0
152 147 0
149 145 0
153 149 0
153 148 0
149 145 0
149 144 0
151 146 0
152 148 0
152 148 0
153 149 0
152 149 0
152 148 0
152 148 0
151 147 0
149 145 0
152 149 0
154 149 0
153 149 0
150 147 0
149 144 0
151 147 0
150 145 0
151 147 0
150 146 0
152 148 0
154 150 0
152 148 0
153 150 0
155 150 0
154 150 0
152 148 0
154 149 0
154 151 0
154 149 0
153 149 0
153 149 0
156 152 0
154 174 0
155 175 0
153 174 0
154 175 0
153 175 0
154 174 0
153 173 0
154 174 0
153 174 0
152 173 0
152 173 0
154 174 0
152 172 0
154 175 0
149 170 0
154 173 0
152 171 0
152 173 0
150 171 0
151 171 0
149 171 0
155 175 0
152 173 0
153 173 0
149 170 0
151 171 0
151 171 0
151 172 0
152 172 0
151 172 0
149 170 0
149 169 0
150 170 0
149 169 0
147 167 0
148 168 0
150 171 0
148 167 0
150 171 0
150 170 0
148 168 0
150 170 0
147 167 0
151 171 0
147 168 0
148 168 0
151 172 0
146 167 0
148 168 0
152 172 0
151 171 0
151 171 0
148 169 0
146 166 0
146 166 0
147 167 0
141 161 0
147 167 0
145 165 0
144 164 0
149 169 0
147 167 0
145 166 0
147 167 0
148 168 0
149 169 0
141 160 0
145 165 0
145 164 0
140 160 0
142 163 0
143 163 0
143 164 0
143 162 0
139 159 0
142 161 0
134 154 0
140 160 0
146 165 0
142 161 0
145 164 0
138 157 0
135 154 0
140 159 0
141 160 0
138 158 0
140 160 0
139 158 0
139 159 0
135 154 0
134 153 0
140 158 0
136 155 0
137 157 0
135 154 0
120 138 0
141 159 0
126 145 0
125 143 0
125 143 0
134 152 0
123 141 0
130 149 0
127 144 0
127 146 0
117 136 0
122 139 0
117 135 0
121 139 0
123 141 0
119 138 0
120 137 0
124 141 0
120 137 0
120 138 0
115 132 0
121 139 0
107 123 0
109 124 0
102 118 0
110 126 0
108 124 0
113 130 0
112 128 0
105 120 0
112 128 0
111 127 0
110 125 0
118 135 0
112 128 0
119 135 0
117 132 0
119 135 0
120 137 0
127 144 0
151 172 0
157 179 0
167 191 0
163 184 0
161 184 0
163 186 0
163 186 0
167 189 0
162 184 0
166 188 0
163 186 0
159 181 0
158 180 0
157 181 0
159 182 0
158 181 0
157 180 0
155 176 0
161 184 0
163 186 0
160 183 0
157 180 0
161 184 0
158 180 0
157 179 0
96 119 44
47 75 69
48 76 75
51 82 88
50 80 85
51 81 82
50 80 89
52 83 97
52 83 97
52 82 82
54 86 100
54 85 93
52 83 88
52 82 90
51 81 78
54 86 101
55 87 106
54 85 94
55 87 100
53 84 102
56 87 115
55 88 103
54 86 105
56 88 105
52 83 92
54 86 100
54 86 97
56 88 107
56 88 102
56 89 108
55 87 102
55 86 103
53 83 92
57 90 112
56 89 100
54 85 99
55 87 103
56 88 118
54 85 88
55 87 102
56 88 104
54 85 96
54 85 107
54 85 105
55 86 103
53 84 95
53 84 94
54 86 100
57 89 105
52 84 90
52 83 85
56 88 103
56 89 105
54 86 97
53 84 90
54 85 100
56 88 114
54 86 108
54 86 85
54 85 107
54 85 97
55 86 96
55 85 98
54 85 94
53 84 93
53 83 91
54 84 101
52 80 81
54 84 93
55 85 95
51 81 86
55 85 101
52 81 82
52 81 93
51 80 89
49 77 84
49 76 75
49 76 85
46 72 60
101 119 52
159 177 0
154 174 0
152 171 0
153 173 0
151 172 0
154 173 0
151 169 0
155 175 0
160 178 0
159 180 0
156 175 0
153 173 0
159 179 0
165 185 0
158 178 0
164 184 0
157 177 0
161 180 0
156 176 0
159 178 0
162 180 0
159 178 0
167 187 0
159 180 0
151 159 0
128 120 0
122 115 0
116 109 0
118 110 0
108 102 0
109 103 0
101 95 0
101 96 0
101 97 0
111 105 0
105 100 0
109 103 0
98 94 0
122 115 0
112 105 0
111 105 0
119 113 0
121 114 0
123 117 0
119 115 0
117 113 0
121 116 0
109 104 0
121 116 0
125 120 0
126 121 0
109 105 0
124 121 0
125 121 0
128 124 0
124 119 0
135 130 0
131 129 0
128 124 0
126 120 0
132 127 0
136 130 0
130 126 0
134 129 0
127 122 0
132 127 0
134 129 0
132 126 0
134 128 0
138 133 0
137 133 0
137 132 0
133 129 0
136 132 0
142 139 0
137 131 0
143 140 0
140 135 0
142 138 0
136 130 0
140 135 0
141 136 0
139 136 0
147 143 0
139 134 0
144 140 0
143 138 0
145 141 0
142 136 0
136 132 0
145 140 0
145 140 0
142 136 0
143 139 0
145 140 0
148 143 0
145 140 0
149 143 0
144 140 0
148 142 0
145 140 0
146 142 0
148 143 0
149 146 0
147 143 0
146 141 0
146 142 0
149 144 0
145 141 0
147 143 0
149 144 0
148 142 0
147 143 0
146 140 0
151 147 0
147 143 0
147 143 0
145 141 0
149 144 0
150 145 0
147 142 0
150 146 0
151 147 0
149 144 0
153 147 0
152 147 0
153 150 0
150 147 0
150 145 0
151 146 0
149 146 0
152 148 0
151 147 0
151 146 0
150 146 0
150 146 0
151 147 0
150 146 0
151 147 0
148 144 0
149 144 0
153 149 0
152 148 0
153 148 0
151 147 0
150 146 0
152 149 0
153 149 0
151 148 0
151 149 0
150 146 0
152 148 0
152 148 0
154 150 0
153 149 0
151 148 0
152 147 0
153 150 0
151 147 0
155 150 0
151 172 0
152 172 0
154 175 0
154 174 0
152 173 0
152 173 0
153 174 0
151 172 0
150 171 0
154 174 0
152 172 0
153 173 0
150 170 0
154 174 0
152 173 0
152 173 0
151 171 0
157 176 0
149 169 0
149 170 0
149 170 0
153 173 0
151 172 0
150 171 0
150 171 0
152 172 0
151 171 0
151 172 0
149 169 0
151 172 0
151 171 0
147 167 0
148 168 0
151 171 0
146 166 0
151 171 0
149 170 0
150 170 0
148 168 0
148 168 0
152 172 0
150 169 0
148 168 0
149 170 0
150 170 0
148 168 0
150 170 0
145 166 0
146 166 0
149 169 0
149 170 0
149 169 0
144 164 0
143 163 0
148 168 0
144 164 0
145 165 0
148 168 0
144 164 0
146 166 0
142 161 0
147 167 0
142 160 0
144 164 0
145 165 0
140 160 0
142 162 0
147 167 0
141 160 0
140 159 0
141 160 0
142 162 0
146 166 0
145 165 0
139 160 0
140 160 0
144 164 0
137 156 0
136 155 0
141 159 0
139 158 0
141 160 0
140 159 0
137 157 0
137 157 0
139 159 0
128 147 0
140 159 0
137 157 0
139 159 0
129 148 0
137 156 0
131 150 0
133 152 0
132 150 0
130 149 0
135 154 0
131 149 0
130 148 0
127 145 0
131 150 0
129 149 0
136 154 0
128 146 0
131 150 0
130 147 0
123 141 0
126 143 0
131 149 0
118 135 0
123 140 0
120 137 0
118 135 0
119 139 0
121 138 0
118 134 0
115 132 0
115 132 0
111 127 0
112 129 0
106 122 0
113 129 0
107 124 0
103 118 0
107 122 0
109 125 0
109 126 0
119 134 0
117 132 0
99 113 0
112 129 0
116 133 0
122 140 0
127 145 0
150 171 0
160 183 0
164 188 0
162 184 0
156 177 0
156 177 0
160 183 0
160 182 0
160 182 0
159 182 0
158 181 0
161 183 0
159 181 0
160 182 0
158 181 0
160 182 0
157 179 0
158 180 0
152 174 0
154 177 0
160 182 0
156 179 0
156 179 0
160 183 0
156 178 0
153 175 0
141 163 18
83 107 62
50 80 74
48 76 70
52 82 89
48 76 75
51 81 89
51 81 86
51 81 86
51 81 84
49 78 78
53 84 100
55 87 108
54 86 98
53 84 93
53 83 101
52 83 92
54 84 101
52 83 100
54 85 110
54 85 93
53 83 94
55 87 105
56 88 109
54 86 97
55 86 97
55 87 97
56 88 105
54 85 108
51 82 92
55 86 103
55 86 108
55 87 103
53 83 100
53 84 92
56 89 105
54 85 109
56 88 105
54 86 92
55 87 100
55 87 111
53 84 94
51 82 88
55 87 99
56 88 102
55 86 100
55 86 102
56 89 108
52 83 94
56 88 101
54 85 102
54 85 105
56 87 107
54 85 90
55 87 110
53 83 92
55 86 110
54 85 97
51 81 89
54 85 100
55 85 104
54 85 92
55 85 103
52 82 82
53 82 100
56 87 105
52 82 88
54 86 102
53 83 91
54 85 91
55 86 96
54 85 97
51 80 89
52 80 87
51 80 87
48 75 69
49 75 72
50 77 78
96 116 55
152 171 0
159 178 0
161 181 0
149 168 0
144 162 0
157 175 0
148 164 0
157 177 0
157 177 0
156 174 0
154 172 0
156 176 0
155 174 0
161 181 0
158 177 0
155 175 0
159 180 0
154 173 0
166 187 0
163 181 0
164 183 0
165 183 0
165 184 0
159 176 0
159 179 0
161 179 0
149 156 0
124 119 0
119 113 0
107 103 0
120 111 0
112 103 0
97 93 0
109 104 0
118 112 0
113 106 0
102 97 0
109 102 0
117 110 0
117 112 0
119 113 0
113 107 0
117 112 0
116 112 0
121 113 0
114 110 0
110 105 0
118 113 0
120 114 0
114 111 0
126 119 0
123 116 0
117 114 0
120 117 0
115 110 0
133 126 0
129 123 0
130 125 0
132 125 0
134 129 0
128 122 0
136 131 0
127 124 0
134 130 0
133 127 0
140 133 0
131 127 0
137 132 0
134 128 0
141 135 0
140 135 0
134 129 0
135 129 0
136 131 0
138 133 0
141 137 0
134 130 0
136 131 0
131 127 0
140 133 0
142 136 0
131 126 0
142 138 0
141 136 0
138 133 0
131 127 0
142 138 0
137 132 0
133 127 0
142 137 0
142 138 0
141 135 0
142 136 0
140 136 0
147 141 0
142 137 0
145 141 0
142 137 0
145 142 0
140 135 0
143 139 0
145 141 0
140 137 0
146 143 0
142 136 0
147 142 0
147 141 0
146 141 0
146 142 0
148 143 0
145 140 0
149 145 0
147 142 0
146 143 0
148 142 0
151 147 0
146 139 0
147 142 0
147 141 0
151 146 0
146 141 0
151 148 0
151 146 0
151 146 0
149 144 0
150 145 0
151 147 0
149 145 0
149 145 0
153 148 0
148 143 0
150 146 0
149 146 0
149 144 0
149 143 0
148 144 0
153 149 0
150 145 0
153 148 0
152 148 0
147 143 0
150 145 0
151 146 0
151 145 0
152 149 0
149 145 0
153 148 0
154 150 0
150 145 0
153 149 0
151 146 0
151 147 0
152 147 0
153 149 0
153 148 0
152 148 0
151 147 0
154 150 0
153 149 0
151 147 0
152 148 0
152 172 0
153 173 0
152 172 0
150 171 0
152 174 0
154 174 0
150 170 0
153 173 0
150 170 0
154 174 0
154 174 0
152 172 0
153 172 0
151 173 0
153 174 0
149 169 0
150 171 0
154 175 0
149 170 0
150 172 0
152 172 0
154 174 0
149 170 0
149 170 0
151 172 0
150 170 0
154 174 0
152 172 0
152 172 0
151 172 0
152 173 0
148 168 0
148 168 0
148 168 0
150 170 0
151 172 0
152 172 0
150 170 0
151 171 0
148 169 0
151 172 0
148 169 0
148 168 0
149 169 0
150 170 0
149 169 0
146 167 0
147 167 0
150 169 0
147 167 0
141 161 0
147 166 0
145 165 0
144 163 0
144 163 0
147 166 0
145 165 0
142 161 0
144 164 0
147 167 0
146 166 0
143 162 0
145 164 0
144 165 0
142 162 0
144 164 0
144 164 0
143 163 0
141 159 0
139 159 0
140 160 0
141 160 0
135 154 0
136 155 0
138 158 0
145 165 0
137 156 0
140 159 0
136 155 0
134 154 0
136 154 0
137 157 0
138 157 0
136 155 0
134 153 0
143 163 0
133 151 0
135 154 0
136 154 0
136 155 0
131 148 0
127 146 0
135 154 0
130 148 0
131 149 0
139 157 0
129 146 0
133 151 0
133 153 0
132 151 0
136 155 0
127 146 0
120 137 0
129 147 0
118 135 0
128 145 0
119 135 0
123 141 0
123 140 0
113 129 0
121 138 0
126 143 0
125 142 0
118 134 0
110 125 0
112 128 0
125 142 0
118 134 0
121 139 0
113 130 0
110 125 0
103 119 0
100 116 0
117 132 0
104 119 0
102 119 0
107 122 0
116 132 0
103 118 0
105 120 0
122 138 0
123 140 0
126 143 0
144 164 0
162 184 0
161 183 0
159 181 0
153 174 0
160 183 0
156 178 0
158 181 0
160 182 0
160 182 0
161 183 0
159 181 0
153 175 0
158 180 0
154 176 0
151 172 0
158 179 0
157 179 0
153 176 0
149 170 0
148 170 0
150 172 0
155 177 0
152 173 0
155 179 0
148 169 0
153 175 0
151 173 0
147 169 0
72 95 70
49 78 87
52 82 94
51 80 83
47 75 56
51 82 89
51 81 82
53 84 82
51 81 70
52 83 80
52 83 96
53 84 95
54 85 100
53 84 95
54 85 100
52 83 92
53 84 106
54 86 98
53 85 95
55 87 105
53 83 90
55 86 94
52 83 105
51 82 91
52 83 100
52 83 97
57 91 102
54 86 86
56 89 102
54 86 103
53 83 92
53 84 103
55 88 107
53 84 92
53 84 94
54 85 86
54 85 100
53 84 90
54 85 94
55 87 92
51 81 84
54 85 90
53 83 86
49 78 80
55 86 105
54 85 103
53 83 84
55 87 107
53 84 89
53 84 88
54 86 94
55 87 101
54 85 102
53 84 101
52 82 82
51 81 84
55 87 107
55 87 105
53 83 86
55 87 102
55 86 104
54 85 95
55 87 105
55 85 96
52 82 78
54 84 98
51 80 88
52 82 95
53 82 76
50 78 72
48 75 69
50 77 79
50 78 64
48 75 89
50 77 75
81 101 71
146 165 0
151 170 0
152 171 0
143 160 0
148 167 0
148 166 0
155 174 0
154 173 0
154 173 0
159 177 0
157 176 0
154 172 0
159 180 0
160 176 0
157 176 0
160 178 0
154 172 0
162 180 0
155 174 0
154 172 0
149 166 0
158 173 0
162 181 0
156 170 0
156 176 0
160 177 0
159 178 0
166 183 0
147 152 0
129 121 0
121 113 0
119 112 0
114 106 0
106 98 0
111 104 0
118 110 0
114 107 0
110 103 0
105 98 0
111 106 0
114 108 0
106 101 0
111 105 0
114 107 0
114 106 0
105 101 0
120 114 0
113 106 0
116 110 0
114 108 0
123 117 0
126 121 0
120 114 0
127 121 0
123 117 0
130 124 0
127 122 0
125 119 0
124 119 0
133 126 0
125 120 0
126 118 0
131 127 0
127 121 0
132 127 0
137 132 0
131 127 0
135 131 0
130 126 0
135 128 0
130 125 0
130 124 0
130 125 0
136 129 0
137 132 0
140 134 0
139 135 0
140 135 0
142 136 0
138 133 0
137 131 0
141 136 0
145 139 0
136 130 0
139 133 0
140 135 0
138 134 0
137 131 0
145 140 0
139 135 0
142 135 0
142 138 0
148 143 0
148 143 0
145 139 0
148 143 0
146 141 0
144 141 0
146 141 0
145 139 0
144 140 0
145 140 0
147 141 0
147 142 0
144 138 0
147 142 0
141 136 0
147 143 0
144 140 0
146 140 0
145 138 0
149 143 0
145 139 0
149 143 0
147 141 0
147 142 0
152 145 0
151 146 0
148 143 0
152 147 0
145 139 0
149 145 0
145 140 0
147 143 0
150 145 0
148 143 0
149 143 0
148 143 0
149 142 0
151 146 0
149 144 0
150 146 0
152 148 0
151 146 0
151 146 0
151 147 0
152 147 0
153 147 0
152 148 0
152 146 0
154 149 0
148 144 0
150 146 0
151 146 0
153 148 0
152 147 0
151 147 0
149 144 0
151 147 0
150 147 0
151 145 0
153 149 0
151 148 0
153 149 0
151 147 0
153 149 0
151 148 0
151 145 0
154 149 0
153 147 0
155 150 0
151 148 0
153 173 0
153 174 0
152 173 0
153 173 0
153 173 0
151 172 0
150 171 0
152 173 0
152 172 0
153 173 0
150 170 0
151 171 0
153 173 0
150 169 0
150 171 0
152 172 0
153 173 0
150 170 0
150 171 0
153 173 0
151 171 0
149 170 0
154 174 0
152 173 0
149 169 0
152 173 0
149 169 0
151 171 0
151 171 0
147 168 0
151 172 0
149 169 0
150 170 0
150 170 0
151 172 0
149 169 0
145 166 0
147 166 0
150 170 0
147 167 0
150 170 0
151 171 0
149 169 0
147 168 0
148 168 0
146 166 0
151 170 0
148 168 0
146 166 0
149 170 0
145 165 0
143 163 0
147 167 0
143 163 0
143 163 0
144 163 0
145 166 0
142 162 0
148 168 0
148 168 0
147 167 0
146 166 0
144 163 0
143 162 0
147 167 0
141 161 0
141 160 0
144 164 0
141 160 0
144 163 0
140 160 0
143 162 0
140 160 0
142 161 0
136 155 0
142 161 0
144 164 0
140 158 0
138 158 0
135 154 0
133 152 0
137 156 0
136 155 0
133 152 0
136 156 0
137 157 0
140 159 0
137 156 0
130 149 0
133 151 0
141 161 0
132 150 0
137 155 0
132 151 0
134 152 0
134 152 0
125 143 0
132 150 0
127 145 0
134 152 0
136 153 0
125 143 0
126 145 0
130 148 0
125 141 0
125 143 0
126 143 0
121 137 0
119 136 0
120 137 0
121 137 0
114 131 0
120 137 0
109 126 0
119 136 0
123 139 0
114 130 0
112 128 0
120 136 0
103 118 0
102 116 0
115 132 0
105 120 0
112 127 0
106 121 0
105 120 0
101 115 0
109 124 0
110 127 0
122 138 0
104 120 0
125 141 0
142 161 0
158 180 0
164 185 0
155 178 0
153 174 0
154 175 0
162 183 0
159 180 0
158 179 0
149 169 0
160 182 0
153 173 0
156 177 0
157 179 0
158 180 0
157 179 0
150 170 0
153 174 0
152 174 0
156 177 0
157 178 0
150 172 0
158 181 0
155 177 0
152 175 0
144 166 0
142 164 0
150 171 0
153 176 0
141 163 0
145 167 18
78 101 66
47 75 69
48 76 71
47 75 75
50 79 89
51 81 82
52 82 91
54 86 100
52 83 98
51 81 82
51 81 84
54 86 94
55 86 91
51 82 97
52 83 93
51 82 88
53 84 89
54 86 90
55 87 102
54 84 102
54 86 100
52 83 78
54 87 105
55 88 97
52 83 95
54 85 102
54 85 111
55 86 99
54 84 100
54 86 105
54 86 105
54 86 97
53 85 90
53 84 103
55 88 103
53 84 90
55 85 100
56 88 110
53 84 95
53 85 90
55 87 102
54 85 90
54 86 103
56 88 104
55 87 104
54 86 95
55 87 97
51 81 82
52 82 95
55 87 102
52 81 81
56 88 113
53 83 94
51 80 80
53 83 94
53 84 83
52 82 92
53 83 92
53 83 97
53 83 92
52 81 84
48 76 67
52 82 94
52 81 85
50 79 82
54 83 89
51 80 85
50 79 76
49 77 75
50 77 79
49 76 79
49 76 78
47 73 68
76 96 66
132 150 18
145 164 0
140 157 0
156 175 0
143 159 0
154 172 0
144 164 0
151 170 0
150 169 0
153 172 0
148 167 0
153 171 0
147 165 0
152 168 0
143 160 0
151 170 0
153 173 0
146 162 0
156 171 0
152 168 0
154 171 0
155 173 0
157 174 0
158 174 0
159 172 0
157 172 0
162 178 0
160 176 0
153 170 0
154 171 0
147 152 0
123 116 0
124 116 0
109 103 0
113 107 0
110 103 0
108 103 0
104 97 0
107 100 0
107 101 0
108 102 0
109 105 0
104 98 0
118 111 0
117 109 0
108 99 0
123 115 0
113 107 0
117 112 0
119 113 0
122 115 0
119 112 0
117 111 0
122 115 0
122 117 0
129 123 0
117 110 0
122 117 0
115 111 0
122 115 0
122 116 0
125 118 0
129 123 0
129 123 0
131 126 0
135 128 0
133 128 0
128 123 0
130 125 0
126 121 0
136 131 0
137 131 0
138 134 0
134 129 0
133 129 0
133 129 0
133 127 0
139 132 0
136 132 0
137 131 0
137 132 0
138 131 0
141 136 0
137 131 0
136 131 0
141 137 0
146 140 0
150 145 0
140 135 0
144 139 0
144 138 0
142 137 0
143 136 0
146 143 0
145 138 0
144 138 0
144 138 0
142 136 0
147 140 0
150 144 0
143 138 0
147 141 0
150 144 0
145 138 0
143 139 0
142 137 0
147 142 0
144 139 0
143 138 0
146 140 0
148 142 0
145 141 0
149 143 0
147 142 0
147 142 0
149 144 0
149 143 0
149 144 0
151 146 0
151 145 0
146 140 0
149 144 0
148 143 0
146 141 0
149 144 0
150 145 0
149 146 0
148 143 0
148 143 0
148 143 0
152 146 0
150 144 0
149 143 0
148 141 0
150 144 0
148 142 0
150 146 0
152 146 0
153 147 0
151 145 0
152 147 0
150 146 0
150 145 0
147 143 0
152 148 0
150 146 0
150 147 0
152 148 0
154 150 0
150 145 0
150 144 0
152 147 0
153 148 0
153 148 0
151 146 0
151 148 0
152 147 0
154 150 0
151 146 0
152 148 0
156 152 0
152 148 0
153 147 0
153 173 0
153 173 0
155 175 0
152 173 0
155 175 0
153 174 0
150 171 0
151 171 0
151 171 0
152 173 0
152 173 0
152 173 0
150 170 0
153 172 0
152 173 0
149 169 0
151 172 0
148 169 0
152 172 0
152 171 0
152 172 0
151 171 0
151 172 0
147 167 0
149 170 0
147 167 0
148 167 0
151 171 0
147 168 0
150 170 0
146 166 0
146 166 0
149 169 0
146 165 0
151 171 0
146 166 0
150 170 0
148 168 0
146 166 0
148 168 0
147 167 0
147 167 0
151 171 0
142 163 0
151 170 0
147 166 0
149 169 0
145 165 0
143 162 0
150 171 0
149 169 0
146 165 0
145 165 0
145 165 0
147 167 0
144 164 0
146 166 0
145 163 0
145 164 0
145 164 0
142 162 0
146 164 0
144 164 0
141 161 0
144 163 0
144 163 0
139 159 0
145 164 0
141 161 0
144 164 0
142 161 0
141 160 0
140 159 0
140 159 0
140 160 0
136 156 0
139 158 0
139 158 0
139 159 0
141 161 0
136 155 0
133 150 0
131 149 0
142 161 0
134 153 0
136 154 0
144 163 0
140 158 0
136 154 0
134 152 0
138 157 0
136 154 0
134 153 0
135 154 0
134 152 0
130 147 0
133 152 0
134 151 0
132 151 0
123 140 0
124 141 0
117 135 0
121 138 0
120 138 0
121 137 0
123 140 0
125 142 0
121 138 0
124 141 0
124 141 0
130 147 0
123 140 0
124 140 0
111 126 0
114 129 0
118 136 0
115 131 0
115 131 0
116 131 0
114 130 0
110 126 0
107 122 0
114 130 0
109 125 0
105 120 0
110 125 0
116 131 0
100 115 0
113 129 0
117 132 0
128 144 0
140 160 0
156 177 0
151 172 0
157 180 0
157 178 0
157 178 0
154 175 0
154 176 0
155 176 0
160 180 0
150 171 0
152 173 0
156 178 0
152 173 0
152 173 0
149 170 0
146 166 0
152 173 0
151 173 0
151 172 0
149 171 0
148 170 0
140 161 0
143 164 0
136 157 0
138 157 0
144 166 0
150 170 0
149 171 0
145 167 0
148 170 0
142 163 0
129 149 36
68 91 71
45 71 64
50 80 87
49 78 71
50 79 89
54 85 93
49 78 82
49 79 80
50 80 88
53 84 96
51 81 80
52 82 90
50 80 80
53 84 92
53 84 94
53 85 92
51 82 84
54 85 102
53 85 95
53 83 96
51 82 82
53 84 88
53 84 95
54 86 97
54 86 100
54 85 94
57 89 107
51 81 95
55 87 99
54 86 102
53 84 92
56 88 102
53 84 98
53 85 92
55 86 102
54 85 90
54 84 99
53 84 97
55 87 94
54 85 97
53 84 84
55 87 100
54 85 97
57 89 105
54 85 92
53 85 83
52 82 94
52 83 92
54 85 95
54 84 88
53 83 95
55 86 99
53 84 92
53 83 97
54 84 103
52 82 86
52 82 82
52 82 104
55 85 104
53 84 88
50 80 80
49 78 81
51 80 83
52 81 95
49 76 68
50 79 84
48 76 70
49 76 71
49 76 72
47 73 72
49 77 65
78 98 62
131 150 0
146 163 0
142 158 0
149 166 0
145 163 0
146 165 0
151 168 0
150 167 0
141 159 0
153 171 0
142 157 0
146 165 0
149 167 0
146 164 0
150 165 0
144 161 0
153 167 0
151 169 0
154 172 0
148 166 0
144 159 0
150 168 0
149 166 0
153 168 0
149 167 0
160 175 0
147 162 0
158 172 0
154 171 0
155 172 0
158 173 0
159 173 0
144 150 0
118 112 0
116 106 0
113 107 0
112 104 0
113 105 0
102 97 0
116 107 0
109 102 0
103 98 0
120 112 0
111 104 0
113 109 0
109 103 0
121 114 0
112 104 0
116 109 0
113 107 0
109 102 0
114 109 0
116 112 0
122 115 0
118 111 0
118 112 0
124 115 0
121 114 0
115 109 0
123 118 0
122 116 0
131 126 0
117 111 0
123 118 0
132 126 0
128 123 0
130 123 0
126 120 0
132 127 0
133 127 0
137 129 0
135 128 0
130 125 0
133 126 0
132 126 0
136 131 0
132 126 0
140 134 0
138 133 0
140 132 0
141 135 0
143 136 0
135 129 0
141 135 0
130 125 0
140 134 0
136 131 0
140 134 0
135 129 0
143 136 0
144 137 0
143 136 0
148 141 0
141 136 0
144 138 0
143 137 0
141 135 0
144 138 0
142 138 0
140 136 0
143 137 0
143 137 0
146 140 0
139 134 0
146 139 0
146 138 0
147 141 0
141 134 0
145 139 0
148 142 0
149 144 0
148 143 0
144 139 0
144 137 0
145 139 0
144 140 0
147 141 0
146 141 0
147 142 0
151 146 0
146 139 0
144 141 0
146 142 0
146 140 0
147 141 0
150 144 0
148 143 0
151 147 0
147 141 0
150 143 0
149 144 0
149 145 0
149 143 0
148 144 0
148 143 0
151 145 0
152 148 0
150 145 0
149 144 0
149 144 0
152 147 0
149 145 0
147 141 0
151 147 0
149 142 0
151 145 0
150 147 0
153 148 0
148 141 0
153 148 0
150 145 0
155 150 0
153 149 0
153 148 0
154 148 0
150 146 0
153 149 0
152 148 0
154 150 0
151 148 0
153 148 0
153 149 0
151 147 0
152 149 0
153 173 0
153 173 0
153 174 0
152 173 0
151 172 0
151 172 0
154 174 0
152 173 0
152 173 0
151 171 0
150 170 0
150 170 0
153 174 0
151 171 0
149 169 0
153 173 0
150 171 0
153 174 0
151 171 0
152 172 0
152 173 0
152 173 0
150 171 0
148 169 0
150 170 0
150 170 0
153 173 0
150 170 0
149 169 0
147 167 0
149 170 0
151 171 0
149 170 0
149 168 0
148 168 0
151 171 0
147 167 0
148 167 0
145 165 0
146 166 0
147 167 0
148 168 0
148 169 0
146 166 0
144 165 0
146 166 0
148 168 0
148 169 0
146 166 0
145 165 0
144 163 0
147 167 0
144 164 0
147 167 0
146 165 0
141 160 0
142 161 0
149 168 0
148 167 0
148 167 0
148 167 0
145 165 0
145 164 0
146 166 0
143 162 0
143 162 0
142 162 0
146 165 0
147 165 0
144 163 0
140 160 0
139 158 0
143 162 0
138 157 0
139 158 0
146 165 0
142 161 0
140 159 0
139 157 0
136 155 0
138 157 0
137 156 0
139 158 0
138 156 0
139 157 0
133 151 0
137 155 0
138 156 0
132 150 0
141 159 0
129 148 0
128 147 0
133 151 0
129 147 0
127 144 0
128 146 0
128 146 0
131 149 0
125 142 0
129 146 0
126 142 0
128 147 0
125 141 0
128 144 0
113 130 0
125 142 0
121 138 0
121 136 0
127 144 0
120 138 0
122 138 0
114 131 0
118 134 0
120 136 0
113 128 0
114 130 0
126 142 0
116 132 0
103 118 0
110 126 0
108 123 0
110 125 0
105 121 0
112 127 0
111 126 0
107 122 0
120 135 0
114 129 0
113 128 0
121 137 0
144 163 0
153 174 0
160 181 0
149 169 0
151 172 0
152 173 0
155 175 0
153 174 0
152 173 0
153 174 0
158 178 0
145 165 0
150 170 0
150 170 0
154 176 0
150 170 0
148 168 0
146 167 0
147 168 0
147 167 0
151 173 0
149 169 0
146 167 0
138 159 0
142 163 0
138 159 0
145 166 0
143 165 0
134 155 0
139 160 0
133 153 0
133 154 0
138 159 0
142 163 0
139 159 18
72 95 56
49 78 73
48 77 71
51 81 80
49 78 86
52 81 87
50 81 80
50 80 87
51 81 84
49 79 75
53 84 100
51 81 86
54 85 101
51 82 81
53 84 106
56 88 100
52 83 90
54 85 98
52 82 90
54 85 102
53 85 97
52 83 95
51 81 84
53 85 100
54 85 91
52 82 84
54 86 103
52 83 94
54 85 94
55 87 99
54 86 102
54 86 90
52 82 84
52 82 90
54 86 97
53 84 97
53 83 102
54 85 97
53 84 92
56 87 108
52 83 95
51 81 76
53 84 94
53 85 90
53 84 90
52 83 94
54 84 99
54 84 102
54 86 99
50 79 76
54 86 107
53 83 82
52 81 82
53 84 92
51 80 93
50 78 88
51 81 83
53 84 99
52 81 87
54 84 90
50 79 80
51 80 84
51 80 99
50 78 82
48 74 75
50 77 75
50 78 89
47 73 72
47 73 68
75 94 45
129 146 0
149 168 0
136 154 0
143 162 0
134 153 0
144 159 0
145 163 0
146 164 0
144 160 0
143 158 0
149 164 0
142 157 0
146 163 0
144 159 0
138 154 0
149 163 0
150 165 0
150 164 0
145 161 0
151 166 0
157 173 0
154 171 0
145 161 0
151 167 0
151 169 0
148 166 0
144 157 0
155 170 0
147 164 0
159 174 0
158 174 0
147 161 0
154 170 0
158 171 0
140 145 0
119 109 0
125 116 0
114 104 0
110 101 0
112 104 0
107 100 0
115 106 0
107 99 0
103 97 0
119 110 0
112 106 0
121 113 0
112 106 0
98 94 0
113 104 0
112 105 0
119 112 0
108 103 0
123 115 0
126 117 0
117 110 0
118 112 0
120 111 0
120 114 0
119 113 0
128 120 0
120 113 0
125 118 0
131 124 0
125 119 0
125 118 0
138 131 0
116 111 0
116 110 0
135 128 0
133 126 0
134 128 0
132 126 0
134 127 0
128 122 0
134 127 0
133 127 0
134 128 0
136 130 0
143 134 0
134 128 0
132 126 0
139 131 0
143 136 0
142 135 0
139 132 0
138 132 0
144 136 0
142 137 0
142 137 0
141 134 0
142 136 0
143 137 0
137 129 0
141 135 0
140 134 0
136 129 0
149 143 0
147 141 0
142 136 0
142 136 0
146 139 0
143 137 0
147 142 0
144 139 0
144 139 0
144 139 0
145 138 0
147 141 0
147 141 0
147 141 0
147 143 0
146 141 0
144 139 0
144 139 0
147 141 0
143 139 0
149 141 0
144 139 0
147 141 0
147 142 0
147 142 0
148 143 0
149 143 0
147 142 0
148 144 0
147 142 0
148 141 0
148 142 0
150 143 0
146 140 0
149 145 0
147 140 0
152 147 0
151 146 0
147 141 0
151 146 0
150 144 0
151 146 0
149 142 0
150 144 0
151 145 0
152 146 0
153 148 0
152 147 0
149 143 0
153 147 0
152 148 0
151 146 0
152 146 0
151 146 0
150 144 0
153 147 0
149 143 0
150 146 0
151 146 0
153 147 0
151 145 0
151 147 0
148 144 0
152 146 0
153 149 0
153 147 0
153 149 0
152 147 0
153 173 0
153 173 0
154 174 0
152 172 0
152 172 0
151 171 0
151 172 0
152 172 0
153 173 0
152 173 0
150 171 0
151 172 0
151 171 0
152 173 0
152 172 0
151 171 0
152 172 0
150 170 0
148 169 0
151 171 0
151 171 0
150 170 0
149 169 0
151 171 0
151 171 0
149 168 0
150 170 0
150 170 0
150 170 0
148 167 0
149 168 0
147 167 0
149 169 0
153 172 0
146 166 0
146 166 0
145 164 0
145 164 0
150 170 0
148 168 0
147 166 0
148 168 0
148 167 0
148 169 0
146 166 0
141 161 0
150 168 0
149 168 0
147 167 0
144 163 0
146 166 0
143 163 0
144 162 0
142 161 0
146 165 0
144 164 0
146 165 0
140 160 0
146 165 0
146 165 0
144 164 0
145 165 0
144 164 0
143 163 0
144 164 0
143 163 0
143 162 0
140 160 0
140 159 0
142 162 0
141 159 0
145 165 0
141 160 0
141 160 0
135 154 0
142 160 0
140 160 0
137 156 0
145 163 0
138 156 0
136 155 0
137 156 0
137 156 0
142 160 0
138 157 0
131 149 0
129 148 0
141 159 0
139 157 0
134 152 0
133 151 0
140 159 0
136 154 0
137 155 0
124 142 0
130 149 0
132 150 0
133 150 0
124 143 0
129 147 0
131 149 0
133 150 0
128 146 0
125 142 0
127 144 0
131 148 0
127 145 0
118 136 0
111 127 0
124 140 0
117 132 0
121 138 0
111 126 0
114 129 0
122 138 0
114 130 0
111 126 0
112 128 0
115 130 0
109 124 0
103 118 0
108 123 0
105 119 0
106 121 0
114 129 0
107 122 0
113 129 0
116 131 0
117 132 0
139 158 0
156 175 0
152 173 0
154 174 0
152 172 0
154 173 0
149 169 0
149 169 0
147 167 0
150 170 0
147 166 0
152 172 0
144 165 0
149 169 0
147 168 0
146 167 0
142 163 0
142 162 0
136 156 0
143 164 0
144 165 0
144 165 0
144 164 0
144 164 0
139 160 0
145 166 0
139 158 0
138 159 0
151 171 0
143 163 0
143 163 0
141 162 0
137 158 0
146 166 0
131 151 0
136 156 0
133 153 18
97 116 53
46 73 75
47 75 64
48 77 76
49 78 64
49 79 65
49 78 78
50 81 80
51 81 76
51 81 86
49 78 82
53 84 95
47 75 80
53 84 80
50 79 80
50 81 82
52 83 84
50 80 97
51 82 92
54 85 92
52 83 89
51 81 80
54 85 103
55 87 98
54 85 95
55 86 97
53 83 84
52 82 76
53 84 84
50 80 80
54 86 90
53 84 90
49 78 76
54 85 94
56 87 108
56 88 102
50 80 86
53 84 90
51 82 82
52 81 97
55 86 110
54 85 105
54 86 97
54 85 103
53 83 90
54 86 97
51 81 84
54 85 82
53 85 100
53 83 84
50 80 77
48 77 73
51 81 90
53 83 90
51 81 72
50 79 72
51 80 74
46 73 44
49 77 80
51 80 89
50 79 87
49 76 72
48 75 66
48 75 74
50 76 85
46 72 57
45 71 67
81 97 37
126 143 18
131 146 0
137 154 0
132 149 0
141 157 0
140 154 0
142 158 0
139 155 0
145 162 0
143 160 0
143 157 0
148 166 0
137 153 0
140 157 0
144 159 0
144 159 0
146 161 0
148 163 0
144 160 0
145 160 0
151 167 0
150 167 0
147 161 0
148 158 0
143 156 0
152 164 0
153 168 0
152 165 0
143 155 0
150 164 0
144 156 0
149 161 0
150 165 0
144 157 0
150 162 0
154 163 0
142 145 0
121 112 0
112 102 0
109 101 0
116 107 0
101 92 0
117 109 0
117 107 0
114 103 0
119 110 0
112 103 0
115 105 0
118 110 0
114 108 0
116 110 0
101 94 0
118 110 0
125 118 0
122 113 0
117 110 0
116 108 0
123 115 0
126 119 0
123 117 0
122 115 0
131 124 0
126 119 0
126 118 0
123 115 0
127 120 0
126 120 0
129 122 0
124 117 0
134 128 0
128 122 0
133 125 0
127 120 0
132 126 0
137 131 0
134 127 0
128 120 0
136 131 0
130 122 0
132 125 0
134 128 0
133 127 0
141 135 0
137 130 0
135 127 0
134 127 0
139 133 0
139 132 0
141 133 0
143 138 0
141 135 0
138 132 0
137 131 0
141 135 0
145 138 0
144 137 0
142 135 0
146 138 0
141 132 0
145 140 0
149 142 0
143 135 0
148 141 0
142 135 0
144 136 0
144 139 0
146 139 0
141 136 0
143 137 0
146 141 0
146 140 0
143 138 0
149 143 0
143 139 0
145 140 0
144 138 0
146 139 0
149 143 0
147 140 0
148 143 0
146 141 0
144 137 0
146 141 0
141 135 0
150 145 0
145 139 0
147 141 0
150 145 0
150 145 0
146 140 0
148 144 0
149 142 0
152 145 0
148 142 0
151 144 0
149 143 0
149 145 0
148 144 0
152 145 0
146 140 0
148 142 0
146 141 0
152 145 0
148 143 0
151 146 0
150 145 0
151 147 0
151 146 0
151 146 0
150 145 0
150 145 0
149 143 0
154 149 0
151 146 0
150 146 0
152 148 0
152 146 0
151 145 0
152 148 0
150 146 0
152 148 0
152 146 0
153 148 0
154 148 0
151 147 0
154 150 0
152 172 0
152 171 0
150 171 0
152 172 0
152 172 0
152 173 0
151 172 0
151 171 0
151 172 0
150 171 0
153 173 0
153 174 0
149 170 0
151 172 0
153 173 0
151 171 0
151 172 0
150 170 0
149 168 0
149 169 0
147 167 0
148 168 0
150 170 0
150 170 0
151 171 0
150 170 0
147 168 0
150 169 0
154 174 0
149 169 0
144 164 0
148 169 0
146 166 0
148 167 0
148 167 0
147 167 0
147 167 0
149 168 0
148 167 0
147 167 0
147 167 0
143 162 0
145 165 0
149 169 0
148 168 0
145 165 0
145 165 0
142 161 0
146 166 0
144 163 0
145 164 0
146 165 0
142 162 0
149 169 0
144 164 0
146 166 0
148 168 0
147 165 0
143 164 0
147 165 0
140 159 0
145 164 0
145 165 0
143 162 0
147 166 0
143 162 0
144 163 0
142 162 0
138 158 0
133 152 0
142 160 0
138 157 0
138 158 0
141 159 0
136 155 0
139 159 0
141 160 0
140 158 0
139 158 0
136 154 0
133 152 0
138 157 0
133 151 0
135 154 0
137 156 0
138 156 0
135 154 0
129 147 0
132 150 0
134 152 0
132 150 0
134 153 0
124 142 0
129 147 0
133 152 0
131 149 0
122 139 0
133 151 0
133 150 0
124 140 0
124 141 0
122 139 0
120 137 0
125 142 0
121 138 0
128 145 0
129 145 0
120 136 0
115 130 0
122 138 0
121 137 0
111 127 0
109 124 0
117 132 0
114 129 0
114 130 0
116 131 0
106 121 0
114 129 0
108 123 0
106 120 0
114 129 0
122 137 0
104 120 0
110 125 0
112 127 0
114 128 0
118 134 0
138 156 0
151 171 0
147 167 0
145 165 0
148 167 0
147 166 0
144 163 0
148 168 0
147 166 0
147 167 0
140 159 0
152 172 0
143 163 0
153 173 0
139 159 0
142 162 0
141 161 0
144 163 0
139 159 0
138 158 0
140 160 0
147 167 0
149 170 0
136 157 0
135 156 0
139 159 0
139 159 0
135 155 0
143 164 0
128 146 0
153 173 0
134 154 0
133 153 0
141 162 0
135 155 0
131 150 0
118 138 0
143 163 0
133 154 18
91 113 51
45 73 60
45 72 60
49 78 82
49 79 82
52 83 91
49 79 76
50 80 82
52 83 95
51 81 84
52 82 84
49 79 76
51 81 86
50 79 90
53 84 92
52 83 86
53 84 99
51 80 80
52 83 76
52 83 90
49 79 76
53 85 86
54 85 100
52 82 84
53 84 84
53 84 88
50 80 86
52 83 94
52 82 99
49 79 82
52 82 94
53 84 95
52 83 88
52 83 76
52 83 95
51 81 86
52 82 92
52 83 92
53 83 92
50 81 95
53 84 86
51 80 67
53 83 90
51 81 81
52 81 86
51 81 90
50 80 92
53 84 94
53 84 94
54 85 95
51 81 95
51 81 81
50 79 81
52 82 86
50 80 80
51 80 78
53 83 90
51 80 77
50 78 74
50 78 77
49 77 60
49 77 77
48 74 79
45 70 65
53 78 78
95 114 47
126 142 0
127 143 0
115 131 0
129 143 0
137 153 0
130 143 0
125 140 0
139 156 0
130 143 0
129 143 0
139 156 0
137 154 0
131 147 0
145 162 0
129 142 0
135 151 0
145 160 0
144 159 0
142 158 0
148 162 0
151 166 0
145 162 0
140 155 0
141 156 0
143 158 0
152 165 0
143 154 0
150 164 0
148 162 0
147 156 0
152 162 0
155 169 0
148 157 0
151 164 0
143 155 0
149 161 0
144 155 0
153 163 0
141 148 0
109 103 0
104 94 0
108 100 0
110 102 0
108 100 0
112 105 0
114 105 0
109 102 0
114 106 0
114 104 0
112 105 0
119 111 0
113 106 0
117 109 0
110 103 0
113 106 0
118 111 0
114 107 0
114 105 0
120 114 0
128 120 0
118 112 0
128 118 0
125 119 0
119 111 0
118 109 0
128 122 0
127 119 0
119 112 0
131 124 0
131 123 0
129 122 0
129 122 0
130 122 0
129 122 0
131 125 0
135 128 0
135 128 0
131 125 0
135 128 0
131 125 0
136 130 0
134 128 0
140 135 0
138 131 0
138 129 0
138 131 0
133 127 0
142 137 0
143 139 0
136 129 0
137 129 0
142 135 0
141 136 0
141 134 0
140 133 0
139 134 0
143 137 0
142 136 0
143 137 0
141 136 0
142 137 0
142 135 0
144 137 0
143 136 0
144 136 0
145 138 0
140 133 0
144 137 0
145 139 0
135 129 0
142 133 0
144 135 0
143 138 0
148 143 0
145 140 0
144 138 0
144 136 0
148 141 0
147 142 0
144 138 0
147 142 0
150 141 0
147 141 0
141 135 0
151 145 0
148 141 0
150 145 0
148 141 0
151 145 0
147 141 0
149 144 0
149 143 0
148 143 0
146 139 0
148 141 0
152 146 0
149 144 0
147 141 0
148 142 0
149 142 0
150 145 0
148 143 0
150 146 0
151 145 0
152 145 0
151 145 0
149 143 0
152 147 0
150 146 0
151 146 0
152 145 0
153 147 0
150 144 0
150 144 0
151 146 0
153 147 0
151 146 0
152 147 0
150 145 0
151 146 0
151 146 0
150 146 0
151 145 0
151 146 0
154 150 0
151 146 0
152 148 0
151 171 0
154 175 0
151 171 0
153 173 0
151 171 0
151 172 0
152 172 0
151 172 0
152 172 0
150 171 0
150 170 0
152 172 0
151 170 0
151 170 0
148 168 0
151 171 0
151 170 0
149 169 0
152 172 0
148 167 0
152 172 0
147 168 0
151 171 0
148 167 0
150 170 0
149 168 0
149 168 0
148 168 0
151 170 0
151 171 0
149 169 0
148 167 0
147 166 0
146 165 0
147 167 0
145 164 0
149 169 0
145 165 0
146 165 0
148 167 0
147 166 0
150 170 0
143 162 0
146 166 0
146 165 0
146 166 0
144 164 0
149 168 0
146 165 0
145 164 0
146 165 0
146 166 0
149 168 0
139 158 0
145 163 0
143 163 0
147 166 0
143 162 0
141 160 0
145 164 0
144 164 0
141 160 0
139 158 0
142 161 0
143 162 0
144 164 0
140 159 0
141 161 0
138 156 0
136 154 0
141 159 0
138 157 0
142 160 0
138 156 0
137 157 0
133 151 0
133 151 0
135 153 0
136 154 0
138 155 0
137 155 0
134 152 0
139 157 0
135 153 0
136 154 0
131 150 0
137 155 0
136 154 0
138 156 0
133 151 0
133 151 0
135 153 0
129 147 0
126 143 0
129 148 0
131 149 0
128 146 0
129 147 0
121 137 0
118 135 0
124 141 0
121 138 0
127 143 0
122 138 0
126 142 0
114 130 0
118 135 0
111 126 0
117 132 0
110 126 0
118 135 0
110 126 0
122 138 0
118 134 0
120 136 0
118 134 0
105 119 0
106 122 0
111 125 0
111 127 0
106 121 0
105 119 0
116 131 0
105 120 0
109 123 0
113 127 0
127 143 0
146 165 0
147 166 0
143 162 0
140 158 0
149 168 0
143 163 0
154 172 0
147 166 0
140 158 0
147 167 0
143 162 0
150 169 0
148 168 0
140 159 0
145 164 0
142 161 0
137 157 0
143 162 0
141 161 0
140 161 0
136 156 0
141 161 0
132 150 0
131 151 0
136 156 0
132 152 0
137 156 0
128 147 0
132 152 0
127 145 0
130 149 0
136 155 0
131 152 0
128 149 0
131 150 0
135 154 0
118 137 0
121 140 0
131 151 0
131 151 0
125 145 0
107 127 56
47 72 56
47 74 71
46 74 59
44 70 67
47 76 78
50 80 76
48 76 78
49 78 76
51 81 91
50 79 87
52 82 90
51 81 80
50 79 71
50 80 72
51 80 101
54 85 95
53 83 102
51 81 72
51 81 80
52 83 94
52 82 86
54 85 108
51 81 88
52 82 88
52 83 92
51 81 84
53 84 92
54 86 99
51 81 92
53 84 86
51 82 86
52 82 92
52 82 88
52 83 97
53 84 92
50 81 82
49 78 70
50 79 78
50 80 70
53 84 86
52 82 83
50 80 77
52 83 88
51 80 80
52 81 94
53 84 80
51 81 88
53 83 95
49 77 70
50 78 78
52 82 94
49 78 75
50 78 92
50 79 78
49 78 88
50 79 85
48 74 66
49 76 77
47 73 61
51 79 96
45 71 60
58 79 60
94 110 40
128 146 0
120 137 0
127 143 0
125 139 0
120 135 0
124 139 0
123 136 0
129 144 0
131 145 0
138 153 0
136 151 0
136 152 0
131 144 0
141 156 0
137 153 0
142 159 0
133 147 0
137 152 0
132 146 0
143 156 0
138 153 0
143 157 0
144 159 0
139 154 0
138 149 0
140 152 0
145 159 0
144 155 0
131 143 0
143 155 0
139 153 0
146 159 0
144 154 0
138 149 0
150 159 0
148 160 0
149 157 0
146 155 0
151 162 0
155 168 0
144 153 0
121 117 0
115 106 0
105 97 0
108 98 0
109 101 0
105 97 0
107 100 0
111 102 0
108 100 0
110 103 0
115 106 0
106 96 0
111 101 0
113 106 0
114 105 0
119 111 0
113 105 0
114 106 0
118 112 0
117 110 0
114 105 0
121 114 0
124 118 0
129 120 0
124 117 0
132 124 0
123 115 0
127 120 0
130 123 0
123 117 0
123 115 0
127 119 0
139 132 0
133 125 0
126 117 0
118 111 0
139 130 0
133 126 0
130 122 0
130 121 0
137 130 0
132 126 0
136 127 0
133 126 0
131 124 0
131 124 0
136 127 0
144 136 0
136 130 0
139 131 0
130 123 0
139 131 0
141 132 0
140 134 0
141 134 0
138 132 0
137 130 0
137 131 0
140 132 0
148 142 0
140 133 0
138 132 0
147 140 0
141 134 0
140 134 0
143 135 0
143 138 0
140 134 0
145 138 0
139 132 0
144 138 0
147 141 0
141 132 0
146 140 0
146 138 0
149 143 0
145 139 0
145 139 0
142 137 0
146 140 0
144 137 0
149 142 0
145 139 0
149 142 0
145 137 0
150 144 0
149 143 0
146 139 0
147 140 0
149 143 0
147 140 0
149 144 0
148 143 0
148 142 0
144 137 0
148 143 0
152 145 0
149 144 0
149 142 0
151 144 0
151 146 0
148 142 0
147 141 0
152 147 0
152 145 0
150 143 0
152 146 0
149 143 0
151 146 0
150 145 0
149 144 0
150 144 0
150 144 0
150 146 0
153 146 0
150 144 0
149 144 0
152 146 0
150 145 0
150 144 0
151 146 0
152 147 0
152 147 0
151 146 0
152 146 0
150 146 0
154 150 0
152 172 0
152 172 0
150 170 0
151 172 0
150 170 0
153 173 0
152 172 0
151 171 0
150 170 0
150 171 0
150 171 0
151 171 0
151 171 0
152 172 0
152 172 0
153 173 0
149 170 0
151 171 0
152 172 0
150 171 0
147 167 0
149 170 0
150 170 0
149 168 0
151 170 0
151 171 0
148 168 0
149 169 0
148 168 0
151 170 0
146 166 0
149 169 0
145 164 0
152 172 0
149 169 0
150 169 0
150 170 0
145 165 0
148 167 0
147 166 0
149 168 0
147 167 0
146 165 0
149 168 0
146 166 0
145 164 0
145 164 0
146 165 0
146 165 0
145 164 0
144 163 0
145 164 0
144 164 0
144 164 0
144 163 0
144 163 0
144 163 0
148 167 0
142 162 0
141 160 0
144 163 0
143 162 0
142 161 0
136 154 0
143 162 0
141 159 0
143 161 0
141 161 0
135 154 0
142 161 0
139 158 0
139 157 0
138 157 0
135 154 0
136 154 0
141 160 0
137 155 0
131 150 0
140 158 0
130 148 0
142 161 0
135 152 0
137 155 0
131 149 0
131 149 0
135 153 0
135 153 0
134 152 0
125 141 0
128 145 0
134 151 0
129 146 0
132 148 0
136 153 0
125 142 0
126 143 0
132 149 0
124 141 0
126 143 0
129 147 0
126 142 0
133 150 0
126 142 0
121 138 0
121 136 0
119 134 0
119 133 0
123 138 0
108 124 0
113 129 0
116 131 0
123 138 0
110 125 0
112 126 0
112 126 0
109 124 0
111 126 0
108 122 0
105 119 0
110 124 0
96 109 0
110 124 0
115 129 0
106 120 0
114 129 0
130 146 0
147 166 0
149 167 0
141 160 0
144 163 0
149 167 0
135 155 0
148 166 0
139 158 0
144 163 0
147 165 0
143 162 0
140 158 0
136 155 0
141 160 0
135 154 0
134 152 0
137 157 0
142 161 0
136 155 0
134 153 0
130 149 0
136 155 0
127 146 0
126 144 0
134 153 0
132 150 0
117 136 0
134 154 0
125 145 0
143 163 0
134 153 0
133 153 0
135 155 0
129 150 0
135 154 0
134 154 0
136 154 0
128 147 0
125 143 0
128 147 0
133 152 0
123 142 0
111 129 0
114 132 18
67 90 51
45 73 70
46 74 74
48 76 86
49 78 78
51 81 84
46 73 72
48 77 72
49 78 84
46 74 80
50 79 80
52 83 88
49 79 76
48 77 84
53 83 90
52 82 86
48 77 74
50 80 70
48 77 76
51 81 88
50 80 82
51 81 100
52 82 86
52 82 84
50 80 86
48 76 78
51 81 80
52 82 86
52 83 76
50 80 78
51 81 90
49 78 76
50 79 68
53 83 100
51 80 86
51 81 84
54 85 90
51 80 80
51 81 99
52 82 78
49 78 82
52 82 86
50 79 74
52 83 90
50 79 89
50 79 78
50 79 88
53 83 94
53 83 90
47 74 74
53 82 81
48 75 74
48 75 79
51 80 82
49 77 79
48 75 79
44 70 65
46 71 63
49 75 77
63 80 36
114 130 18
122 135 0
118 134 0
123 141 0
120 134 0
133 149 0
118 130 0
128 145 0
122 137 0
122 138 0
127 142 0
135 150 0
125 140 0
134 147 0
132 145 0
135 149 0
132 145 0
132 145 0
135 148 0
145 159 0
127 141 0
125 137 0
136 149 0
139 151 0
141 155 0
132 144 0
146 159 0
141 153 0
140 151 0
141 152 0
134 144 0
137 149 0
146 156 0
144 154 0
143 156 0
147 160 0
141 152 0
143 151 0
133 143 0
148 158 0
146 156 0
142 150 0
143 152 0
151 161 0
134 132 0
121 111 0
100 91 0
106 99 0
98 88 0
109 101 0
104 95 0
97 89 0
120 110 0
107 98 0
113 107 0
110 101 0
109 102 0
107 99 0
106 99 0
109 101 0
115 104 0
119 110 0
118 111 0
120 110 0
121 114 0
122 114 0
124 116 0
118 109 0
122 115 0
123 114 0
123 115 0
124 116 0
126 118 0
125 119 0
129 120 0
126 119 0
129 122 0
130 123 0
129 122 0
137 132 0
127 118 0
141 134 0
127 120 0
137 130 0
133 126 0
134 124 0
131 122 0
134 126 0
141 133 0
139 131 0
135 128 0
137 129 0
139 129 0
137 130 0
138 131 0
140 134 0
141 135 0
142 136 0
137 131 0
146 137 0
141 135 0
139 133 0
141 133 0
144 137 0
142 135 0
146 138 0
141 135 0
140 134 0
139 132 0
146 138 0
136 131 0
142 134 0
139 130 0
146 138 0
148 141 0
144 138 0
146 138 0
146 139 0
141 134 0
140 132 0
142 135 0
145 138 0
145 139 0
150 143 0
149 142 0
148 141 0
147 140 0
148 139 0
150 144 0
147 139 0
143 135 0
145 137 0
147 140 0
147 139 0
148 140 0
149 140 0
146 140 0
149 144 0
148 141 0
151 145 0
147 141 0
148 141 0
149 144 0
152 147 0
152 146 0
149 145 0
151 146 0
150 145 0
150 145 0
152 146 0
146 140 0
150 144 0
149 144 0
150 142 0
153 147 0
151 146 0
150 142 0
150 143 0
152 147 0
152 145 0
152 147 0
151 146 0
152 146 0
149 145 0
152 146 0
148 143 0
153 147 0
153 148 0
152 147 0
154 149 0
153 173 0
153 174 0
152 172 0
153 173 0
152 172 0
150 170 0
150 170 0
154 174 0
149 169 0
152 172 0
152 171 0
149 170 0
155 175 0
148 168 0
150 170 0
151 172 0
148 168 0
151 170 0
151 171 0
152 171 0
147 168 0
148 167 0
151 169 0
148 168 0
150 170 0
151 172 0
150 170 0
149 168 0
149 169 0
149 169 0
144 163 0
150 169 0
150 170 0
144 163 0
147 167 0
142 162 0
152 171 0
148 167 0
147 166 0
146 165 0
145 165 0
147 166 0
147 166 0
146 165 0
145 165 0
148 166 0
146 164 0
145 164 0
144 163 0
145 164 0
145 163 0
144 164 0
146 165 0
144 162 0
141 160 0
147 167 0
142 161 0
143 162 0
146 165 0
143 161 0
141 160 0
139 159 0
142 161 0
144 163 0
142 160 0
141 160 0
140 157 0
137 155 0
143 161 0
144 162 0
139 157 0
141 160 0
138 156 0
137 155 0
139 158 0
136 154 0
136 154 0
135 153 0
136 154 0
138 158 0
131 149 0
137 154 0
138 157 0
131 148 0
131 148 0
132 150 0
134 153 0
131 148 0
129 146 0
127 144 0
129 147 0
138 155 0
131 149 0
132 149 0
128 146 0
122 138 0
130 147 0
130 147 0
123 140 0
117 133 0
121 137 0
123 139 0
125 141 0
116 132 0
125 141 0
124 140 0
119 135 0
118 134 0
118 133 0
117 131 0
116 131 0
113 127 0
112 127 0
109 123 0
107 121 0
112 127 0
114 129 0
108 123 0
106 121 0
113 127 0
114 128 0
96 110 0
111 125 0
111 125 0
132 148 0
148 165 0
140 158 0
145 163 0
147 166 0
142 160 0
147 165 0
135 152 0
136 153 0
136 154 0
142 161 0
141 158 0
135 154 0
144 163 0
141 160 0
143 162 0
135 153 0
138 157 0
134 153 0
136 155 0
131 149 0
137 156 0
130 149 0
126 145 0
119 139 0
137 156 0
135 154 0
140 159 0
145 165 0
120 138 0
133 153 0
133 152 0
120 137 0
120 140 0
133 152 0
123 142 0
122 141 0
113 131 0
123 141 0
116 133 0
104 122 0
119 137 0
111 130 0
118 136 0
104 121 0
115 132 0
112 130 0
88 107 35
48 75 75
43 68 67
47 74 71
48 77 78
46 74 57
48 76 78
50 79 78
51 80 74
50 80 74
49 79 72
50 79 84
51 81 93
50 79 92
48 77 67
50 80 86
50 80 76
51 81 80
51 81 84
51 80 82
48 77 80
53 83 80
50 80 80
51 81 80
47 76 74
50 79 88
50 79 67
51 81 90
51 81 90
50 80 76
50 80 82
49 78 76
54 85 97
51 81 80
51 81 78
51 81 86
52 82 79
49 77 74
52 82 90
50 79 77
50 80 80
52 81 85
51 80 80
47 75 81
50 80 76
49 78 80
47 74 57
50 78 76
49 78 67
48 75 70
45 72 76
47 74 70
45 71 68
45 70 54
48 75 74
46 72 54
44 67 60
82 97 45
103 115 0
115 131 0
122 138 0
106 121 0
121 133 0
121 137 0
124 139 0
120 134 0
129 143 0
120 135 0
128 143 0
132 147 0
127 142 0
126 141 0
131 147 0
126 139 0
129 144 0
129 145 0
120 133 0
134 147 0
127 140 0
139 150 0
128 140 0
128 139 0
136 149 0
143 156 0
138 150 0
132 144 0
134 145 0
140 151 0
141 155 0
138 147 0
135 145 0
137 144 0
138 148 0
140 150 0
149 159 0
137 148 0
132 143 0
137 147 0
143 151 0
144 152 0
143 150 0
134 141 0
144 151 0
143 150 0
138 140 0
114 101 0
103 93 0
103 90 0
112 102 0
106 94 0
101 89 0
109 102 0
112 103 0
104 96 0
113 102 0
114 106 0
114 105 0
115 107 0
122 112 0
119 109 0
113 103 0
119 112 0
115 107 0
122 111 0
118 109 0
127 117 0
118 110 0
121 112 0
124 115 0
125 117 0
127 120 0
125 117 0
123 115 0
127 117 0
127 119 0
134 124 0
127 119 0
134 126 0
128 121 0
131 122 0
131 122 0
131 124 0
137 128 0
140 132 0
137 129 0
141 131 0
140 131 0
132 123 0
135 127 0
133 125 0
136 129 0
139 132 0
138 132 0
139 133 0
137 129 0
136 129 0
140 132 0
134 127 0
138 131 0
143 136 0
137 131 0
142 135 0
141 134 0
142 133 0
137 130 0
137 129 0
146 141 0
140 134 0
146 139 0
142 133 0
145 137 0
142 136 0
144 137 0
146 137 0
139 132 0
146 138 0
143 135 0
144 135 0
146 138 0
144 139 0
146 138 0
148 142 0
145 138 0
147 139 0
146 139 0
148 142 0
148 140 0
148 141 0
146 138 0
148 142 0
148 140 0
146 140 0
146 139 0
148 142 0
146 142 0
150 143 0
152 146 0
149 143 0
146 139 0
146 141 0
149 142 0
150 145 0
147 141 0
146 140 0
150 144 0
150 143 0
146 140 0
149 144 0
150 144 0
149 141 0
149 143 0
149 143 0
149 142 0
152 146 0
153 146 0
150 143 0
150 146 0
153 149 0
150 145 0
148 143 0
151 144 0
150 143 0
149 144 0
151 145 0
150 145 0
152 146 0
152 146 0
150 144 0
154 148 0
151 171 0
151 171 0
150 171 0
150 171 0
149 170 0
150 171 0
150 171 0
150 170 0
152 172 0
151 171 0
150 170 0
151 170 0
153 173 0
150 170 0
150 169 0
150 170 0
149 168 0
151 170 0
149 168 0
147 167 0
150 170 0
149 168 0
149 168 0
149 169 0
148 169 0
148 166 0
148 167 0
147 166 0
149 168 0
147 166 0
146 166 0
149 169 0
149 168 0
149 168 0
149 168 0
145 165 0
149 169 0
143 162 0
145 163 0
147 167 0
146 165 0
147 166 0
143 162 0
144 163 0
142 161 0
144 162 0
149 168 0
143 161 0
143 162 0
139 159 0
143 162 0
145 163 0
137 156 0
144 164 0
142 161 0
141 158 0
142 161 0
139 158 0
141 160 0
142 161 0
138 157 0
138 157 0
142 160 0
132 150 0
143 163 0
143 162 0
138 157 0
137 154 0
142 160 0
141 159 0
140 158 0
142 161 0
132 149 0
133 151 0
137 155 0
136 155 0
137 155 0
135 153 0
140 157 0
139 158 0
130 148 0
136 154 0
131 148 0
136 154 0
131 149 0
129 147 0
135 151 0
135 151 0
136 152 0
128 144 0
133 150 0
132 150 0
128 145 0
128 144 0
124 141 0
128 144 0
128 145 0
128 145 0
127 144 0
125 141 0
123 140 0
126 142 0
124 140 0
122 136 0
125 141 0
117 133 0
114 129 0
112 127 0
120 134 0
115 131 0
110 125 0
110 125 0
113 128 0
117 132 0
106 121 0
101 115 0
109 123 0
106 120 0
106 120 0
105 119 0
103 116 0
117 131 0
115 129 0
131 148 0
135 151 0
135 153 0
139 156 0
133 150 0
140 157 0
137 154 0
144 162 0
138 156 0
137 155 0
131 149 0
132 148 0
137 155 0
126 144 0
129 147 0
129 147 0
139 158 0
132 149 0
128 147 0
120 137 0
127 145 0
131 150 0
135 154 0
132 150 0
131 150 0
125 144 0
134 152 0
128 146 0
128 147 0
125 144 0
130 150 0
134 153 0
132 151 0
120 138 0
119 136 0
122 141 0
126 144 0
119 138 0
117 138 0
100 119 0
132 151 0
117 134 0
114 132 0
111 128 0
116 133 0
96 114 0
106 122 0
99 115 0
101 118 0
106 125 43
69 88 50
44 71 47
49 78 67
46 74 60
46 74 74
49 79 72
45 72 67
49 77 76
48 77 72
50 80 87
50 79 76
49 78 80
50 79 90
50 80 78
50 79 76
49 78 80
54 86 84
46 75 72
52 82 92
49 79 78
50 80 70
51 81 82
52 82 97
53 84 95
52 82 84
51 82 90
50 80 82
50 80 80
51 81 80
52 82 94
50 79 75
51 81 86
50 80 87
48 76 76
48 76 80
50 79 78
50 80 76
48 76 67
51 80 79
52 82 94
49 78 74
51 80 87
51 80 94
50 78 76
47 74 65
49 78 86
45 71 65
48 75 75
45 71 63
47 73 79
48 76 80
46 73 67
45 71 47
63 81 44
103 116 8
100 114 0
113 125 0
104 117 0
109 125 0
116 130 0
110 122 0
111 124 0
119 131 0
128 142 0
133 147 0
123 136 0
126 142 0
122 137 0
123 138 0
129 144 0
112 124 0
124 138 0
125 139 0
138 154 0
121 132 0
127 140 0
133 145 0
130 141 0
134 146 0
124 134 0
132 143 0
134 144 0
141 153 0
130 141 0
125 135 0
137 150 0
131 143 0
131 140 0
138 148 0
126 135 0
131 140 0
137 148 0
145 153 0
140 150 0
135 143 0
143 152 0
129 135 0
139 145 0
144 152 0
147 154 0
135 139 0
140 146 0
140 147 0
149 156 0
119 110 0
114 100 0
112 99 0
107 97 0
100 90 0
101 89 0
108 97 0
102 91 0
115 102 0
112 101 0
109 100 0
116 105 0
111 102 0
115 104 0
122 110 0
113 103 0
124 114 0
115 106 0
118 111 0
120 110 0
120 111 0
120 112 0
122 113 0
128 117 0
131 123 0
129 117 0
126 116 0
132 123 0
134 125 0
119 111 0
134 123 0
129 122 0
123 116 0
133 124 0
130 123 0
125 117 0
136 127 0
132 124 0
128 121 0
135 128 0
135 126 0
137 128 0
135 127 0
140 131 0
130 122 0
141 133 0
136 126 0
134 124 0
141 132 0
136 128 0
139 133 0
141 132 0
133 126 0
143 134 0
137 128 0
138 127 0
143 136 0
139 132 0
138 133 0
141 134 0
141 134 0
140 130 0
140 131 0
143 136 0
141 134 0
144 136 0
141 132 0
147 141 0
140 133 0
147 139 0
143 136 0
142 135 0
146 140 0
146 139 0
147 141 0
144 135 0
144 137 0
145 138 0
148 140 0
148 142 0
146 139 0
147 141 0
149 142 0
142 134 0
146 139 0
147 139 0
149 142 0
142 136 0
145 137 0
149 141 0
150 144 0
145 138 0
147 141 0
151 142 0
147 140 0
146 140 0
147 140 0
147 141 0
148 141 0
149 144 0
150 142 0
149 141 0
147 141 0
147 140 0
150 143 0
148 141 0
149 144 0
150 144 0
150 144 0
149 142 0
152 145 0
152 148 0
150 144 0
147 140 0
148 141 0
148 143 0
146 140 0
150 144 0
150 145 0
151 145 0
151 145 0
149 144 0
151 146 0
152 172 0
152 171 0
149 169 0
151 171 0
150 171 0
151 171 0
150 170 0
149 169 0
151 171 0
151 170 0
150 170 0
148 168 0
146 166 0
153 172 0
148 169 0
151 171 0
152 171 0
153 172 0
150 170 0
147 166 0
148 168 0
147 166 0
148 167 0
148 168 0
144 163 0
147 167 0
150 169 0
146 165 0
148 167 0
151 170 0
147 167 0
149 168 0
150 169 0
148 168 0
146 165 0
146 165 0
145 165 0
149 169 0
145 164 0
143 163 0
145 164 0
148 167 0
147 165 0
147 166 0
142 160 0
144 162 0
143 161 0
143 161 0
144 162 0
145 164 0
145 164 0
143 162 0
141 160 0
145 164 0
145 164 0
141 159 0
139 159 0
139 157 0
147 166 0
141 158 0
138 157 0
139 157 0
141 160 0
142 160 0
141 160 0
143 161 0
141 159 0
140 158 0
139 157 0
142 159 0
133 151 0
141 159 0
134 151 0
140 157 0
139 157 0
135 153 0
137 154 0
134 151 0
135 153 0
139 157 0
132 150 0
137 155 0
138 155 0
135 152 0
130 148 0
128 145 0
129 147 0
131 148 0
129 146 0
130 146 0
134 150 0
125 141 0
133 149 0
134 150 0
121 137 0
125 141 0
126 141 0
123 139 0
117 133 0
118 134 0
126 142 0
118 133 0
123 138 0
117 132 0
124 139 0
124 139 0
113 127 0
123 138 0
112 126 0
118 133 0
111 126 0
109 123 0
114 128 0
105 119 0
110 123 0
104 118 0
105 118 0
111 125 0
107 121 0
107 120 0
113 127 0
126 141 0
138 156 0
128 144 0
135 152 0
133 148 0
130 146 0
130 146 0
132 148 0
129 145 0
137 155 0
120 138 0
123 140 0
137 154 0
129 147 0
135 153 0
130 148 0
129 147 0
128 146 0
132 149 0
136 154 0
137 155 0
132 149 0
131 149 0
126 143 0
129 147 0
133 152 0
133 151 0
122 140 0
122 141 0
120 138 0
123 141 0
126 144 0
126 144 0
130 149 0
115 133 0
117 134 0
119 137 0
109 127 0
120 139 0
123 140 0
121 138 0
118 136 0
117 135 0
112 129 0
114 131 0
110 127 0
106 124 0
127 146 0
105 121 0
104 121 0
100 116 0
106 122 0
101 116 0
86 101 25
42 66 47
46 73 72
47 74 74
45 72 60
49 77 82
43 69 65
47 75 65
49 78 65
50 79 84
51 81 78
47 75 65
51 81 86
47 75 74
50 79 78
47 76 60
48 77 54
51 81 90
48 76 67
49 77 70
51 81 78
48 76 80
49 77 70
51 80 82
51 82 88
50 79 80
51 80 86
51 81 88
48 76 78
48 77 74
51 80 82
49 77 86
52 82 90
49 78 94
47 75 72
48 76 76
50 79 77
49 78 84
52 81 90
49 78 70
46 73 65
48 77 65
48 76 63
49 77 82
47 73 62
49 77 78
45 71 70
45 70 70
46 72 70
46 72 51
46 66 49
77 91 44
87 99 0
108 120 0
102 115 0
117 130 0
109 122 0
103 116 0
108 121 0
116 130 0
119 132 0
113 127 0
107 119 0
115 126 0
128 141 0
129 144 0
120 133 0
112 125 0
120 133 0
122 138 0
127 140 0
126 136 0
127 140 0
124 137 0
123 135 0
119 133 0
129 142 0
115 128 0
126 135 0
127 141 0
121 134 0
134 144 0
129 138 0
131 142 0
124 134 0
138 151 0
133 142 0
131 142 0
137 146 0
128 134 0
134 144 0
133 142 0
134 144 0
131 138 0
123 131 0
134 140 0
133 142 0
134 138 0
141 145 0
139 143 0
136 142 0
140 144 0
133 139 0
135 136 0
127 124 0
91 77 0
108 95 0
105 94 0
108 96 0
111 100 0
110 100 0
115 104 0
102 93 0
113 102 0
109 97 0
111 102 0
116 106 0
122 111 0
121 111 0
115 106 0
122 112 0
119 107 0
119 111 0
108 98 0
119 108 0
122 113 0
121 110 0
128 118 0
119 110 0
122 111 0
118 108 0
132 122 0
120 110 0
124 112 0
130 121 0
133 124 0
126 117 0
132 123 0
125 116 0
134 125 0
125 117 0
129 121 0
132 125 0
135 126 0
136 127 0
136 126 0
133 123 0
132 124 0
141 133 0
136 127 0
136 128 0
136 128 0
137 130 0
140 130 0
140 132 0
140 132 0
145 135 0
131 125 0
141 134 0
140 133 0
139 130 0
144 136 0
142 134 0
144 137 0
140 132 0
140 133 0
145 137 0
146 138 0
142 134 0
144 136 0
141 134 0
144 136 0
140 132 0
148 141 0
142 135 0
141 133 0
143 135 0
145 137 0
143 135 0
148 140 0
143 136 0
146 138 0
146 140 0
145 138 0
145 137 0
147 139 0
143 135 0
144 135 0
148 141 0
146 138 0
149 141 0
150 142 0
146 139 0
147 141 0
145 138 0
147 140 0
151 144 0
146 141 0
148 142 0
150 143 0
150 144 0
151 144 0
149 141 0
149 142 0
148 141 0
151 145 0
148 141 0
148 142 0
148 139 0
151 144 0
153 148 0
150 142 0
147 142 0
149 144 0
145 139 0
148 141 0
148 141 0
151 146 0
149 141 0
150 145 0
151 144 0
152 146 0
152 145 0
152 148 0
153 146 0
155 150 0
152 172 0
150 171 0
153 172 0
150 171 0
151 171 0
151 171 0
149 169 0
149 169 0
154 173 0
149 168 0
148 168 0
150 170 0
152 172 0
151 171 0
150 170 0
154 174 0
150 170 0
149 168 0
151 171 0
147 167 0
148 167 0
148 168 0
150 169 0
148 167 0
147 166 0
148 168 0
147 167 0
151 170 0
144 163 0
146 165 0
149 168 0
146 165 0
146 166 0
146 166 0
147 166 0
149 168 0
142 161 0
145 162 0
146 165 0
147 166 0
148 166 0
143 162 0
144 164 0
148 165 0
141 160 0
144 163 0
141 160 0
145 164 0
144 163 0
145 164 0
146 165 0
144 163 0
138 156 0
142 160 0
141 160 0
143 162 0
146 165 0
147 165 0
140 159 0
138 156 0
143 162 0
145 163 0
144 162 0
138 157 0
143 162 0
140 158 0
141 159 0
142 160 0
137 154 0
137 155 0
142 159 0
136 154 0
131 148 0
131 149 0
137 154 0
141 159 0
135 153 0
133 150 0
138 156 0
144 162 0
136 153 0
132 151 0
125 142 0
139 157 0
129 145 0
138 155 0
130 146 0
128 145 0
139 156 0
126 144 0
126 142 0
128 145 0
125 142 0
129 145 0
124 140 0
126 142 0
129 144 0
124 140 0
122 137 0
119 135 0
123 138 0
112 128 0
128 144 0
114 128 0
114 129 0
116 130 0
114 129 0
114 128 0
115 129 0
106 119 0
117 131 0
118 132 0
108 122 0
109 123 0
107 121 0
115 129 0
106 119 0
101 115 0
105 118 0
115 129 0
119 133 0
135 150 0
120 136 0
131 147 0
122 138 0
142 158 0
131 148 0
137 153 0
134 150 0
129 145 0
138 154 0
133 151 0
128 144 0
137 154 0
123 140 0
122 139 0
123 140 0
126 143 0
140 157 0
130 147 0
128 145 0
124 141 0
115 132 0
125 143 0
125 142 0
129 149 0
131 148 0
118 135 0
129 149 0
127 145 0
136 152 0
131 148 0
113 132 0
116 133 0
116 134 0
126 144 0
122 139 0
127 145 0
128 148 0
106 123 0
107 124 0
112 130 0
103 121 0
120 137 0
111 128 0
94 112 0
103 118 0
115 132 0
107 123 0
107 123 0
96 111 0
100 117 0
104 120 0
106 121 0
98 115 0
92 107 0
71 89 31
59 81 62
44 70 60
43 70 60
48 77 76
48 77 74
46 74 65
44 71 57
43 70 65
47 74 82
45 72 74
48 77 80
49 78 76
44 70 51
48 77 70
50 80 84
48 77 74
49 77 86
49 78 74
51 81 80
49 78 84
50 80 88
50 79 88
50 79 86
52 82 84
48 76 70
47 76 65
50 78 77
47 74 80
50 80 76
50 79 80
49 78 74
48 76 65
47 74 67
46 74 76
48 76 78
49 77 70
47 75 78
46 72 68
49 78 76
45 72 62
46 72 67
45 71 62
45 72 65
47 74 70
42 67 57
47 71 65
83 97 36
89 100 0
97 109 0
102 116 0
97 108 0
100 110 0
108 120 0
106 118 0
104 114 0
99 112 0
110 123 0
102 116 0
114 128 0
105 117 0
121 135 0
124 139 0
116 131 0
122 136 0
116 128 0
120 132 0
125 136 0
121 133 0
126 138 0
116 128 0
124 134 0
129 142 0
134 147 0
128 141 0
134 147 0
128 141 0
121 133 0
122 132 0
125 136 0
125 136 0
122 131 0
120 130 0
118 128 0
121 129 0
125 134 0
128 136 0
128 137 0
136 142 0
136 143 0
127 132 0
129 136 0
129 135 0
127 135 0
130 137 0
129 134 0
137 143 0
130 135 0
132 134 0
129 132 0
127 132 0
132 134 0
134 139 0
137 139 0
118 109 0
99 86 0
100 88 0
107 95 0
105 93 0
114 102 0
100 90 0
103 93 0
111 101 0
104 97 0
116 106 0
117 107 0
113 102 0
109 99 0
109 99 0
110 100 0
111 102 0
114 104 0
122 111 0
124 116 0
118 108 0
129 119 0
124 113 0
120 110 0
118 108 0
125 116 0
123 113 0
127 117 0
127 117 0
132 122 0
130 122 0
131 122 0
131 119 0
132 122 0
128 117 0
132 122 0
133 124 0
133 123 0
131 120 0
130 122 0
138 129 0
131 121 0
138 129 0
134 127 0
135 126 0
140 131 0
138 129 0
141 132 0
138 127 0
139 132 0
137 128 0
146 136 0
138 129 0
138 132 0
133 123 0
142 133 0
137 128 0
130 122 0
144 136 0
139 130 0
144 136 0
144 135 0
145 136 0
141 132 0
141 134 0
140 133 0
143 136 0
140 134 0
141 133 0
146 140 0
146 138 0
143 133 0
149 142 0
144 136 0
145 138 0
145 138 0
142 133 0
143 136 0
142 135 0
146 138 0
148 140 0
150 144 0
148 141 0
147 140 0
146 139 0
145 137 0
146 137 0
145 138 0
149 141 0
148 141 0
148 141 0
148 144 0
143 136 0
148 140 0
147 138 0
149 141 0
151 144 0
145 138 0
151 145 0
150 142 0
150 142 0
149 141 0
149 143 0
153 148 0
151 145 0
148 141 0
150 143 0
151 146 0
152 145 0
151 145 0
152 147 0
152 143 0
151 143 0
149 142 0
150 145 0
153 146 0
150 144 0
150 144 0
151 145 0
149 142 0
153 173 0
151 171 0
148 168 0
151 170 0
153 172 0
149 168 0
149 170 0
152 171 0
151 171 0
150 170 0
151 171 0
148 167 0
149 168 0
148 168 0
149 169 0
147 166 0
149 170 0
146 166 0
149 167 0
148 167 0
148 167 0
147 166 0
149 169 0
147 166 0
150 169 0
146 165 0
145 164 0
147 166 0
147 167 0
144 163 0
146 166 0
145 164 0
145 162 0
148 167 0
148 167 0
151 169 0
147 165 0
146 165 0
145 164 0
146 165 0
148 168 0
146 166 0
145 165 0
143 162 0
145 163 0
144 161 0
143 161 0
146 165 0
145 164 0
148 167 0
142 161 0
144 162 0
141 159 0
147 165 0
145 163 0
142 161 0
143 160 0
141 159 0
141 158 0
139 157 0
142 160 0
143 162 0
149 168 0
137 156 0
142 161 0
136 153 0
141 159 0
141 159 0
143 160 0
142 160 0
139 156 0
136 153 0
134 152 0
138 155 0
139 157 0
138 156 0
134 151 0
137 154 0
129 145 0
131 148 0
139 156 0
134 151 0
131 148 0
129 147 0
132 148 0
138 154 0
134 150 0
135 151 0
129 146 0
123 140 0
126 141 0
118 135 0
129 145 0
127 143 0
129 145 0
123 138 0
123 139 0
122 137 0
126 142 0
122 137 0
115 130 0
109 123 0
121 136 0
116 130 0
114 129 0
119 134 0
120 134 0
113 128 0
120 134 0
108 121 0
112 126 0
104 118 0
104 116 0
112 125 0
104 117 0
105 117 0
110 124 0
98 111 0
112 125 0
142 158 0
125 141 0
128 143 0
131 146 0
128 144 0
128 144 0
136 152 0
125 141 0
123 139 0
133 149 0
127 144 0
127 143 0
129 145 0
118 135 0
133 151 0
125 141 0
123 139 0
116 133 0
125 143 0
132 149 0
127 145 0
132 149 0
128 145 0
125 143 0
120 138 0
123 140 0
122 140 0
129 147 0
122 139 0
116 135 0
136 155 0
125 142 0
126 144 0
123 141 0
116 134 0
129 148 0
116 134 0
122 140 0
118 137 0
121 138 0
118 136 0
111 127 0
119 138 0
115 133 0
117 134 0
105 122 0
113 129 0
112 129 0
118 135 0
109 125 0
99 114 0
99 114 0
90 107 0
98 113 0
101 117 0
80 95 0
98 112 0
86 100 0
87 100 0
86 100 31
66 85 40
43 69 67
43 70 51
45 72 67
46 74 67
44 71 60
46 73 54
49 77 88
45 72 60
49 77 70
49 78 67
46 75 62
49 79 80
47 75 67
45 73 67
48 76 76
47 75 78
48 76 80
47 75 72
49 78 76
48 76 72
50 79 70
49 78 70
47 75 60
47 76 60
46 74 67
51 80 70
47 74 78
48 77 76
48 76 76
44 69 60
44 70 54
49 77 78
46 72 76
45 72 51
48 76 86
42 67 70
47 74 65
43 68 72
44 68 67
39 63 44
59 76 48
64 78 31
90 101 0
87 97 0
94 105 0
95 108 0
94 107 0
103 114 0
101 114 0
108 121 0
117 130 0
106 119 0
110 119 0
96 108 0
113 127 0
121 136 0
119 131 0
110 124 0
111 124 0
120 133 0
116 128 0
120 131 0
118 130 0
122 134 0
110 122 0
119 131 0
119 130 0
118 131 0
135 146 0
125 135 0
125 137 0
124 135 0
124 133 0
123 135 0
142 152 0
127 139 0
121 131 0
118 129 0
130 141 0
115 125 0
120 129 0
123 134 0
124 130 0
127 134 0
133 142 0
115 121 0
134 139 0
134 140 0
125 130 0
123 126 0
126 133 0
136 143 0
118 120 0
129 131 0
131 135 0
132 135 0
129 130 0
137 140 0
118 120 0
128 131 0
131 132 0
119 113 0
101 88 0
104 90 0
105 91 0
103 92 0
103 92 0
113 100 0
111 100 0
108 95 0
107 96 0
112 100 0
115 102 0
116 106 0
110 99 0
122 112 0
113 103 0
117 106 0
123 110 0
111 99 0
123 110 0
125 115 0
121 110 0
122 113 0
121 110 0
130 120 0
126 116 0
130 120 0
130 119 0
131 122 0
126 115 0
125 114 0
131 119 0
130 120 0
127 115 0
134 124 0
138 127 0
128 118 0
140 130 0
128 119 0
132 124 0
132 121 0
138 129 0
135 124 0
133 127 0
137 128 0
139 128 0
137 125 0
133 126 0
141 132 0
138 130 0
134 124 0
137 127 0
137 127 0
135 125 0
142 133 0
142 134 0
139 127 0
137 128 0
137 128 0
138 130 0
140 130 0
139 131 0
143 133 0
143 135 0
138 131 0
143 135 0
145 136 0
142 136 0
144 136 0
143 134 0
147 137 0
145 136 0
141 133 0
142 132 0
144 135 0
145 137 0
148 139 0
144 136 0
145 137 0
145 137 0
144 137 0
151 144 0
146 140 0
146 140 0
147 140 0
148 140 0
146 139 0
146 139 0
148 139 0
146 139 0
146 138 0
144 136 0
144 136 0
148 142 0
148 141 0
147 138 0
148 142 0
148 140 0
147 141 0
150 145 0
149 141 0
149 142 0
149 142 0
146 140 0
148 141 0
150 142 0
147 139 0
151 146 0
151 144 0
151 144 0
154 147 0
149 142 0
150 144 0
149 144 0
153 146 0
151 144 0
151 144 0
153 147 0
151 145 0
153 172 0
153 173 0
150 170 0
152 172 0
154 173 0
152 171 0
152 172 0
149 168 0
149 169 0
153 173 0
145 165 0
148 167 0
149 169 0
151 170 0
150 170 0
149 168 0
145 164 0
147 166 0
152 171 0
149 168 0
146 165 0
145 164 0
144 163 0
146 166 0
147 165 0
148 167 0
145 165 0
144 163 0
150 169 0
145 165 0
143 162 0
145 164 0
146 165 0
145 164 0
146 164 0
144 162 0
149 167 0
144 161 0
144 162 0
144 162 0
145 163 0
142 161 0
143 162 0
143 161 0
142 160 0
139 158 0
144 163 0
143 161 0
143 162 0
142 160 0
142 161 0
140 158 0
144 161 0
140 159 0
141 159 0
142 160 0
141 159 0
139 156 0
132 151 0
143 161 0
144 163 0
140 159 0
142 160 0
140 158 0
136 154 0
143 162 0
135 153 0
140 157 0
142 160 0
141 160 0
135 153 0
134 149 0
135 153 0
137 155 0
135 152 0
135 151 0
136 152 0
139 156 0
131 147 0
134 151 0
136 153 0
138 154 0
127 143 0
131 147 0
132 148 0
131 147 0
134 151 0
130 146 0
125 141 0
129 146 0
120 137 0
126 142 0
127 142 0
128 143 0
128 145 0
121 137 0
123 138 0
122 138 0
117 132 0
126 141 0
124 140 0
114 128 0
114 129 0
117 132 0
107 121 0
113 127 0
112 126 0
111 125 0
106 120 0
110 125 0
108 122 0
113 126 0
106 119 0
104 116 0
104 117 0
93 105 0
109 122 0
123 137 0
127 142 0
120 135 0
125 139 0
117 132 0
128 143 0
126 141 0
122 137 0
121 136 0
124 140 0
117 132 0
119 134 0
121 137 0
128 144 0
125 141 0
121 136 0
130 146 0
117 134 0
123 140 0
112 128 0
121 137 0
122 140 0
128 145 0
121 138 0
116 134 0
128 146 0
122 140 0
125 142 0
125 142 0
114 131 0
125 142 0
122 139 0
138 156 0
134 152 0
114 132 0
127 145 0
125 144 0
118 135 0
115 132 0
116 133 0
121 138 0
125 142 0
105 121 0
116 134 0
111 129 0
111 128 0
108 125 0
114 131 0
112 128 0
101 116 0
111 127 0
88 105 0
110 126 0
104 119 0
100 115 0
96 111 0
99 115 0
76 89 0
90 103 0
83 95 0
80 95 0
82 95 0
73 86 0
73 86 0
55 73 44
42 66 47
43 69 62
43 69 70
45 72 76
44 70 60
44 71 51
47 75 72
47 75 67
46 74 57
46 74 67
47 75 70
42 68 65
45 72 74
49 77 80
50 79 84
47 75 67
43 69 54
48 78 80
46 74 72
49 78 80
42 66 44
47 76 72
45 72 60
47 75 62
46 74 65
44 70 47
44 71 65
45 71 72
47 74 82
44 70 72
45 71 67
41 65 44
41 66 18
43 69 44
43 69 51
40 63 54
44 58 31
71 82 31
73 82 0
78 90 0
87 97 0
101 112 0
92 105 0
73 83 0
104 116 0
90 100 0
86 97 0
105 116 0
107 119 0
112 124 0
117 128 0
102 113 0
99 112 0
94 107 0
109 124 0
105 119 0
113 125 0
119 131 0
117 130 0
115 128 0
116 131 0
131 145 0
123 136 0
128 141 0
119 130 0
125 136 0
127 141 0
131 144 0
113 122 0
133 145 0
123 131 0
121 131 0
127 135 0
128 139 0
118 127 0
128 138 0
134 143 0
136 144 0
136 146 0
125 133 0
128 137 0
129 138 0
115 122 0
120 128 0
131 138 0
117 121 0
118 122 0
126 134 0
129 132 0
132 139 0
129 135 0
128 131 0
128 132 0
131 135 0
130 132 0
129 132 0
120 121 0
119 120 0
118 119 0
121 120 0
111 109 0
110 97 0
112 97 0
104 90 0
114 102 0
101 88 0
105 92 0
107 95 0
107 95 0
115 101 0
110 98 0
114 102 0
121 109 0
113 101 0
108 97 0
118 107 0
118 106 0
117 105 0
120 111 0
115 104 0
127 115 0
122 111 0
117 105 0
113 104 0
127 115 0
129 118 0
127 118 0
127 116 0
124 112 0
123 114 0
129 116 0
133 122 0
129 120 0
133 124 0
130 120 0
134 124 0
133 122 0
132 122 0
138 127 0
136 127 0
134 124 0
136 127 0
137 127 0
143 133 0
140 130 0
140 132 0
146 135 0
143 134 0
139 129 0
135 125 0
140 131 0
133 122 0
139 131 0
140 130 0
142 133 0
146 137 0
139 129 0
146 136 0
138 128 0
139 132 0
143 135 0
141 131 0
141 133 0
146 136 0
146 137 0
143 134 0
141 130 0
150 141 0
144 134 0
142 134 0
146 138 0
146 138 0
146 137 0
150 142 0
147 138 0
145 135 0
145 136 0
139 128 0
145 136 0
144 136 0
147 140 0
143 135 0
147 139 0
147 138 0
149 141 0
146 140 0
147 138 0
146 138 0
144 135 0
149 140 0
147 140 0
149 140 0
146 138 0
145 137 0
147 139 0
144 136 0
147 139 0
149 141 0
148 141 0
151 143 0
149 141 0
147 140 0
150 143 0
151 144 0
149 143 0
146 137 0
149 141 0
149 143 0
149 142 0
149 142 0
149 142 0
151 144 0
150 144 0
149 142 0
149 144 0
151 144 0
150 145 0
153 147 0
153 173 0
151 170 0
150 170 0
149 168 0
149 169 0
149 168 0
147 166 0
149 168 0
149 169 0
151 170 0
153 173 0
147 167 0
147 167 0
150 169 0
150 170 0
149 167 0
146 166 0
147 167 0
147 166 0
150 169 0
148 166 0
150 169 0
148 168 0
152 171 0
146 166 0
149 167 0
146 165 0
153 172 0
150 169 0
145 163 0
149 167 0
144 162 0
146 164 0
148 167 0
143 162 0
144 162 0
146 165 0
144 162 0
145 164 0
147 166 0
141 160 0
147 166 0
147 165 0
148 166 0
142 161 0
142 161 0
142 161 0
143 162 0
148 166 0
143 161 0
143 162 0
141 159 0
145 163 0
140 157 0
144 161 0
144 162 0
140 159 0
141 160 0
140 159 0
141 159 0
138 155 0
141 160 0
138 156 0
137 155 0
135 152 0
137 154 0
139 156 0
140 157 0
138 155 0
132 149 0
135 153 0
134 152 0
138 155 0
138 155 0
136 153 0
138 155 0
134 151 0
133 149 0
129 146 0
135 152 0
132 149 0
130 146 0
133 150 0
136 152 0
125 141 0
127 143 0
130 147 0
129 145 0
132 149 0
134 150 0
124 141 0
128 143 0
128 143 0
126 142 0
123 138 0
121 137 0
128 144 0
120 135 0
120 134 0
116 131 0
122 137 0
117 131 0
114 128 0
113 127 0
114 128 0
109 123 0
111 124 0
123 138 0
103 116 0
109 122 0
106 119 0
107 119 0
109 121 0
98 110 0
106 118 0
108 120 0
128 142 0
123 137 0
131 145 0
119 132 0
120 135 0
129 144 0
116 130 0
122 136 0
118 133 0
117 132 0
119 134 0
114 130 0
122 138 0
117 132 0
119 134 0
121 137 0
115 130 0
119 135 0
124 142 0
127 144 0
125 142 0
117 135 0
121 138 0
131 148 0
113 130 0
115 131 0
131 149 0
124 141 0
119 136 0
126 145 0
120 137 0
128 146 0
123 140 0
119 138 0
126 142 0
124 142 0
114 131 0
118 135 0
112 130 0
122 139 0
111 128 0
121 139 0
114 132 0
111 127 0
125 141 0
111 128 0
104 121 0
115 130 0
100 117 0
115 132 0
108 125 0
95 110 0
98 114 0
94 110 0
99 115 0
96 112 0
111 126 0
91 107 0
92 107 0
92 105 0
80 95 0
89 103 0
85 99 0
77 91 0
77 89 0
72 85 0
70 81 0
62 75 25
52 72 47
48 71 65
42 68 57
46 74 82
40 65 36
46 74 67
45 72 70
45 72 74
44 71 67
45 73 65
47 75 72
45 73 70
44 71 60
45 72 80
45 72 57
46 73 67
44 71 60
45 71 70
47 75 70
48 76 72
43 69 60
44 70 72
44 70 65
39 64 44
42 67 62
42 67 67
42 67 47
44 70 65
44 70 74
43 69 62
42 67 57
53 70 36
59 71 31
73 82 18
64 73 0
77 88 0
79 89 0
79 90 0
74 82 0
88 96 0
86 95 0
89 100 0
83 95 0
102 113 0
99 112 0
92 103 0
95 104 0
102 113 0
104 115 0
106 118 0
112 122 0
107 119 0
100 111 0
102 115 0
119 129 0
114 128 0
101 114 0
111 122 0
108 120 0
110 120 0
113 123 0
119 131 0
119 129 0
110 123 0
127 139 0
116 125 0
119 130 0
126 138 0
118 127 0
127 140 0
127 139 0
111 122 0
123 132 0
121 129 0
123 134 0
117 126 0
119 123 0
125 133 0
133 143 0
120 128 0
121 128 0
113 115 0
127 134 0
134 143 0
134 140 0
124 131 0
124 129 0
120 124 0
127 131 0
116 119 0
122 124 0
127 129 0
123 124 0
122 122 0
123 122 0
115 112 0
127 126 0
112 112 0
122 120 0
125 126 0
109 99 0
101 90 0
101 89 0
95 82 0
111 96 0
102 86 0
102 89 0
107 97 0
113 101 0
103 92 0
112 100 0
118 105 0
108 96 0
127 114 0
111 99 0
118 107 0
119 107 0
116 105 0
113 102 0
118 106 0
121 109 0
125 114 0
126 114 0
126 114 0
123 112 0
129 117 0
129 118 0
119 107 0
138 128 0
127 115 0
127 114 0
136 125 0
132 122 0
131 121 0
134 124 0
134 124 0
127 117 0
135 123 0
140 129 0
136 125 0
136 125 0
129 120 0
137 126 0
134 124 0
135 125 0
137 127 0
135 127 0
139 129 0
138 130 0
142 132 0
139 131 0
139 129 0
134 125 0
137 127 0
139 128 0
139 130 0
137 127 0
141 132 0
141 131 0
139 130 0
140 131 0
139 127 0
142 131 0
142 133 0
144 136 0
141 131 0
142 135 0
144 134 0
145 136 0
148 140 0
145 136 0
143 133 0
146 137 0
145 136 0
141 133 0
145 137 0
145 137 0
146 137 0
149 141 0
150 141 0
145 136 0
149 140 0
146 137 0
148 139 0
145 137 0
146 139 0
145 136 0
144 137 0
147 138 0
148 140 0
145 136 0
148 139 0
148 141 0
148 143 0
150 143 0
146 139 0
146 137 0
149 140 0
150 142 0
150 144 0
151 144 0
151 144 0
153 148 0
149 141 0
147 141 0
149 141 0
148 141 0
146 137 0
152 145 0
153 147 0
154 148 0
153 145 0
149 140 0
151 146 0
153 146 0
151 146 0
152 171 0
151 171 0
152 171 0
152 170 0
150 170 0
155 174 0
151 170 0
149 169 0
151 170 0
148 168 0
149 169 0
146 166 0
150 169 0
151 170 0
149 168 0
151 170 0
150 169 0
151 169 0
150 169 0
148 167 0
147 166 0
147 165 0
147 165 0
147 165 0
148 167 0
147 165 0
150 170 0
150 168 0
149 168 0
149 168 0
145 164 0
147 166 0
146 165 0
146 164 0
149 167 0
147 165 0
147 166 0
145 163 0
145 163 0
146 165 0
145 164 0
146 164 0
144 162 0
144 162 0
146 164 0
149 167 0
142 160 0
145 163 0
143 161 0
140 157 0
135 153 0
139 157 0
141 159 0
136 154 0
142 160 0
140 158 0
139 157 0
141 158 0
144 162 0
140 158 0
136 153 0
143 161 0
140 156 0
146 163 0
134 152 0
142 161 0
136 153 0
135 152 0
131 147 0
131 148 0
132 149 0
132 149 0
136 154 0
137 153 0
132 149 0
133 149 0
127 142 0
131 147 0
130 146 0
131 147 0
134 151 0
126 142 0
130 146 0
121 137 0
127 142 0
131 147 0
124 139 0
122 138 0
124 138 0
132 148 0
122 138 0
127 141 0
120 135 0
119 134 0
118 133 0
124 140 0
125 140 0
118 133 0
124 139 0
114 128 0
121 135 0
113 128 0
114 128 0
113 127 0
110 123 0
107 119 0
107 120 0
98 111 0
100 113 0
100 112 0
104 117 0
100 112 0
109 121 0
110 124 0
113 126 0
113 125 0
118 131 0
126 139 0
123 137 0
120 134 0
120 134 0
112 127 0
118 132 0
117 131 0
130 144 0
122 137 0
119 134 0
118 133 0
122 136 0
123 137 0
117 132 0
129 145 0
122 139 0
124 141 0
123 140 0
124 141 0
114 130 0
123 140 0
121 138 0
116 133 0
119 135 0
127 144 0
120 136 0
133 151 0
119 135 0
118 136 0
128 146 0
129 147 0
129 147 0
112 128 0
122 139 0
126 144 0
119 137 0
121 137 0
118 136 0
120 137 0
107 125 0
116 133 0
121 138 0
108 125 0
103 120 0
104 121 0
111 128 0
113 128 0
93 109 0
115 132 0
107 123 0
101 116 0
108 124 0
104 120 0
99 115 0
92 106 0
95 111 0
95 109 0
92 106 0
99 113 0
88 102 0
80 94 0
89 102 0
83 96 0
88 100 0
74 87 0
71 83 0
58 69 0
86 97 0
66 77 0
52 67 31
54 70 47
41 62 44
34 55 47
37 61 44
40 64 54
43 69 54
42 68 51
46 74 65
45 72 70
43 69 54
42 67 51
45 71 67
41 65 54
43 68 60
43 70 60
37 61 47
47 74 65
37 61 54
42 67 62
43 69 72
39 62 36
40 64 54
39 63 54
37 59 54
47 64 26
47 62 40
43 56 25
66 75 18
73 81 0
76 87 0
76 85 0
74 84 0
77 87 0
82 90 0
93 102 0
86 95 0
95 108 0
86 96 0
96 106 0
96 108 0
92 105 0
93 104 0
93 105 0
82 93 0
97 107 0
106 121 0
95 105 0
113 126 0
103 117 0
122 134 0
117 127 0
105 116 0
109 122 0
98 108 0
113 126 0
118 127 0
126 140 0
123 137 0
129 144 0
121 135 0
118 129 0
127 139 0
124 134 0
120 129 0
115 126 0
116 126 0
115 126 0
125 138 0
125 134 0
117 129 0
133 145 0
128 137 0
121 128 0
125 132 0
117 124 0
130 140 0
130 139 0
125 132 0
129 136 0
120 127 0
117 123 0
123 130 0
122 126 0
122 128 0
113 118 0
115 118 0
121 126 0
117 118 0
113 116 0
114 116 0
126 126 0
113 114 0
117 117 0
131 134 0
114 113 0
117 116 0
110 109 0
113 113 0
121 117 0
113 102 0
101 86 0
103 87 0
98 85 0
104 93 0
102 87 0
103 89 0
113 102 0
115 104 0
112 100 0
117 101 0
112 97 0
112 100 0
121 107 0
121 108 0
109 95 0
116 102 0
122 111 0
126 113 0
116 105 0
118 103 0
119 108 0
121 109 0
129 119 0
127 117 0
126 115 0
120 110 0
120 108 0
123 111 0
131 120 0
129 116 0
127 115 0
137 125 0
127 116 0
137 126 0
130 119 0
132 120 0
130 119 0
132 122 0
135 126 0
126 119 0
133 126 0
137 125 0
137 127 0
134 120 0
134 125 0
137 127 0
137 126 0
138 128 0
141 129 0
136 126 0
143 134 0
140 130 0
138 127 0
133 125 0
140 129 0
143 131 0
142 133 0
146 137 0
145 135 0
139 131 0
140 129 0
144 133 0
144 134 0
143 133 0
140 132 0
143 133 0
142 133 0
147 139 0
145 134 0
146 138 0
147 136 0
149 140 0
144 133 0
146 138 0
149 140 0
143 133 0
147 139 0
149 142 0
145 135 0
146 138 0
147 139 0
146 137 0
146 137 0
145 137 0
145 135 0
149 140 0
150 140 0
149 141 0
147 139 0
146 139 0
146 137 0
148 141 0
148 140 0
148 140 0
150 143 0
147 140 0
150 142 0
148 140 0
149 142 0
147 141 0
150 143 0
150 142 0
149 141 0
151 145 0
148 140 0
150 142 0
150 142 0
148 141 0
152 144 0
150 142 0
153 147 0
150 143 0
151 143 0
151 170 0
152 172 0
151 171 0
149 169 0
151 170 0
149 168 0
150 170 0
149 168 0
151 170 0
151 170 0
152 170 0
150 169 0
146 165 0
150 169 0
150 169 0
150 170 0
148 167 0
149 168 0
147 166 0
149 168 0
148 166 0
146 165 0
146 165 0
146 165 0
144 163 0
142 161 0
146 165 0
144 162 0
149 168 0
145 163 0
148 166 0
145 164 0
144 162 0
145 163 0
142 160 0
142 160 0
145 163 0
146 165 0
137 156 0
147 165 0
142 161 0
141 160 0
141 158 0
148 166 0
147 165 0
144 163 0
143 160 0
139 158 0
142 160 0
140 158 0
139 157 0
142 160 0
143 162 0
142 160 0
135 152 0
140 157 0
139 156 0
138 155 0
143 161 0
142 160 0
141 159 0
136 154 0
142 160 0
134 151 0
138 156 0
142 160 0
136 153 0
137 154 0
136 152 0
136 153 0
141 158 0
142 158 0
137 153 0
138 155 0
133 150 0
138 155 0
128 144 0
130 146 0
131 147 0
132 148 0
131 146 0
132 147 0
122 137 0
131 146 0
135 151 0
126 142 0
127 142 0
126 142 0
128 142 0
123 138 0
123 138 0
122 136 0
112 126 0
128 143 0
114 129 0
112 125 0
113 127 0
117 132 0
119 133 0
117 130 0
117 131 0
115 128 0
112 126 0
111 124 0
118 131 0
107 120 0
106 119 0
99 111 0
101 113 0
103 114 0
95 105 0
105 117 0
112 125 0
114 127 0
104 116 0
125 138 0
110 124 0
123 137 0
108 121 0
109 123 0
115 128 0
120 134 0
119 133 0
103 117 0
120 134 0
118 133 0
113 127 0
121 137 0
128 144 0
123 140 0
119 135 0
118 133 0
120 136 0
114 130 0
115 130 0
122 138 0
128 144 0
115 131 0
114 131 0
134 151 0
119 136 0
113 129 0
120 138 0
115 131 0
119 137 0
114 132 0
121 138 0
114 131 0
115 134 0
125 142 0
124 141 0
112 129 0
117 135 0
117 134 0
114 131 0
121 138 0
113 130 0
112 128 0
110 126 0
111 129 0
114 131 0
111 128 0
100 117 0
108 125 0
117 135 0
106 122 0
113 129 0
100 117 0
102 118 0
96 113 0
91 107 0
97 113 0
99 114 0
104 119 0
92 106 0
89 104 0
85 99 0
80 94 0
84 97 0
85 99 0
75 87 0
87 99 0
82 95 0
67 78 0
71 82 0
58 70 0
58 67 0
66 75 0
59 68 0
57 66 0
60 70 0
43 54 25
54 70 36
44 61 36
40 59 51
41 64 44
39 63 57
35 57 44
37 59 44
38 60 57
38 62 62
41 66 54
38 61 51
38 61 57
38 60 54
46 63 25
52 67 40
52 67 36
46 59 36
47 57 18
59 66 0
66 73 0
55 63 0
59 69 0
68 77 0
68 79 0
74 81 0
81 89 0
83 94 0
76 87 0
93 105 0
84 95 0
77 89 0
99 111 0
86 96 0
97 107 0
104 114 0
90 102 0
111 122 0
96 107 0
94 107 0
110 120 0
107 118 0
107 117 0
114 126 0
113 127 0
98 109 0
116 129 0
115 130 0
112 121 0
111 124 0
113 122 0
120 129 0
115 127 0
117 129 0
125 136 0
118 129 0
118 129 0
107 120 0
113 126 0
115 123 0
128 140 0
111 122 0
116 128 0
120 129 0
118 128 0
128 141 0
114 124 0
125 137 0
130 140 0
121 128 0
127 136 0
120 131 0
121 130 0
111 120 0
117 126 0
116 123 0
126 134 0
118 124 0
123 125 0
119 125 0
123 129 0
114 120 0
123 126 0
116 119 0
120 124 0
114 115 0
112 114 0
113 114 0
123 123 0
122 123 0
119 118 0
115 113 0
120 119 0
116 114 0
111 107 0
122 119 0
104 99 0
102 94 0
98 84 0
95 79 0
98 85 0
105 92 0
102 88 0
118 103 0
110 95 0
112 102 0
105 91 0
111 100 0
115 100 0
111 100 0
107 95 0
118 104 0
125 112 0
122 111 0
116 104 0
119 107 0
122 110 0
114 103 0
122 109 0
122 110 0
118 105 0
127 115 0
125 112 0
131 119 0
125 113 0
127 113 0
129 119 0
123 112 0
125 112 0
130 120 0
129 116 0
136 124 0
133 121 0
132 122 0
133 122 0
135 122 0
137 125 0
138 129 0
134 124 0
135 124 0
142 130 0
136 123 0
137 128 0
140 130 0
143 132 0
140 130 0
135 125 0
141 130 0
137 126 0
141 131 0
135 126 0
142 131 0
142 132 0
136 126 0
144 134 0
140 130 0
140 129 0
141 132 0
142 134 0
140 130 0
143 131 0
143 134 0
143 135 0
143 133 0
142 132 0
147 139 0
144 135 0
145 137 0
145 136 0
147 138 0
146 136 0
146 136 0
149 140 0
149 139 0
145 134 0
147 139 0
147 139 0
149 139 0
147 138 0
146 138 0
146 138 0
147 139 0
140 131 0
147 138 0
146 138 0
150 142 0
146 139 0
147 136 0
148 139 0
148 139 0
148 142 0
148 139 0
148 139 0
150 143 0
146 136 0
148 139 0
150 142 0
151 145 0
150 142 0
153 144 0
152 143 0
148 140 0
150 144 0
147 138 0
151 144 0
151 145 0
149 142 0
150 143 0
152 144 0
151 170 0
151 171 0
150 169 0
150 170 0
150 170 0
150 169 0
149 168 0
148 167 0
152 171 0
147 166 0
148 167 0
149 168 0
150 168 0
147 165 0
149 168 0
148 167 0
145 163 0
146 165 0
143 161 0
148 166 0
148 166 0
146 165 0
148 166 0
149 168 0
146 165 0
147 166 0
145 164 0
146 165 0
143 161 0
141 160 0
145 162 0
146 165 0
144 162 0
148 166 0
143 162 0
145 163 0
142 160 0
147 166 0
144 163 0
142 159 0
142 159 0
139 158 0
145 163 0
144 162 0
143 160 0
142 160 0
140 158 0
140 158 0
146 164 0
141 159 0
142 160 0
146 163 0
140 157 0
142 161 0
142 160 0
139 157 0
140 157 0
135 152 0
139 156 0
136 154 0
138 156 0
138 155 0
140 157 0
139 156 0
132 149 0
143 159 0
136 154 0
141 157 0
136 152 0
134 152 0
136 152 0
136 153 0
127 144 0
135 152 0
127 143 0
135 151 0
132 147 0
130 145 0
128 144 0
130 146 0
128 144 0
128 144 0
134 149 0
123 139 0
131 148 0
128 144 0
129 144 0
123 139 0
128 142 0
127 143 0
122 135 0
126 141 0
126 141 0
108 122 0
120 134 0
118 133 0
118 132 0
118 132 0
118 132 0
117 131 0
110 122 0
105 118 0
113 127 0
111 123 0
118 130 0
108 119 0
101 113 0
100 112 0
95 106 0
96 106 0
109 121 0
106 118 0
112 125 0
105 117 0
118 131 0
116 129 0
116 129 0
117 131 0
116 130 0
110 124 0
114 129 0
116 130 0
111 125 0
129 143 0
116 130 0
118 133 0
119 134 0
115 130 0
124 139 0
117 133 0
120 137 0
126 141 0
124 141 0
135 151 0
123 140 0
122 138 0
107 122 0
124 141 0
129 147 0
128 146 0
120 137 0
122 139 0
134 151 0
124 142 0
123 140 0
116 133 0
129 147 0
128 146 0
118 135 0
123 140 0
118 135 0
108 125 0
119 137 0
121 138 0
121 138 0
118 136 0
108 125 0
124 140 0
103 120 0
121 138 0
108 125 0
115 131 0
107 123 0
108 124 0
100 117 0
94 110 0
105 121 0
105 121 0
98 114 0
109 126 0
109 124 0
88 104 0
89 105 0
93 108 0
100 116 0
76 90 0
86 100 0
79 93 0
70 84 0
93 106 0
75 89 0
73 85 0
84 97 0
103 116 0
66 80 0
63 74 0
78 90 0
66 77 0
68 79 0
76 87 0
77 87 0
69 80 0
62 71 0
60 70 0
55 65 0
63 73 0
58 67 0
69 77 0
53 63 0
57 65 0
66 74 0
69 78 0
41 48 0
58 66 0
40 48 0
64 73 0
50 58 0
74 83 0
50 59 0
69 78 0
69 78 0
73 83 0
70 79 0
87 97 0
88 97 0
72 82 0
65 76 0
70 80 0
81 90 0
74 85 0
91 102 0
87 100 0
82 93 0
89 98 0
89 98 0
101 114 0
96 107 0
102 114 0
108 120 0
101 112 0
108 121 0
113 124 0
100 114 0
112 123 0
111 119 0
113 126 0
116 128 0
117 130 0
106 118 0
108 119 0
128 142 0
109 120 0
120 132 0
129 140 0
116 127 0
116 126 0
127 141 0
116 128 0
111 123 0
126 138 0
121 134 0
125 136 0
118 128 0
117 130 0
124 136 0
129 141 0
111 119 0
121 132 0
116 128 0
125 136 0
122 130 0
115 123 0
118 129 0
128 136 0
127 137 0
117 125 0
118 125 0
130 138 0
107 114 0
118 124 0
125 130 0
124 130 0
109 113 0
114 118 0
118 122 0
127 129 0
119 123 0
112 110 0
115 117 0
118 121 0
122 124 0
114 109 0
116 116 0
115 116 0
117 118 0
118 116 0
123 121 0
114 109 0
99 92 0
105 97 0
104 96 0
100 84 0
97 82 0
105 89 0
100 85 0
117 101 0
106 93 0
110 96 0
110 98 0
114 100 0
114 100 0
119 106 0
120 104 0
119 107 0
118 106 0
119 105 0
118 106 0
111 98 0
121 108 0
115 102 0
120 107 0
128 113 0
129 116 0
125 113 0
125 111 0
129 118 0
125 114 0
129 115 0
130 117 0
135 123 0
131 119 0
122 111 0
129 117 0
131 120 0
134 123 0
127 115 0
143 132 0
139 126 0
130 118 0
132 120 0
130 118 0
139 129 0
137 126 0
142 130 0
134 122 0
137 126 0
139 128 0
139 128 0
140 127 0
142 131 0
132 122 0
142 130 0
139 128 0
137 125 0
138 128 0
140 130 0
142 132 0
146 136 0
143 133 0
143 134 0
139 129 0
141 131 0
146 136 0
145 134 0
142 132 0
146 137 0
145 135 0
145 135 0
145 134 0
141 131 0
140 130 0
144 136 0
143 133 0
145 138 0
144 132 0
148 138 0
146 137 0
145 134 0
145 137 0
147 137 0
147 137 0
142 131 0
145 136 0
145 136 0
148 138 0
147 137 0
147 138 0
145 137 0
148 139 0
147 137 0
146 138 0
147 136 0
148 141 0
151 142 0
150 144 0
149 141 0
150 143 0
149 142 0
152 143 0
149 141 0
149 141 0
146 138 0
150 140 0
151 143 0
149 142 0
150 143 0
150 144 0
152 145 0
149 141 0
150 142 0
152 171 0
153 171 0
150 169 0
152 171 0
150 169 0
150 170 0
150 169 0
150 170 0
152 171 0
149 168 0
148 167 0
149 168 0
149 168 0
152 171 0
146 165 0
149 168 0
149 168 0
146 165 0
149 167 0
150 169 0
149 167 0
146 165 0
146 164 0
147 165 0
147 165 0
144 162 0
149 166 0
145 164 0
146 164 0
148 166 0
145 162 0
148 167 0
147 164 0
144 162 0
147 165 0
146 164 0
146 164 0
141 159 0
142 160 0
144 162 0
142 161 0
142 160 0
145 162 0
145 163 0
145 162 0
143 162 0
139 157 0
147 164 0
145 163 0
141 159 0
140 158 0
139 156 0
143 161 0
140 156 0
144 162 0
137 153 0
144 162 0
137 153 0
136 153 0
140 157 0
142 159 0
140 157 0
137 154 0
136 153 0
137 155 0
134 150 0
134 152 0
138 154 0
132 148 0
133 149 0
129 145 0
128 145 0
130 146 0
134 150 0
133 150 0
133 149 0
132 148 0
127 143 0
128 144 0
131 146 0
123 138 0
128 144 0
127 143 0
123 138 0
125 140 0
119 133 0
126 141 0
129 143 0
118 132 0
123 137 0
122 136 0
115 129 0
125 139 0
116 130 0
117 131 0
119 133 0
118 132 0
113 125 0
115 129 0
110 123 0
112 125 0
111 123 0
110 122 0
94 106 0
107 119 0
88 98 0
88 99 0
105 116 0
98 110 0
102 113 0
111 122 0
110 122 0
115 127 0
112 125 0
103 115 0
105 118 0
106 119 0
107 120 0
118 132 0
117 131 0
116 130 0
123 138 0
115 130 0
120 134 0
115 129 0
119 134 0
124 140 0
125 140 0
121 135 0
122 138 0
122 137 0
115 132 0
121 137 0
119 134 0
127 144 0
122 138 0
122 139 0
123 141 0
122 138 0
106 122 0
123 140 0
123 140 0
121 138 0
128 144 0
112 128 0
126 143 0
124 142 0
113 130 0
119 136 0
120 136 0
127 145 0
114 130 0
120 137 0
119 136 0
109 126 0
117 135 0
120 137 0
114 131 0
116 132 0
110 126 0
115 133 0
108 125 0
117 134 0
107 123 0
104 120 0
96 112 0
100 116 0
105 122 0
99 114 0
82 97 0
99 114 0
105 122 0
88 103 0
97 113 0
98 113 0
90 105 0
91 106 0
93 107 0
88 102 0
87 101 0
87 101 0
80 93 0
73 85 0
79 93 0
74 86 0
75 88 0
64 74 0
65 77 0
62 75 0
63 75 0
59 69 0
61 74 0
49 60 0
63 74 0
60 68 0
70 79 0
61 68 0
66 76 0
72 82 0
72 82 0
45 54 0
65 74 0
64 72 0
61 69 0
76 86 0
74 82 0
68 76 0
68 77 0
56 65 0
64 73 0
93 104 0
87 98 0
91 102 0
73 82 0
68 78 0
65 77 0
89 101 0
85 97 0
89 100 0
78 90 0
74 86 0
81 91 0
99 111 0
89 100 0
95 106 0
83 94 0
93 104 0
107 118 0
100 111 0
98 107 0
101 113 0
110 123 0
103 115 0
101 112 0
111 124 0
90 100 0
108 120 0
127 142 0
108 118 0
122 136 0
113 125 0
117 127 0
118 130 0
113 127 0
107 121 0
116 130 0
118 131 0
114 126 0
120 132 0
114 127 0
123 137 0
116 124 0
130 144 0
115 127 0
120 129 0
123 136 0
123 134 0
130 141 0
115 124 0
131 142 0
132 145 0
109 119 0
120 130 0
119 126 0
117 126 0
119 128 0
127 136 0
128 136 0
121 128 0
125 133 0
120 126 0
117 122 0
123 127 0
113 119 0
121 126 0
121 124 0
109 110 0
111 115 0
111 113 0
119 123 0
118 120 0
117 118 0
116 116 0
108 105 0
109 105 0
114 111 0
109 107 0
110 107 0
104 100 0
109 102 0
101 95 0
106 99 0
98 84 0
90 74 0
101 85 0
99 83 0
102 85 0
102 87 0
102 88 0
110 95 0
107 92 0
120 108 0
116 105 0
116 102 0
103 91 0
109 97 0
117 106 0
120 105 0
117 106 0
122 109 0
121 109 0
118 107 0
121 107 0
121 106 0
132 117 0
128 114 0
127 113 0
126 113 0
127 114 0
129 119 0
134 120 0
137 125 0
130 118 0
138 125 0
126 112 0
126 113 0
136 123 0
132 121 0
134 123 0
137 126 0
129 117 0
133 121 0
136 124 0
138 126 0
141 130 0
133 119 0
140 127 0
132 120 0
136 126 0
137 124 0
138 125 0
138 127 0
138 129 0
137 124 0
138 128 0
142 132 0
137 125 0
142 132 0
143 132 0
141 131 0
143 132 0
142 131 0
144 135 0
143 133 0
140 129 0
141 128 0
142 131 0
145 135 0
149 140 0
147 138 0
146 133 0
148 139 0
139 128 0
144 134 0
143 132 0
140 129 0
146 135 0
142 132 0
148 138 0
146 135 0
146 136 0
147 138 0
143 133 0
146 135 0
147 137 0
147 137 0
147 138 0
148 138 0
147 137 0
149 139 0
151 141 0
149 139 0
151 142 0
148 140 0
147 136 0
150 142 0
146 137 0
151 141 0
148 139 0
147 139 0
149 142 0
149 140 0
150 143 0
149 140 0
150 142 0
151 144 0
152 146 0
151 143 0
151 145 0
150 143 0
153 172 0
152 172 0
153 172 0
151 170 0
152 171 0
149 167 0
151 169 0
150 169 0
148 168 0
149 167 0
148 167 0
147 166 0
149 168 0
147 166 0
146 165 0
143 161 0
148 166 0
145 164 0
149 169 0
145 164 0
148 165 0
147 165 0
146 165 0
144 162 0
148 166 0
146 165 0
146 165 0
143 161 0
145 163 0
143 162 0
143 160 0
146 164 0
147 166 0
142 160 0
144 162 0
145 163 0
146 164 0
143 160 0
144 162 0
143 161 0
145 162 0
145 162 0
140 158 0
141 158 0
145 163 0
143 159 0
145 162 0
140 157 0
138 155 0
144 161 0
144 161 0
139 157 0
140 156 0
137 154 0
133 149 0
138 154 0
141 158 0
139 156 0
137 153 0
137 154 0
131 148 0
140 156 0
136 154 0
136 153 0
133 150 0
137 153 0
127 144 0
134 151 0
136 153 0
134 150 0
139 154 0
126 142 0
133 149 0
131 146 0
135 151 0
132 148 0
128 142 0
134 150 0
125 140 0
128 143 0
120 135 0
125 141 0
124 138 0
125 140 0
129 144 0
125 139 0
127 142 0
118 132 0
128 142 0
119 134 0
123 136 0
115 129 0
109 121 0
121 135 0
117 130 0
109 122 0
110 123 0
120 133 0
108 121 0
101 114 0
105 117 0
95 107 0
94 106 0
94 104 0
89 99 0
92 102 0
97 108 0
93 104 0
112 124 0
97 109 0
99 110 0
112 125 0
97 109 0
110 123 0
116 128 0
114 128 0
109 123 0
120 135 0
108 121 0
116 131 0
122 136 0
117 131 0
114 129 0
121 136 0
123 139 0
108 122 0
109 125 0
115 130 0
123 139 0
124 140 0
118 134 0
134 151 0
127 143 0
114 131 0
127 144 0
114 131 0
122 138 0
137 155 0
121 138 0
118 136 0
119 136 0
123 140 0
124 141 0
124 142 0
126 143 0
122 140 0
113 131 0
118 136 0
117 135 0
119 136 0
119 137 0
118 136 0
125 143 0
118 135 0
115 132 0
114 131 0
117 134 0
115 132 0
108 125 0
104 121 0
101 118 0
103 121 0
114 132 0
97 114 0
105 122 0
121 138 0
99 115 0
110 128 0
113 129 0
109 125 0
90 106 0
106 122 0
100 116 0
89 105 0
102 117 0
100 117 0
95 110 0
92 106 0
95 110 0
85 99 0
92 107 0
87 100 0
78 91 0
78 91 0
77 89 0
82 94 0
84 97 0
86 99 0
73 85 0
76 88 0
75 86 0
62 74 0
75 87 0
70 81 0
69 79 0
58 70 0
60 71 0
75 85 0
67 78 0
74 83 0
71 83 0
61 71 0
67 77 0
56 65 0
77 86 0
54 64 0
80 90 0
64 73 0
78 89 0
77 90 0
61 73 0
80 92 0
79 88 0
69 79 0
78 87 0
90 99 0
83 94 0
88 100 0
70 80 0
88 100 0
97 109 0
94 105 0
86 97 0
98 111 0
99 109 0
95 106 0
106 118 0
98 109 0
104 117 0
99 111 0
90 103 0
107 118 0
107 120 0
105 119 0
97 112 0
118 130 0
106 117 0
108 121 0
117 130 0
107 120 0
111 123 0
116 128 0
118 133 0
118 130 0
106 118 0
123 134 0
119 130 0
121 135 0
114 126 0
111 122 0
122 135 0
120 133 0
129 142 0
119 132 0
130 143 0
128 137 0
116 129 0
128 139 0
125 138 0
109 119 0
120 129 0
123 133 0
109 117 0
129 140 0
115 122 0
126 132 0
117 128 0
128 136 0
120 124 0
118 126 0
121 128 0
116 120 0
127 131 0
118 124 0
117 122 0
129 133 0
121 123 0
112 116 0
116 122 0
123 125 0
121 123 0
116 116 0
107 106 0
116 117 0
120 117 0
105 102 0
117 115 0
115 111 0
116 112 0
111 109 0
110 106 0
96 90 0
96 89 0
97 89 0
91 78 0
99 82 0
100 85 0
91 76 0
102 85 0
105 93 0
104 90 0
105 89 0
112 97 0
115 98 0
114 97 0
113 99 0
118 102 0
121 105 0
112 99 0
118 104 0
122 108 0
126 114 0
119 105 0
115 100 0
122 112 0
124 113 0
126 113 0
129 117 0
127 114 0
132 119 0
124 111 0
125 111 0
130 117 0
125 112 0
134 120 0
125 112 0
133 121 0
133 120 0
134 124 0
135 123 0
136 123 0
137 126 0
143 132 0
130 118 0
140 126 0
133 121 0
138 126 0
134 122 0
142 130 0
131 118 0
137 123 0
143 131 0
141 127 0
137 124 0
135 122 0
138 124 0
139 129 0
141 129 0
137 125 0
142 133 0
146 136 0
142 131 0
144 133 0
140 129 0
144 134 0
146 136 0
145 133 0
141 129 0
140 128 0
141 132 0
143 132 0
140 130 0
147 136 0
149 140 0
144 135 0
145 136 0
149 139 0
140 128 0
144 130 0
145 135 0
147 137 0
143 133 0
147 138 0
145 134 0
145 138 0
145 137 0
146 134 0
145 135 0
146 138 0
150 142 0
144 134 0
145 138 0
146 134 0
148 139 0
148 140 0
148 139 0
149 141 0
150 140 0
148 138 0
148 139 0
151 141 0
151 142 0
149 142 0
149 143 0
151 143 0
150 143 0
150 143 0
150 143 0
150 144 0
152 146 0
150 170 0
150 170 0
147 166 0
150 169 0
149 168 0
150 169 0
151 171 0
146 164 0
151 170 0
148 166 0
150 168 0
149 167 0
150 168 0
150 168 0
152 170 0
146 165 0
148 165 0
147 166 0
145 163 0
144 163 0
148 166 0
145 163 0
145 163 0
146 163 0
146 164 0
142 159 0
146 163 0
148 166 0
146 164 0
142 160 0
146 163 0
143 161 0
140 158 0
143 161 0
140 157 0
147 165 0
141 159 0
140 158 0
142 160 0
142 160 0
141 158 0
144 161 0
142 160 0
140 157 0
141 157 0
136 154 0
141 158 0
139 157 0
141 158 0
139 156 0
140 157 0
136 153 0
139 155 0
137 154 0
133 150 0
137 153 0
136 153 0
135 152 0
139 155 0
140 157 0
137 154 0
132 148 0
142 159 0
133 149 0
136 152 0
138 154 0
136 153 0
131 148 0
134 150 0
135 151 0
126 141 0
131 147 0
133 149 0
132 148 0
124 139 0
131 146 0
125 140 0
123 138 0
125 141 0
128 143 0
126 141 0
126 141 0
123 137 0
121 135 0
120 134 0
114 129 0
126 140 0
119 133 0
125 139 0
119 132 0
118 133 0
119 134 0
105 117 0
114 127 0
110 123 0
101 114 0
108 120 0
109 120 0
100 112 0
103 115 0
98 109 0
110 122 0
89 99 0
93 102 0
92 101 0
106 116 0
104 114 0
103 114 0
98 108 0
111 122 0
105 117 0
110 122 0
104 116 0
108 121 0
113 127 0
114 128 0
109 122 0
118 132 0
116 130 0
119 133 0
121 136 0
125 140 0
109 124 0
119 133 0
127 143 0
120 134 0
125 141 0
125 141 0
115 130 0
113 129 0
126 143 0
122 138 0
125 141 0
116 132 0
124 141 0
122 139 0
116 133 0
126 142 0
119 136 0
129 147 0
127 144 0
118 135 0
119 136 0
127 144 0
122 138 0
133 151 0
125 142 0
131 148 0
114 132 0
125 144 0
114 131 0
115 132 0
114 132 0
122 140 0
134 152 0
123 141 0
104 122 0
122 140 0
111 128 0
124 141 0
114 132 0
101 116 0
108 125 0
114 131 0
100 117 0
110 127 0
114 131 0
106 122 0
116 133 0
98 115 0
115 131 0
96 113 0
97 113 0
92 107 0
96 111 0
102 117 0
83 99 0
100 115 0
101 115 0
90 104 0
88 103 0
81 96 0
93 108 0
80 95 0
90 105 0
77 91 0
86 99 0
74 88 0
67 78 0
71 84 0
74 86 0
74 88 0
74 86 0
79 89 0
81 92 0
60 74 0
78 91 0
75 86 0
75 86 0
88 101 0
83 95 0
85 96 0
89 101 0
71 83 0
76 86 0
91 102 0
94 108 0
76 89 0
57 69 0
72 84 0
84 96 0
81 92 0
75 86 0
82 93 0
68 77 0
94 106 0
89 101 0
92 106 0
79 91 0
87 99 0
90 102 0
99 109 0
90 103 0
87 98 0
90 103 0
105 117 0
96 109 0
95 109 0
108 121 0
105 117 0
109 123 0
107 117 0
117 131 0
106 120 0
109 123 0
106 118 0
115 128 0
104 116 0
104 118 0
104 117 0
119 134 0
118 131 0
123 136 0
129 142 0
120 132 0
121 131 0
122 135 0
131 144 0
115 127 0
128 140 0
118 129 0
127 137 0
117 129 0
133 145 0
132 145 0
128 139 0
114 122 0
112 122 0
128 138 0
126 137 0
123 134 0
130 143 0
117 127 0
120 126 0
126 135 0
119 131 0
111 121 0
126 136 0
116 123 0
122 129 0
122 127 0
109 115 0
118 123 0
116 120 0
124 131 0
105 111 0
124 128 0
121 123 0
122 125 0
116 120 0
113 115 0
117 117 0
114 116 0
129 130 0
118 119 0
113 108 0
117 116 0
110 105 0
102 100 0
106 105 0
103 100 0
109 105 0
101 95 0
104 99 0
102 96 0
96 89 0
91 78 0
84 69 0
95 78 0
107 91 0
108 92 0
105 87 0
101 83 0
108 91 0
119 104 0
106 92 0
107 92 0
115 100 0
121 105 0
111 96 0
119 106 0
115 100 0
117 102 0
126 113 0
121 107 0
126 113 0
120 106 0
122 106 0
127 114 0
124 110 0
126 112 0
128 115 0
130 116 0
129 117 0
124 111 0
126 112 0
126 113 0
132 118 0
132 121 0
136 125 0
134 121 0
137 125 0
129 115 0
133 120 0
139 126 0
137 123 0
134 122 0
138 126 0
138 128 0
140 128 0
134 122 0
138 124 0
140 130 0
138 128 0
133 124 0
138 127 0
142 133 0
141 128 0
140 127 0
133 122 0
136 126 0
139 129 0
138 127 0
141 128 0
143 133 0
142 131 0
145 133 0
140 130 0
144 134 0
145 134 0
145 135 0
146 136 0
141 130 0
145 134 0
140 128 0
142 132 0
145 133 0
145 134 0
146 136 0
144 132 0
148 138 0
144 133 0
147 138 0
143 130 0
143 132 0
147 138 0
145 137 0
147 137 0
149 139 0
146 137 0
147 136 0
146 138 0
149 140 0
148 137 0
149 138 0
148 138 0
149 140 0
148 139 0
148 139 0
149 140 0
147 138 0
151 142 0
147 139 0
153 145 0
151 143 0
150 141 0
149 141 0
151 143 0
153 144 0
153 146 0
158 179 0
151 171 0
151 170 0
151 171 0
150 169 0
146 165 0
150 169 0
151 171 0
150 169 0
149 167 0
149 167 0
148 167 0
146 165 0
147 165 0
147 166 0
151 169 0
146 165 0
145 163 0
148 166 0
149 167 0
150 167 0
146 163 0
146 164 0
146 163 0
148 166 0
146 164 0
145 162 0
148 167 0
147 165 0
146 163 0
148 165 0
144 162 0
143 161 0
141 158 0
146 163 0
143 162 0
147 165 0
144 162 0
143 160 0
144 161 0
141 158 0
143 160 0
144 160 0
143 160 0
147 165 0
137 155 0
143 160 0
144 160 0
137 153 0
139 156 0
143 160 0
136 152 0
139 156 0
142 158 0
139 155 0
138 154 0
131 146 0
135 151 0
139 155 0
138 154 0
137 153 0
137 153 0
136 152 0
131 147 0
135 150 0
135 152 0
135 151 0
135 150 0
131 146 0
132 148 0
131 146 0
134 150 0
127 143 0
126 142 0
132 146 0
124 139 0
130 146 0
132 146 0
127 142 0
124 138 0
126 141 0
121 135 0
127 142 0
127 142 0
118 132 0
122 136 0
117 130 0
129 143 0
117 131 0
107 119 0
110 122 0
112 126 0
114 126 0
112 124 0
117 130 0
108 119 0
106 117 0
98 109 0
91 101 0
95 104 0
88 97 0
86 95 0
93 103 0
102 112 0
106 116 0
114 126 0
103 114 0
107 118 0
100 113 0
108 120 0
106 118 0
102 116 0
114 128 0
113 126 0
115 128 0
106 120 0
113 126 0
109 123 0
115 129 0
124 139 0
122 137 0
124 139 0
123 138 0
126 142 0
120 136 0
118 133 0
118 134 0
115 132 0
122 139 0
114 131 0
131 149 0
127 143 0
112 129 0
126 143 0
123 140 0
116 132 0
121 137 0
120 137 0
113 130 0
123 140 0
115 132 0
134 151 0
131 148 0
129 147 0
114 132 0
131 149 0
123 141 0
132 152 0
114 131 0
114 130 0
125 143 0
126 143 0
111 129 0
110 127 0
117 134 0
119 136 0
113 131 0
104 121 0
115 132 0
116 134 0
113 130 0
125 143 0
114 132 0
107 123 0
116 133 0
108 124 0
109 125 0
96 113 0
121 137 0
104 121 0
110 126 0
112 128 0
105 121 0
105 122 0
107 123 0
106 122 0
114 130 0
101 118 0
90 105 0
103 118 0
107 122 0
96 111 0
85 100 0
83 97 0
85 100 0
79 93 0
93 106 0
70 84 0
99 112 0
93 108 0
67 80 0
92 106 0
73 85 0
79 92 0
80 93 0
78 90 0
77 91 0
70 81 0
69 80 0
84 95 0
77 89 0
90 103 0
77 90 0
81 95 0
96 109 0
95 109 0
72 84 0
87 98 0
77 90 0
92 102 0
79 91 0
95 107 0
85 97 0
89 102 0
88 101 0
97 109 0
87 101 0
94 107 0
91 103 0
97 110 0
93 105 0
95 106 0
97 109 0
95 105 0
99 112 0
94 107 0
103 115 0
109 121 0
97 110 0
116 127 0
118 131 0
114 128 0
92 104 0
95 108 0
116 127 0
101 115 0
116 129 0
109 123 0
109 120 0
120 133 0
111 124 0
124 138 0
116 130 0
115 127 0
112 125 0
120 135 0
117 129 0
127 138 0
116 129 0
125 138 0
123 132 0
116 131 0
120 131 0
134 149 0
126 138 0
117 131 0
124 136 0
126 136 0
131 141 0
114 124 0
123 133 0
131 142 0
109 119 0
127 137 0
120 130 0
122 129 0
118 127 0
133 141 0
126 136 0
124 132 0
126 132 0
124 132 0
126 134 0
125 132 0
126 129 0
119 126 0
125 129 0
129 137 0
126 130 0
112 115 0
119 121 0
121 124 0
117 117 0
103 105 0
117 118 0
116 116 0
115 116 0
111 108 0
113 111 0
109 107 0
120 118 0
101 96 0
109 106 0
103 97 0
103 97 0
102 97 0
94 84 0
89 79 0
89 79 0
83 68 0
88 73 0
94 78 0
95 78 0
108 93 0
95 79 0
109 94 0
100 85 0
115 100 0
110 92 0
113 96 0
116 99 0
110 95 0
121 105 0
114 97 0
123 106 0
122 109 0
127 114 0
123 110 0
134 120 0
120 107 0
132 116 0
126 112 0
132 117 0
133 119 0
131 117 0
134 120 0
127 114 0
131 118 0
126 114 0
133 119 0
127 113 0
134 122 0
131 119 0
132 121 0
134 120 0
138 125 0
134 121 0
129 114 0
131 117 0
134 123 0
138 125 0
135 120 0
138 126 0
138 126 0
138 126 0
143 129 0
142 130 0
137 126 0
141 131 0
143 132 0
142 130 0
142 131 0
144 133 0
141 131 0
138 124 0
140 128 0
136 123 0
144 133 0
143 131 0
146 134 0
143 129 0
141 130 0
140 128 0
143 133 0
146 133 0
142 130 0
143 131 0
147 138 0
144 136 0
143 131 0
148 138 0
145 134 0
147 138 0
143 133 0
144 133 0
145 135 0
147 136 0
147 137 0
146 137 0
150 140 0
149 137 0
148 137 0
144 133 0
147 139 0
147 137 0
149 139 0
150 140 0
148 140 0
149 139 0
145 135 0
149 140 0
150 141 0
149 141 0
150 140 0
147 138 0
147 138 0
150 143 0
151 144 0
153 144 0
158 157 0
170 193 0
168 190 0
160 181 0
155 175 0
153 172 0
151 169 0
151 170 0
149 169 0
145 163 0
147 165 0
148 166 0
150 168 0
147 166 0
149 167 0
146 164 0
147 165 0
147 165 0
148 166 0
147 165 0
142 160 0
145 163 0
142 160 0
149 166 0
151 169 0
147 165 0
147 165 0
148 165 0
145 162 0
141 158 0
147 165 0
143 160 0
143 161 0
142 157 0
142 159 0
142 159 0
144 161 0
144 161 0
144 162 0
144 160 0
143 161 0
143 160 0
144 161 0
140 157 0
138 156 0
143 160 0
143 161 0
142 158 0
139 155 0
137 152 0
144 160 0
137 152 0
140 157 0
142 159 0
137 153 0
142 158 0
139 155 0
131 146 0
133 149 0
135 150 0
138 154 0
137 153 0
130 145 0
140 156 0
133 148 0
135 151 0
134 150 0
134 149 0
139 154 0
132 147 0
134 150 0
130 146 0
129 144 0
131 146 0
132 147 0
130 145 0
131 146 0
126 141 0
124 139 0
124 139 0
128 142 0
114 128 0
124 139 0
118 132 0
129 143 0
121 135 0
116 128 0
119 132 0
120 133 0
110 122 0
119 131 0
111 124 0
108 120 0
111 123 0
103 114 0
99 109 0
99 109 0
91 100 0
87 96 0
84 93 0
86 94 0
99 109 0
96 106 0
103 113 0
106 116 0
104 115 0
95 106 0
106 118 0
107 119 0
117 130 0
107 119 0
110 122 0
109 122 0
115 128 0
121 135 0
120 134 0
114 128 0
123 137 0
126 141 0
128 143 0
120 136 0
118 133 0
114 129 0
124 140 0
121 137 0
118 134 0
111 127 0
126 142 0
125 141 0
128 145 0
124 140 0
127 145 0
125 142 0
116 132 0
123 140 0
124 141 0
121 138 0
131 149 0
129 146 0
127 145 0
110 127 0
128 146 0
119 137 0
132 151 0
128 146 0
131 149 0
129 147 0
117 134 0
122 140 0
129 148 0
125 142 0
128 145 0
121 139 0
120 137 0
123 140 0
124 141 0
120 138 0
117 134 0
120 137 0
129 146 0
115 132 0
105 124 0
116 133 0
110 128 0
111 129 0
108 126 0
112 128 0
116 134 0
105 122 0
108 125 0
109 127 0
107 124 0
97 113 0
102 119 0
95 111 0
101 117 0
107 123 0
103 119 0
108 125 0
102 117 0
94 110 0
108 124 0
97 114 0
111 127 0
90 105 0
83 97 0
90 105 0
89 106 0
92 107 0
88 100 0
100 115 0
94 109 0
94 109 0
102 116 0
82 96 0
86 100 0
90 104 0
86 100 0
79 93 0
82 94 0
87 101 0
98 110 0
82 95 0
94 106 0
93 105 0
82 93 0
87 102 0
92 105 0
86 99 0
81 95 0
88 100 0
93 107 0
85 99 0
84 97 0
101 114 0
96 107 0
88 101 0
84 95 0
101 113 0
102 114 0
101 113 0
103 115 0
102 117 0
88 101 0
102 117 0
97 109 0
100 111 0
120 134 0
101 115 0
108 121 0
98 110 0
107 120 0
108 121 0
93 106 0
114 128 0
112 124 0
119 134 0
111 122 0
124 137 0
110 122 0
107 117 0
124 138 0
110 123 0
126 141 0
125 140 0
110 123 0
121 134 0
115 127 0
120 133 0
126 138 0
115 128 0
122 134 0
114 124 0
119 132 0
122 135 0
122 135 0
116 127 0
119 129 0
125 135 0
132 143 0
131 141 0
122 135 0
130 141 0
124 135 0
116 124 0
120 130 0
119 127 0
123 131 0
126 137 0
122 132 0
123 133 0
120 132 0
132 138 0
125 132 0
129 135 0
125 130 0
110 115 0
122 126 0
117 123 0
118 123 0
120 125 0
118 122 0
125 130 0
122 125 0
121 119 0
117 117 0
113 114 0
118 119 0
123 124 0
107 108 0
106 108 0
109 105 0
112 107 0
106 104 0
112 106 0
104 101 0
105 98 0
90 83 0
100 91 0
96 92 0
84 72 0
86 78 0
91 77 0
82 67 0
91 72 0
97 80 0
104 86 0
103 86 0
104 89 0
110 93 0
104 89 0
113 97 0
113 96 0
121 105 0
115 99 0
117 102 0
115 99 0
117 100 0
118 102 0
123 107 0
123 107 0
127 111 0
123 107 0
119 104 0
128 112 0
123 107 0
130 116 0
126 112 0
132 117 0
130 115 0
131 116 0
131 117 0
127 111 0
133 121 0
130 116 0
133 119 0
128 115 0
139 126 0
133 118 0
133 120 0
134 121 0
133 119 0
135 122 0
137 124 0
135 121 0
130 118 0
145 133 0
138 125 0
139 126 0
135 121 0
136 123 0
144 132 0
141 127 0
139 125 0
143 131 0
144 132 0
145 135 0
140 128 0
142 132 0
140 127 0
142 131 0
147 137 0
143 129 0
141 129 0
140 127 0
144 131 0
143 132 0
143 128 0
143 131 0
146 133 0
143 132 0
146 133 0
144 134 0
144 132 0
144 134 0
147 135 0
146 136 0
143 131 0
147 138 0
145 135 0
145 135 0
145 137 0
146 134 0
150 141 0
147 137 0
150 139 0
149 138 0
150 139 0
147 137 0
143 134 0
147 136 0
150 140 0
147 137 0
150 141 0
150 143 0
150 144 0
149 141 0
154 149 0
160 164 0
169 186 0
172 191 0
170 193 0
168 191 0
171 194 0
171 194 0
166 188 0
160 181 0
152 173 0
148 167 0
148 167 0
147 165 0
147 166 0
148 167 0
152 170 0
146 164 0
149 167 0
149 166 0
144 162 0
146 164 0
141 158 0
144 162 0
143 161 0
148 165 0
147 164 0
147 165 0
146 164 0
143 160 0
148 165 0
144 162 0
146 163 0
147 164 0
145 163 0
144 160 0
145 163 0
145 162 0
144 162 0
142 158 0
142 158 0
142 158 0
141 158 0
140 157 0
142 159 0
143 160 0
136 153 0
137 153 0
140 156 0
138 154 0
136 153 0
141 157 0
133 149 0
140 156 0
143 160 0
138 153 0
140 157 0
138 154 0
132 147 0
136 151 0
131 145 0
142 158 0
130 146 0
136 152 0
139 155 0
134 150 0
135 151 0
129 144 0
136 151 0
133 148 0
130 145 0
135 150 0
130 144 0
128 142 0
128 144 0
135 150 0
131 145 0
126 141 0
128 143 0
123 136 0
127 142 0
132 147 0
117 131 0
128 142 0
125 138 0
113 126 0
122 136 0
112 126 0
118 131 0
115 126 0
112 125 0
104 116 0
108 120 0
103 114 0
110 121 0
105 117 0
93 102 0
84 93 0
96 106 0
83 90 0
87 95 0
97 107 0
97 107 0
96 107 0
104 114 0
109 120 0
106 117 0
101 112 0
107 118 0
107 120 0
111 123 0
110 122 0
117 129 0
113 125 0
112 125 0
122 137 0
117 131 0
127 141 0
114 127 0
127 142 0
125 140 0
125 141 0
121 136 0
123 138 0
132 148 0
111 126 0
130 147 0
120 136 0
115 131 0
110 126 0
131 148 0
122 138 0
121 137 0
124 141 0
129 146 0
126 142 0
125 143 0
123 139 0
128 146 0
132 149 0
136 154 0
123 141 0
137 155 0
127 144 0
126 142 0
124 142 0
125 143 0
124 142 0
116 134 0
128 147 0
123 141 0
119 137 0
124 142 0
131 150 0
122 140 0
114 131 0
120 138 0
113 130 0
109 126 0
122 139 0
112 130 0
124 144 0
112 129 0
115 132 0
121 138 0
121 139 0
114 131 0
114 132 0
116 134 0
116 133 0
116 132 0
121 139 0
112 130 0
106 123 0
114 131 0
103 119 0
116 135 0
101 118 0
84 100 0
102 118 0
119 136 0
112 128 0
102 121 0
108 125 0
92 106 0
110 126 0
92 107 0
94 110 0
98 114 0
97 113 0
92 107 0
94 109 0
87 102 0
90 104 0
95 109 0
88 101 0
84 98 0
84 99 0
95 110 0
86 97 0
95 110 0
91 106 0
102 117 0
90 102 0
70 84 0
84 96 0
80 92 0
84 97 0
90 105 0
99 112 0
84 97 0
89 103 0
96 109 0
97 110 0
96 110 0
102 114 0
92 104 0
96 109 0
97 110 0
104 118 0
101 115 0
92 104 0
84 97 0
103 116 0
92 105 0
99 110 0
124 136 0
107 120 0
91 108 0
104 118 0
117 130 0
111 126 0
117 131 0
100 113 0
115 127 0
96 110 0
112 125 0
117 132 0
123 138 0
106 118 0
107 119 0
118 132 0
125 140 0
116 129 0
119 132 0
113 128 0
122 137 0
120 133 0
124 137 0
130 143 0
117 133 0
127 141 0
117 131 0
128 139 0
125 139 0
124 136 0
128 140 0
127 143 0
127 140 0
114 124 0
120 129 0
123 136 0
120 130 0
130 142 0
123 134 0
123 134 0
120 132 0
130 141 0
128 140 0
126 134 0
114 124 0
121 128 0
117 127 0
123 129 0
132 141 0
122 129 0
123 130 0
122 132 0
128 133 0
127 135 0
129 137 0
116 123 0
123 128 0
120 119 0
125 132 0
129 134 0
131 134 0
118 120 0
111 113 0
120 122 0
116 116 0
116 115 0
117 118 0
118 119 0
109 108 0
110 109 0
104 100 0
111 110 0
114 110 0
109 105 0
107 101 0
102 96 0
107 100 0
100 93 0
100 93 0
91 82 0
97 86 0
87 77 0
87 77 0
88 71 0
98 82 0
97 78 0
104 88 0
107 88 0
113 96 0
110 93 0
106 87 0
112 97 0
117 101 0
124 107 0
119 105 0
115 98 0
117 101 0
122 106 0
113 97 0
129 114 0
123 109 0
127 112 0
130 117 0
122 107 0
125 109 0
132 116 0
125 113 0
121 106 0
128 113 0
124 109 0
127 111 0
134 120 0
135 122 0
127 110 0
133 118 0
134 120 0
134 120 0
129 114 0
132 118 0
134 119 0
135 122 0
139 125 0
140 129 0
137 125 0
139 126 0
136 122 0
136 121 0
135 122 0
141 128 0
139 126 0
139 126 0
141 127 0
139 126 0
140 126 0
144 131 0
141 126 0
140 128 0
143 130 0
141 129 0
142 130 0
138 126 0
142 131 0
141 128 0
142 130 0
146 134 0
143 131 0
146 136 0
144 131 0
142 131 0
144 132 0
146 135 0
139 126 0
147 137 0
145 133 0
138 125 0
145 135 0
144 134 0
148 136 0
149 140 0
144 134 0
147 136 0
145 134 0
148 138 0
150 139 0
148 137 0
147 136 0
148 138 0
150 141 0
150 141 0
150 141 0
151 141 0
154 150 0
161 167 0
163 175 0
170 189 0
170 189 0
173 192 0
169 188 0
172 195 0
171 193 0
171 194 0
172 195 0
170 193 0
168 192 0
170 193 0
168 190 0
161 181 0
152 171 0
150 168 0
151 169 0
147 166 0
150 169 0
147 165 0
151 169 0
144 162 0
147 165 0
143 160 0
144 162 0
144 161 0
143 161 0
149 167 0
148 165 0
141 158 0
145 162 0
142 159 0
146 163 0
144 161 0
143 160 0
144 162 0
144 160 0
144 162 0
140 156 0
144 162 0
140 156 0
141 158 0
141 157 0
137 153 0
141 159 0
143 160 0
138 154 0
138 154 0
137 153 0
140 156 0
143 159 0
136 151 0
135 150 0
138 154 0
139 155 0
135 151 0
136 152 0
136 152 0
132 148 0
138 154 0
132 148 0
139 154 0
138 153 0
133 148 0
140 156 0
133 148 0
134 149 0
131 146 0
127 141 0
124 139 0
137 152 0
131 146 0
135 149 0
131 146 0
129 143 0
123 136 0
131 146 0
126 139 0
126 140 0
122 137 0
115 128 0
122 135 0
126 139 0
117 130 0
120 133 0
115 127 0
125 138 0
114 126 0
111 123 0
113 124 0
105 117 0
98 108 0
106 117 0
101 111 0
99 109 0
93 103 0
89 98 0
85 94 0
92 101 0
89 98 0
86 94 0
91 100 0
92 102 0
100 111 0
110 121 0
107 119 0
110 123 0
102 113 0
114 126 0
117 130 0
125 138 0
115 127 0
116 129 0
114 127 0
115 129 0
121 136 0
107 121 0
122 136 0
115 130 0
123 139 0
122 137 0
112 126 0
123 140 0
133 149 0
126 142 0
124 141 0
126 143 0
127 143 0
125 141 0
122 138 0
117 133 0
126 142 0
137 154 0
120 137 0
127 144 0
124 140 0
117 135 0
127 146 0
125 143 0
127 145 0
123 141 0
123 142 0
122 140 0
131 148 0
120 138 0
131 149 0
130 149 0
132 151 0
127 146 0
133 152 0
133 150 0
119 137 0
121 138 0
127 145 0
125 141 0
124 143 0
117 136 0
134 153 0
119 138 0
129 148 0
127 146 0
118 137 0
119 137 0
118 136 0
114 132 0
120 137 0
112 130 0
122 140 0
118 135 0
117 134 0
109 126 0
132 150 0
112 129 0
108 124 0
114 129 0
104 122 0
111 127 0
109 127 0
109 127 0
101 118 0
107 124 0
102 117 0
99 116 0
110 127 0
114 131 0
109 125 0
91 107 0
104 120 0
109 125 0
86 102 0
101 119 0
108 124 0
95 111 0
88 103 0
97 113 0
94 109 0
91 106 0
102 117 0
104 119 0
87 102 0
94 109 0
90 105 0
96 110 0
94 109 0
90 104 0
92 110 0
84 98 0
93 110 0
89 105 0
96 110 0
91 104 0
96 110 0
107 122 0
95 110 0
82 96 0
105 118 0
101 117 0
93 105 0
94 108 0
91 105 0
96 111 0
102 116 0
107 120 0
92 107 0
106 121 0
93 106 0
107 122 0
92 107 0
98 111 0
101 114 0
110 124 0
106 121 0
99 114 0
116 128 0
120 134 0
110 124 0
106 120 0
115 129 0
112 125 0
108 122 0
124 137 0
114 128 0
110 123 0
111 126 0
131 146 0
119 132 0
119 134 0
117 129 0
125 141 0
117 129 0
114 127 0
123 136 0
119 135 0
120 134 0
121 135 0
114 128 0
126 138 0
122 135 0
125 139 0
118 132 0
136 150 0
137 150 0
123 135 0
124 137 0
115 128 0
126 138 0
120 131 0
137 151 0
129 141 0
127 137 0
123 133 0
128 140 0
117 126 0
121 132 0
122 133 0
123 134 0
131 141 0
114 122 0
132 140 0
123 130 0
120 127 0
136 142 0
132 140 0
117 124 0
123 132 0
125 126 0
115 117 0
122 127 0
120 124 0
123 125 0
111 114 0
123 124 0
132 135 0
126 129 0
112 110 0
107 105 0
127 127 0
111 108 0
110 107 0
106 101 0
108 105 0
113 111 0
91 85 0
110 106 0
107 99 0
108 102 0
112 104 0
98 90 0
91 81 0
79 66 0
103 94 0
90 79 0
89 77 0
90 73 0
91 76 0
109 91 0
105 87 0
107 88 0
106 88 0
111 92 0
115 97 0
108 91 0
117 102 0
116 98 0
114 96 0
121 104 0
122 106 0
125 108 0
119 99 0
117 101 0
124 108 0
121 103 0
126 110 0
120 105 0
122 107 0
127 111 0
130 115 0
126 112 0
138 123 0
134 119 0
136 121 0
128 113 0
130 115 0
138 122 0
135 118 0
135 121 0
137 123 0
128 114 0
136 123 0
135 121 0
131 119 0
139 126 0
138 123 0
134 120 0
134 121 0
139 126 0
135 120 0
141 127 0
137 124 0
136 121 0
142 130 0
140 129 0
141 127 0
142 129 0
141 126 0
143 129 0
140 126 0
141 127 0
140 126 0
139 126 0
142 129 0
143 128 0
143 131 0
141 126 0
141 128 0
140 127 0
146 133 0
142 130 0
144 133 0
145 133 0
146 136 0
147 137 0
143 132 0
152 142 0
143 131 0
147 135 0
147 135 0
147 136 0
147 137 0
146 136 0
149 138 0
147 136 0
148 138 0
149 140 0
150 142 0
155 154 0
158 165 0
166 181 0
169 187 0
172 189 0
169 188 0
171 191 0
171 190 0
168 190 0
171 191 0
170 193 0
173 195 0
171 193 0
172 195 0
171 193 0
169 192 0
169 192 0
166 189 0
171 192 0
169 192 0
168 191 0
164 185 0
158 177 0
153 172 0
146 164 0
147 165 0
145 162 0
144 160 0
146 164 0
147 164 0
144 162 0
146 164 0
142 158 0
146 163 0
144 162 0
142 158 0
141 158 0
141 158 0
145 162 0
142 158 0
140 157 0
143 160 0
141 158 0
138 154 0
140 157 0
141 158 0
145 161 0
138 155 0
140 156 0
134 149 0
140 156 0
140 156 0
139 154 0
142 158 0
137 153 0
136 151 0
141 156 0
140 156 0
131 146 0
135 150 0
137 154 0
137 152 0
129 144 0
130 144 0
134 149 0
136 151 0
132 147 0
130 145 0
129 144 0
135 150 0
134 148 0
127 142 0
125 139 0
127 141 0
127 141 0
130 145 0
132 147 0
127 141 0
123 137 0
129 143 0
125 138 0
121 135 0
120 134 0
125 138 0
117 131 0
122 135 0
127 140 0
121 134 0
120 133 0
114 127 0
111 123 0
109 120 0
106 117 0
107 119 0
100 110 0
100 110 0
99 109 0
83 91 0
90 98 0
86 94 0
87 95 0
92 101 0
90 99 0
98 108 0
95 105 0
104 115 0
97 108 0
103 115 0
106 118 0
111 122 0
112 125 0
115 128 0
120 134 0
121 134 0
119 132 0
118 130 0
119 132 0
122 136 0
116 130 0
104 118 0
121 136 0
116 132 0
118 133 0
118 133 0
122 138 0
125 141 0
120 135 0
120 134 0
126 142 0
137 153 0
124 140 0
130 146 0
117 132 0
121 137 0
120 137 0
131 148 0
122 138 0
122 138 0
126 143 0
130 149 0
120 138 0
134 153 0
117 134 0
122 139 0
125 143 0
129 148 0
125 143 0
129 147 0
137 155 0
125 142 0
130 147 0
129 147 0
115 133 0
125 142 0
131 151 0
123 143 0
120 139 0
119 137 0
133 152 0
121 139 0
120 138 0
131 150 0
117 134 0
129 146 0
120 138 0
118 136 0
113 131 0
126 143 0
125 143 0
114 132 0
120 138 0
127 144 0
121 138 0
112 129 0
119 138 0
110 127 0
115 132 0
116 134 0
109 127 0
109 126 0
123 142 0
118 137 0
114 132 0
109 126 0
106 124 0
110 127 0
118 134 0
102 119 0
114 132 0
110 127 0
104 119 0
103 121 0
107 123 0
103 120 0
109 126 0
97 114 0
104 119 0
105 122 0
99 115 0
102 119 0
106 124 0
97 113 0
117 133 0
101 117 0
92 108 0
98 113 0
105 121 0
101 117 0
97 112 0
95 110 0
88 102 0
104 120 0
92 108 0
100 115 0
102 116 0
109 123 0
104 119 0
98 113 0
93 107 0
93 108 0
79 94 0
94 107 0
100 115 0
90 105 0
88 102 0
108 123 0
82 97 0
102 118 0
111 126 0
95 111 0
111 126 0
103 115 0
103 115 0
110 124 0
109 124 0
111 125 0
122 136 0
122 136 0
102 115 0
115 132 0
121 133 0
105 120 0
113 127 0
115 130 0
123 138 0
116 132 0
113 125 0
120 134 0
115 128 0
110 124 0
116 130 0
121 135 0
114 129 0
118 130 0
116 130 0
124 138 0
123 138 0
114 126 0
125 139 0
122 136 0
124 138 0
129 141 0
121 136 0
128 142 0
132 145 0
126 137 0
136 152 0
126 138 0
123 133 0
131 142 0
125 138 0
129 139 0
131 140 0
131 142 0
119 129 0
128 139 0
130 141 0
134 142 0
132 143 0
130 137 0
131 140 0
138 149 0
126 134 0
122 130 0
119 127 0
122 132 0
122 129 0
128 134 0
126 135 0
117 118 0
131 137 0
133 143 0
123 126 0
118 121 0
124 130 0
128 128 0
117 118 0
116 119 0
120 120 0
119 121 0
122 123 0
119 121 0
121 124 0
119 118 0
119 121 0
112 110 0
115 114 0
117 110 0
107 102 0
109 100 0
107 100 0
107 103 0
90 84 0
102 93 0
101 92 0
99 94 0
103 94 0
99 94 0
87 77 0
91 80 0
91 81 0
78 61 0
88 73 0
93 74 0
95 74 0
106 83 0
109 91 0
104 82 0
113 96 0
118 101 0
112 93 0
127 111 0
122 102 0
114 97 0
117 99 0
123 103 0
118 101 0
122 107 0
127 109 0
128 112 0
130 115 0
130 114 0
128 113 0
126 108 0
126 109 0
137 121 0
130 114 0
130 114 0
129 114 0
131 116 0
130 114 0
135 119 0
133 119 0
135 121 0
135 118 0
135 119 0
134 121 0
141 128 0
135 120 0
138 124 0
138 123 0
142 127 0
136 119 0
129 114 0
139 124 0
139 123 0
134 119 0
139 125 0
142 129 0
140 127 0
138 122 0
140 126 0
134 120 0
139 126 0
142 129 0
140 125 0
146 133 0
141 127 0
142 129 0
142 129 0
144 132 0
143 131 0
145 134 0
143 131 0
143 130 0
144 130 0
143 132 0
143 130 0
149 138 0
148 135 0
145 134 0
148 134 0
147 136 0
146 134 0
144 134 0
148 137 0
151 145 0
156 156 0
162 170 0
169 184 0
168 184 0
169 188 0
171 188 0
168 188 0
169 188 0
171 191 0
169 187 0
169 188 0
170 188 0
168 189 0
169 191 0
172 194 0
169 191 0
168 190 0
171 193 0
168 190 0
169 191 0
167 187 0
170 191 0
168 190 0
169 191 0
168 190 0
170 191 0
168 190 0
166 188 0
161 181 0
154 173 0
148 167 0
148 165 0
145 162 0
147 163 0
145 162 0
146 163 0
145 162 0
143 160 0
147 164 0
140 157 0
139 156 0
142 159 0
142 159 0
145 163 0
144 161 0
140 156 0
142 160 0
141 157 0
140 156 0
144 160 0
143 159 0
139 156 0
134 150 0
139 155 0
140 156 0
140 157 0
136 150 0
135 151 0
144 160 0
140 155 0
138 152 0
141 156 0
133 148 0
132 147 0
138 153 0
136 151 0
132 147 0
135 150 0
133 147 0
133 147 0
132 147 0
129 144 0
121 135 0
130 145 0
129 143 0
126 139 0
127 141 0
122 135 0
127 140 0
126 139 0
125 139 0
125 138 0
126 140 0
127 141 0
124 138 0
119 131 0
121 133 0
117 129 0
117 129 0
102 114 0
116 128 0
117 129 0
109 120 0
103 114 0
105 115 0
93 103 0
103 112 0
92 100 0
81 90 0
81 89 0
77 85 0
95 104 0
98 107 0
105 115 0
100 111 0
111 121 0
104 115 0
105 116 0
103 113 0
115 126 0
114 126 0
111 123 0
110 123 0
118 130 0
125 138 0
115 128 0
122 137 0
121 134 0
113 126 0
123 138 0
122 137 0
122 137 0
117 131 0
123 137 0
129 144 0
125 140 0
127 143 0
111 125 0
130 146 0
129 146 0
129 145 0
128 145 0
129 146 0
129 145 0
127 143 0
115 131 0
128 146 0
132 149 0
130 146 0
130 146 0
130 147 0
122 139 0
126 143 0
125 142 0
139 157 0
124 142 0
127 146 0
126 143 0
134 151 0
138 157 0
130 148 0
128 146 0
131 150 0
122 141 0
130 148 0
127 145 0
119 138 0
132 150 0
128 147 0
132 151 0
127 145 0
124 143 0
127 145 0
117 136 0
129 148 0
128 146 0
127 145 0
134 153 0
124 142 0
119 137 0
129 147 0
116 134 0
128 145 0
116 134 0
124 142 0
128 146 0
129 148 0
109 127 0
115 133 0
118 136 0
115 132 0
119 136 0
112 131 0
120 137 0
114 132 0
116 134 0
122 140 0
115 133 0
117 133 0
108 125 0
110 126 0
113 130 0
103 121 0
112 130 0
107 125 0
118 135 0
111 128 0
102 118 0
100 116 0
103 118 0
97 114 0
112 126 0
103 119 0
102 118 0
100 117 0
101 117 0
100 115 0
102 118 0
107 123 0
108 125 0
102 117 0
103 119 0
103 118 0
103 118 0
96 111 0
100 116 0
99 113 0
108 123 0
113 129 0
101 117 0
102 115 0
94 109 0
107 124 0
99 112 0
97 113 0
114 129 0
108 124 0
112 128 0
99 114 0
106 122 0
103 118 0
107 122 0
107 122 0
108 125 0
125 141 0
112 128 0
107 123 0
110 125 0
112 128 0
114 129 0
116 133 0
125 142 0
105 118 0
110 127 0
126 141 0
117 130 0
117 134 0
110 125 0
116 130 0
116 130 0
124 139 0
126 140 0
118 133 0
126 142 0
120 134 0
119 136 0
129 142 0
122 135 0
128 142 0
124 138 0
118 133 0
122 137 0
122 135 0
125 139 0
128 141 0
127 143 0
128 141 0
117 130 0
128 140 0
121 136 0
134 143 0
129 141 0
119 131 0
133 147 0
125 137 0
131 142 0
125 137 0
134 148 0
127 139 0
137 150 0
124 135 0
130 139 0
131 143 0
131 143 0
122 131 0
116 127 0
133 141 0
128 138 0
126 133 0
135 141 0
135 141 0
120 129 0
129 137 0
127 137 0
131 140 0
123 131 0
124 128 0
129 136 0
129 134 0
126 132 0
122 126 0
123 124 0
123 124 0
114 118 0
121 123 0
127 126 0
118 120 0
109 111 0
126 126 0
117 117 0
118 116 0
119 116 0
114 111 0
116 115 0
109 104 0
109 105 0
105 99 0
111 108 0
112 106 0
111 102 0
108 100 0
103 93 0
103 97 0
99 90 0
94 81 0
99 90 0
90 79 0
91 77 0
92 74 0
84 64 0
98 79 0
102 83 0
112 95 0
109 87 0
110 92 0
114 95 0
116 97 0
119 100 0
116 97 0
120 101 0
118 100 0
119 101 0
122 105 0
126 107 0
123 107 0
117 99 0
130 112 0
128 110 0
125 108 0
121 104 0
131 116 0
133 118 0
130 112 0
135 119 0
134 117 0
133 118 0
133 115 0
138 124 0
133 117 0
138 123 0
133 115 0
137 122 0
125 112 0
137 124 0
139 124 0
137 121 0
142 128 0
140 125 0
133 118 0
139 125 0
139 125 0
138 123 0
134 119 0
136 121 0
141 128 0
139 122 0
136 119 0
142 129 0
142 127 0
138 122 0
144 131 0
144 132 0
140 126 0
138 125 0
145 133 0
142 128 0
141 127 0
140 125 0
143 131 0
144 130 0
146 135 0
144 131 0
143 131 0
147 136 0
149 138 0
149 145 0
157 156 0
161 167 0
167 180 0
167 184 0
167 185 0
168 183 0
171 185 0
168 185 0
169 184 0
170 188 0
171 188 0
167 184 0
170 186 0
169 188 0
171 191 0
173 190 0
170 186 0
168 190 0
171 193 0
170 192 0
170 192 0
169 191 0
170 191 0
168 190 0
170 191 0
170 192 0
166 188 0
165 187 0
165 187 0
168 189 0
168 189 0
167 188 0
167 189 0
170 191 0
169 190 0
166 187 0
159 180 0
154 173 0
149 166 0
146 162 0
148 165 0
145 162 0
141 158 0
139 156 0
146 162 0
140 156 0
141 157 0
142 159 0
141 157 0
141 157 0
141 158 0
145 161 0
138 154 0
138 154 0
139 155 0
138 154 0
143 159 0
138 154 0
136 151 0
138 154 0
136 152 0
135 150 0
135 150 0
135 150 0
128 143 0
140 155 0
132 147 0
133 148 0
134 149 0
126 140 0
133 148 0
131 145 0
129 142 0
127 141 0
129 143 0
129 143 0
134 148 0
130 143 0
129 144 0
124 138 0
124 137 0
124 137 0
121 134 0
121 134 0
117 128 0
117 130 0
119 131 0
120 132 0
116 128 0
121 133 0
117 129 0
110 121 0
104 115 0
109 119 0
110 121 0
113 123 0
93 102 0
103 113 0
97 106 0
94 102 0
97 107 0
81 88 0
97 107 0
99 109 0
105 115 0
108 118 0
108 119 0
104 115 0
113 125 0
105 116 0
107 119 0
117 130 0
121 134 0
116 128 0
122 135 0
111 124 0
121 134 0
108 121 0
115 129 0
115 128 0
124 139 0
118 132 0
126 141 0
126 141 0
125 139 0
129 145 0
117 133 0
125 142 0
127 143 0
123 138 0
131 146 0
112 128 0
127 144 0
126 142 0
128 144 0
129 145 0
129 145 0
127 144 0
130 147 0
122 138 0
127 144 0
124 141 0
134 151 0
134 151 0
133 150 0
136 154 0
123 141 0
133 151 0
126 144 0
129 147 0
121 139 0
123 141 0
134 153 0
125 143 0
130 149 0
121 140 0
134 153 0
124 142 0
127 145 0
123 141 0
123 144 0
126 144 0
133 151 0
132 150 0
124 142 0
130 148 0
131 149 0
127 146 0
123 141 0
131 151 0
123 142 0
117 135 0
116 135 0
122 140 0
124 143 0
131 149 0
110 128 0
132 150 0
111 128 0
125 144 0
119 137 0
124 142 0
124 142 0
129 149 0
119 138 0
122 141 0
111 129 0
120 137 0
117 134 0
121 139 0
127 145 0
114 131 0
114 132 0
103 120 0
116 133 0
107 124 0
97 114 0
112 130 0
102 119 0
96 112 0
107 124 0
110 127 0
111 129 0
115 132 0
102 119 0
112 128 0
106 121 0
99 115 0
110 127 0
115 133 0
108 126 0
105 121 0
109 124 0
108 123 0
105 123 0
106 122 0
103 118 0
112 128 0
107 121 0
99 115 0
104 120 0
100 113 0
103 119 0
111 126 0
119 135 0
89 104 0
98 114 0
116 132 0
114 131 0
109 124 0
102 118 0
102 116 0
114 128 0
108 125 0
115 131 0
120 134 0
109 123 0
114 129 0
110 126 0
108 123 0
114 129 0
108 125 0
111 127 0
110 124 0
115 130 0
124 140 0
124 140 0
112 127 0
128 144 0
114 129 0
119 136 0
111 126 0
123 139 0
118 133 0
126 142 0
122 138 0
122 137 0
117 132 0
118 134 0
133 149 0
128 143 0
124 136 0
130 146 0
120 134 0
125 140 0
115 129 0
122 135 0
121 137 0
126 138 0
138 153 0
130 144 0
127 138 0
127 140 0
116 129 0
141 155 0
124 138 0
127 140 0
127 138 0
124 136 0
127 139 0
125 139 0
142 156 0
136 148 0
122 131 0
130 142 0
121 131 0
135 145 0
132 140 0
133 144 0
135 145 0
130 139 0
135 143 0
124 133 0
134 143 0
142 151 0
123 129 0
120 127 0
125 131 0
129 135 0
130 140 0
140 148 0
127 133 0
134 141 0
129 135 0
119 122 0
124 127 0
125 128 0
127 129 0
129 133 0
121 124 0
119 121 0
119 118 0
122 123 0
122 123 0
123 123 0
124 125 0
135 132 0
127 123 0
120 118 0
115 115 0
110 107 0
116 112 0
114 109 0
111 104 0
109 103 0
107 99 0
107 99 0
101 92 0
109 98 0
96 85 0
101 92 0
109 103 0
107 97 0
87 77 0
99 90 0
96 85 0
99 88 0
106 92 0
96 79 0
104 85 0
108 90 0
110 92 0
112 93 0
114 94 0
115 97 0
117 99 0
121 102 0
119 101 0
116 98 0
129 111 0
121 102 0
130 111 0
128 109 0
128 110 0
123 105 0
136 120 0
126 109 0
130 113 0
125 108 0
133 117 0
131 116 0
133 117 0
137 121 0
131 115 0
129 112 0
131 114 0
137 122 0
135 119 0
132 115 0
134 118 0
133 117 0
132 114 0
138 124 0
133 116 0
139 123 0
134 116 0
141 126 0
139 124 0
134 118 0
136 121 0
142 127 0
144 132 0
133 117 0
143 126 0
140 127 0
144 131 0
141 128 0
144 131 0
144 131 0
145 132 0
144 132 0
140 125 0
142 130 0
143 131 0
150 142 0
152 149 0
157 159 0
163 172 0
163 175 0
165 179 0
164 177 0
167 184 0
169 187 0
168 183 0
168 184 0
169 186 0
168 185 0
167 183 0
168 184 0
170 189 0
170 188 0
168 183 0
169 188 0
170 187 0
169 187 0
169 186 0
168 184 0
169 192 0
169 192 0
168 189 0
166 188 0
169 191 0
168 189 0
168 189 0
171 192 0
172 193 0
167 189 0
167 189 0
168 189 0
164 185 0
166 188 0
165 186 0
164 185 0
166 186 0
164 183 0
167 188 0
162 182 0
164 184 0
167 187 0
168 188 0
165 186 0
155 175 0
152 171 0
153 170 0
150 168 0
142 158 0
140 156 0
142 157 0
140 156 0
141 157 0
139 155 0
141 157 0
135 151 0
137 152 0
138 153 0
140 156 0
136 152 0
133 149 0
136 152 0
135 150 0
140 155 0
134 149 0
133 147 0
137 152 0
137 151 0
129 144 0
138 152 0
135 149 0
136 151 0
132 145 0
126 139 0
133 147 0
133 146 0
131 144 0
134 148 0
127 140 0
132 146 0
125 137 0
122 136 0
127 141 0
128 142 0
123 135 0
120 133 0
120 132 0
116 128 0
117 128 0
109 120 0
111 122 0
111 121 0
111 122 0
97 107 0
108 118 0
107 117 0
101 110 0
102 112 0
96 105 0
90 99 0
101 110 0
113 123 0
92 101 0
108 119 0
110 122 0
111 122 0
106 117 0
112 123 0
116 128 0
105 117 0
113 125 0
126 139 0
111 122 0
124 138 0
120 134 0
122 136 0
120 133 0
116 130 0
115 129 0
112 125 0
123 137 0
120 135 0
124 139 0
118 133 0
130 145 0
121 137 0
128 143 0
128 143 0
122 137 0
123 138 0
120 135 0
128 144 0
128 143 0
134 149 0
128 144 0
122 138 0
121 137 0
126 142 0
126 142 0
126 142 0
122 139 0
132 150 0
125 142 0
137 154 0
134 152 0
125 142 0
133 150 0
132 150 0
127 145 0
132 150 0
128 146 0
131 150 0
136 154 0
120 137 0
129 148 0
129 148 0
124 142 0
133 151 0
137 155 0
129 146 0
120 139 0
136 155 0
134 153 0
127 146 0
131 150 0
130 148 0
128 147 0
122 140 0
137 155 0
138 158 0
127 146 0
129 147 0
125 144 0
125 143 0
128 147 0
124 141 0
127 146 0
114 132 0
137 154 0
127 145 0
120 137 0
118 137 0
118 135 0
116 135 0
118 136 0
123 142 0
123 141 0
119 137 0
116 134 0
120 137 0
113 132 0
114 133 0
110 127 0
119 137 0
110 128 0
117 135 0
119 137 0
113 130 0
115 133 0
122 139 0
115 133 0
120 137 0
115 133 0
119 136 0
103 120 0
115 132 0
100 117 0
124 143 0
108 125 0
112 129 0
103 120 0
107 124 0
101 118 0
117 133 0
112 130 0
96 113 0
104 120 0
112 131 0
111 128 0
93 108 0
115 132 0
98 114 0
111 126 0
104 118 0
101 118 0
110 124 0
109 126 0
110 126 0
103 120 0
114 129 0
106 120 0
121 139 0
106 122 0
121 137 0
115 132 0
116 132 0
115 132 0
106 124 0
111 126 0
117 134 0
118 135 0
106 122 0
112 127 0
117 132 0
109 125 0
119 134 0
119 135 0
117 133 0
114 130 0
115 130 0
122 138 0
108 125 0
127 144 0
115 131 0
123 139 0
122 138 0
121 137 0
121 137 0
130 145 0
123 139 0
115 128 0
119 132 0
126 140 0
130 145 0
124 140 0
120 134 0
134 150 0
129 144 0
121 136 0
119 135 0
118 133 0
129 143 0
128 142 0
128 141 0
128 141 0
131 145 0
129 143 0
128 140 0
131 144 0
135 145 0
134 149 0
128 143 0
133 145 0
138 152 0
132 145 0
129 145 0
129 140 0
127 138 0
121 132 0
136 150 0
125 135 0
141 152 0
141 153 0
129 136 0
128 137 0
129 138 0
123 132 0
124 131 0
127 134 0
129 137 0
121 131 0
136 143 0
135 143 0
129 136 0
129 137 0
121 128 0
130 137 0
133 141 0
128 132 0
121 125 0
128 131 0
122 123 0
132 135 0
125 129 0
131 135 0
115 115 0
122 124 0
124 123 0
117 116 0
122 123 0
124 120 0
115 114 0
122 122 0
120 116 0
119 116 0
120 114 0
120 117 0
116 110 0
125 120 0
121 116 0
109 101 0
117 111 0
109 102 0
114 104 0
104 92 0
113 105 0
112 106 0
102 95 0
100 94 0
106 96 0
103 94 0
93 77 0
104 95 0
103 96 0
101 87 0
100 83 0
108 91 0
110 91 0
114 93 0
107 87 0
109 91 0
115 94 0
119 98 0
115 94 0
120 101 0
119 99 0
120 100 0
122 104 0
127 110 0
125 107 0
124 108 0
128 111 0
123 104 0
133 114 0
134 117 0
127 108 0
130 113 0
135 119 0
137 122 0
130 115 0
138 122 0
136 121 0
133 117 0
140 124 0
136 119 0
138 120 0
136 119 0
134 119 0
139 123 0
135 118 0
130 114 0
139 125 0
137 122 0
141 124 0
141 127 0
140 127 0
137 122 0
139 123 0
141 125 0
141 125 0
141 128 0
144 133 0
146 140 0
151 148 0
159 162 0
157 165 0
163 171 0
165 177 0
165 179 0
164 176 0
165 178 0
168 181 0
165 177 0
164 179 0
169 186 0
166 181 0
168 185 0
167 183 0
167 183 0
166 180 0
168 185 0
166 181 0
169 185 0
170 188 0
168 183 0
169 187 0
168 185 0
170 187 0
169 186 0
170 187 0
167 189 0
169 191 0
166 189 0
167 188 0
169 190 0
165 187 0
169 191 0
170 191 0
168 190 0
169 191 0
165 186 0
167 188 0
167 188 0
168 188 0
168 189 0
165 186 0
168 188 0
166 186 0
166 186 0
165 186 0
161 181 0
166 186 0
162 182 0
169 188 0
166 185 0
162 181 0
164 184 0
164 182 0
161 180 0
162 181 0
158 176 0
157 176 0
153 170 0
149 166 0
145 162 0
144 161 0
141 157 0
139 154 0
138 153 0
135 150 0
134 148 0
135 150 0
138 153 0
136 150 0
137 152 0
132 147 0
129 143 0
132 146 0
137 152 0
129 143 0
130 144 0
127 140 0
130 144 0
129 142 0
128 142 0
126 139 0
120 132 0
125 138 0
130 143 0
120 132 0
122 134 0
111 123 0
117 128 0
121 132 0
122 133 0
112 123 0
111 121 0
114 125 0
122 133 0
113 124 0
116 126 0
121 133 0
113 124 0
107 117 0
112 122 0
119 129 0
114 125 0
104 114 0
104 115 0
119 131 0
102 112 0
122 134 0
116 127 0
110 120 0
112 123 0
114 125 0
115 126 0
113 125 0
122 135 0
122 135 0
105 118 0
124 138 0
128 141 0
119 132 0
124 138 0
122 135 0
117 130 0
128 143 0
123 137 0
128 143 0
117 132 0
125 139 0
130 145 0
128 144 0
128 143 0
127 141 0
126 142 0
123 139 0
128 144 0
125 140 0
131 148 0
128 144 0
128 144 0
125 142 0
130 146 0
137 154 0
130 146 0
135 151 0
126 143 0
134 152 0
131 148 0
130 148 0
137 156 0
137 154 0
135 153 0
132 151 0
136 153 0
135 153 0
136 154 0
128 146 0
119 136 0
135 153 0
141 159 0
127 146 0
132 152 0
136 154 0
135 155 0
121 140 0
130 148 0
131 150 0
143 161 0
133 150 0
132 150 0
134 153 0
121 140 0
131 150 0
134 153 0
127 146 0
127 145 0
131 150 0
119 138 0
129 148 0
133 151 0
128 148 0
123 141 0
122 141 0
124 144 0
123 140 0
124 144 0
113 132 0
133 153 0
123 142 0
119 138 0
115 135 0
113 132 0
125 145 0
114 132 0
123 141 0
119 137 0
122 141 0
120 139 0
118 136 0
129 148 0
116 135 0
108 125 0
122 139 0
124 142 0
123 142 0
118 137 0
116 135 0
113 131 0
104 122 0
120 138 0
110 129 0
114 132 0
99 117 0
109 128 0
98 117 0
100 117 0
106 124 0
101 117 0
113 130 0
119 136 0
121 138 0
107 125 0
111 127 0
101 118 0
121 138 0
103 120 0
107 124 0
120 138 0
96 112 0
112 129 0
116 132 0
108 124 0
107 124 0
102 118 0
113 130 0
117 135 0
109 126 0
111 125 0
109 125 0
125 143 0
117 132 0
114 129 0
121 139 0
121 138 0
114 128 0
121 138 0
117 131 0
121 136 0
111 127 0
117 131 0
116 132 0
120 136 0
99 115 0
123 141 0
115 130 0
116 132 0
124 141 0
117 133 0
119 136 0
117 134 0
120 137 0
120 134 0
128 144 0
127 142 0
120 136 0
121 135 0
122 137 0
121 136 0
130 144 0
123 138 0
125 140 0
125 142 0
123 137 0
128 144 0
133 147 0
135 150 0
122 135 0
131 146 0
137 150 0
127 142 0
125 139 0
135 150 0
130 143 0
136 151 0
124 135 0
125 140 0
123 139 0
132 146 0
141 155 0
127 138 0
138 151 0
128 143 0
135 146 0
123 137 0
133 144 0
134 148 0
136 148 0
135 147 0
129 140 0
130 139 0
130 142 0
132 144 0
128 138 0
128 138 0
130 140 0
139 149 0
131 141 0
133 142 0
126 134 0
135 144 0
136 143 0
127 132 0
132 136 0
135 143 0
127 133 0
124 132 0
123 125 0
126 133 0
132 136 0
129 133 0
118 118 0
122 125 0
135 138 0
126 124 0
129 132 0
131 133 0
134 136 0
118 117 0
122 119 0
119 119 0
128 128 0
123 123 0
122 118 0
114 111 0
118 115 0
126 123 0
122 119 0
109 104 0
117 109 0
106 98 0
117 109 0
121 114 0
115 108 0
113 104 0
98 86 0
115 106 0
101 88 0
116 109 0
111 99 0
104 96 0
106 93 0
107 97 0
112 105 0
104 91 0
116 107 0
117 106 0
105 94 0
115 103 0
115 102 0
112 99 0
114 97 0
115 98 0
118 99 0
122 104 0
114 93 0
122 104 0
124 105 0
119 99 0
122 103 0
121 101 0
129 109 0
124 104 0
124 105 0
133 114 0
130 111 0
129 110 0
129 111 0
127 109 0
133 116 0
132 116 0
129 111 0
132 113 0
137 120 0
139 122 0
131 112 0
136 119 0
139 123 0
138 120 0
135 118 0
136 120 0
141 129 0
142 133 0
152 147 0
148 146 0
150 149 0
157 160 0
155 158 0
164 174 0
162 172 0
161 170 0
162 173 0
164 177 0
164 175 0
161 171 0
161 172 0
167 180 0
170 183 0
167 178 0
167 176 0
168 183 0
163 178 0
168 180 0
168 183 0
166 179 0
167 180 0
170 187 0
165 180 0
169 186 0
171 189 0
166 182 0
170 188 0
168 185 0
168 184 0
169 185 0
165 181 0
167 185 0
170 188 0
169 191 0
168 190 0
169 191 0
167 188 0
167 189 0
169 190 0
166 188 0
165 186 0
165 186 0
166 188 0
169 189 0
166 187 0
163 183 0
168 189 0
168 188 0
165 186 0
164 185 0
160 181 0
164 184 0
164 184 0
162 182 0
161 182 0
163 182 0
160 179 0
167 187 0
163 182 0
162 181 0
163 182 0
161 180 0
161 180 0
162 182 0
161 179 0
155 173 0
159 177 0
159 176 0
155 172 0
155 172 0
157 173 0
150 167 0
152 169 0
149 165 0
152 168 0
147 163 0
143 158 0
148 164 0
146 161 0
136 149 0
139 154 0
135 149 0
139 154 0
136 150 0
136 150 0
129 143 0
136 150 0
126 140 0
129 143 0
131 144 0
124 136 0
131 144 0
130 142 0
129 141 0
122 134 0
123 136 0
126 137 0
121 133 0
121 133 0
119 130 0
115 127 0
122 134 0
116 127 0
117 128 0
110 120 0
108 118 0
106 116 0
116 128 0
113 124 0
116 127 0
106 117 0
113 124 0
123 135 0
116 128 0
122 135 0
109 122 0
119 132 0
115 127 0
123 136 0
113 125 0
126 139 0
123 136 0
125 138 0
124 137 0
125 140 0
127 141 0
120 133 0
123 137 0
128 142 0
125 139 0
126 142 0
135 150 0
127 143 0
141 156 0
133 148 0
131 147 0
136 151 0
121 136 0
131 146 0
134 151 0
135 151 0
128 145 0
137 152 0
132 148 0
129 145 0
127 143 0
144 162 0
133 150 0
140 157 0
133 151 0
126 143 0
140 157 0
133 150 0
133 150 0
141 160 0
144 162 0
131 148 0
127 145 0
135 153 0
142 161 0
130 150 0
141 159 0
128 146 0
127 145 0
131 149 0
129 147 0
131 150 0
131 150 0
128 146 0
137 155 0
127 146 0
134 152 0
132 152 0
133 152 0
133 151 0
143 162 0
132 152 0
131 151 0
135 154 0
136 156 0
129 148 0
129 147 0
122 142 0
137 156 0
125 144 0
128 146 0
134 152 0
127 147 0
136 157 0
132 149 0
125 143 0
133 152 0
132 152 0
123 142 0
127 145 0
129 148 0
123 142 0
120 137 0
127 147 0
120 139 0
119 136 0
131 150 0
121 140 0
120 137 0
118 136 0
123 141 0
120 139 0
120 139 0
126 143 0
120 138 0
122 140 0
120 138 0
118 135 0
118 136 0
119 138 0
122 140 0
125 145 0
121 140 0
117 135 0
115 132 0
122 141 0
111 129 0
128 145 0
113 130 0
117 135 0
113 131 0
124 142 0
107 124 0
112 129 0
117 134 0
116 134 0
116 133 0
119 136 0
113 130 0
107 126 0
114 130 0
98 114 0
119 136 0
112 129 0
106 122 0
115 132 0
109 126 0
126 144 0
109 126 0
112 131 0
111 129 0
117 133 0
113 129 0
108 125 0
116 133 0
121 138 0
111 125 0
125 142 0
115 132 0
123 140 0
123 139 0
122 139 0
119 134 0
107 123 0
125 140 0
114 129 0
119 134 0
121 135 0
119 137 0
117 130 0
125 142 0
111 129 0
123 138 0
117 133 0
127 143 0
123 140 0
117 133 0
133 149 0
124 140 0
129 143 0
128 142 0
127 142 0
131 146 0
125 138 0
122 137 0
128 141 0
128 144 0
130 147 0
140 157 0
123 138 0
128 142 0
127 142 0
133 146 0
134 148 0
125 140 0
129 142 0
131 146 0
131 146 0
137 153 0
133 143 0
137 149 0
139 151 0
132 146 0
123 138 0
133 148 0
128 140 0
134 149 0
132 145 0
132 143 0
129 139 0
117 128 0
136 149 0
142 151 0
126 136 0
132 142 0
131 141 0
135 147 0
126 135 0
126 136 0
134 144 0
131 139 0
129 138 0
133 143 0
132 140 0
136 144 0
139 145 0
135 145 0
130 137 0
128 135 0
132 138 0
133 138 0
133 133 0
128 133 0
137 140 0
130 133 0
129 131 0
129 131 0
121 123 0
132 137 0
124 125 0
130 131 0
133 133 0
125 126 0
117 113 0
126 125 0
125 123 0
118 112 0
119 115 0
118 111 0
119 113 0
121 113 0
116 112 0
116 111 0
119 112 0
123 121 0
122 115 0
121 113 0
100 94 0
112 106 0
125 122 0
118 110 0
114 105 0
117 108 0
109 100 0
113 103 0
119 111 0
108 99 0
111 103 0
124 119 0
122 114 0
116 105 0
126 118 0
118 108 0
114 102 0
118 110 0
130 123 0
132 122 0
124 115 0
118 107 0
126 118 0
136 128 0
129 121 0
127 115 0
135 126 0
135 125 0
136 126 0
138 130 0
127 113 0
131 122 0
138 132 0
134 124 0
147 143 0
143 137 0
146 143 0
147 143 0
149 150 0
151 150 0
152 152 0
147 145 0
156 160 0
155 158 0
152 156 0
154 159 0
159 163 0
161 168 0
156 161 0
157 165 0
159 167 0
162 170 0
158 161 0
162 169 0
163 170 0
163 172 0
163 173 0
166 176 0
161 171 0
164 174 0
169 182 0
163 173 0
165 178 0
166 179 0
164 178 0
161 173 0
163 173 0
166 181 0
161 176 0
167 183 0
164 178 0
163 178 0
169 183 0
164 178 0
167 181 0
166 180 0
170 186 0
165 180 0
168 185 0
169 186 0
170 189 0
167 188 0
167 188 0
166 187 0
166 188 0
166 188 0
166 187 0
168 189 0
164 185 0
166 186 0
167 188 0
163 185 0
163 183 0
164 185 0
165 185 0
165 185 0
164 185 0
162 182 0
159 178 0
165 185 0
164 184 0
164 184 0
164 184 0
161 181 0
158 176 0
155 174 0
166 185 0
158 176 0
160 179 0
159 176 0
159 177 0
155 173 0
158 176 0
158 176 0
159 177 0
159 176 0
153 171 0
155 172 0
150 167 0
153 168 0
155 172 0
150 167 0
154 170 0
147 163 0
146 162 0
152 168 0
144 159 0
147 163 0
147 162 0
144 158 0
145 160 0
138 152 0
143 158 0
142 156 0
141 155 0
142 156 0
137 150 0
141 156 0
135 148 0
132 145 0
123 135 0
130 142 0
129 141 0
126 138 0
124 136 0
122 135 0
117 128 0
113 124 0
122 133 0
125 137 0
117 128 0
120 131 0
121 132 0
119 130 0
118 130 0
117 129 0
118 130 0
114 126 0
124 137 0
120 132 0
126 139 0
127 140 0
124 136 0
118 131 0
121 133 0
121 134 0
123 135 0
120 134 0
121 134 0
127 141 0
122 136 0
130 143 0
126 140 0
123 138 0
130 144 0
128 143 0
132 147 0
132 147 0
129 144 0
127 142 0
134 150 0
130 146 0
119 134 0
134 150 0
122 137 0
128 145 0
130 146 0
132 150 0
131 147 0
133 151 0
134 151 0
134 150 0
137 154 0
134 151 0
140 159 0
133 150 0
134 151 0
132 150 0
142 159 0
139 158 0
139 156 0
140 158 0
127 143 0
134 153 0
124 142 0
126 144 0
132 150 0
136 155 0
133 153 0
129 148 0
132 151 0
134 152 0
124 142 0
137 155 0
137 156 0
134 153 0
135 153 0
129 147 0
126 145 0
142 161 0
130 148 0
132 151 0
131 150 0
133 152 0
129 148 0
125 143 0
120 139 0
134 153 0
123 142 0
127 147 0
126 146 0
130 149 0
124 142 0
130 150 0
133 153 0
121 141 0
130 149 0
139 160 0
126 144 0
117 137 0
127 146 0
125 144 0
132 151 0
125 145 0
122 141 0
130 150 0
127 147 0
133 154 0
134 153 0
123 141 0
119 139 0
109 128 0
122 142 0
122 141 0
121 139 0
118 137 0
113 131 0
120 140 0
122 138 0
125 144 0
113 131 0
119 136 0
122 140 0
120 139 0
109 127 0
123 143 0
123 142 0
121 138 0
121 139 0
116 134 0
117 135 0
107 125 0
111 129 0
117 135 0
111 128 0
112 130 0
109 127 0
118 135 0
120 137 0
112 130 0
120 139 0
127 145 0
105 121 0
118 136 0
118 135 0
109 127 0
115 132 0
112 128 0
112 129 0
119 134 0
117 134 0
113 131 0
114 131 0
118 135 0
123 140 0
122 139 0
123 141 0
120 139 0
109 125 0
109 125 0
111 128 0
117 135 0
116 132 0
111 128 0
119 137 0
125 142 0
126 143 0
134 151 0
114 130 0
125 138 0
119 136 0
123 140 0
132 151 0
122 141 0
125 140 0
134 150 0
119 134 0
123 139 0
123 140 0
121 137 0
123 140 0
121 137 0
129 143 0
122 139 0
127 141 0
136 152 0
134 151 0
129 142 0
136 153 0
129 144 0
128 142 0
137 151 0
134 148 0
131 145 0
132 147 0
131 145 0
133 148 0
135 151 0
139 152 0
128 143 0
134 152 0
131 146 0
128 139 0
127 145 0
131 144 0
127 141 0
136 150 0
136 151 0
131 145 0
137 150 0
126 140 0
134 146 0
136 148 0
142 157 0
127 140 0
138 150 0
132 142 0
131 142 0
125 136 0
133 145 0
133 145 0
132 142 0
140 149 0
136 141 0
136 146 0
116 127 0
126 133 0
126 135 0
133 140 0
136 146 0
127 130 0
132 136 0
125 130 0
126 128 0
126 129 0
125 131 0
136 143 0
131 135 0
131 132 0
132 134 0
125 127 0
126 130 0
128 128 0
124 127 0
127 129 0
128 130 0
132 133 0
132 130 0
126 124 0
130 133 0
126 123 0
115 110 0
118 117 0
130 128 0
115 114 0
133 130 0
125 122 0
122 116 0
120 114 0
122 113 0
123 115 0
119 110 0
121 118 0
111 104 0
127 121 0
119 114 0
120 113 0
116 111 0
114 102 0
116 105 0
115 105 0
120 110 0
129 123 0
126 117 0
126 119 0
116 104 0
125 116 0
123 115 0
134 129 0
125 119 0
123 116 0
119 110 0
130 121 0
129 121 0
129 121 0
139 136 0
127 122 0
144 141 0
139 134 0
132 124 0
135 133 0
144 142 0
146 143 0
148 149 0
153 152 0
150 149 0
147 144 0
151 151 0
152 152 0
157 159 0
152 152 0
149 151 0
152 155 0
154 159 0
157 160 0
160 165 0
155 157 0
157 163 0
160 166 0
160 167 0
163 173 0
160 167 0
150 153 0
158 165 0
163 175 0
156 162 0
165 174 0
165 175 0
165 175 0
165 174 0
164 175 0
165 178 0
164 174 0
167 177 0
167 180 0
163 174 0
167 182 0
165 177 0
167 177 0
166 180 0
167 179 0
167 181 0
171 187 0
171 188 0
167 180 0
169 186 0
166 180 0
170 186 0
170 188 0
167 183 0
167 181 0
168 189 0
168 189 0
169 190 0
165 185 0
165 186 0
169 189 0
168 189 0
167 188 0
166 186 0
167 186 0
166 186 0
165 186 0
165 186 0
163 183 0
168 188 0
165 185 0
163 182 0
163 183 0
162 182 0
164 183 0
167 186 0
163 182 0
158 177 0
157 176 0
165 185 0
163 182 0
161 180 0
158 176 0
155 173 0
157 175 0
157 175 0
157 175 0
153 169 0
157 175 0
158 176 0
154 171 0
159 177 0
152 168 0
150 167 0
150 166 0
154 170 0
150 167 0
154 170 0
150 166 0
147 163 0
141 156 0
143 158 0
141 156 0
137 152 0
146 161 0
145 160 0
134 148 0
141 155 0
141 155 0
134 147 0
132 146 0
136 149 0
132 145 0
136 149 0
131 143 0
127 139 0
130 142 0
133 146 0
124 137 0
119 132 0
127 139 0
129 143 0
131 144 0
127 138 0
128 140 0
121 133 0
127 139 0
124 136 0
124 136 0
115 126 0
125 138 0
127 140 0
122 135 0
131 144 0
133 146 0
126 139 0
127 139 0
127 142 0
129 142 0
125 139 0
131 145 0
136 150 0
130 144 0
123 138 0
136 150 0
135 150 0
127 141 0
126 141 0
132 148 0
128 142 0
129 144 0
132 146 0
132 146 0
133 148 0
121 135 0
129 145 0
132 148 0
134 151 0
131 147 0
127 144 0
133 150 0
133 150 0
136 153 0
129 146 0
134 151 0
130 147 0
129 146 0
130 147 0
129 147 0
130 147 0
130 148 0
125 143 0
123 141 0
133 152 0
139 157 0
144 163 0
125 142 0
137 154 0
137 155 0
143 162 0
135 153 0
130 148 0
131 150 0
136 156 0
131 150 0
134 153 0
136 154 0
137 156 0
139 159 0
131 151 0
135 154 0
132 150 0
136 156 0
137 157 0
142 162 0
134 154 0
137 155 0
131 152 0
136 156 0
133 152 0
118 137 0
133 152 0
139 159 0
137 157 0
130 148 0
132 151 0
131 150 0
130 150 0
134 153 0
138 159 0
125 143 0
125 143 0
131 150 0
134 153 0
128 146 0
136 156 0
127 147 0
134 154 0
126 145 0
128 148 0
123 143 0
135 155 0
122 142 0
125 144 0
128 147 0
122 140 0
132 151 0
118 137 0
122 139 0
123 143 0
127 147 0
115 134 0
126 146 0
120 138 0
123 142 0
123 142 0
125 143 0
107 126 0
129 148 0
108 126 0
116 135 0
125 142 0
118 137 0
128 147 0
127 145 0
111 128 0
134 152 0
109 126 0
117 134 0
114 132 0
119 137 0
115 133 0
122 140 0
119 138 0
120 137 0
116 134 0
123 141 0
116 135 0
127 144 0
114 131 0
121 138 0
114 131 0
114 131 0
115 132 0
111 128 0
123 142 0
118 137 0
122 139 0
106 123 0
115 133 0
115 133 0
119 136 0
112 130 0
122 139 0
119 136 0
121 139 0
125 139 0
129 146 0
118 136 0
133 149 0
128 144 0
127 142 0
121 139 0
127 144 0
126 142 0
121 138 0
125 141 0
121 137 0
121 135 0
116 133 0
123 139 0
121 136 0
128 144 0
125 140 0
133 150 0
126 142 0
128 145 0
138 156 0
127 144 0
117 132 0
125 142 0
125 141 0
137 154 0
133 149 0
133 149 0
129 145 0
128 144 0
131 145 0
137 151 0
135 152 0
139 155 0
133 146 0
124 139 0
138 154 0
126 139 0
145 159 0
128 141 0
132 144 0
134 148 0
131 146 0
134 151 0
141 153 0
124 137 0
129 141 0
138 153 0
134 147 0
140 153 0
135 148 0
145 161 0
141 153 0
145 159 0
137 153 0
145 159 0
138 149 0
122 127 0
130 142 0
130 139 0
125 133 0
139 149 0
144 154 0
135 142 0
127 134 0
142 149 0
127 136 0
135 142 0
128 135 0
133 140 0
132 139 0
132 139 0
126 130 0
146 155 0
139 146 0
131 139 0
124 127 0
136 138 0
136 139 0
131 132 0
125 128 0
131 135 0
126 128 0
125 124 0
128 125 0
134 135 0
134 135 0
120 116 0
122 122 0
121 119 0
126 121 0
123 118 0
117 116 0
132 130 0
133 130 0
135 134 0
125 122 0
125 121 0
121 115 0
113 104 0
130 126 0
127 121 0
124 120 0
118 112 0
122 116 0
120 115 0
124 120 0
124 115 0
121 113 0
125 115 0
117 107 0
120 113 0
125 118 0
129 120 0
123 117 0
133 127 0
130 124 0
132 122 0
134 131 0
131 124 0
127 119 0
129 122 0
133 125 0
136 130 0
138 133 0
140 136 0
136 131 0
144 143 0
139 135 0
143 141 0
145 144 0
145 145 0
147 147 0
145 143 0
149 150 0
144 140 0
148 148 0
146 148 0
153 154 0
153 154 0
154 153 0
155 158 0
156 158 0
157 160 0
159 166 0
160 164 0
157 164 0
156 160 0
158 164 0
162 166 0
161 168 0
162 171 0
157 165 0
164 172 0
161 168 0
160 165 0
162 168 0
162 173 0
162 171 0
168 180 0
165 173 0
163 172 0
163 175 0
168 179 0
165 179 0
166 179 0
166 182 0
163 175 0
163 173 0
160 172 0
167 181 0
169 185 0
167 181 0
169 183 0
168 184 0
167 182 0
169 183 0
166 181 0
163 185 0
170 192 0
164 184 0
166 187 0
164 185 0
167 187 0
165 186 0
167 189 0
167 188 0
164 185 0
166 186 0
168 188 0
163 183 0
165 185 0
161 181 0
163 183 0
164 185 0
166 185 0
166 186 0
160 179 0
166 185 0
162 181 0
160 179 0
163 181 0
161 179 0
154 172 0
160 177 0
161 178 0
160 179 0
159 176 0
156 174 0
155 172 0
155 173 0
156 173 0
154 171 0
157 174 0
155 172 0
148 163 0
151 168 0
155 171 0
150 166 0
152 168 0
147 162 0
150 166 0
139 154 0
144 159 0
138 153 0
139 153 0
141 156 0
140 154 0
144 159 0
134 148 0
137 151 0
138 152 0
140 154 0
135 148 0
134 148 0
129 142 0
128 141 0
126 138 0
135 148 0
124 137 0
130 143 0
135 148 0
131 144 0
131 143 0
123 135 0
133 146 0
130 143 0
120 133 0
126 138 0
121 134 0
123 135 0
127 140 0
128 140 0
136 150 0
131 144 0
128 140 0
119 133 0
132 146 0
132 145 0
131 146 0
134 149 0
124 137 0
122 136 0
124 137 0
132 147 0
122 137 0
140 155 0
130 144 0
131 146 0
131 146 0
136 152 0
130 145 0
134 150 0
136 152 0
134 150 0
132 148 0
133 149 0
126 143 0
128 145 0
135 152 0
133 149 0
138 155 0
135 152 0
132 149 0
136 153 0
137 155 0
126 143 0
135 153 0
134 151 0
134 152 0
132 151 0
131 149 0
134 152 0
140 158 0
132 150 0
135 154 0
133 152 0
139 158 0
136 155 0
136 154 0
139 158 0
136 155 0
141 160 0
132 150 0
144 163 0
137 156 0
135 154 0
138 156 0
140 159 0
140 159 0
136 155 0
131 150 0
140 160 0
130 149 0
139 159 0
136 155 0
140 159 0
137 156 0
140 159 0
137 157 0
132 151 0
133 152 0
132 151 0
128 146 0
130 149 0
133 154 0
137 156 0
130 150 0
141 161 0
141 160 0
129 147 0
132 152 0
125 145 0
129 148 0
126 146 0
131 150 0
124 144 0
126 146 0
129 149 0
131 152 0
141 160 0
126 147 0
128 146 0
127 147 0
134 155 0
120 139 0
137 157 0
131 149 0
131 150 0
131 151 0
129 148 0
132 152 0
117 136 0
127 147 0
123 141 0
126 145 0
124 143 0
127 145 0
119 136 0
120 137 0
132 151 0
121 140 0
119 137 0
114 133 0
128 148 0
120 138 0
130 149 0
119 138 0
122 141 0
118 137 0
109 125 0
107 124 0
131 149 0
114 132 0
125 143 0
115 134 0
120 138 0
120 137 0
120 137 0
113 132 0
125 141 0
122 142 0
115 131 0
129 147 0
118 137 0
118 133 0
124 141 0
121 137 0
127 146 0
116 132 0
112 130 0
126 144 0
107 123 0
126 143 0
128 146 0
126 143 0
128 146 0
122 140 0
121 140 0
127 146 0
113 130 0
130 147 0
126 143 0
124 140 0
116 134 0
113 129 0
125 143 0
125 142 0
130 147 0
130 145 0
127 145 0
142 159 0
139 156 0
125 140 0
123 143 0
123 139 0
112 127 0
141 157 0
123 138 0
130 144 0
121 135 0
126 140 0
132 149 0
133 152 0
129 146 0
135 152 0
137 151 0
132 150 0
133 147 0
134 148 0
133 146 0
127 144 0
128 145 0
130 144 0
134 148 0
143 157 0
137 154 0
138 153 0
136 150 0
138 155 0
134 148 0
137 150 0
131 144 0
124 137 0
129 143 0
141 156 0
135 151 0
131 145 0
138 151 0
140 153 0
136 149 0
138 150 0
141 154 0
138 148 0
126 137 0
130 143 0
134 144 0
142 156 0
135 146 0
138 148 0
131 141 0
135 142 0
137 147 0
124 133 0
126 135 0
135 143 0
131 140 0
134 144 0
135 144 0
127 134 0
135 143 0
129 135 0
133 140 0
124 128 0
132 138 0
136 145 0
131 136 0
126 131 0
141 145 0
133 136 0
139 143 0
132 137 0
134 137 0
130 133 0
130 131 0
132 131 0
120 120 0
126 128 0
127 130 0
128 127 0
121 119 0
134 135 0
134 131 0
130 128 0
128 125 0
131 129 0
132 132 0
130 122 0
135 135 0
128 123 0
128 127 0
123 120 0
128 122 0
128 123 0
127 120 0
132 130 0
124 118 0
125 120 0
122 115 0
124 117 0
133 127 0
135 133 0
131 125 0
129 123 0
123 117 0
126 117 0
134 127 0
137 133 0
133 127 0
128 121 0
141 139 0
136 129 0
142 140 0
134 129 0
136 128 0
138 136 0
135 127 0
140 136 0
143 141 0
142 137 0
137 130 0
144 141 0
141 137 0
145 142 0
139 136 0
142 142 0
152 153 0
146 143 0
143 141 0
156 160 0
149 151 0
153 156 0
153 158 0
155 159 0
159 165 0
160 166 0
156 164 0
156 161 0
158 164 0
157 160 0
155 160 0
161 167 0
156 164 0
162 171 0
160 169 0
163 173 0
167 179 0
160 171 0
163 172 0
162 171 0
161 170 0
164 175 0
163 175 0
169 181 0
165 177 0
164 175 0
167 183 0
164 175 0
165 177 0
167 179 0
166 181 0
167 181 0
167 179 0
170 184 0
168 181 0
163 178 0
165 181 0
167 181 0
169 190 0
167 188 0
165 186 0
168 190 0
164 184 0
167 186 0
167 187 0
167 187 0
165 186 0
161 182 0
166 186 0
170 189 0
168 188 0
162 182 0
162 181 0
164 184 0
169 189 0
160 179 0
162 182 0
160 180 0
160 180 0
161 180 0
163 182 0
163 182 0
157 175 0
157 175 0
156 173 0
155 173 0
162 180 0
154 171 0
155 172 0
161 179 0
154 171 0
146 162 0
151 167 0
154 171 0
151 167 0
145 161 0
153 168 0
148 163 0
146 161 0
144 159 0
148 163 0
149 165 0
146 161 0
145 160 0
143 158 0
136 151 0
143 157 0
140 155 0
143 157 0
137 151 0
139 154 0
145 159 0
130 144 0
141 156 0
135 149 0
128 142 0
131 145 0
134 147 0
131 144 0
135 148 0
131 144 0
135 149 0
138 152 0
129 142 0
130 143 0
135 149 0
124 137 0
133 146 0
131 144 0
139 153 0
127 140 0
123 136 0
138 152 0
131 145 0
130 143 0
130 144 0
134 147 0
123 137 0
132 146 0
125 138 0
137 151 0
135 149 0
133 148 0
138 153 0
133 148 0
140 155 0
135 150 0
133 148 0
137 153 0
137 153 0
140 155 0
136 151 0
134 150 0
134 151 0
144 161 0
135 152 0
134 151 0
137 153 0
135 152 0
130 147 0
134 150 0
135 152 0
134 151 0
135 153 0
128 145 0
137 155 0
140 157 0
132 150 0
133 150 0
131 150 0
136 155 0
135 154 0
138 156 0
130 149 0
128 146 0
137 155 0
127 145 0
128 146 0
134 153 0
135 154 0
135 153 0
132 151 0
139 158 0
134 153 0
135 154 0
138 157 0
142 161 0
132 152 0
131 149 0
131 150 0
123 141 0
138 158 0
132 150 0
135 155 0
148 167 0
118 137 0
134 152 0
144 164 0
133 153 0
141 160 0
136 156 0
135 155 0
140 160 0
139 159 0
128 147 0
137 157 0
136 155 0
128 147 0
140 160 0
138 157 0
126 145 0
123 143 0
124 143 0
135 154 0
132 151 0
130 150 0
127 145 0
128 147 0
127 145 0
127 146 0
128 146 0
120 139 0
134 154 0
125 144 0
126 144 0
126 146 0
136 156 0
127 147 0
118 137 0
121 140 0
130 149 0
121 138 0
123 142 0
125 144 0
114 132 0
118 135 0
128 146 0
111 130 0
134 154 0
137 156 0
124 143 0
115 134 0
121 139 0
127 146 0
119 136 0
130 147 0
123 141 0
122 142 0
124 142 0
126 146 0
123 141 0
133 152 0
118 136 0
128 146 0
123 140 0
118 136 0
112 130 0
119 136 0
120 137 0
121 141 0
116 135 0
103 121 0
116 134 0
127 144 0
124 141 0
121 138 0
124 143 0
125 143 0
128 144 0
125 141 0
122 140 0
127 144 0
123 142 0
123 141 0
120 138 0
121 139 0
126 141 0
127 144 0
125 143 0
118 138 0
125 141 0
131 151 0
130 148 0
125 142 0
134 151 0
123 139 0
123 140 0
129 147 0
131 147 0
125 142 0
131 149 0
128 146 0
128 144 0
135 150 0
128 147 0
121 137 0
127 144 0
134 150 0
131 147 0
136 154 0
135 150 0
126 142 0
132 149 0
137 155 0
126 143 0
136 153 0
129 145 0
127 144 0
135 152 0
135 147 0
137 154 0
131 146 0
125 138 0
122 137 0
132 146 0
131 145 0
133 147 0
135 150 0
133 147 0
143 160 0
144 161 0
132 149 0
132 147 0
147 162 0
140 155 0
137 151 0
147 163 0
131 141 0
129 143 0
128 141 0
141 154 0
142 156 0
126 139 0
138 152 0
136 148 0
134 147 0
136 150 0
140 152 0
126 136 0
134 143 0
130 144 0
138 149 0
131 137 0
139 148 0
135 145 0
130 140 0
131 140 0
136 146 0
139 149 0
135 141 0
131 139 0
135 143 0
130 138 0
134 140 0
137 143 0
136 145 0
132 138 0
135 139 0
131 136 0
135 141 0
133 135 0
139 145 0
135 137 0
138 141 0
137 140 0
133 137 0
123 124 0
133 134 0
133 135 0
125 127 0
131 131 0
124 123 0
135 135 0
134 136 0
134 134 0
128 130 0
134 132 0
128 126 0
122 118 0
138 137 0
128 127 0
135 131 0
123 120 0
133 129 0
134 131 0
137 136 0
132 129 0
134 132 0
123 115 0
138 134 0
133 128 0
130 125 0
130 129 0
135 133 0
132 126 0
132 126 0
133 126 0
133 124 0
134 130 0
135 128 0
139 132 0
132 130 0
133 126 0
133 128 0
136 133 0
138 133 0
143 141 0
141 136 0
148 147 0
142 140 0
146 146 0
145 144 0
142 140 0
146 148 0
142 141 0
147 146 0
144 143 0
147 146 0
147 146 0
146 147 0
152 154 0
146 144 0
155 159 0
156 161 0
157 160 0
155 161 0
155 157 0
155 158 0
157 162 0
153 157 0
151 154 0
159 167 0
158 162 0
159 168 0
160 165 0
163 167 0
160 168 0
164 173 0
160 171 0
163 171 0
162 172 0
163 170 0
165 175 0
160 170 0
164 174 0
160 168 0
166 177 0
163 175 0
162 172 0
164 176 0
166 179 0
167 180 0
168 183 0
167 183 0
166 180 0
169 182 0
168 184 0
169 185 0
165 186 0
164 184 0
166 187 0
164 185 0
165 185 0
163 183 0
163 183 0
168 188 0
162 182 0
164 184 0
165 185 0
160 179 0
161 180 0
165 183 0
165 185 0
160 180 0
165 184 0
163 182 0
158 177 0
161 181 0
158 176 0
167 186 0
160 179 0
159 178 0
165 184 0
154 172 0
157 174 0
153 170 0
157 175 0
153 170 0
154 172 0
152 170 0
156 173 0
150 167 0
151 169 0
154 171 0
150 166 0
150 165 0
157 173 0
148 164 0
145 161 0
151 167 0
137 152 0
140 156 0
146 161 0
142 157 0
147 161 0
144 158 0
144 159 0
141 154 0
140 153 0
147 161 0
134 148 0
146 161 0
145 160 0
130 144 0
139 153 0
140 154 0
133 147 0
138 152 0
135 149 0
132 145 0
135 149 0
135 149 0
131 144 0
135 149 0
134 148 0
132 146 0
136 150 0
137 152 0
129 142 0
136 150 0
136 149 0
135 149 0
131 146 0
135 150 0
131 146 0
137 152 0
122 136 0
135 150 0
138 153 0
133 148 0
136 152 0
137 152 0
133 148 0
141 155 0
139 155 0
129 145 0
137 153 0
129 146 0
126 142 0
134 150 0
131 148 0
138 154 0
137 153 0
135 151 0
141 158 0
134 151 0
131 147 0
136 153 0
141 159 0
140 158 0
143 161 0
140 158 0
126 143 0
146 165 0
131 149 0
137 155 0
141 160 0
130 148 0
134 152 0
134 151 0
136 154 0
142 161 0
129 148 0
129 147 0
138 157 0
139 158 0
132 150 0
130 150 0
129 148 0
132 151 0
141 159 0
139 159 0
132 151 0
136 154 0
139 157 0
131 150 0
131 151 0
136 155 0
141 160 0
134 153 0
138 157 0
130 151 0
139 159 0
135 155 0
141 161 0
132 151 0
136 157 0
138 158 0
129 150 0
139 159 0
134 155 0
140 161 0
138 156 0
146 166 0
137 157 0
136 157 0
123 142 0
126 146 0
135 154 0
137 157 0
130 150 0
133 153 0
127 147 0
127 147 0
124 144 0
131 151 0
137 156 0
132 151 0
129 149 0
131 151 0
130 149 0
134 155 0
130 150 0
121 140 0
113 130 0
132 151 0
125 144 0
137 155 0
124 143 0
127 147 0
116 136 0
124 143 0
117 136 0
130 150 0
123 143 0
129 148 0
130 149 0
126 145 0
120 140 0
117 135 0
109 129 0
132 152 0
126 145 0
126 146 0
118 137 0
126 144 0
116 134 0
125 143 0
126 145 0
122 142 0
130 151 0
124 142 0
118 134 0
128 145 0
120 138 0
123 141 0
129 147 0
134 154 0
123 141 0
119 138 0
133 152 0
133 152 0
122 140 0
122 141 0
125 144 0
128 148 0
116 134 0
121 139 0
124 141 0
125 145 0
122 142 0
121 138 0
126 145 0
125 143 0
119 135 0
125 144 0
132 151 0
118 135 0
121 141 0
130 149 0
126 144 0
120 138 0
125 144 0
126 143 0
135 153 0
130 147 0
130 146 0
135 155 0
130 147 0
127 144 0
115 130 0
132 150 0
118 135 0
131 149 0
122 137 0
128 144 0
136 155 0
133 153 0
128 145 0
133 151 0
131 146 0
140 157 0
128 146 0
129 145 0
130 148 0
126 143 0
135 151 0
134 150 0
136 155 0
135 150 0
132 147 0
134 151 0
138 155 0
136 151 0
123 138 0
138 153 0
127 142 0
139 156 0
141 157 0
137 153 0
138 153 0
128 141 0
132 148 0
133 145 0
131 147 0
139 153 0
132 146 0
138 151 0
137 152 0
145 161 0
135 149 0
138 154 0
136 149 0
140 153 0
144 157 0
148 164 0
135 147 0
138 147 0
144 156 0
131 142 0
132 144 0
138 151 0
136 148 0
140 152 0
148 161 0
124 130 0
142 153 0
138 149 0
128 139 0
140 148 0
128 136 0
140 148 0
131 140 0
132 140 0
134 141 0
134 138 0
145 155 0
137 145 0
139 145 0
140 148 0
138 144 0
141 147 0
138 143 0
133 137 0
131 133 0
139 142 0
133 137 0
132 134 0
132 133 0
129 132 0
137 140 0
134 135 0
136 137 0
128 129 0
140 143 0
129 128 0
131 131 0
129 127 0
142 145 0
127 126 0
135 133 0
133 131 0
143 143 0
126 123 0
131 127 0
126 119 0
134 128 0
132 128 0
136 134 0
136 135 0
130 127 0
128 124 0
122 117 0
139 136 0
134 132 0
135 133 0
140 133 0
133 127 0
138 134 0
137 132 0
132 128 0
131 128 0
142 137 0
138 137 0
138 133 0
134 127 0
137 135 0
139 135 0
143 138 0
136 130 0
138 134 0
143 139 0
147 147 0
139 138 0
143 141 0
143 143 0
149 152 0
148 148 0
150 153 0
150 149 0
152 155 0
149 149 0
157 163 0
152 153 0
157 160 0
151 155 0
149 150 0
158 164 0
155 161 0
156 160 0
158 163 0
159 165 0
156 161 0
161 169 0
163 170 0
159 168 0
162 170 0
160 168 0
162 169 0
164 174 0
161 166 0
160 170 0
164 173 0
167 178 0
161 170 0
161 172 0
158 166 0
164 178 0
162 172 0
166 177 0
165 178 0
168 181 0
166 178 0
169 182 0
167 181 0
170 185 0
167 182 0
165 181 0
169 189 0
165 186 0
168 189 0
167 188 0
165 186 0
165 184 0
167 186 0
163 182 0
162 182 0
163 182 0
163 183 0
160 180 0
164 183 0
158 177 0
160 180 0
164 184 0
161 181 0
161 180 0
161 179 0
164 183 0
161 180 0
159 177 0
162 181 0
159 177 0
158 176 0
160 178 0
158 177 0
151 168 0
157 174 0
150 168 0
154 171 0
151 168 0
152 170 0
156 173 0
154 171 0
150 166 0
152 169 0
148 165 0
149 165 0
152 168 0
145 161 0
148 163 0
150 166 0
149 165 0
143 159 0
148 164 0
145 160 0
144 159 0
148 163 0
146 161 0
143 157 0
142 156 0
135 150 0
135 149 0
141 155 0
141 156 0
140 154 0
143 159 0
144 158 0
137 151 0
139 154 0
138 151 0
134 148 0
136 150 0
136 151 0
134 149 0
128 141 0
140 154 0
137 151 0
140 156 0
132 147 0
136 150 0
128 143 0
145 160 0
129 144 0
137 151 0
137 151 0
138 153 0
129 144 0
130 145 0
141 156 0
133 149 0
135 150 0
138 156 0
140 156 0
135 152 0
136 151 0
136 152 0
137 154 0
131 148 0
134 151 0
130 147 0
144 161 0
139 156 0
141 157 0
137 153 0
142 159 0
141 158 0
136 152 0
137 156 0
128 146 0
130 147 0
138 155 0
136 154 0
139 158 0
138 156 0
134 152 0
140 159 0
136 155 0
134 151 0
134 152 0
133 151 0
133 151 0
136 154 0
136 154 0
139 158 0
137 156 0
139 157 0
139 158 0
139 156 0
137 156 0
140 159 0
143 164 0
134 153 0
142 160 0
138 156 0
136 156 0
132 151 0
141 161 0
146 165 0
138 157 0
139 158 0
134 154 0
133 153 0
131 150 0
133 153 0
141 160 0
135 155 0
133 153 0
135 154 0
134 153 0
137 158 0
137 156 0
136 157 0
135 156 0
132 151 0
137 157 0
130 149 0
138 157 0
129 149 0
130 150 0
132 151 0
140 160 0
145 163 0
138 158 0
129 148 0
120 140 0
133 154 0
131 151 0
134 153 0
140 160 0
137 158 0
131 151 0
136 156 0
123 142 0
134 154 0
129 149 0
128 149 0
130 149 0
127 146 0
137 157 0
128 147 0
128 149 0
122 141 0
124 143 0
126 145 0
128 148 0
138 157 0
135 156 0
130 149 0
129 147 0
124 143 0
126 147 0
117 137 0
134 154 0
126 145 0
124 143 0
123 143 0
131 152 0
129 148 0
122 140 0
122 143 0
121 140 0
121 139 0
121 140 0
122 140 0
130 150 0
123 142 0
125 143 0
122 142 0
111 130 0
134 153 0
132 151 0
116 135 0
120 139 0
119 138 0
120 137 0
116 135 0
132 151 0
117 136 0
128 146 0
135 152 0
118 136 0
139 157 0
125 143 0
123 141 0
126 144 0
129 147 0
133 149 0
117 136 0
134 154 0
135 151 0
129 145 0
133 152 0
118 135 0
124 143 0
129 147 0
133 150 0
130 149 0
130 147 0
131 149 0
128 145 0
131 148 0
134 151 0
129 149 0
139 157 0
135 154 0
115 132 0
135 150 0
138 157 0
131 147 0
129 146 0
137 154 0
131 148 0
141 156 0
133 151 0
135 149 0
132 149 0
144 160 0
129 144 0
136 153 0
131 146 0
140 156 0
129 145 0
133 151 0
133 149 0
133 149 0
135 147 0
145 159 0
135 149 0
141 156 0
140 156 0
138 154 0
133 147 0
143 159 0
133 148 0
139 155 0
140 152 0
136 151 0
134 147 0
137 152 0
141 156 0
124 138 0
131 147 0
145 158 0
139 153 0
150 164 0
144 156 0
138 153 0
134 145 0
136 148 0
136 150 0
140 152 0
141 152 0
138 152 0
134 144 0
138 147 0
137 150 0
142 154 0
129 139 0
132 143 0
136 145 0
132 141 0
135 144 0
128 135 0
144 156 0
128 137 0
141 147 0
134 141 0
134 142 0
138 147 0
144 152 0
134 140 0
141 148 0
135 140 0
132 138 0
139 144 0
135 143 0
138 140 0
135 137 0
140 143 0
143 144 0
141 145 0
141 145 0
139 143 0
139 140 0
144 144 0
139 138 0
144 144 0
124 123 0
131 129 0
139 139 0
137 136 0
134 137 0
136 136 0
132 132 0
145 146 0
137 137 0
135 136 0
139 137 0
143 140 0
135 132 0
135 133 0
136 133 0
133 129 0
134 130 0
138 136 0
143 144 0
129 122 0
139 136 0
139 136 0
136 132 0
134 131 0
145 146 0
140 134 0
140 136 0
137 132 0
143 140 0
139 135 0
146 145 0
139 136 0
135 132 0
145 145 0
143 140 0
143 143 0
144 144 0
149 150 0
145 142 0
140 138 0
152 153 0
150 149 0
150 153 0
150 154 0
151 153 0
150 150 0
153 157 0
153 155 0
156 159 0
154 152 0
155 158 0
152 156 0
163 169 0
158 163 0
161 168 0
158 163 0
156 162 0
161 166 0
159 164 0
157 163 0
159 166 0
158 165 0
161 169 0
162 171 0
163 172 0
166 175 0
166 177 0
162 171 0
165 178 0
166 177 0
166 178 0
164 176 0
162 173 0
165 175 0
164 177 0
166 177 0
164 176 0
167 181 0
163 174 0
166 177 0
163 175 0
166 187 0
166 187 0
167 187 0
161 181 0
165 185 0
164 185 0
166 186 0
165 185 0
166 186 0
167 187 0
160 180 0
161 182 0
163 183 0
164 183 0
165 184 0
163 181 0
158 177 0
164 183 0
159 177 0
160 178 0
157 174 0
160 179 0
157 175 0
158 176 0
157 176 0
155 171 0
154 172 0
161 180 0
155 171 0
154 171 0
154 172 0
154 171 0
156 173 0
152 169 0
149 165 0
152 169 0
145 160 0
152 168 0
148 164 0
146 161 0
145 161 0
143 158 0
148 163 0
147 163 0
151 168 0
144 159 0
146 162 0
141 156 0
145 161 0
145 160 0
142 156 0
147 162 0
138 152 0
140 154 0
142 156 0
140 155 0
139 153 0
143 157 0
137 151 0
142 157 0
139 154 0
140 156 0
135 149 0
131 144 0
139 154 0
139 154 0
142 156 0
140 155 0
136 152 0
146 161 0
132 147 0
151 167 0
135 151 0
134 149 0
135 149 0
132 147 0
133 148 0
137 152 0
139 155 0
141 156 0
137 153 0
144 160 0
139 155 0
142 159 0
141 156 0
137 153 0
144 160 0
136 153 0
135 151 0
145 163 0
144 160 0
140 157 0
142 160 0
142 160 0
140 157 0
141 158 0
141 157 0
133 150 0
146 164 0
140 157 0
134 151 0
139 157 0
139 160 0
146 165 0
134 152 0
140 156 0
143 161 0
138 156 0
134 152 0
130 148 0
143 162 0
137 155 0
134 153 0
141 160 0
143 162 0
137 155 0
138 157 0
143 161 0
136 155 0
142 160 0
144 163 0
136 155 0
140 159 0
141 161 0
135 154 0
149 169 0
137 156 0
137 156 0
135 155 0
139 159 0
142 163 0
132 152 0
145 165 0
148 167 0
137 158 0
141 160 0
143 162 0
139 159 0
129 150 0
129 148 0
139 160 0
142 163 0
142 162 0
130 149 0
134 153 0
135 155 0
136 157 0
139 159 0
142 162 0
132 150 0
139 161 0
140 159 0
138 160 0
130 150 0
142 164 0
133 154 0
140 161 0
125 147 0
140 160 0
140 160 0
132 151 0
132 152 0
131 151 0
131 151 0
136 157 0
132 152 0
126 147 0
132 151 0
136 155 0
132 152 0
135 154 0
136 157 0
136 155 0
136 157 0
122 142 0
139 159 0
121 142 0
122 142 0
138 158 0
122 141 0
119 139 0
138 158 0
131 151 0
120 139 0
128 148 0
126 145 0
128 148 0
126 146 0
131 150 0
129 147 0
122 141 0
124 143 0
124 143 0
133 153 0
118 138 0
124 142 0
129 146 0
128 147 0
125 144 0
123 141 0
123 142 0
130 149 0
124 142 0
134 153 0
118 137 0
130 149 0
127 145 0
136 155 0
130 148 0
125 144 0
131 148 0
123 143 0
137 158 0
126 145 0
122 139 0
124 143 0
126 144 0
127 145 0
133 152 0
130 149 0
124 143 0
124 144 0
129 146 0
129 146 0
130 147 0
128 147 0
122 140 0
137 156 0
126 143 0
135 155 0
120 137 0
128 146 0
140 159 0
133 152 0
129 147 0
131 150 0
131 149 0
132 150 0
141 160 0
119 137 0
129 147 0
133 151 0
140 157 0
129 147 0
134 150 0
128 145 0
137 154 0
131 146 0
132 149 0
133 148 0
133 149 0
124 139 0
134 151 0
131 148 0
136 153 0
139 155 0
137 152 0
126 142 0
136 155 0
139 155 0
141 154 0
130 143 0
137 153 0
128 144 0
138 154 0
139 156 0
130 144 0
134 148 0
130 144 0
141 158 0
142 156 0
138 152 0
133 148 0
139 153 0
139 149 0
139 151 0
142 156 0
137 151 0
143 155 0
137 149 0
141 153 0
141 154 0
138 149 0
135 147 0
141 152 0
137 147 0
139 149 0
139 150 0
137 149 0
144 154 0
137 149 0
135 147 0
139 147 0
140 150 0
135 147 0
143 151 0
141 148 0
136 143 0
144 153 0
145 156 0
137 145 0
132 138 0
137 147 0
133 142 0
140 146 0
144 153 0
141 147 0
139 142 0
146 155 0
134 140 0
136 142 0
138 141 0
145 149 0
137 140 0
138 139 0
142 148 0
141 145 0
138 143 0
142 145 0
139 139 0
139 136 0
136 135 0
136 137 0
139 141 0
140 142 0
130 131 0
141 140 0
141 144 0
133 133 0
135 131 0
135 134 0
136 135 0
136 136 0
129 126 0
137 137 0
141 140 0
136 133 0
130 125 0
132 126 0
141 141 0
136 135 0
135 132 0
138 136 0
137 133 0
139 134 0
141 140 0
137 136 0
141 136 0
140 138 0
141 141 0
141 139 0
134 131 0
144 142 0
150 151 0
148 147 0
140 138 0
145 143 0
142 141 0
142 143 0
150 150 0
147 150 0
149 150 0
150 149 0
152 154 0
153 156 0
153 156 0
152 152 0
147 147 0
156 160 0
147 147 0
153 155 0
156 160 0
150 152 0
155 161 0
159 167 0
154 157 0
159 164 0
156 161 0
156 161 0
160 167 0
159 166 0
160 167 0
158 167 0
156 160 0
161 171 0
161 171 0
162 172 0
161 170 0
165 176 0
165 173 0
160 169 0
160 168 0
163 174 0
162 173 0
164 176 0
166 180 0
168 180 0
165 176 0
166 179 0
161 170 0
166 186 0
163 183 0
162 183 0
166 185 0
162 182 0
162 182 0
166 186 0
163 182 0
165 185 0
161 180 0
166 185 0
162 181 0
160 180 0
160 179 0
160 178 0
161 180 0
154 172 0
161 179 0
163 182 0
159 178 0
160 178 0
158 176 0
158 177 0
154 171 0
157 174 0
158 175 0
156 172 0
154 172 0
157 175 0
155 173 0
155 172 0
154 170 0
148 165 0
153 169 0
148 164 0
155 172 0
154 170 0
154 170 0
144 160 0
151 167 0
151 168 0
144 160 0
153 170 0
142 158 0
144 158 0
143 158 0
148 164 0
147 163 0
142 157 0
149 166 0
148 163 0
148 163 0
145 160 0
135 149 0
143 158 0
141 156 0
142 157 0
137 151 0
144 159 0
139 153 0
138 152 0
141 155 0
135 149 0
150 166 0
139 154 0
136 151 0
143 160 0
134 149 0
137 152 0
140 156 0
142 157 0
141 157 0
136 151 0
133 148 0
142 158 0
137 153 0
135 151 0
145 160 0
140 156 0
137 153 0
141 157 0
141 158 0
142 159 0
133 148 0
138 154 0
138 155 0
130 148 0
141 158 0
134 151 0
144 160 0
142 160 0
142 159 0
135 153 0
137 154 0
140 159 0
128 145 0
148 166 0
141 158 0
142 160 0
142 159 0
136 153 0
139 157 0
141 160 0
145 164 0
134 153 0
142 160 0
143 161 0
129 148 0
137 156 0
140 158 0
140 158 0
140 159 0
138 157 0
140 158 0
145 164 0
142 161 0
133 152 0
144 164 0
138 157 0
149 169 0
135 154 0
140 160 0
140 160 0
139 160 0
149 169 0
131 150 0
139 160 0
143 163 0
144 164 0
141 161 0
140 160 0
139 158 0
142 162 0
138 158 0
141 162 0
135 154 0
129 149 0
140 159 0
128 147 0
142 162 0
133 154 0
142 163 0
128 147 0
143 164 0
136 156 0
132 151 0
130 148 0
138 157 0
137 158 0
135 156 0
139 158 0
141 160 0
132 152 0
138 159 0
143 163 0
140 160 0
136 156 0
143 163 0
138 158 0
129 148 0
131 152 0
134 153 0
131 153 0
133 154 0
124 143 0
131 150 0
131 150 0
138 158 0
129 149 0
130 151 0
135 155 0
138 158 0
132 153 0
125 143 0
137 156 0
129 148 0
131 150 0
132 151 0
133 152 0
122 141 0
134 154 0
132 151 0
122 139 0
118 137 0
126 146 0
132 152 0
125 143 0
135 155 0
124 143 0
133 154 0
123 141 0
127 145 0
142 161 0
121 140 0
134 155 0
133 153 0
130 150 0
133 153 0
137 158 0
128 148 0
126 144 0
117 136 0
129 149 0
130 148 0
131 149 0
138 156 0
121 140 0
134 153 0
131 152 0
128 147 0
129 148 0
123 141 0
127 145 0
126 144 0
126 145 0
133 152 0
140 158 0
127 147 0
129 149 0
130 148 0
134 154 0
134 150 0
139 156 0
134 152 0
141 160 0
128 146 0
132 152 0
130 148 0
125 143 0
127 146 0
140 159 0
130 147 0
124 142 0
143 163 0
134 152 0
133 152 0
123 139 0
131 149 0
125 141 0
142 159 0
132 149 0
141 158 0
130 148 0
143 160 0
133 151 0
137 155 0
144 160 0
134 150 0
131 149 0
137 153 0
136 153 0
131 148 0
141 157 0
135 150 0
145 160 0
135 151 0
131 146 0
131 146 0
134 149 0
145 162 0
144 160 0
132 148 0
145 161 0
132 149 0
128 141 0
139 156 0
137 154 0
138 153 0
136 150 0
135 151 0
143 159 0
129 142 0
136 151 0
138 154 0
136 150 0
143 156 0
140 154 0
145 160 0
138 151 0
137 148 0
144 158 0
137 152 0
134 145 0
138 150 0
141 156 0
138 148 0
142 154 0
138 150 0
146 156 0
141 154 0
136 150 0
137 148 0
131 141 0
142 151 0
143 154 0
135 144 0
139 151 0
146 157 0
139 148 0
141 148 0
143 154 0
143 152 0
143 152 0
130 137 0
136 145 0
135 141 0
132 137 0
142 150 0
136 141 0
141 150 0
127 128 0
148 155 0
135 140 0
140 145 0
145 148 0
133 138 0
142 149 0
141 145 0
136 140 0
130 134 0
140 145 0
136 140 0
137 137 0
133 132 0
137 137 0
146 147 0
138 138 0
144 147 0
141 143 0
140 140 0
136 136 0
139 139 0
142 142 0
135 134 0
142 140 0
138 138 0
136 132 0
135 130 0
135 135 0
140 140 0
138 135 0
134 134 0
141 139 0
145 145 0
138 135 0
145 145 0
143 142 0
137 136 0
148 145 0
148 148 0
144 143 0
151 152 0
141 140 0
139 139 0
153 156 0
143 141 0
138 135 0
149 149 0
147 148 0
150 149 0
151 153 0
148 147 0
146 144 0
145 145 0
154 157 0
151 153 0
147 149 0
152 156 0
150 152 0
154 157 0
148 150 0
155 159 0
155 158 0
155 158 0
153 155 0
156 161 0
158 162 0
152 158 0
159 165 0
158 164 0
160 167 0
160 167 0
159 165 0
161 167 0
160 169 0
162 170 0
160 166 0
166 176 0
162 174 0
160 171 0
165 178 0
165 178 0
161 170 0
161 170 0
166 177 0
161 171 0
167 178 0
164 176 0
164 177 0
165 177 0
165 185 0
163 184 0
164 184 0
161 181 0
166 186 0
161 181 0
164 184 0
165 185 0
159 179 0
163 183 0
161 180 0
160 179 0
159 179 0
159 177 0
159 178 0
159 177 0
160 178 0
156 174 0
157 174 0
160 179 0
166 184 0
158 176 0
154 171 0
160 178 0
157 175 0
156 173 0
152 168 0
155 174 0
159 177 0
155 172 0
149 166 0
154 170 0
154 170 0
154 171 0
147 163 0
147 163 0
144 159 0
155 172 0
146 162 0
143 159 0
140 155 0
147 163 0
150 166 0
151 167 0
150 166 0
147 164 0
148 164 0
146 162 0
140 155 0
137 151 0
148 163 0
142 157 0
145 159 0
142 157 0
141 155 0
146 162 0
142 158 0
141 157 0
144 160 0
137 152 0
138 154 0
134 148 0
142 157 0
141 157 0
138 153 0
143 159 0
144 159 0
141 158 0
145 161 0
137 152 0
147 163 0
139 156 0
146 162 0
135 151 0
141 157 0
131 146 0
139 155 0
133 149 0
148 164 0
146 163 0
145 162 0
134 150 0
139 156 0
136 154 0
144 162 0
137 154 0
140 157 0
146 163 0
134 152 0
137 154 0
136 153 0
130 147 0
135 152 0
142 161 0
140 157 0
143 160 0
139 156 0
136 153 0
132 150 0
137 154 0
143 161 0
134 151 0
140 159 0
131 148 0
134 151 0
137 154 0
139 158 0
140 159 0
139 158 0
141 159 0
144 163 0
145 163 0
135 153 0
150 169 0
141 159 0
142 161 0
140 159 0
143 163 0
138 158 0
142 161 0
136 157 0
147 168 0
136 154 0
145 165 0
133 151 0
142 161 0
141 160 0
144 164 0
143 162 0
137 157 0
145 165 0
139 159 0
143 163 0
146 167 0
142 162 0
139 159 0
130 151 0
145 166 0
137 156 0
133 153 0
144 165 0
134 153 0
141 160 0
138 159 0
147 168 0
137 157 0
131 151 0
135 155 0
142 162 0
137 157 0
127 147 0
138 158 0
134 154 0
140 158 0
135 155 0
136 157 0
138 158 0
143 164 0
139 160 0
123 143 0
143 162 0
137 156 0
133 154 0
137 157 0
129 149 0
138 157 0
132 152 0
136 156 0
126 146 0
136 157 0
143 164 0
130 149 0
130 149 0
136 156 0
128 149 0
129 149 0
124 145 0
132 152 0
133 153 0
136 156 0
133 151 0
132 152 0
136 155 0
124 143 0
138 157 0
133 154 0
131 151 0
133 152 0
131 151 0
128 148 0
127 145 0
130 150 0
123 142 0
132 151 0
135 156 0
124 143 0
127 146 0
128 147 0
136 156 0
129 148 0
135 154 0
132 151 0
134 152 0
127 147 0
133 153 0
129 149 0
136 155 0
128 148 0
129 149 0
140 160 0
122 140 0
133 154 0
129 149 0
129 147 0
127 146 0
129 148 0
131 151 0
139 156 0
121 138 0
128 147 0
131 149 0
123 140 0
137 155 0
125 143 0
130 147 0
129 148 0
125 144 0
132 152 0
133 153 0
135 153 0
138 156 0
133 153 0
131 148 0
136 155 0
130 146 0
136 154 0
144 163 0
127 144 0
133 151 0
116 134 0
134 151 0
138 156 0
135 154 0
137 154 0
140 157 0
133 151 0
127 143 0
138 156 0
131 148 0
142 158 0
138 155 0
128 147 0
130 147 0
138 157 0
146 164 0
141 158 0
136 150 0
146 162 0
137 153 0
133 150 0
133 151 0
133 148 0
139 153 0
141 157 0
147 162 0
143 159 0
141 157 0
136 149 0
145 162 0
146 160 0
141 155 0
140 155 0
143 161 0
138 152 0
142 160 0
141 153 0
144 158 0
138 152 0
141 156 0
138 151 0
152 166 0
138 152 0
144 157 0
151 165 0
145 156 0
140 153 0
145 158 0
143 157 0
145 155 0
134 144 0
146 158 0
146 161 0
147 159 0
145 158 0
140 153 0
141 151 0
140 151 0
138 146 0
136 147 0
144 154 0
139 148 0
150 162 0
138 147 0
135 141 0
139 149 0
143 152 0
141 149 0
144 154 0
133 141 0
135 140 0
139 145 0
141 148 0
139 145 0
144 152 0
139 144 0
135 140 0
139 146 0
138 142 0
144 150 0
139 140 0
145 148 0
141 146 0
137 142 0
150 155 0
139 139 0
146 149 0
143 147 0
138 141 0
138 140 0
144 146 0
139 139 0
146 146 0
139 138 0
142 142 0
135 133 0
141 140 0
140 138 0
146 147 0
144 148 0
137 137 0
136 135 0
138 136 0
143 143 0
142 144 0
143 142 0
143 141 0
142 142 0
149 154 0
152 150 0
145 144 0
142 140 0
143 138 0
144 145 0
145 144 0
147 145 0
149 149 0
147 148 0
147 147 0
145 147 0
149 150 0
152 153 0
150 151 0
151 154 0
148 146 0
145 146 0
144 144 0
153 154 0
152 153 0
154 159 0
153 155 0
156 161 0
157 160 0
155 161 0
153 158 0
152 157 0
156 160 0
150 152 0
158 164 0
155 160 0
160 165 0
157 163 0
158 162 0
158 163 0
163 171 0
159 165 0
158 165 0
163 173 0
159 166 0
166 177 0
166 176 0
160 169 0
164 174 0
163 171 0
164 177 0
164 177 0
163 173 0
164 176 0
161 172 0
166 177 0
164 177 0
160 179 0
160 180 0
166 186 0
165 185 0
161 180 0
164 183 0
162 181 0
162 181 0
160 179 0
161 180 0
159 177 0
163 182 0
157 175 0
162 180 0
158 176 0
162 180 0
162 181 0
156 174 0
161 180 0
156 174 0
155 173 0
155 173 0
154 172 0
153 170 0
155 172 0
152 168 0
156 173 0
157 174 0
156 173 0
152 170 0
151 168 0
151 168 0
151 166 0
153 170 0
147 163 0
155 172 0
147 164 0
150 166 0
148 163 0
155 171 0
147 162 0
150 167 0
148 164 0
141 157 0
142 158 0
146 161 0
139 155 0
146 161 0
143 158 0
148 164 0
145 162 0
139 155 0
149 165 0
148 164 0
146 162 0
151 168 0
145 161 0
143 158 0
143 159 0
144 159 0
147 162 0
144 160 0
138 153 0
139 154 0
146 163 0
139 155 0
147 163 0
142 158 0
148 165 0
138 154 0
146 163 0
138 154 0
142 158 0
143 160 0
137 154 0
142 158 0
141 157 0
141 158 0
147 164 0
136 151 0
139 157 0
141 158 0
133 150 0
133 150 0
139 156 0
141 158 0
148 167 0
144 161 0
138 156 0
143 161 0
140 157 0
139 157 0
142 160 0
143 159 0
136 153 0
145 163 0
140 158 0
137 155 0
137 155 0
140 158 0
136 154 0
140 159 0
147 165 0
143 161 0
140 160 0
147 166 0
147 167 0
140 160 0
140 159 0
142 161 0
147 167 0
140 158 0
142 162 0
136 156 0
146 166 0
143 163 0
134 154 0
137 157 0
146 166 0
139 158 0
146 165 0
146 165 0
139 158 0
129 148 0
142 161 0
142 162 0
136 156 0
147 167 0
141 162 0
151 173 0
130 150 0
147 168 0
145 165 0
146 166 0
147 167 0
141 161 0
139 158 0
135 154 0
144 165 0
148 169 0
140 161 0
140 160 0
140 161 0
139 160 0
138 160 0
143 163 0
141 161 0
142 161 0
143 164 0
137 158 0
138 158 0
136 154 0
142 162 0
131 151 0
142 162 0
134 154 0
132 153 0
130 149 0
133 154 0
135 156 0
126 145 0
138 159 0
138 157 0
132 152 0
136 157 0
140 161 0
138 158 0
142 163 0
144 164 0
142 163 0
137 157 0
126 146 0
131 150 0
130 150 0
126 145 0
133 152 0
132 152 0
132 152 0
130 150 0
137 157 0
131 149 0
130 148 0
139 159 0
132 151 0
131 150 0
135 154 0
130 149 0
141 161 0
130 150 0
130 149 0
126 147 0
135 155 0
134 153 0
127 146 0
121 138 0
125 146 0
135 155 0
138 158 0
134 154 0
133 151 0
130 150 0
128 147 0
118 137 0
132 151 0
123 142 0
133 152 0
134 154 0
127 147 0
134 151 0
122 140 0
135 152 0
139 157 0
125 146 0
137 156 0
136 156 0
135 154 0
141 160 0
141 160 0
130 147 0
123 142 0
150 170 0
139 158 0
127 146 0
128 147 0
123 141 0
142 161 0
134 152 0
128 147 0
129 147 0
133 150 0
137 154 0
132 152 0
133 150 0
126 144 0
136 156 0
138 157 0
137 156 0
129 146 0
132 150 0
133 151 0
137 156 0
138 156 0
135 153 0
143 163 0
137 156 0
132 150 0
138 156 0
139 157 0
140 156 0
139 157 0
143 162 0
133 149 0
136 151 0
137 154 0
139 157 0
137 154 0
139 156 0
142 158 0
136 153 0
133 149 0
143 159 0
142 158 0
144 161 0
142 155 0
137 151 0
138 153 0
143 159 0
144 162 0
132 145 0
137 154 0
140 154 0
136 151 0
139 155 0
133 148 0
134 150 0
141 157 0
129 142 0
141 155 0
139 153 0
139 152 0
140 155 0
144 158 0
137 151 0
143 157 0
141 153 0
147 162 0
143 155 0
141 153 0
128 141 0
137 148 0
137 149 0
143 151 0
136 146 0
147 159 0
142 154 0
149 161 0
139 149 0
137 144 0
137 145 0
142 152 0
140 148 0
145 154 0
154 164 0
147 154 0
141 150 0
144 154 0
141 150 0
146 154 0
138 148 0
140 149 0
143 153 0
146 154 0
142 149 0
140 147 0
141 147 0
136 144 0
135 141 0
146 153 0
136 140 0
147 152 0
142 144 0
147 152 0
137 140 0
140 144 0
139 143 0
139 141 0
141 143 0
139 141 0
141 145 0
147 151 0
141 140 0
138 141 0
143 146 0
144 149 0
142 143 0
138 140 0
137 138 0
145 144 0
140 142 0
139 136 0
143 143 0
148 150 0
143 143 0
147 149 0
144 142 0
139 137 0
137 134 0
148 151 0
144 141 0
150 151 0
143 144 0
148 150 0
142 141 0
148 148 0
145 145 0
152 156 0
146 145 0
145 146 0
150 153 0
148 150 0
148 148 0
156 158 0
149 149 0
151 153 0
153 158 0
148 149 0
153 158 0
150 153 0
154 157 0
147 149 0
161 166 0
153 155 0
151 155 0
155 161 0
148 148 0
157 161 0
156 161 0
159 164 0
159 167 0
158 164 0
159 165 0
160 168 0
158 161 0
155 160 0
159 165 0
164 175 0
162 170 0
158 164 0
156 163 0
161 169 0
160 167 0
162 173 0
160 168 0
167 179 0
161 167 0
162 170 0
164 174 0
165 175 0
168 179 0
162 169 0
163 182 0
166 186 0
158 178 0
166 186 0
160 179 0
161 181 0
165 184 0
159 178 0
155 173 0
162 182 0
161 180 0
157 175 0
160 179 0
158 177 0
162 181 0
162 181 0
154 172 0
157 175 0
160 179 0
157 174 0
155 172 0
157 175 0
156 173 0
158 176 0
157 174 0
158 175 0
151 168 0
151 169 0
153 170 0
153 170 0
145 162 0
158 176 0
147 164 0
155 172 0
151 167 0
141 156 0
149 166 0
151 168 0
150 166 0
151 167 0
151 168 0
154 171 0
151 167 0
144 160 0
144 160 0
148 165 0
142 157 0
151 167 0
142 157 0
144 159 0
140 156 0
147 163 0
143 159 0
145 161 0
144 160 0
150 167 0
145 161 0
138 153 0
138 154 0
144 159 0
137 152 0
145 161 0
144 160 0
142 158 0
144 159 0
139 155 0
140 156 0
146 163 0
142 158 0
150 166 0
137 153 0
143 159 0
142 157 0
139 156 0
140 157 0
141 158 0
145 164 0
143 160 0
152 171 0
140 157 0
147 164 0
141 158 0
138 154 0
139 156 0
151 168 0
143 160 0
142 161 0
142 159 0
140 158 0
141 159 0
140 157 0
139 157 0
146 165 0
147 165 0
136 155 0
142 161 0
141 159 0
141 160 0
148 167 0
144 163 0
137 157 0
147 166 0
149 167 0
140 159 0
139 158 0
150 170 0
140 159 0
140 159 0
145 165 0
143 162 0
142 161 0
138 158 0
144 163 0
141 160 0
145 166 0
142 161 0
142 162 0
140 160 0
141 159 0
137 157 0
138 159 0
146 165 0
143 163 0
141 160 0
141 161 0
134 155 0
143 163 0
139 159 0
140 160 0
136 157 0
138 157 0
149 168 0
144 165 0
136 156 0
136 155 0
137 157 0
143 163 0
140 161 0
130 150 0
148 169 0
137 157 0
142 161 0
139 159 0
147 168 0
139 161 0
142 163 0
144 165 0
135 154 0
144 164 0
142 161 0
138 158 0
139 159 0
145 166 0
137 157 0
138 158 0
135 156 0
135 156 0
133 153 0
145 166 0
135 156 0
141 161 0
129 148 0
139 159 0
118 137 0
127 147 0
126 145 0
131 151 0
138 159 0
136 155 0
136 157 0
137 158 0
141 161 0
135 155 0
139 160 0
131 151 0
129 149 0
140 161 0
139 158 0
125 144 0
136 158 0
140 159 0
140 160 0
127 147 0
135 155 0
127 147 0
134 153 0
141 161 0
136 156 0
126 146 0
145 164 0
141 162 0
121 142 0
136 155 0
123 142 0
126 146 0
137 156 0
135 154 0
133 153 0
125 145 0
137 156 0
133 153 0
136 157 0
132 152 0
128 148 0
133 152 0
137 157 0
128 148 0
130 149 0
131 151 0
135 153 0
126 145 0
140 159 0
131 150 0
130 146 0
132 152 0
135 153 0
132 152 0
141 160 0
137 156 0
140 159 0
138 157 0
130 149 0
141 159 0
132 147 0
124 143 0
135 153 0
135 154 0
135 152 0
135 155 0
130 149 0
135 154 0
130 148 0
128 147 0
139 158 0
133 150 0
136 154 0
133 151 0
140 159 0
138 155 0
142 162 0
142 159 0
146 164 0
128 146 0
136 153 0
142 160 0
136 153 0
143 160 0
134 151 0
137 155 0
140 154 0
144 161 0
139 157 0
136 153 0
137 154 0
145 163 0
141 159 0
137 154 0
136 154 0
135 152 0
134 150 0
136 150 0
144 160 0
146 163 0
131 146 0
135 150 0
144 160 0
145 162 0
146 162 0
124 139 0
143 157 0
142 158 0
137 152 0
136 152 0
139 155 0
142 156 0
147 163 0
134 149 0
140 156 0
140 156 0
137 150 0
132 145 0
145 160 0
143 156 0
141 154 0
145 160 0
144 157 0
132 145 0
141 156 0
141 153 0
144 157 0
141 152 0
141 154 0
145 157 0
142 156 0
141 151 0
149 161 0
148 160 0
142 153 0
147 159 0
145 155 0
141 152 0
143 155 0
140 150 0
139 148 0
142 153 0
149 159 0
147 159 0
141 154 0
147 155 0
138 147 0
137 146 0
142 147 0
141 150 0
146 152 0
136 141 0
138 147 0
142 150 0
146 152 0
136 142 0
144 149 0
144 148 0
145 154 0
144 149 0
143 147 0
140 145 0
149 155 0
140 142 0
136 138 0
147 154 0
135 140 0
148 156 0
148 149 0
139 142 0
146 149 0
135 132 0
137 137 0
143 145 0
150 154 0
139 140 0
145 147 0
141 142 0
140 142 0
141 138 0
144 148 0
136 135 0
142 142 0
143 143 0
151 149 0
140 140 0
146 145 0
143 143 0
147 147 0
141 139 0
151 155 0
153 156 0
144 143 0
147 147 0
149 149 0
144 147 0
148 150 0
149 150 0
148 147 0
157 163 0
149 152 0
150 152 0
155 158 0
151 153 0
154 157 0
149 151 0
148 150 0
151 153 0
153 156 0
154 157 0
154 157 0
156 160 0
159 164 0
154 160 0
163 172 0
157 164 0
157 164 0
156 160 0
163 169 0
158 164 0
156 159 0
154 161 0
158 163 0
159 166 0
155 162 0
163 171 0
154 159 0
164 174 0
159 165 0
159 167 0
163 172 0
161 168 0
160 170 0
163 175 0
163 174 0
163 173 0
164 175 0
165 184 0
162 182 0
162 182 0
161 179 0
163 182 0
162 181 0
157 177 0
164 182 0
160 178 0
159 178 0
162 180 0
161 179 0
165 183 0
161 179 0
162 181 0
157 175 0
161 180 0
157 175 0
156 174 0
158 176 0
160 179 0
156 174 0
154 171 0
160 178 0
153 170 0
158 175 0
152 170 0
153 170 0
150 166 0
153 170 0
157 174 0
156 173 0
152 169 0
143 159 0
151 167 0
148 163 0
147 163 0
147 164 0
150 168 0
152 169 0
148 165 0
150 166 0
148 163 0
153 170 0
145 160 0
141 157 0
150 166 0
149 166 0
144 160 0
147 163 0
149 164 0
142 158 0
151 167 0
147 163 0
145 161 0
145 161 0
145 161 0
149 166 0
154 171 0
136 152 0
148 163 0
139 155 0
148 165 0
143 160 0
147 164 0
151 167 0
147 163 0
141 158 0
145 163 0
149 166 0
142 159 0
148 164 0
147 164 0
141 157 0
139 156 0
143 159 0
149 167 0
135 151 0
147 166 0
144 161 0
140 158 0
137 155 0
145 161 0
139 157 0
152 168 0
142 160 0
146 165 0
144 161 0
151 169 0
141 159 0
141 159 0
140 158 0
138 155 0
144 162 0
141 159 0
140 158 0
148 166 0
145 164 0
140 160 0
139 156 0
147 167 0
142 160 0
141 160 0
147 167 0
149 168 0
143 162 0
143 163 0
144 163 0
140 159 0
142 161 0
147 168 0
144 164 0
142 163 0
142 161 0
140 159 0
138 158 0
144 164 0
144 165 0
143 163 0
144 164 0
147 167 0
139 159 0
147 168 0
145 164 0
144 164 0
148 168 0
141 160 0
136 155 0
144 164 0
140 161 0
141 161 0
140 159 0
141 162 0
145 165 0
142 163 0
153 174 0
148 168 0
139 160 0
140 160 0
138 158 0
133 153 0
138 159 0
138 158 0
134 154 0
143 163 0
143 164 0
147 169 0
140 160 0
146 167 0
144 164 0
140 161 0
140 161 0
136 157 0
137 158 0
140 161 0
135 154 0
142 162 0
136 156 0
141 162 0
128 148 0
140 160 0
137 158 0
133 153 0
137 157 0
137 157 0
143 163 0
138 159 0
136 156 0
141 161 0
134 155 0
133 153 0
129 150 0
141 162 0
128 148 0
129 149 0
132 151 0
140 160 0
129 150 0
140 160 0
125 144 0
136 155 0
129 148 0
139 159 0
137 157 0
132 151 0
128 147 0
138 158 0
127 148 0
143 163 0
136 157 0
129 151 0
136 157 0
131 151 0
129 149 0
128 147 0
135 155 0
134 154 0
136 155 0
136 156 0
141 163 0
136 155 0
144 164 0
126 145 0
134 153 0
137 155 0
134 152 0
131 151 0
135 155 0
132 153 0
133 153 0
122 142 0
140 159 0
137 156 0
133 152 0
133 152 0
137 155 0
137 156 0
127 146 0
133 151 0
128 145 0
131 150 0
134 154 0
133 154 0
132 152 0
132 151 0
131 151 0
144 163 0
125 145 0
127 145 0
134 154 0
135 155 0
139 158 0
141 158 0
125 141 0
131 150 0
129 146 0
136 154 0
141 160 0
127 143 0
135 153 0
127 144 0
141 160 0
140 160 0
145 164 0
142 161 0
140 158 0
137 154 0
141 157 0
135 153 0
124 140 0
134 152 0
137 155 0
135 153 0
138 154 0
140 156 0
139 155 0
138 154 0
140 158 0
144 160 0
139 158 0
135 151 0
145 161 0
141 158 0
141 157 0
134 152 0
140 155 0
137 154 0
138 153 0
146 165 0
135 151 0
136 154 0
139 154 0
136 153 0
147 164 0
146 159 0
148 163 0
139 154 0
149 163 0
147 162 0
150 165 0
129 142 0
142 156 0
147 163 0
144 159 0
140 151 0
136 150 0
145 159 0
142 154 0
143 155 0
137 150 0
145 159 0
142 155 0
136 149 0
143 159 0
137 150 0
138 153 0
146 160 0
141 154 0
134 145 0
147 157 0
137 149 0
141 153 0
135 145 0
142 154 0
142 151 0
143 155 0
143 153 0
141 150 0
145 154 0
148 160 0
145 156 0
144 155 0
143 153 0
141 146 0
143 150 0
142 149 0
143 151 0
145 151 0
142 149 0
144 150 0
143 151 0
143 148 0
140 146 0
146 153 0
147 154 0
142 143 0
143 145 0
151 155 0
143 148 0
141 144 0
148 155 0
146 148 0
143 147 0
147 152 0
151 156 0
149 154 0
138 141 0
146 149 0
146 150 0
142 142 0
147 148 0
145 145 0
143 147 0
142 142 0
147 148 0
148 155 0
147 150 0
146 147 0
144 145 0
144 144 0
145 147 0
146 146 0
144 146 0
149 152 0
148 149 0
154 158 0
149 151 0
153 156 0
153 158 0
144 143 0
145 146 0
151 155 0
151 155 0
149 152 0
149 149 0
152 155 0
149 151 0
148 149 0
150 155 0
152 157 0
159 167 0
156 160 0
152 156 0
161 168 0
155 160 0
157 165 0
157 161 0
158 162 0
157 161 0
161 165 0
152 158 0
152 156 0
156 162 0
159 167 0
156 161 0
158 167 0
157 161 0
159 169 0
158 164 0
160 167 0
156 161 0
158 165 0
159 168 0
165 173 0
167 179 0
167 177 0
162 173 0
162 173 0
166 178 0
164 175 0
160 179 0
168 187 0
162 180 0
164 183 0
162 181 0
159 177 0
159 178 0
163 180 0
158 176 0
156 174 0
160 179 0
153 171 0
166 185 0
163 182 0
160 178 0
155 172 0
155 173 0
159 176 0
158 177 0
159 177 0
155 173 0
153 171 0
150 167 0
156 173 0
156 173 0
154 171 0
155 172 0
154 172 0
153 171 0
156 173 0
157 175 0
156 173 0
155 173 0
153 170 0
155 172 0
154 171 0
150 167 0
150 167 0
147 163 0
152 169 0
150 167 0
154 170 0
144 160 0
152 169 0
147 163 0
154 171 0
146 163 0
150 166 0
149 164 0
152 168 0
147 163 0
149 165 0
148 165 0
144 159 0
142 158 0
148 164 0
145 161 0
149 166 0
143 159 0
150 167 0
150 167 0
147 164 0
146 163 0
152 170 0
142 159 0
150 168 0
145 162 0
148 165 0
142 159 0
145 162 0
148 167 0
148 165 0
149 167 0
147 165 0
144 161 0
142 158 0
151 168 0
144 163 0
141 158 0
139 156 0
146 163 0
145 163 0
143 162 0
138 155 0
146 165 0
144 163 0
145 163 0
150 168 0
146 164 0
143 162 0
147 165 0
142 161 0
142 160 0
144 163 0
139 158 0
138 158 0
146 165 0
145 164 0
145 163 0
144 164 0
144 163 0
145 164 0
144 164 0
149 168 0
143 163 0
144 164 0
144 164 0
146 166 0
141 160 0
148 167 0
147 168 0
144 164 0
141 160 0
139 158 0
143 163 0
144 165 0
145 165 0
148 168 0
142 161 0
135 154 0
146 166 0
149 169 0
147 168 0
142 162 0
141 161 0
148 167 0
141 161 0
135 155 0
144 164 0
142 162 0
141 161 0
149 169 0
145 165 0
144 166 0
146 166 0
145 165 0
147 168 0
137 158 0
136 158 0
136 158 0
140 160 0
140 161 0
142 163 0
136 158 0
130 150 0
149 169 0
134 156 0
139 161 0
141 161 0
146 167 0
147 168 0
144 164 0
140 160 0
142 163 0
137 158 0
138 159 0
131 152 0
138 159 0
149 170 0
144 166 0
144 164 0
143 164 0
146 166 0
150 170 0
135 155 0
138 158 0
128 148 0
139 158 0
132 152 0
140 161 0
133 154 0
144 165 0
137 157 0
137 157 0
135 157 0
120 140 0
140 160 0
134 155 0
133 153 0
139 159 0
133 153 0
138 158 0
144 165 0
131 149 0
142 162 0
130 149 0
133 154 0
124 143 0
133 154 0
125 144 0
133 153 0
142 161 0
133 152 0
133 152 0
130 151 0
135 154 0
132 152 0
130 150 0
124 143 0
137 157 0
136 155 0
139 157 0
132 151 0
123 143 0
138 158 0
135 153 0
128 147 0
143 162 0
134 153 0
129 149 0
132 152 0
133 152 0
131 150 0
131 151 0
133 152 0
128 148 0
145 163 0
134 152 0
140 160 0
131 151 0
129 148 0
131 151 0
134 153 0
133 153 0
136 153 0
146 164 0
131 150 0
144 164 0
136 155 0
134 153 0
136 153 0
144 163 0
135 154 0
133 151 0
134 151 0
134 153 0
137 157 0
128 146 0
137 154 0
140 158 0
130 146 0
136 155 0
139 156 0
142 159 0
138 156 0
139 155 0
152 170 0
136 152 0
142 161 0
137 155 0
133 151 0
136 153 0
140 157 0
148 165 0
138 155 0
140 158 0
139 157 0
139 156 0
135 153 0
134 152 0
140 157 0
141 159 0
137 154 0
133 150 0
137 154 0
139 155 0
140 158 0
146 165 0
143 160 0
149 166 0
140 156 0
147 164 0
143 159 0
140 156 0
140 155 0
138 153 0
147 161 0
148 163 0
146 160 0
145 159 0
146 162 0
150 168 0
133 148 0
146 160 0
154 169 0
143 157 0
147 162 0
148 161 0
143 157 0
140 153 0
145 160 0
144 158 0
143 156 0
125 138 0
141 155 0
134 145 0
141 152 0
154 166 0
138 149 0
140 152 0
139 152 0
146 158 0
147 160 0
142 149 0
148 159 0
149 158 0
145 155 0
137 147 0
141 154 0
138 148 0
139 147 0
140 149 0
145 152 0
147 157 0
146 152 0
149 158 0
140 147 0
145 152 0
148 156 0
143 152 0
148 154 0
147 154 0
144 152 0
145 150 0
146 153 0
136 142 0
147 153 0
144 150 0
147 153 0
138 143 0
144 149 0
145 152 0
143 149 0
150 155 0
143 149 0
149 155 0
147 151 0
148 156 0
148 152 0
138 142 0
146 149 0
147 150 0
145 146 0
145 147 0
146 149 0
148 152 0
147 150 0
152 156 0
145 144 0
147 148 0
141 142 0
145 145 0
146 145 0
140 140 0
147 149 0
146 147 0
155 159 0
150 153 0
155 160 0
151 154 0
147 147 0
146 148 0
153 157 0
155 159 0
148 149 0
146 148 0
153 155 0
153 155 0
152 157 0
154 159 0
153 157 0
150 151 0
155 159 0
150 153 0
156 160 0
151 154 0
154 157 0
157 162 0
159 165 0
154 161 0
159 165 0
161 168 0
162 170 0
161 169 0
160 166 0
156 164 0
157 163 0
159 167 0
161 170 0
162 168 0
160 169 0
160 168 0
163 174 0
160 167 0
159 166 0
164 172 0
160 167 0
161 169 0
159 169 0
166 176 0
159 178 0
160 179 0
165 186 0
169 188 0
160 179 0
161 180 0
162 180 0
161 179 0
163 181 0
160 178 0
160 179 0
160 178 0
156 174 0
155 173 0
160 178 0
154 171 0
157 175 0
159 177 0
157 175 0
154 172 0
163 181 0
159 177 0
154 172 0
157 174 0
155 171 0
157 174 0
156 172 0
157 174 0
160 177 0
157 174 0
159 177 0
154 171 0
152 168 0
154 171 0
150 167 0
153 169 0
147 164 0
156 172 0
152 168 0
148 165 0
152 169 0
147 164 0
155 172 0
155 172 0
151 167 0
148 163 0
149 166 0
150 167 0
150 167 0
149 166 0
146 162 0
157 175 0
148 165 0
147 163 0
147 164 0
149 165 0
150 167 0
142 158 0
142 159 0
146 163 0
144 162 0
147 164 0
147 164 0
139 155 0
143 160 0
148 165 0
144 161 0
147 165 0
152 170 0
152 170 0
136 153 0
142 160 0
150 169 0
144 161 0
148 166 0
150 168 0
142 160 0
139 156 0
144 161 0
145 163 0
147 166 0
151 170 0
143 162 0
144 161 0
142 160 0
152 171 0
143 161 0
139 158 0
144 162 0
145 164 0
146 166 0
139 158 0
141 159 0
146 164 0
134 152 0
140 159 0
144 163 0
147 167 0
139 158 0
141 160 0
144 164 0
144 163 0
143 163 0
140 160 0
140 160 0
145 164 0
141 159 0
142 162 0
144 163 0
145 164 0
136 156 0
142 161 0
157 178 0
145 165 0
143 163 0
146 167 0
142 162 0
147 166 0
149 170 0
137 156 0
138 157 0
150 170 0
140 161 0
153 173 0
141 162 0
149 170 0
147 168 0
134 155 0
138 158 0
147 168 0
141 162 0
144 163 0
141 162 0
136 155 0
141 161 0
148 168 0
140 161 0
146 167 0
140 162 0
144 166 0
142 164 0
141 162 0
142 163 0
136 156 0
135 155 0
140 162 0
138 159 0
136 157 0
136 155 0
148 169 0
145 166 0
140 161 0
140 161 0
148 169 0
134 155 0
122 142 0
140 162 0
145 166 0
139 160 0
135 155 0
144 164 0
141 162 0
136 156 0
131 153 0
135 156 0
143 163 0
137 157 0
131 151 0
136 156 0
142 162 0
125 144 0
134 155 0
133 154 0
131 153 0
138 158 0
131 151 0
124 144 0
141 162 0
135 155 0
138 157 0
141 160 0
119 139 0
139 160 0
137 157 0
131 152 0
141 162 0
137 158 0
132 152 0
132 153 0
130 150 0
137 159 0
131 151 0
145 165 0
137 158 0
137 157 0
141 159 0
137 158 0
134 154 0
134 153 0
132 152 0
133 152 0
130 147 0
138 159 0
135 155 0
135 153 0
140 160 0
135 155 0
131 151 0
131 151 0
136 156 0
137 157 0
140 160 0
121 140 0
134 154 0
140 159 0
129 145 0
128 147 0
133 153 0
139 157 0
133 152 0
138 157 0
133 153 0
138 159 0
132 150 0
131 151 0
132 151 0
144 164 0
137 156 0
136 155 0
132 150 0
128 147 0
138 156 0
133 153 0
137 156 0
124 144 0
144 163 0
138 155 0
138 156 0
136 154 0
141 161 0
133 153 0
142 160 0
132 151 0
142 159 0
141 159 0
143 162 0
146 163 0
138 155 0
149 166 0
142 158 0
143 161 0
140 158 0
147 163 0
140 157 0
143 160 0
147 163 0
145 164 0
136 152 0
140 157 0
145 164 0
147 165 0
148 166 0
144 162 0
145 162 0
144 161 0
140 157 0
142 160 0
138 153 0
137 153 0
139 154 0
145 161 0
133 149 0
144 161 0
135 150 0
146 163 0
141 155 0
139 155 0
141 157 0
140 155 0
141 157 0
150 167 0
139 153 0
139 154 0
136 151 0
147 164 0
144 159 0
146 162 0
145 156 0
144 157 0
142 157 0
143 154 0
144 156 0
141 154 0
135 148 0
145 158 0
143 157 0
139 153 0
141 152 0
144 154 0
139 148 0
148 163 0
138 151 0
146 158 0
141 153 0
147 157 0
147 158 0
145 155 0
147 156 0
146 156 0
144 153 0
154 165 0
143 154 0
145 156 0
153 163 0
144 152 0
147 157 0
147 155 0
147 156 0
140 146 0
146 157 0
141 151 0
145 151 0
139 145 0
150 158 0
146 154 0
146 152 0
148 153 0
146 153 0
144 150 0
143 151 0
142 146 0
147 155 0
149 157 0
147 153 0
147 152 0
147 152 0
155 161 0
139 142 0
148 153 0
142 144 0
147 150 0
147 151 0
145 148 0
145 149 0
151 154 0
144 147 0
151 159 0
147 149 0
148 153 0
152 157 0
155 158 0
152 156 0
147 150 0
148 151 0
153 159 0
143 143 0
152 156 0
149 150 0
153 154 0
155 159 0
155 156 0
155 159 0
150 152 0
151 151 0
150 154 0
151 154 0
154 158 0
155 159 0
154 158 0
149 149 0
153 155 0
154 159 0
152 154 0
154 157 0
153 155 0
152 155 0
157 160 0
149 149 0
160 165 0
154 158 0
159 165 0
157 160 0
160 166 0
156 163 0
158 166 0
153 159 0
158 166 0
160 165 0
158 166 0
162 172 0
158 166 0
161 166 0
157 163 0
162 171 0
160 170 0
161 170 0
163 172 0
163 174 0
160 167 0
165 174 0
161 180 0
158 177 0
161 179 0
161 181 0
162 180 0
159 178 0
160 179 0
161 180 0
161 180 0
156 175 0
161 179 0
156 175 0
158 176 0
158 175 0
158 175 0
161 179 0
159 177 0
156 175 0
159 177 0
160 178 0
158 177 0
155 173 0
157 174 0
156 174 0
153 170 0
155 173 0
157 175 0
155 171 0
153 171 0
156 173 0
156 173 0
149 167 0
151 168 0
149 166 0
146 163 0
150 166 0
151 169 0
151 167 0
147 163 0
146 162 0
148 164 0
153 170 0
151 169 0
153 170 0
150 168 0
149 165 0
152 169 0
144 161 0
152 169 0
145 163 0
151 168 0
149 166 0
144 161 0
139 155 0
151 168 0
151 168 0
149 165 0
141 158 0
146 163 0
146 164 0
151 168 0
148 165 0
149 166 0
152 170 0
143 160 0
150 167 0
148 166 0
148 166 0
148 165 0
157 175 0
149 167 0
141 158 0
149 166 0
145 163 0
146 164 0
140 157 0
146 165 0
146 164 0
148 167 0
147 165 0
151 168 0
144 162 0
138 156 0
142 161 0
150 169 0
149 167 0
146 164 0
147 165 0
143 162 0
147 167 0
149 168 0
145 164 0
145 165 0
143 162 0
141 160 0
143 162 0
148 167 0
144 163 0
137 157 0
145 164 0
140 160 0
143 162 0
144 163 0
154 175 0
150 171 0
140 158 0
139 159 0
153 173 0
140 161 0
145 165 0
141 161 0
153 174 0
144 164 0
140 160 0
139 159 0
146 167 0
138 158 0
146 167 0
135 155 0
149 170 0
149 170 0
147 167 0
140 161 0
147 167 0
144 164 0
144 165 0
135 154 0
149 169 0
140 159 0
145 166 0
139 161 0
143 165 0
136 158 0
134 153 0
140 160 0
134 155 0
143 164 0
143 164 0
147 167 0
141 161 0
143 164 0
137 158 0
144 166 0
147 167 0
143 164 0
144 165 0
141 163 0
134 156 0
142 163 0
144 164 0
142 163 0
133 154 0
141 162 0
132 152 0
135 156 0
129 150 0
140 160 0
140 159 0
133 154 0
135 156 0
134 155 0
141 161 0
141 161 0
141 162 0
135 154 0
144 166 0
126 146 0
145 167 0
143 164 0
139 159 0
130 150 0
141 161 0
126 146 0
140 160 0
127 149 0
133 152 0
145 166 0
137 158 0
141 162 0
134 153 0
143 164 0
139 160 0
142 162 0
126 145 0
140 160 0
141 160 0
126 147 0
138 158 0
136 155 0
142 164 0
141 160 0
131 149 0
140 160 0
138 158 0
133 151 0
130 149 0
124 145 0
136 157 0
136 156 0
138 158 0
132 150 0
136 156 0
125 145 0
137 156 0
132 151 0
132 149 0
137 156 0
138 159 0
138 158 0
135 154 0
138 157 0
135 155 0
135 155 0
136 156 0
132 151 0
133 152 0
138 159 0
132 151 0
135 154 0
128 145 0
141 160 0
136 155 0
130 150 0
138 158 0
134 155 0
137 156 0
134 152 0
135 153 0
139 159 0
146 163 0
136 156 0
144 163 0
135 153 0
125 142 0
143 162 0
136 153 0
138 158 0
136 154 0
139 156 0
134 152 0
133 153 0
143 162 0
150 168 0
141 159 0
141 160 0
146 163 0
135 154 0
140 161 0
142 160 0
138 158 0
147 163 0
140 156 0
139 157 0
137 155 0
141 159 0
140 157 0
130 147 0
137 155 0
151 170 0
143 160 0
140 157 0
144 161 0
139 158 0
148 166 0
151 169 0
143 159 0
150 166 0
137 155 0
144 160 0
143 160 0
147 165 0
133 148 0
143 160 0
137 153 0
143 158 0
145 161 0
141 158 0
147 162 0
140 157 0
141 157 0
144 156 0
141 156 0
145 162 0
139 153 0
138 152 0
146 162 0
149 165 0
146 159 0
144 156 0
150 166 0
143 160 0
137 153 0
144 157 0
143 158 0
147 162 0
146 159 0
147 161 0
153 164 0
144 155 0
140 155 0
146 159 0
144 157 0
141 152 0
144 155 0
141 151 0
143 151 0
145 155 0
151 162 0
144 156 0
144 156 0
148 157 0
145 153 0
143 152 0
145 155 0
147 160 0
144 153 0
146 153 0
145 158 0
150 158 0
145 153 0
141 148 0
145 152 0
145 155 0
140 148 0
152 163 0
151 157 0
147 151 0
148 157 0
137 140 0
143 149 0
151 157 0
146 151 0
147 153 0
146 155 0
150 157 0
145 152 0
152 161 0
147 152 0
145 153 0
150 154 0
141 145 0
152 157 0
147 152 0
151 156 0
147 149 0
145 147 0
149 154 0
149 155 0
149 152 0
151 155 0
146 150 0
151 156 0
144 145 0
147 151 0
145 147 0
153 160 0
147 150 0
155 160 0
154 159 0
150 154 0
149 154 0
149 152 0
154 157 0
150 156 0
152 156 0
150 151 0
153 158 0
156 161 0
156 163 0
156 160 0
148 148 0
152 155 0
148 152 0
149 152 0
149 153 0
148 153 0
151 156 0
159 167 0
153 158 0
156 159 0
155 161 0
150 157 0
150 152 0
157 163 0
158 164 0
154 158 0
160 167 0
161 169 0
157 162 0
162 170 0
157 165 0
159 169 0
161 169 0
155 163 0
160 167 0
163 173 0
161 169 0
157 163 0
161 171 0
161 170 0
166 185 0
164 184 0
163 181 0
161 180 0
161 180 0
162 180 0
161 181 0
161 179 0
159 178 0
159 177 0
154 172 0
160 179 0
156 174 0
162 181 0
156 175 0
161 180 0
160 178 0
160 178 0
154 171 0
158 175 0
153 171 0
154 171 0
158 176 0
156 174 0
151 169 0
155 172 0
154 171 0
158 177 0
155 173 0
157 174 0
158 175 0
152 169 0
158 175 0
154 171 0
154 171 0
150 168 0
141 158 0
147 164 0
154 172 0
148 166 0
154 171 0
157 174 0
149 166 0
155 173 0
155 172 0
149 166 0
148 164 0
156 173 0
148 165 0
148 166 0
152 170 0
150 166 0
152 168 0
144 160 0
149 166 0
151 169 0
147 165 0
150 166 0
144 161 0
156 174 0
143 159 0
153 171 0
149 166 0
152 169 0
152 170 0
151 170 0
150 167 0
146 164 0
144 163 0
149 167 0
154 173 0
144 162 0
146 164 0
143 161 0
137 155 0
147 166 0
150 169 0
149 168 0
148 167 0
148 167 0
149 167 0
147 165 0
145 162 0
147 166 0
148 167 0
148 167 0
149 168 0
143 162 0
147 166 0
137 155 0
147 167 0
144 163 0
144 163 0
148 168 0
144 163 0
145 164 0
148 166 0
144 163 0
140 160 0
143 162 0
141 160 0
144 164 0
138 159 0
150 170 0
137 158 0
142 162 0
151 172 0
149 168 0
148 169 0
138 158 0
143 162 0
144 164 0
139 159 0
134 154 0
137 157 0
144 164 0
141 160 0
152 172 0
144 165 0
146 167 0
145 165 0
141 162 0
150 170 0
138 159 0
144 164 0
148 169 0
146 166 0
144 164 0
142 162 0
142 162 0
146 166 0
146 167 0
147 168 0
139 159 0
146 167 0
145 165 0
139 161 0
135 155 0
137 159 0
145 164 0
143 164 0
148 169 0
140 160 0
140 159 0
139 159 0
142 163 0
146 167 0
140 161 0
145 166 0
147 167 0
142 162 0
138 158 0
139 160 0
142 165 0
142 163 0
144 164 0
138 159 0
147 168 0
140 160 0
139 159 0
143 163 0
131 153 0
140 161 0
139 161 0
135 156 0
133 152 0
144 165 0
143 162 0
147 168 0
134 156 0
145 166 0
137 158 0
148 169 0
142 161 0
139 161 0
131 150 0
139 160 0
141 162 0
126 146 0
138 158 0
134 155 0
146 167 0
139 157 0
132 152 0
143 163 0
140 160 0
138 160 0
131 151 0
129 149 0
146 167 0
142 163 0
136 155 0
138 161 0
135 156 0
143 162 0
134 154 0
130 150 0
141 160 0
141 161 0
135 156 0
132 152 0
140 160 0
133 154 0
142 164 0
126 146 0
136 155 0
130 151 0
132 152 0
124 144 0
137 157 0
133 152 0
129 149 0
135 154 0
136 155 0
134 154 0
141 159 0
145 165 0
130 150 0
147 166 0
133 152 0
145 165 0
138 157 0
135 155 0
136 154 0
137 156 0
140 160 0
140 158 0
140 159 0
139 157 0
138 157 0
129 147 0
132 151 0
136 154 0
146 165 0
135 154 0
135 151 0
130 149 0
130 148 0
154 170 0
129 147 0
141 159 0
135 154 0
137 156 0
141 158 0
146 165 0
145 163 0
148 168 0
139 158 0
150 169 0
144 163 0
142 161 0
143 162 0
147 167 0
141 158 0
133 151 0
144 162 0
137 156 0
140 160 0
143 164 0
139 156 0
151 169 0
141 157 0
148 166 0
143 161 0
153 170 0
138 155 0
147 164 0
150 169 0
143 160 0
140 157 0
142 158 0
152 171 0
134 151 0
141 159 0
143 160 0
144 161 0
139 153 0
143 157 0
140 157 0
137 155 0
148 163 0
146 161 0
155 170 0
138 156 0
142 158 0
146 161 0
149 163 0
147 162 0
140 154 0
150 164 0
146 161 0
149 162 0
145 159 0
140 153 0
144 158 0
144 159 0
141 157 0
147 162 0
147 161 0
148 160 0
147 161 0
140 155 0
148 160 0
145 158 0
148 164 0
152 167 0
141 154 0
147 156 0
151 164 0
145 153 0
138 146 0
146 157 0
147 159 0
144 155 0
144 153 0
144 155 0
144 153 0
150 160 0
147 158 0
151 160 0
155 165 0
135 142 0
147 158 0
147 156 0
144 152 0
156 167 0
148 156 0
139 146 0
150 160 0
154 162 0
148 158 0
147 153 0
153 163 0
148 156 0
142 149 0
137 143 0
146 151 0
149 156 0
143 152 0
147 153 0
150 158 0
152 159 0
146 152 0
145 148 0
153 161 0
154 162 0
143 149 0
150 153 0
150 153 0
148 155 0
147 153 0
150 155 0
150 149 0
152 156 0
155 162 0
152 155 0
145 147 0
147 149 0
151 154 0
154 158 0
154 159 0
153 159 0
148 152 0
157 164 0
157 163 0
154 158 0
153 157 0
153 156 0
154 157 0
152 155 0
149 152 0
156 162 0
154 158 0
152 155 0
155 161 0
153 159 0
157 163 0
155 162 0
153 157 0
161 169 0
155 159 0
151 154 0
160 167 0
157 163 0
161 168 0
158 163 0
161 170 0
154 162 0
155 159 0
162 170 0
157 160 0
161 168 0
159 167 0
156 161 0
162 171 0
162 169 0
159 167 0
157 165 0
165 177 0
161 171 0
160 179 0
168 187 0
160 179 0
162 181 0
162 181 0
163 182 0
161 180 0
160 178 0
164 181 0
157 176 0
161 180 0
163 182 0
159 178 0
158 176 0
150 168 0
156 174 0
156 173 0
160 179 0
158 175 0
158 176 0
159 177 0
153 172 0
156 174 0
151 167 0
152 169 0
160 178 0
147 164 0
154 173 0
152 169 0
153 170 0
151 169 0
150 166 0
155 172 0
154 170 0
152 169 0
158 175 0
153 171 0
158 176 0
158 176 0
151 168 0
153 170 0
149 165 0
151 169 0
148 165 0
150 167 0
149 166 0
147 164 0
150 167 0
151 169 0
150 166 0
150 167 0
151 168 0
151 168 0
153 170 0
140 158 0
145 162 0
147 165 0
148 165 0
138 155 0
153 171 0
151 168 0
152 171 0
149 167 0
150 168 0
143 160 0
146 164 0
146 164 0
138 156 0
145 162 0
150 167 0
145 163 0
154 174 0
147 165 0
152 172 0
142 160 0
140 159 0
150 168 0
149 168 0
144 162 0
153 171 0
146 165 0
148 168 0
142 162 0
144 164 0
147 167 0
140 159 0
150 170 0
152 171 0
143 162 0
144 164 0
144 163 0
144 162 0
150 168 0
145 164 0
145 165 0
146 167 0
151 171 0
141 159 0
147 166 0
147 166 0
144 163 0
146 166 0
153 174 0
145 164 0
148 169 0
142 163 0
142 162 0
152 173 0
146 165 0
144 163 0
144 165 0
149 169 0
148 166 0
142 161 0
147 168 0
150 169 0
153 174 0
153 172 0
152 173 0
150 171 0
147 167 0
140 160 0
153 173 0
147 167 0
147 168 0
136 156 0
139 160 0
142 161 0
146 167 0
146 168 0
141 161 0
146 166 0
140 161 0
148 169 0
148 169 0
150 172 0
136 157 0
149 170 0
144 164 0
136 156 0
140 160 0
144 164 0
144 165 0
136 157 0
140 161 0
143 165 0
142 162 0
137 158 0
151 173 0
143 164 0
149 169 0
147 168 0
133 153 0
148 168 0
137 158 0
140 161 0
141 161 0
145 167 0
143 164 0
148 170 0
138 159 0
140 161 0
143 165 0
137 158 0
144 165 0
142 163 0
142 162 0
140 160 0
135 156 0
144 164 0
148 170 0
141 162 0
139 160 0
142 163 0
136 157 0
140 162 0
139 159 0
134 155 0
136 157 0
133 155 0
143 163 0
136 156 0
145 165 0
132 152 0
137 157 0
138 159 0
145 166 0
141 160 0
129 148 0
127 148 0
142 160 0
136 157 0
137 158 0
136 157 0
143 163 0
130 149 0
145 163 0
138 159 0
134 153 0
140 160 0
138 158 0
136 157 0
140 160 0
137 156 0
135 155 0
138 157 0
132 150 0
144 163 0
135 156 0
132 151 0
140 159 0
137 156 0
134 152 0
137 158 0
137 157 0
141 160 0
141 160 0
131 149 0
135 154 0
141 159 0
134 154 0
136 154 0
138 158 0
142 162 0
138 156 0
138 157 0
129 148 0
142 162 0
141 161 0
134 151 0
136 155 0
136 155 0
141 160 0
144 164 0
142 162 0
143 159 0
136 154 0
138 156 0
136 155 0
136 154 0
141 158 0
141 158 0
144 163 0
142 162 0
128 147 0
147 168 0
133 151 0
141 159 0
143 160 0
133 149 0
133 152 0
134 151 0
140 156 0
140 156 0
149 168 0
142 160 0
143 162 0
141 160 0
138 156 0
143 161 0
144 162 0
147 165 0
141 158 0
140 157 0
147 165 0
139 156 0
140 158 0
149 165 0
142 161 0
148 163 0
150 166 0
143 160 0
148 167 0
143 162 0
147 163 0
145 160 0
151 167 0
145 161 0
138 153 0
151 167 0
146 162 0
139 154 0
144 161 0
151 166 0
151 167 0
144 159 0
143 157 0
148 165 0
147 163 0
137 152 0
143 156 0
142 158 0
143 156 0
149 162 0
147 162 0
145 158 0
144 156 0
142 154 0
148 165 0
149 161 0
141 152 0
147 162 0
140 154 0
150 161 0
144 158 0
143 153 0
140 151 0
145 160 0
143 155 0
145 155 0
145 155 0
150 158 0
146 155 0
145 157 0
145 157 0
144 155 0
148 160 0
149 159 0
149 158 0
151 162 0
151 162 0
145 152 0
143 155 0
146 154 0
153 163 0
148 156 0
138 144 0
151 160 0
142 148 0
149 159 0
147 152 0
149 159 0
151 157 0
144 149 0
147 153 0
143 148 0
155 161 0
154 161 0
149 157 0
151 157 0
141 146 0
151 159 0
152 159 0
152 158 0
146 150 0
147 151 0
151 159 0
146 151 0
147 151 0
151 157 0
148 154 0
154 157 0
150 156 0
146 149 0
147 146 0
152 156 0
147 151 0
152 159 0
153 159 0
155 159 0
153 157 0
155 160 0
153 162 0
153 159 0
157 163 0
152 156 0
156 162 0
148 152 0
152 158 0
152 159 0
156 165 0
153 158 0
152 161 0
158 164 0
147 148 0
160 169 0
154 159 0
156 160 0
152 159 0
157 164 0
157 163 0
154 157 0
158 165 0
163 171 0
154 158 0
154 158 0
157 165 0
162 171 0
155 162 0
156 162 0
156 162 0
162 170 0
156 161 0
161 169 0
158 167 0
163 172 0
160 168 0
161 167 0
158 165 0
166 177 0
161 180 0
162 182 0
163 182 0
162 182 0
164 183 0
159 178 0
163 183 0
158 177 0
158 178 0
161 179 0
163 181 0
161 179 0
162 181 0
158 177 0
162 181 0
155 174 0
160 179 0
162 180 0
154 172 0
151 168 0
158 176 0
158 176 0
152 170 0
157 175 0
154 173 0
159 176 0
151 169 0
158 176 0
151 167 0
151 168 0
159 176 0
158 176 0
155 172 0
155 173 0
157 175 0
151 169 0
154 173 0
160 179 0
155 173 0
154 172 0
145 161 0
155 173 0
152 170 0
153 172 0
153 172 0
157 174 0
153 171 0
144 162 0
154 172 0
149 167 0
150 167 0
149 167 0
150 167 0
153 171 0
149 167 0
153 171 0
153 171 0
151 168 0
151 169 0
143 160 0
148 166 0
149 168 0
148 166 0
154 173 0
151 170 0
155 174 0
149 168 0
147 165 0
147 165 0
145 163 0
145 164 0
156 175 0
144 161 0
151 169 0
153 173 0
152 171 0
153 171 0
151 170 0
148 166 0
150 169 0
148 167 0
151 170 0
146 166 0
142 160 0
148 167 0
141 160 0
147 165 0
150 169 0
147 166 0
148 168 0
141 160 0
145 165 0
152 172 0
147 165 0
152 172 0
147 166 0
144 164 0
147 166 0
151 169 0
143 162 0
145 166 0
145 164 0
155 175 0
144 165 0
148 167 0
146 166 0
146 165 0
142 163 0
144 164 0
142 163 0
151 172 0
152 174 0
152 171 0
147 167 0
146 167 0
146 166 0
147 168 0
144 164 0
148 169 0
144 164 0
149 171 0
148 169 0
145 167 0
141 162 0
148 169 0
146 166 0
148 168 0
148 170 0
146 168 0
143 164 0
145 164 0
144 164 0
148 170 0
146 166 0
144 164 0
140 160 0
146 168 0
148 169 0
144 164 0
144 164 0
146 168 0
148 169 0
146 167 0
144 165 0
143 165 0
143 163 0
147 168 0
143 165 0
138 159 0
139 160 0
143 164 0
140 160 0
146 166 0
144 165 0
147 168 0
143 163 0
144 164 0
137 159 0
147 168 0
133 153 0
137 158 0
150 170 0
149 169 0
129 150 0
139 160 0
151 172 0
146 168 0
139 160 0
132 152 0
139 159 0
142 162 0
134 154 0
144 165 0
131 151 0
140 161 0
142 161 0
138 158 0
138 157 0
132 151 0
137 157 0
138 159 0
138 158 0
130 149 0
137 158 0
138 158 0
140 161 0
132 152 0
132 152 0
139 160 0
134 155 0
138 160 0
143 163 0
134 155 0
136 156 0
131 150 0
143 164 0
142 161 0
137 158 0
144 163 0
129 149 0
136 156 0
141 162 0
144 164 0
145 166 0
137 155 0
137 157 0
139 160 0
142 160 0
139 158 0
135 154 0
127 149 0
135 154 0
144 162 0
140 158 0
141 161 0
142 163 0
132 153 0
140 159 0
142 162 0
128 147 0
140 159 0
150 171 0
133 153 0
139 160 0
140 160 0
137 157 0
152 172 0
142 161 0
143 163 0
139 158 0
138 157 0
143 162 0
143 163 0
141 161 0
140 160 0
143 163 0
138 157 0
142 162 0
147 168 0
145 167 0
134 154 0
137 156 0
142 162 0
142 162 0
141 161 0
142 159 0
141 159 0
148 168 0
131 150 0
140 156 0
141 159 0
141 159 0
147 165 0
147 165 0
141 160 0
142 161 0
145 161 0
150 169 0
138 156 0
143 161 0
154 173 0
149 168 0
148 166 0
142 158 0
139 157 0
137 155 0
149 168 0
138 153 0
138 155 0
138 155 0
145 160 0
145 164 0
142 159 0
137 154 0
156 175 0
149 167 0
147 162 0
141 158 0
153 171 0
150 167 0
145 160 0
147 165 0
138 155 0
141 159 0
148 163 0
138 154 0
147 164 0
137 152 0
146 162 0
145 162 0
150 167 0
137 154 0
150 166 0
145 161 0
142 158 0
149 161 0
139 151 0
150 165 0
149 164 0
150 166 0
143 158 0
145 159 0
147 162 0
151 166 0
147 160 0
150 164 0
153 165 0
152 166 0
155 168 0
143 155 0
150 161 0
148 158 0
152 165 0
151 165 0
147 156 0
146 155 0
143 154 0
152 163 0
148 158 0
144 155 0
150 160 0
142 149 0
144 154 0
145 156 0
150 161 0
145 155 0
145 153 0
145 153 0
152 162 0
142 150 0
154 164 0
148 155 0
154 164 0
149 157 0
145 154 0
146 155 0
150 159 0
152 161 0
152 161 0
145 152 0
155 162 0
151 160 0
152 162 0
146 154 0
151 160 0
153 162 0
146 152 0
156 161 0
146 153 0
148 151 0
149 155 0
157 166 0
155 162 0
152 156 0
149 151 0
149 151 0
147 151 0
154 161 0
153 161 0
155 158 0
145 146 0
150 153 0
156 162 0
150 153 0
150 156 0
154 158 0
155 163 0
159 166 0
155 161 0
148 150 0
157 162 0
154 159 0
151 154 0
162 171 0
152 156 0
161 168 0
154 160 0
156 162 0
158 164 0
153 159 0
157 165 0
152 156 0
154 160 0
158 163 0
161 168 0
157 163 0
160 167 0
159 168 0
157 163 0
159 166 0
162 172 0
160 166 0
157 165 0
158 168 0
159 167 0
159 166 0
161 170 0
159 166 0
160 169 0
162 170 0
160 180 0
163 181 0
158 176 0
162 182 0
159 179 0
164 183 0
163 181 0
164 184 0
159 177 0
159 178 0
154 173 0
156 175 0
158 176 0
156 174 0
164 184 0
160 178 0
160 178 0
156 173 0
155 173 0
153 170 0
162 181 0
158 177 0
160 178 0
157 174 0
158 175 0
156 172 0
153 170 0
159 178 0
153 171 0
152 170 0
157 175 0
157 175 0
154 171 0
150 166 0
151 169 0
152 170 0
157 175 0
152 169 0
150 167 0
156 172 0
151 168 0
145 162 0
152 170 0
154 171 0
146 162 0
160 179 0
152 170 0
143 160 0
153 170 0
147 164 0
154 173 0
154 173 0
158 177 0
153 171 0
148 166 0
157 175 0
151 169 0
150 168 0
156 174 0
149 167 0
154 173 0
145 163 0
148 165 0
149 167 0
143 161 0
139 156 0
152 170 0
153 171 0
152 171 0
152 171 0
151 169 0
148 167 0
152 171 0
147 166 0
156 175 0
149 168 0
151 169 0
141 160 0
146 166 0
144 163 0
144 163 0
151 170 0
148 168 0
145 165 0
144 163 0
151 171 0
145 164 0
150 170 0
143 162 0
146 166 0
148 169 0
145 165 0
145 165 0
149 168 0
150 170 0
144 164 0
150 170 0
148 167 0
153 173 0
139 158 0
145 164 0
145 165 0
143 164 0
153 174 0
147 167 0
147 167 0
145 165 0
145 167 0
149 168 0
148 168 0
153 173 0
144 166 0
145 166 0
147 168 0
147 166 0
142 162 0
153 173 0
149 170 0
150 171 0
147 168 0
141 161 0
139 159 0
154 176 0
133 154 0
142 161 0
146 167 0
138 158 0
142 162 0
137 156 0
139 160 0
145 166 0
134 156 0
138 158 0
147 167 0
143 165 0
144 164 0
141 164 0
143 164 0
141 161 0
143 163 0
147 169 0
144 165 0
152 173 0
141 160 0
142 164 0
143 164 0
145 167 0
152 174 0
154 175 0
141 162 0
148 170 0
142 164 0
142 163 0
151 171 0
142 163 0
146 168 0
135 156 0
147 169 0
137 158 0
149 170 0
140 161 0
150 171 0
142 163 0
137 158 0
142 164 0
141 162 0
141 162 0
144 165 0
142 162 0
147 168 0
141 162 0
141 162 0
140 162 0
138 159 0
140 161 0
133 155 0
144 164 0
138 159 0
141 162 0
146 168 0
138 157 0
130 151 0
140 159 0
137 158 0
138 157 0
133 153 0
136 157 0
138 159 0
142 161 0
141 161 0
140 161 0
130 149 0
147 167 0
147 168 0
139 159 0
143 164 0
145 166 0
137 157 0
136 157 0
140 160 0
138 159 0
135 155 0
141 162 0
144 166 0
136 155 0
138 158 0
140 161 0
134 154 0
139 159 0
145 166 0
138 158 0
142 161 0
139 160 0
143 163 0
137 157 0
138 157 0
134 154 0
142 163 0
128 148 0
141 162 0
134 153 0
145 165 0
136 156 0
138 157 0
138 156 0
134 155 0
140 161 0
142 160 0
141 161 0
140 160 0
141 161 0
140 160 0
146 165 0
140 160 0
147 167 0
142 162 0
135 155 0
142 162 0
142 163 0
143 162 0
143 162 0
147 167 0
141 160 0
144 162 0
147 165 0
150 168 0
141 158 0
140 158 0
141 157 0
135 154 0
143 160 0
151 169 0
146 165 0
144 162 0
145 162 0
150 170 0
137 157 0
142 159 0
139 157 0
152 170 0
142 160 0
146 162 0
143 162 0
148 166 0
144 163 0
146 164 0
149 166 0
135 151 0
138 157 0
143 161 0
151 167 0
142 158 0
143 158 0
138 155 0
149 166 0
148 166 0
145 163 0
145 162 0
155 172 0
145 163 0
149 167 0
139 155 0
142 158 0
144 161 0
147 165 0
137 155 0
143 160 0
151 166 0
149 165 0
149 165 0
142 160 0
147 163 0
155 173 0
155 172 0
148 162 0
149 162 0
151 165 0
144 160 0
149 163 0
141 156 0
141 155 0
146 160 0
148 162 0
141 154 0
150 166 0
143 156 0
151 165 0
144 159 0
154 167 0
148 160 0
153 167 0
148 162 0
145 158 0
145 157 0
155 168 0
147 157 0
144 155 0
147 159 0
153 167 0
153 167 0
150 158 0
147 157 0
148 156 0
154 167 0
146 158 0
144 153 0
145 157 0
142 154 0
150 160 0
148 159 0
151 162 0
149 157 0
150 159 0
152 162 0
148 156 0
147 157 0
153 160 0
146 153 0
153 162 0
147 153 0
149 156 0
153 161 0
153 159 0
148 155 0
151 158 0
151 158 0
144 150 0
155 159 0
152 157 0
154 161 0
158 168 0
149 154 0
155 162 0
147 151 0
152 157 0
150 155 0
154 161 0
155 162 0
154 164 0
154 161 0
159 167 0
156 163 0
155 161 0
154 159 0
153 156 0
151 156 0
156 162 0
155 161 0
158 163 0
152 156 0
155 161 0
152 156 0
156 162 0
153 159 0
148 150 0
158 163 0
156 163 0
154 157 0
156 160 0
153 157 0
151 154 0
158 165 0
157 165 0
158 164 0
158 163 0
153 157 0
162 172 0
160 167 0
158 164 0
156 164 0
154 159 0
162 171 0
155 161 0
162 170 0
158 166 0
162 170 0
158 166 0
161 170 0
161 168 0
158 164 0
160 179 0
160 179 0
164 183 0
159 178 0
159 178 0
158 176 0
163 181 0
156 176 0
159 177 0
156 175 0
156 175 0
161 179 0
158 176 0
160 177 0
161 178 0
158 175 0
154 172 0
157 176 0
162 181 0
160 178 0
165 184 0
161 179 0
153 171 0
156 175 0
157 175 0
156 173 0
150 167 0
160 177 0
151 169 0
160 179 0
153 170 0
152 169 0
155 173 0
154 172 0
152 170 0
151 168 0
153 171 0
151 169 0
149 166 0
149 167 0
154 171 0
147 164 0
146 164 0
156 173 0
153 171 0
146 164 0
148 165 0
150 168 0
151 169 0
145 163 0
151 169 0
148 167 0
153 171 0
150 168 0
146 164 0
144 163 0
152 171 0
151 169 0
153 171 0
149 167 0
160 179 0
152 171 0
147 165 0
151 169 0
146 165 0
149 167 0
149 168 0
148 167 0
147 164 0
148 167 0
140 159 0
142 161 0
155 173 0
150 169 0
152 172 0
140 159 0
147 166 0
145 164 0
160 180 0
153 173 0
152 171 0
150 171 0
146 166 0
144 163 0
147 165 0
149 169 0
148 169 0
148 168 0
146 166 0
150 170 0
150 170 0
143 163 0
153 174 0
150 170 0
144 164 0
143 162 0
147 167 0
145 164 0
145 167 0
151 171 0
153 172 0
141 160 0
142 163 0
151 171 0
146 166 0
146 166 0
146 165 0
147 167 0
148 168 0
159 180 0
146 165 0
144 165 0
144 165 0
148 169 0
144 164 0
143 164 0
143 163 0
153 174 0
147 169 0
147 166 0
145 166 0
143 164 0
144 164 0
148 168 0
152 173 0
142 163 0
139 159 0
144 165 0
140 160 0
146 167 0
151 171 0
144 165 0
144 165 0
137 157 0
147 167 0
140 161 0
145 166 0
148 169 0
143 164 0
145 166 0
147 167 0
148 169 0
145 166 0
145 166 0
146 168 0
141 161 0
134 156 0
135 154 0
144 164 0
147 168 0
149 171 0
130 150 0
137 157 0
147 169 0
142 163 0
150 171 0
138 159 0
148 169 0
145 165 0
147 168 0
141 163 0
148 170 0
145 165 0
144 165 0
139 159 0
140 162 0
148 169 0
147 167 0
138 157 0
139 161 0
141 163 0
150 171 0
140 161 0
129 149 0
134 154 0
136 157 0
145 166 0
141 162 0
130 152 0
143 164 0
140 161 0
143 162 0
149 170 0
138 159 0
130 151 0
145 166 0
138 159 0
138 158 0
146 165 0
137 157 0
139 159 0
145 166 0
145 167 0
141 161 0
146 167 0
150 171 0
142 163 0
133 154 0
150 170 0
141 162 0
141 161 0
136 156 0
139 159 0
139 159 0
141 161 0
141 161 0
138 159 0
128 148 0
137 157 0
137 156 0
140 161 0
135 154 0
138 158 0
132 152 0
129 149 0
143 164 0
137 156 0
140 159 0
145 165 0
144 163 0
141 162 0
147 167 0
143 162 0
146 165 0
142 162 0
133 153 0
148 169 0
140 161 0
148 168 0
145 165 0
138 158 0
142 163 0
138 156 0
135 153 0
140 159 0
141 162 0
136 156 0
135 154 0
140 159 0
148 168 0
149 169 0
150 169 0
143 162 0
149 168 0
143 162 0
151 172 0
146 165 0
153 170 0
139 159 0
140 157 0
141 159 0
147 167 0
141 160 0
138 156 0
145 164 0
150 169 0
144 161 0
140 157 0
142 158 0
145 164 0
141 159 0
144 162 0
141 157 0
144 162 0
144 163 0
140 156 0
146 164 0
145 162 0
148 166 0
154 172 0
150 168 0
151 169 0
141 158 0
138 156 0
150 166 0
145 161 0
145 164 0
140 157 0
147 163 0
149 168 0
148 164 0
149 163 0
149 165 0
148 164 0
148 165 0
147 163 0
150 168 0
148 166 0
146 162 0
148 163 0
146 160 0
146 162 0
150 165 0
151 165 0
153 170 0
148 161 0
147 163 0
151 167 0
145 159 0
147 161 0
148 163 0
142 156 0
152 168 0
141 154 0
146 160 0
145 159 0
149 163 0
146 159 0
153 169 0
152 166 0
151 163 0
151 165 0
149 160 0
154 168 0
150 162 0
151 161 0
150 162 0
146 156 0
151 164 0
155 165 0
150 163 0
150 162 0
145 158 0
140 149 0
154 165 0
153 165 0
148 160 0
151 158 0
155 166 0
148 157 0
148 155 0
148 156 0
148 161 0
153 163 0
150 159 0
151 161 0
155 164 0
146 156 0
151 159 0
150 159 0
154 165 0
154 165 0
148 157 0
150 156 0
153 162 0
156 164 0
142 150 0
150 155 0
146 156 0
144 151 0
151 160 0
146 148 0
150 154 0
155 162 0
156 166 0
158 168 0
147 155 0
149 156 0
153 160 0
150 155 0
152 157 0
150 157 0
157 163 0
148 154 0
153 158 0
158 165 0
156 164 0
157 167 0
156 163 0
157 164 0
150 155 0
153 160 0
158 164 0
155 163 0
159 168 0
155 162 0
152 159 0
156 162 0
155 163 0
157 164 0
161 172 0
153 160 0
159 165 0
156 160 0
159 166 0
155 161 0
158 166 0
161 168 0
160 168 0
159 167 0
156 161 0
161 169 0
163 172 0
158 166 0
158 167 0
162 173 0
163 174 0
161 172 0
161 171 0
160 168 0
160 179 0
164 184 0
163 182 0
162 182 0
163 181 0
156 176 0
154 173 0
156 174 0
157 176 0
160 178 0
156 174 0
160 178 0
159 178 0
161 180 0
158 176 0
152 171 0
153 171 0
162 180 0
154 173 0
157 175 0
158 175 0
154 172 0
154 171 0
154 172 0
156 174 0
154 173 0
154 171 0
160 179 0
151 168 0
157 174 0
151 169 0
153 170 0
147 166 0
155 172 0
154 171 0
152 169 0
153 170 0
152 170 0
152 169 0
155 173 0
153 171 0
154 172 0
151 169 0
149 168 0
152 170 0
154 173 0
152 170 0
154 172 0
153 170 0
153 171 0
151 169 0
145 164 0
151 170 0
153 171 0
152 170 0
147 165 0
155 174 0
152 170 0
160 179 0
154 174 0
157 176 0
153 172 0
153 172 0
154 173 0
151 170 0
153 172 0
153 172 0
140 159 0
147 165 0
148 166 0
147 166 0
148 167 0
144 163 0
146 164 0
147 167 0
148 167 0
146 165 0
149 168 0
157 177 0
148 168 0
148 168 0
147 167 0
150 170 0
140 159 0
153 174 0
153 172 0
153 173 0
148 167 0
151 170 0
148 166 0
151 172 0
147 165 0
149 169 0
137 157 0
149 169 0
151 171 0
145 164 0
146 166 0
150 170 0
147 168 0
137 156 0
146 165 0
148 170 0
153 174 0
150 169 0
147 167 0
139 159 0
148 169 0
152 173 0
145 166 0
145 167 0
154 175 0
143 165 0
148 168 0
147 168 0
137 157 0
143 164 0
143 163 0
148 169 0
149 169 0
141 162 0
144 164 0
151 171 0
148 169 0
138 159 0
141 160 0
151 173 0
149 170 0
148 169 0
142 164 0
143 163 0
147 168 0
144 166 0
136 156 0
139 159 0
142 163 0
148 167 0
143 164 0
146 167 0
149 171 0
143 164 0
140 160 0
146 168 0
143 164 0
145 167 0
142 163 0
144 165 0
146 167 0
142 164 0
141 161 0
149 169 0
150 171 0
145 167 0
148 169 0
148 170 0
148 169 0
140 160 0
136 155 0
151 171 0
137 158 0
147 169 0
136 157 0
151 172 0
138 159 0
142 163 0
143 164 0
137 157 0
141 163 0
143 163 0
141 161 0
151 171 0
140 161 0
143 164 0
143 162 0
139 160 0
144 166 0
146 167 0
143 163 0
143 165 0
141 162 0
132 154 0
134 154 0
140 161 0
137 158 0
148 170 0
146 166 0
143 163 0
147 169 0
145 165 0
144 164 0
136 156 0
137 156 0
138 159 0
141 161 0
137 158 0
136 156 0
135 155 0
136 157 0
137 158 0
142 162 0
141 161 0
148 169 0
141 160 0
127 146 0
147 166 0
136 155 0
145 165 0
136 157 0
133 153 0
141 161 0
134 153 0
131 150 0
147 167 0
145 164 0
138 158 0
137 157 0
141 160 0
143 163 0
130 149 0
140 159 0
146 164 0
144 166 0
142 161 0
140 160 0
137 156 0
144 165 0
142 162 0
148 168 0
145 165 0
141 161 0
137 157 0
135 153 0
137 155 0
146 167 0
145 165 0
146 166 0
148 169 0
141 160 0
144 163 0
135 155 0
150 170 0
145 165 0
152 172 0
144 162 0
135 154 0
143 161 0
150 170 0
135 155 0
145 163 0
145 165 0
140 159 0
148 167 0
142 161 0
139 158 0
144 163 0
145 163 0
147 164 0
145 164 0
148 167 0
143 162 0
154 171 0
151 170 0
147 165 0
147 166 0
149 167 0
142 158 0
142 160 0
145 162 0
153 173 0
141 159 0
149 166 0
145 161 0
146 165 0
146 163 0
149 168 0
151 169 0
158 176 0
142 160 0
142 161 0
145 164 0
146 164 0
140 157 0
144 161 0
153 170 0
148 164 0
148 168 0
148 165 0
145 162 0
151 167 0
153 169 0
151 167 0
144 158 0
145 161 0
144 160 0
149 164 0
150 164 0
145 159 0
147 163 0
142 158 0
148 163 0
150 165 0
144 161 0
150 166 0
155 171 0
146 161 0
145 158 0
155 167 0
143 156 0
145 158 0
152 165 0
148 162 0
148 160 0
145 159 0
152 164 0
152 166 0
152 165 0
152 163 0
143 153 0
150 162 0
147 160 0
144 158 0
143 154 0
156 167 0
149 160 0
148 157 0
154 167 0
142 152 0
146 161 0
150 160 0
154 164 0
144 152 0
153 163 0
149 157 0
150 163 0
148 156 0
150 159 0
155 164 0
148 156 0
149 158 0
145 156 0
158 169 0
146 156 0
154 163 0
153 161 0
154 162 0
152 160 0
153 161 0
158 166 0
158 165 0
158 169 0
149 157 0
148 153 0
152 159 0
151 158 0
156 165 0
155 162 0
150 157 0
151 155 0
152 157 0
156 163 0
158 165 0
153 157 0
156 163 0
153 161 0
153 160 0
154 163 0
155 161 0
152 155 0
152 158 0
153 161 0
152 161 0
157 164 0
150 156 0
154 157 0
153 159 0
160 166 0
162 170 0
162 170 0
160 171 0
157 165 0
160 167 0
158 166 0
154 160 0
155 160 0
154 160 0
159 167 0
157 165 0
158 165 0
158 166 0
157 165 0
162 172 0
159 168 0
161 170 0
159 168 0
164 177 0
156 163 0
160 169 0
159 166 0
159 166 0
163 171 0
158 178 0
163 183 0
161 180 0
157 175 0
161 180 0
157 176 0
162 182 0
161 180 0
161 180 0
155 173 0
159 178 0
156 174 0
158 177 0
156 174 0
156 174 0
160 179 0
156 175 0
155 174 0
162 181 0
154 172 0
160 178 0
159 178 0
154 173 0
154 172 0
155 173 0
158 178 0
158 176 0
157 175 0
153 171 0
156 173 0
155 174 0
156 174 0
159 178 0
155 173 0
161 179 0
156 174 0
148 166 0
152 171 0
156 175 0
150 168 0
157 176 0
155 173 0
158 176 0
154 172 0
149 167 0
157 175 0
149 167 0
155 173 0
154 173 0
149 168 0
156 175 0
148 166 0
154 172 0
148 166 0
146 165 0
154 173 0
149 167 0
148 166 0
154 173 0
149 167 0
153 173 0
152 171 0
152 170 0
151 170 0
150 168 0
155 174 0
147 166 0
152 171 0
146 165 0
154 173 0
152 171 0
147 166 0
155 174 0
151 170 0
153 172 0
146 167 0
152 172 0
149 168 0
145 164 0
160 180 0
153 174 0
148 167 0
145 166 0
146 165 0
149 169 0
150 170 0
146 166 0
145 164 0
147 168 0
143 163 0
149 169 0
155 175 0
151 171 0
144 165 0
150 171 0
145 165 0
145 165 0
148 169 0
140 160 0
150 170 0
152 173 0
148 169 0
144 165 0
144 164 0
154 176 0
150 171 0
145 165 0
149 170 0
154 175 0
146 167 0
149 170 0
155 176 0
143 164 0
156 176 0
146 166 0
154 175 0
146 168 0
148 169 0
148 169 0
147 168 0
141 162 0
138 160 0
146 167 0
146 168 0
141 163 0
146 165 0
149 171 0
147 168 0
142 162 0
148 169 0
131 152 0
148 168 0
143 164 0
150 172 0
142 164 0
149 171 0
153 176 0
145 166 0
138 160 0
144 164 0
142 161 0
148 170 0
141 163 0
149 170 0
144 166 0
148 169 0
146 167 0
148 169 0
148 169 0
131 150 0
152 173 0
145 166 0
135 156 0
145 166 0
142 163 0
139 161 0
142 164 0
140 160 0
144 165 0
145 166 0
150 171 0
142 164 0
144 165 0
145 165 0
141 162 0
143 164 0
128 147 0
134 154 0
139 158 0
142 164 0
141 162 0
140 162 0
147 167 0
143 164 0
149 171 0
147 168 0
136 156 0
135 157 0
143 165 0
140 160 0
142 163 0
140 162 0
140 161 0
144 165 0
158 181 0
143 163 0
147 168 0
138 159 0
140 160 0
144 165 0
140 162 0
150 171 0
146 168 0
145 164 0
147 167 0
145 166 0
142 163 0
142 162 0
132 152 0
147 170 0
136 157 0
147 168 0
147 169 0
135 155 0
144 165 0
144 164 0
136 156 0
136 156 0
142 163 0
138 158 0
137 158 0
143 163 0
136 156 0
136 156 0
147 167 0
146 166 0
138 158 0
147 166 0
137 157 0
133 153 0
143 163 0
140 159 0
144 162 0
139 161 0
139 159 0
137 156 0
146 166 0
150 170 0
145 165 0
144 165 0
147 167 0
144 164 0
143 162 0
138 158 0
140 159 0
137 157 0
147 166 0
134 152 0
149 169 0
143 160 0
147 166 0
140 160 0
141 162 0
143 163 0
140 159 0
143 163 0
146 164 0
144 162 0
144 162 0
150 170 0
138 157 0
150 168 0
143 161 0
149 168 0
144 162 0
143 162 0
148 168 0
141 157 0
146 164 0
143 162 0
144 161 0
142 161 0
152 169 0
144 162 0
150 166 0
147 162 0
147 167 0
141 159 0
151 170 0
148 165 0
147 167 0
147 166 0
138 156 0
148 165 0
149 166 0
141 157 0
145 161 0
140 157 0
141 159 0
150 168 0
147 166 0
144 162 0
142 158 0
138 154 0
138 156 0
147 165 0
151 169 0
143 161 0
146 164 0
147 165 0
150 168 0
149 161 0
145 161 0
142 158 0
143 159 0
153 168 0
152 168 0
149 166 0
152 171 0
146 161 0
145 161 0
133 150 0
150 164 0
143 156 0
146 161 0
152 162 0
151 165 0
147 163 0
149 164 0
151 166 0
139 151 0
151 163 0
148 163 0
141 151 0
150 164 0
157 172 0
144 157 0
146 160 0
143 155 0
145 158 0
147 162 0
147 158 0
141 155 0
150 163 0
147 158 0
152 162 0
145 157 0
154 166 0
147 157 0
146 157 0
153 164 0
152 163 0
159 169 0
143 153 0
152 164 0
147 158 0
158 165 0
151 161 0
153 162 0
152 164 0
153 166 0
152 161 0
151 161 0
156 164 0
154 164 0
154 161 0
152 159 0
146 153 0
160 170 0
152 161 0
151 158 0
157 165 0
152 161 0
149 158 0
149 157 0
149 153 0
151 159 0
152 159 0
158 168 0
153 161 0
156 164 0
155 165 0
146 151 0
149 156 0
154 162 0
151 156 0
153 162 0
155 165 0
154 160 0
154 161 0
160 170 0
153 162 0
160 172 0
157 163 0
156 165 0
155 162 0
157 164 0
159 165 0
154 162 0
152 162 0
159 168 0
150 152 0
162 174 0
152 159 0
159 166 0
158 167 0
157 166 0
160 166 0
158 166 0
160 170 0
160 168 0
164 174 0
159 168 0
161 170 0
158 166 0
166 174 0
161 169 0
157 165 0
161 170 0
158 167 0
160 180 0
164 184 0
161 179 0
158 177 0
161 180 0
155 174 0
161 180 0
152 170 0
160 179 0
158 176 0
160 178 0
160 180 0
159 177 0
161 180 0
160 178 0
157 176 0
160 178 0
157 176 0
160 178 0
158 177 0
153 170 0
156 175 0
154 172 0
153 171 0
155 174 0
156 174 0
149 167 0
156 175 0
158 177 0
159 178 0
156 174 0
157 176 0
159 178 0
148 165 0
159 178 0
156 174 0
158 177 0
154 173 0
151 169 0
155 174 0
153 171 0
156 176 0
149 167 0
156 175 0
147 165 0
151 169 0
155 174 0
153 172 0
161 179 0
157 177 0
153 172 0
154 174 0
148 167 0
156 174 0
149 167 0
159 178 0
159 179 0
153 172 0
157 177 0
150 169 0
152 171 0
151 171 0
150 170 0
154 174 0
154 173 0
157 177 0
150 169 0
150 169 0
151 170 0
156 175 0
158 178 0
142 161 0
150 169 0
151 171 0
152 171 0
152 172 0
154 174 0
148 168 0
147 167 0
150 169 0
156 176 0
152 172 0
153 173 0
152 171 0
150 170 0
147 167 0
146 166 0
154 175 0
150 171 0
152 172 0
147 167 0
153 172 0
154 175 0
147 168 0
156 176 0
147 167 0
149 168 0
147 167 0
149 169 0
149 170 0
154 176 0
148 168 0
148 169 0
151 171 0
153 173 0
149 170 0
149 169 0
144 165 0
148 167 0
149 169 0
142 162 0
153 174 0
150 171 0
152 173 0
148 169 0
141 163 0
146 166 0
154 176 0
152 173 0
151 173 0
137 156 0
149 169 0
150 170 0
143 163 0
145 167 0
138 158 0
147 168 0
153 175 0
143 165 0
151 173 0
140 160 0
148 170 0
150 171 0
151 172 0
149 172 0
157 179 0
144 164 0
146 166 0
138 159 0
147 169 0
147 168 0
139 160 0
142 162 0
145 167 0
151 172 0
146 166 0
145 167 0
149 170 0
144 166 0
144 165 0
146 166 0
148 168 0
147 167 0
136 157 0
141 161 0
157 179 0
141 162 0
138 160 0
141 162 0
145 165 0
140 161 0
144 165 0
147 168 0
146 168 0
146 168 0
139 161 0
148 170 0
143 163 0
149 170 0
135 157 0
142 163 0
146 167 0
145 164 0
146 167 0
145 166 0
146 167 0
141 162 0
133 153 0
139 160 0
144 165 0
139 160 0
138 159 0
141 162 0
136 156 0
137 158 0
142 164 0
143 164 0
140 160 0
139 162 0
150 170 0
135 155 0
132 152 0
138 159 0
142 162 0
150 172 0
148 170 0
139 159 0
137 158 0
139 158 0
148 169 0
140 161 0
142 163 0
137 157 0
156 176 0
142 163 0
149 170 0
150 172 0
142 163 0
137 157 0
143 164 0
142 162 0
139 159 0
142 163 0
137 157 0
144 164 0
147 169 0
145 166 0
142 162 0
147 168 0
147 167 0
144 164 0
149 169 0
143 164 0
137 157 0
141 163 0
144 163 0
147 166 0
143 162 0
147 169 0
143 163 0
142 161 0
147 168 0
135 155 0
148 168 0
145 166 0
144 164 0
146 167 0
144 166 0
148 169 0
144 163 0
153 173 0
140 160 0
152 171 0
145 165 0
144 163 0
148 168 0
149 171 0
142 162 0
150 170 0
152 172 0
138 157 0
139 157 0
149 168 0
149 167 0
143 161 0
140 160 0
139 157 0
141 159 0
155 174 0
150 170 0
143 160 0
147 165 0
146 165 0
149 166 0
152 172 0
147 165 0
145 163 0
149 168 0
148 165 0
149 169 0
154 172 0
146 163 0
148 167 0
150 168 0
149 168 0
150 167 0
148 167 0
149 167 0
150 168 0
136 152 0
141 156 0
150 167 0
145 163 0
148 166 0
150 167 0
152 171 0
151 167 0
143 161 0
144 161 0
143 160 0
145 161 0
138 154 0
151 167 0
154 171 0
150 166 0
146 162 0
143 159 0
144 159 0
146 163 0
155 172 0
149 160 0
142 156 0
152 167 0
148 160 0
150 165 0
153 170 0
151 164 0
148 161 0
150 160 0
154 171 0
141 156 0
149 162 0
148 161 0
145 158 0
152 166 0
155 168 0
148 164 0
146 159 0
148 161 0
153 167 0
144 155 0
147 160 0
155 168 0
148 159 0
157 168 0
156 168 0
139 151 0
146 157 0
150 161 0
145 157 0
151 162 0
150 161 0
152 164 0
157 171 0
152 164 0
152 161 0
153 164 0
153 165 0
151 161 0
149 159 0
148 156 0
159 170 0
153 162 0
151 160 0
147 155 0
158 167 0
148 157 0
155 165 0
149 156 0
153 163 0
159 169 0
152 161 0
153 160 0
154 164 0
153 163 0
151 158 0
155 166 0
151 159 0
148 156 0
150 160 0
156 165 0
156 165 0
157 166 0
151 156 0
152 158 0
155 164 0
153 162 0
150 157 0
156 163 0
160 170 0
157 168 0
154 162 0
158 166 0
157 164 0
157 163 0
153 158 0
157 165 0
156 162 0
157 163 0
157 164 0
157 164 0
160 169 0
153 162 0
159 166 0
157 165 0
157 164 0
157 164 0
157 163 0
154 160 0
159 165 0
164 174 0
159 165 0
155 163 0
157 163 0
161 166 0
161 169 0
161 170 0
161 172 0
162 170 0
159 172 0
160 178 0
163 182 0
161 180 0
162 180 0
156 173 0
159 178 0
162 181 0
163 183 0
159 179 0
160 179 0
157 176 0
157 175 0
163 181 0
151 170 0
161 180 0
159 178 0
161 179 0
159 177 0
159 178 0
160 179 0
158 177 0
155 174 0
151 170 0
159 178 0
159 176 0
157 175 0
158 176 0
152 170 0
149 167 0
159 177 0
157 175 0
157 176 0
152 171 0
159 177 0
154 173 0
157 176 0
153 172 0
152 172 0
157 177 0
159 178 0
156 174 0
156 175 0
152 171 0
152 170 0
152 171 0
154 172 0
154 172 0
156 175 0
152 171 0
154 173 0
154 174 0
159 179 0
154 173 0
145 164 0
149 168 0
148 165 0
145 165 0
150 169 0
150 169 0
142 161 0
152 172 0
149 168 0
156 174 0
148 166 0
153 172 0
147 166 0
147 166 0
139 158 0
158 177 0
150 169 0
148 168 0
150 170 0
148 168 0
141 160 0
151 171 0
147 168 0
151 170 0
155 175 0
150 170 0
149 170 0
154 174 0
155 175 0
146 167 0
147 167 0
149 169 0
152 173 0
146 166 0
148 169 0
147 166 0
153 173 0
149 170 0
145 165 0
151 172 0
156 177 0
145 164 0
138 160 0
144 164 0
144 164 0
150 170 0
148 168 0
142 162 0
149 171 0
145 166 0
145 166 0
144 164 0
147 167 0
148 168 0
148 169 0
141 162 0
154 176 0
149 170 0
150 171 0
146 166 0
159 181 0
143 164 0
146 165 0
143 164 0
151 171 0
146 168 0
144 164 0
153 174 0
145 165 0
155 177 0
146 167 0
147 168 0
151 172 0
146 167 0
145 166 0
155 177 0
144 165 0
144 165 0
148 171 0
143 163 0
143 165 0
148 169 0
150 170 0
151 172 0
145 165 0
139 161 0
142 164 0
145 166 0
156 178 0
147 169 0
143 163 0
147 168 0
146 168 0
150 172 0
150 171 0
151 173 0
135 156 0
145 166 0
145 167 0
140 162 0
141 163 0
141 161 0
142 162 0
146 166 0
149 171 0
147 168 0
145 165 0
147 168 0
147 168 0
152 175 0
153 174 0
141 162 0
143 163 0
143 165 0
147 168 0
149 169 0
131 150 0
137 158 0
146 166 0
142 161 0
140 162 0
143 164 0
135 156 0
141 163 0
151 172 0
145 166 0
151 173 0
145 167 0
142 164 0
139 159 0
148 169 0
144 165 0
143 165 0
145 164 0
149 169 0
135 155 0
141 162 0
142 162 0
138 160 0
138 158 0
136 155 0
134 154 0
145 166 0
141 161 0
138 159 0
147 169 0
143 164 0
147 165 0
144 166 0
143 162 0
143 163 0
135 155 0
141 162 0
142 161 0
143 164 0
139 158 0
142 160 0
142 162 0
138 157 0
144 164 0
148 169 0
142 162 0
140 161 0
137 157 0
140 160 0
142 163 0
148 169 0
138 159 0
139 159 0
145 165 0
139 161 0
138 159 0
141 161 0
137 157 0
143 162 0
141 161 0
148 168 0
141 160 0
148 169 0
140 160 0
148 167 0
137 157 0
149 168 0
139 160 0
144 165 0
146 167 0
143 159 0
145 165 0
148 168 0
150 169 0
149 170 0
152 172 0
144 164 0
136 155 0
148 167 0
145 164 0
142 162 0
152 172 0
148 168 0
145 164 0
148 166 0
151 172 0
152 172 0
148 166 0
138 158 0
149 167 0
143 160 0
145 164 0
147 166 0
143 161 0
142 160 0
146 165 0
146 165 0
152 170 0
148 166 0
152 170 0
143 159 0
149 168 0
149 166 0
148 166 0
148 167 0
138 157 0
157 175 0
148 165 0
149 166 0
155 171 0
150 167 0
150 167 0
149 165 0
153 168 0
152 170 0
152 169 0
148 164 0
146 163 0
152 171 0
147 165 0
143 161 0
147 164 0
154 174 0
138 155 0
140 156 0
146 162 0
142 155 0
154 171 0
143 158 0
148 164 0
152 170 0
151 167 0
155 170 0
152 168 0
155 170 0
140 153 0
155 171 0
146 162 0
151 165 0
148 162 0
146 158 0
151 166 0
151 166 0
151 166 0
153 169 0
152 167 0
147 159 0
153 165 0
146 159 0
143 156 0
145 159 0
153 167 0
148 161 0
157 172 0
155 168 0
148 157 0
147 160 0
152 163 0
152 163 0
150 160 0
146 155 0
150 163 0
159 170 0
150 162 0
150 163 0
151 163 0
156 165 0
150 162 0
154 166 0
153 163 0
151 163 0
150 160 0
157 169 0
152 163 0
155 167 0
153 163 0
144 155 0
154 164 0
148 158 0
151 160 0
155 166 0
151 159 0
152 162 0
152 161 0
157 166 0
153 162 0
148 157 0
151 159 0
161 168 0
154 163 0
157 165 0
153 163 0
159 171 0
149 158 0
156 164 0
156 164 0
156 164 0
155 162 0
156 166 0
161 171 0
151 160 0
157 166 0
153 158 0
154 162 0
154 165 0
156 164 0
155 162 0
159 168 0
159 168 0
153 158 0
163 173 0
151 159 0
154 163 0
157 163 0
159 167 0
153 159 0
157 164 0
158 167 0
155 163 0
163 172 0
160 168 0
162 172 0
157 166 0
157 165 0
161 168 0
158 164 0
160 170 0
159 170 0
162 175 0
162 171 0
164 174 0
160 179 0
164 184 0
157 176 0
160 180 0
156 174 0
161 181 0
165 184 0
160 179 0
161 180 0
158 177 0
161 180 0
158 177 0
159 178 0
160 179 0
159 178 0
156 175 0
155 174 0
156 174 0
157 175 0
157 176 0
150 168 0
154 174 0
159 177 0
161 180 0
158 176 0
157 177 0
154 173 0
158 177 0
147 165 0
155 173 0
154 173 0
160 180 0
161 180 0
160 179 0
156 175 0
150 169 0
158 177 0
156 176 0
158 177 0
156 175 0
153 172 0
159 178 0
158 177 0
151 169 0
145 163 0
154 172 0
153 172 0
157 175 0
156 174 0
154 173 0
150 167 0
150 170 0
154 173 0
147 166 0
154 173 0
149 168 0
147 165 0
161 180 0
150 168 0
149 167 0
161 181 0
149 168 0
152 172 0
154 174 0
156 176 0
148 167 0
155 175 0
149 169 0
146 165 0
153 174 0
147 166 0
146 166 0
140 160 0
147 166 0
150 170 0
156 178 0
149 168 0
152 172 0
156 177 0
148 168 0
156 177 0
147 168 0
151 170 0
148 169 0
146 166 0
150 170 0
148 168 0
149 169 0
152 173 0
157 178 0
152 172 0
151 170 0
144 163 0
150 170 0
152 173 0
155 176 0
147 167 0
149 170 0
150 171 0
158 179 0
147 168 0
149 170 0
144 165 0
152 172 0
151 171 0
152 174 0
150 170 0
154 175 0
148 168 0
145 165 0
147 169 0
143 163 0
151 172 0
153 174 0
143 164 0
147 168 0
147 168 0
152 173 0
147 168 0
154 174 0
148 169 0
153 176 0
147 168 0
144 165 0
140 161 0
146 167 0
139 160 0
146 168 0
149 172 0
151 173 0
151 172 0
156 178 0
152 172 0
143 164 0
147 167 0
150 172 0
149 170 0
144 165 0
153 176 0
153 175 0
150 172 0
154 174 0
147 169 0
142 163 0
144 166 0
149 170 0
142 164 0
147 170 0
148 169 0
140 162 0
140 161 0
140 162 0
153 173 0
153 174 0
144 165 0
150 171 0
143 165 0
147 167 0
139 160 0
146 167 0
141 163 0
142 165 0
138 159 0
142 164 0
150 171 0
148 170 0
147 167 0
138 158 0
149 170 0
157 178 0
147 169 0
149 170 0
139 160 0
148 168 0
143 164 0
144 164 0
140 161 0
146 167 0
142 162 0
145 167 0
145 164 0
141 160 0
149 171 0
148 168 0
147 168 0
150 170 0
145 165 0
135 156 0
139 161 0
143 162 0
141 163 0
153 174 0
146 166 0
142 163 0
146 167 0
137 159 0
150 171 0
137 157 0
144 163 0
147 167 0
142 164 0
137 157 0
147 167 0
148 168 0
143 164 0
146 166 0
144 166 0
153 174 0
140 162 0
143 164 0
147 169 0
143 163 0
149 170 0
145 165 0
144 162 0
143 164 0
142 164 0
146 167 0
144 165 0
142 163 0
139 159 0
145 166 0
146 166 0
138 160 0
138 158 0
143 164 0
148 168 0
138 157 0
151 171 0
142 161 0
143 163 0
146 166 0
137 156 0
142 160 0
145 166 0
140 159 0
135 154 0
141 160 0
157 180 0
143 162 0
145 165 0
147 167 0
144 163 0
148 167 0
141 161 0
144 164 0
142 162 0
146 166 0
149 168 0
144 163 0
148 167 0
143 163 0
147 166 0
146 165 0
151 169 0
147 166 0
143 160 0
154 173 0
153 171 0
152 173 0
154 173 0
143 163 0
144 161 0
147 164 0
138 157 0
146 165 0
145 163 0
141 159 0
145 165 0
149 166 0
150 169 0
147 168 0
153 172 0
152 170 0
151 169 0
148 167 0
158 176 0
150 169 0
149 169 0
143 160 0
154 170 0
150 168 0
146 163 0
146 163 0
149 166 0
143 159 0
152 169 0
145 162 0
149 164 0
143 159 0
148 164 0
148 165 0
150 167 0
155 173 0
149 165 0
154 170 0
145 163 0
141 158 0
140 155 0
150 166 0
154 170 0
143 160 0
155 173 0
147 163 0
153 169 0
152 171 0
148 161 0
152 166 0
150 161 0
150 165 0
150 162 0
149 163 0
156 169 0
144 157 0
155 169 0
154 168 0
148 164 0
146 161 0
150 165 0
154 169 0
153 166 0
148 160 0
150 167 0
154 168 0
152 164 0
151 165 0
149 163 0
154 167 0
151 165 0
151 162 0
153 164 0
151 163 0
152 162 0
150 161 0
157 170 0
154 165 0
156 167 0
148 160 0
157 168 0
151 162 0
146 153 0
151 161 0
152 163 0
154 166 0
159 170 0
148 160 0
160 173 0
155 164 0
146 156 0
155 162 0
151 162 0
154 163 0
154 164 0
157 166 0
157 168 0
152 162 0
151 160 0
152 162 0
156 164 0
158 165 0
149 160 0
153 160 0
156 164 0
160 172 0
158 167 0
155 165 0
159 168 0
156 165 0
159 169 0
158 168 0
156 162 0
157 165 0
155 164 0
149 155 0
159 170 0
152 159 0
159 167 0
157 168 0
154 160 0
160 169 0
159 166 0
156 164 0
157 164 0
156 164 0
157 164 0
161 171 0
158 164 0
158 166 0
159 169 0
159 168 0
157 164 0
159 170 0
165 174 0
157 165 0
156 166 0
160 170 0
161 171 0
155 161 0
158 168 0
158 167 0
160 180 0
160 180 0
163 183 0
156 176 0
164 185 0
164 184 0
158 177 0
163 182 0
158 177 0
157 176 0
158 177 0
156 175 0
157 175 0
151 170 0
163 182 0
159 178 0
154 173 0
161 179 0
161 180 0
159 179 0
149 167 0
159 178 0
156 176 0
151 170 0
157 175 0
155 174 0
158 176 0
157 176 0
154 173 0
155 174 0
154 173 0
159 178 0
155 173 0
155 174 0
155 174 0
154 173 0
154 173 0
154 173 0
160 178 0
154 173 0
158 177 0
153 173 0
160 179 0
154 173 0
154 173 0
161 180 0
156 175 0
153 172 0
153 171 0
150 170 0
154 173 0
152 172 0
151 171 0
150 169 0
150 169 0
149 167 0
152 170 0
161 181 0
152 170 0
154 173 0
150 169 0
149 168 0
150 170 0
152 172 0
154 175 0
152 172 0
149 170 0
152 172 0
153 172 0
154 173 0
156 176 0
149 170 0
149 169 0
157 177 0
157 178 0
152 171 0
153 173 0
151 171 0
152 172 0
153 174 0
150 171 0
146 165 0
157 178 0
148 169 0
145 166 0
148 168 0
145 166 0
155 176 0
151 170 0
145 164 0
144 165 0
152 173 0
151 171 0
154 175 0
145 165 0
150 171 0
153 173 0
141 162 0
148 169 0
150 171 0
154 175 0
144 166 0
151 171 0
147 169 0
150 172 0
149 169 0
148 169 0
149 170 0
147 169 0
152 173 0
149 169 0
151 172 0
149 170 0
153 175 0
147 167 0
151 173 0
150 171 0
147 167 0
150 171 0
152 174 0
157 179 0
155 176 0
146 167 0
153 175 0
153 174 0
157 178 0
151 172 0
146 168 0
154 176 0
150 172 0
147 169 0
148 169 0
141 162 0
143 162 0
154 174 0
147 169 0
147 170 0
145 166 0
147 167 0
143 162 0
153 175 0
151 173 0
144 165 0
143 165 0
146 167 0
149 171 0
146 167 0
149 170 0
147 168 0
143 164 0
152 172 0
147 168 0
153 174 0
146 167 0
140 160 0
147 167 0
152 173 0
150 170 0
150 171 0
143 165 0
143 164 0
143 164 0
149 171 0
144 165 0
149 170 0
145 167 0
147 169 0
144 166 0
147 169 0
145 166 0
147 169 0
142 163 0
145 167 0
148 169 0
141 162 0
146 168 0
147 168 0
146 167 0
151 172 0
147 169 0
141 163 0
144 167 0
145 166 0
141 162 0
143 164 0
150 171 0
151 173 0
139 159 0
133 153 0
148 167 0
135 154 0
140 160 0
143 165 0
145 166 0
144 167 0
139 163 0
143 164 0
143 163 0
144 165 0
150 171 0
134 154 0
140 161 0
144 166 0
145 166 0
147 170 0
130 150 0
143 162 0
144 165 0
141 162 0
146 167 0
141 161 0
142 163 0
132 153 0
146 167 0
144 163 0
146 166 0
139 160 0
137 157 0
137 156 0
142 162 0
143 164 0
137 157 0
140 158 0
136 156 0
143 162 0
151 170 0
137 157 0
141 161 0
144 165 0
139 160 0
136 155 0
147 167 0
140 159 0
145 166 0
154 175 0
148 168 0
151 170 0
148 167 0
151 172 0
149 170 0
155 176 0
136 155 0
142 162 0
146 164 0
143 164 0
148 167 0
145 164 0
149 168 0
150 170 0
150 170 0
144 163 0
144 163 0
140 160 0
143 164 0
138 158 0
151 172 0
148 169 0
149 169 0
144 161 0
152 170 0
146 162 0
141 161 0
141 161 0
149 167 0
145 164 0
144 163 0
150 169 0
143 162 0
146 165 0
152 170 0
150 169 0
147 166 0
151 169 0
150 169 0
145 162 0
155 172 0
147 162 0
144 162 0
152 169 0
150 168 0
145 162 0
153 171 0
152 170 0
151 168 0
149 169 0
147 164 0
149 169 0
143 161 0
147 165 0
151 169 0
155 172 0
145 164 0
153 166 0
142 159 0
144 158 0
154 173 0
148 164 0
145 163 0
149 165 0
152 169 0
149 166 0
151 165 0
150 165 0
153 169 0
148 163 0
150 166 0
151 165 0
149 163 0
148 163 0
152 167 0
146 160 0
155 171 0
149 166 0
151 166 0
151 167 0
152 167 0
154 168 0
155 168 0
143 158 0
153 171 0
157 172 0
151 164 0
154 168 0
152 167 0
155 172 0
143 156 0
149 161 0
150 163 0
152 166 0
153 166 0
155 170 0
151 163 0
157 171 0
150 164 0
152 162 0
156 170 0
152 164 0
161 177 0
153 164 0
156 171 0
141 155 0
157 169 0
152 164 0
151 160 0
150 158 0
155 165 0
156 165 0
158 170 0
155 165 0
149 157 0
155 165 0
150 161 0
149 157 0
161 171 0
152 161 0
154 164 0
156 168 0
156 163 0
154 165 0
155 163 0
155 166 0
160 172 0
155 164 0
159 170 0
157 165 0
158 168 0
161 174 0
153 160 0
159 167 0
154 164 0
155 163 0
153 162 0
157 165 0
157 167 0
162 172 0
155 164 0
154 163 0
159 164 0
155 165 0
161 170 0
156 163 0
153 162 0
159 168 0
158 170 0
159 167 0
151 158 0
155 164 0
155 163 0
156 165 0
161 172 0
154 160 0
157 165 0
156 162 0
161 168 0
162 171 0
158 164 0
159 168 0
160 170 0
158 167 0
150 154 0
157 176 0
165 184 0
158 178 0
159 179 0
161 180 0
163 182 0
161 180 0
158 176 0
161 180 0
162 182 0
159 178 0
161 181 0
161 180 0
159 178 0
158 177 0
157 176 0
158 177 0
155 174 0
158 177 0
157 176 0
162 182 0
158 178 0
158 177 0
146 164 0
154 174 0
157 176 0
161 181 0
160 179 0
159 177 0
155 173 0
156 174 0
156 174 0
154 172 0
152 172 0
154 173 0
158 176 0
154 173 0
152 169 0
158 176 0
156 174 0
150 169 0
157 176 0
151 169 0
157 176 0
156 175 0
161 180 0
152 171 0
152 172 0
155 175 0
153 173 0
155 174 0
152 171 0
154 172 0
153 171 0
155 175 0
155 175 0
153 172 0
157 176 0
159 179 0
151 170 0
150 169 0
154 173 0
152 173 0
154 173 0
158 177 0
153 172 0
153 172 0
149 169 0
156 175 0
152 172 0
150 170 0
155 175 0
157 176 0
146 167 0
155 175 0
157 177 0
153 173 0
153 174 0
153 173 0
146 165 0
152 172 0
154 176 0
148 168 0
155 176 0
155 176 0
154 173 0
143 163 0
152 171 0
146 167 0
151 172 0
148 169 0
152 172 0
144 166 0
147 167 0
151 170 0
153 174 0
146 166 0
152 171 0
153 174 0
146 166 0
146 168 0
153 174 0
148 169 0
149 169 0
151 172 0
153 172 0
152 173 0
145 166 0
143 164 0
145 166 0
150 171 0
147 168 0
152 174 0
147 168 0
142 162 0
150 172 0
148 169 0
146 167 0
146 168 0
150 172 0
149 171 0
146 167 0
141 161 0
153 175 0
159 181 0
155 177 0
143 164 0
154 177 0
144 165 0
147 168 0
155 176 0
145 166 0
143 164 0
144 164 0
140 161 0
151 172 0
143 164 0
145 166 0
145 166 0
145 165 0
148 169 0
144 164 0
144 166 0
146 168 0
154 175 0
146 168 0
155 178 0
144 166 0
147 169 0
153 174 0
152 173 0
148 168 0
149 170 0
151 173 0
146 166 0
143 163 0
146 167 0
140 161 0
143 164 0
149 171 0
142 164 0
149 170 0
144 165 0
147 168 0
150 171 0
139 161 0
145 166 0
150 171 0
144 166 0
151 171 0
141 162 0
151 172 0
142 163 0
147 169 0
144 166 0
144 165 0
152 173 0
141 162 0
145 167 0
160 182 0
150 172 0
151 173 0
147 168 0
146 168 0
139 160 0
137 158 0
140 161 0
143 162 0
138 158 0
144 165 0
153 175 0
140 161 0
135 155 0
143 165 0
135 155 0
139 160 0
139 161 0
143 162 0
148 168 0
137 159 0
147 168 0
145 165 0
143 163 0
148 168 0
144 164 0
151 171 0
146 167 0
141 163 0
139 158 0
141 162 0
142 162 0
141 161 0
148 170 0
141 162 0
143 163 0
139 159 0
141 161 0
149 170 0
151 171 0
140 159 0
149 170 0
141 161 0
138 159 0
149 169 0
142 162 0
146 165 0
139 159 0
142 162 0
147 165 0
147 166 0
156 175 0
150 169 0
143 161 0
155 172 0
150 169 0
151 171 0
141 162 0
139 159 0
149 168 0
141 162 0
139 158 0
144 165 0
147 166 0
143 162 0
143 161 0
151 171 0
142 163 0
153 174 0
143 162 0
149 167 0
144 165 0
146 165 0
152 172 0
141 162 0
151 170 0
147 167 0
150 170 0
144 162 0
152 169 0
145 165 0
147 167 0
149 166 0
153 171 0
143 161 0
142 160 0
150 170 0
151 170 0
145 165 0
152 171 0
146 163 0
152 170 0
147 168 0
155 175 0
148 166 0
146 164 0
149 167 0
153 171 0
151 170 0
157 175 0
146 162 0
149 167 0
147 165 0
152 170 0
151 169 0
150 167 0
154 173 0
152 170 0
148 166 0
147 161 0
161 180 0
148 163 0
147 165 0
144 159 0
144 161 0
148 165 0
148 165 0
153 172 0
149 166 0
156 175 0
150 167 0
154 170 0
149 167 0
146 160 0
149 163 0
151 167 0
150 163 0
155 171 0
154 171 0
148 164 0
156 172 0
146 161 0
149 164 0
142 159 0
147 161 0
153 169 0
156 168 0
147 161 0
153 168 0
152 168 0
149 164 0
148 162 0
155 168 0
151 165 0
153 167 0
152 165 0
144 154 0
151 163 0
154 167 0
156 170 0
153 165 0
152 169 0
155 167 0
149 161 0
148 159 0
154 166 0
148 159 0
156 168 0
155 165 0
151 162 0
154 165 0
152 163 0
150 160 0
150 162 0
152 166 0
153 163 0
158 169 0
158 174 0
154 165 0
152 164 0
156 165 0
157 169 0
151 164 0
155 167 0
156 168 0
157 168 0
151 161 0
154 164 0
153 162 0
155 165 0
160 170 0
146 155 0
152 163 0
157 170 0
157 165 0
154 163 0
157 166 0
158 169 0
161 172 0
154 160 0
159 170 0
161 170 0
155 166 0
156 167 0
162 172 0
157 167 0
160 170 0
156 164 0
157 166 0
155 165 0
155 166 0
159 168 0
161 171 0
156 163 0
158 166 0
153 163 0
161 171 0
161 173 0
155 163 0
159 169 0
160 169 0
157 166 0
161 170 0
162 174 0
157 167 0
157 167 0
156 165 0
159 170 0
161 171 0
163 173 0
161 170 0
162 180 0
161 180 0
164 184 0
161 180 0
161 180 0
157 176 0
157 176 0
162 182 0
161 181 0
160 179 0
163 182 0
160 180 0
155 174 0
157 176 0
158 177 0
160 180 0
159 179 0
155 174 0
160 179 0
158 177 0
156 176 0
154 172 0
155 174 0
155 174 0
160 178 0
152 171 0
158 176 0
158 178 0
159 178 0
155 174 0
156 175 0
154 174 0
154 172 0
157 176 0
157 176 0
155 174 0
156 175 0
159 179 0
155 174 0
152 172 0
155 174 0
152 171 0
150 169 0
154 173 0
151 170 0
154 174 0
158 178 0
155 175 0
155 174 0
148 167 0
154 173 0
158 177 0
150 169 0
154 173 0
150 169 0
151 172 0
152 171 0
154 174 0
154 174 0
153 172 0
155 176 0
149 168 0
157 178 0
156 177 0
147 167 0
151 171 0
152 172 0
151 171 0
154 173 0
151 171 0
154 174 0
156 176 0
151 171 0
150 169 0
148 168 0
152 173 0
148 168 0
155 175 0
146 167 0
151 171 0
156 177 0
148 169 0
145 164 0
151 172 0
154 173 0
154 175 0
147 168 0
155 174 0
148 169 0
156 177 0
152 174 0
153 174 0
154 175 0
145 165 0
152 174 0
151 173 0
154 175 0
148 167 0
149 171 0
149 169 0
143 164 0
153 174 0
151 172 0
152 173 0
152 173 0
154 175 0
154 175 0
154 175 0
152 173 0
151 172 0
147 169 0
154 175 0
157 178 0
148 169 0
152 174 0
154 175 0
145 165 0
151 173 0
152 172 0
146 168 0
153 176 0
151 173 0
149 171 0
144 166 0
146 167 0
151 173 0
152 175 0
143 165 0
145 166 0
149 171 0
148 170 0
146 168 0
148 169 0
147 168 0
150 172 0
147 169 0
143 165 0
146 167 0
141 161 0
146 168 0
148 170 0
150 171 0
152 174 0
139 159 0
145 165 0
152 173 0
138 158 0
143 165 0
149 170 0
150 171 0
142 162 0
154 176 0
140 163 0
151 171 0
152 174 0
145 166 0
145 167 0
146 166 0
147 169 0
144 167 0
144 165 0
143 166 0
145 167 0
145 167 0
149 169 0
143 164 0
133 154 0
135 156 0
145 166 0
144 165 0
148 170 0
143 164 0
141 163 0
143 164 0
149 170 0
149 170 0
149 170 0
147 168 0
138 159 0
138 159 0
144 166 0
151 172 0
137 157 0
135 156 0
148 170 0
149 170 0
138 159 0
151 172 0
144 164 0
147 169 0
141 162 0
152 173 0
135 155 0
146 168 0
152 173 0
140 161 0
140 161 0
144 164 0
144 166 0
139 161 0
143 163 0
144 166 0
144 166 0
139 158 0
147 168 0
141 162 0
146 167 0
149 168 0
148 167 0
141 160 0
149 169 0
149 170 0
143 164 0
145 166 0
145 166 0
146 167 0
144 162 0
144 164 0
146 167 0
138 158 0
142 163 0
147 166 0
144 164 0
140 158 0
144 164 0
148 167 0
150 170 0
151 171 0
140 160 0
144 163 0
151 171 0
149 170 0
146 167 0
148 167 0
151 170 0
143 164 0
141 162 0
145 165 0
138 159 0
147 167 0
141 161 0
136 155 0
145 163 0
148 168 0
146 165 0
143 161 0
142 161 0
146 165 0
142 160 0
151 171 0
154 173 0
153 174 0
143 160 0
145 165 0
152 173 0
139 159 0
149 169 0
145 165 0
142 163 0
152 171 0
138 157 0
138 155 0
152 172 0
146 167 0
145 164 0
150 169 0
152 170 0
147 168 0
148 166 0
154 174 0
148 166 0
159 177 0
154 172 0
145 164 0
151 171 0
155 175 0
145 164 0
153 172 0
141 159 0
149 168 0
144 161 0
148 167 0
149 167 0
145 165 0
153 171 0
147 165 0
150 168 0
154 173 0
146 162 0
153 172 0
146 163 0
154 174 0
145 161 0
153 170 0
147 164 0
147 161 0
150 169 0
152 168 0
150 168 0
154 172 0
153 170 0
153 170 0
153 170 0
154 171 0
153 168 0
148 164 0
151 166 0
154 170 0
149 164 0
152 166 0
149 164 0
154 171 0
150 166 0
148 164 0
154 169 0
150 163 0
151 165 0
147 161 0
155 167 0
152 169 0
153 167 0
152 167 0
149 163 0
149 161 0
158 171 0
151 164 0
149 164 0
154 168 0
155 165 0
157 170 0
147 159 0
145 157 0
149 161 0
157 173 0
156 171 0
150 161 0
153 169 0
151 163 0
154 164 0
148 164 0
155 169 0
156 168 0
153 166 0
158 168 0
157 169 0
149 160 0
153 165 0
154 166 0
158 172 0
155 166 0
151 159 0
154 165 0
152 161 0
153 161 0
153 165 0
154 165 0
155 165 0
151 162 0
158 169 0
152 163 0
154 166 0
156 165 0
152 160 0
154 163 0
154 163 0
160 167 0
148 158 0
158 168 0
151 160 0
164 173 0
155 163 0
153 160 0
159 169 0
160 171 0
159 169 0
158 167 0
151 160 0
160 170 0
157 166 0
159 170 0
160 173 0
158 167 0
155 163 0
160 168 0
156 168 0
156 161 0
158 165 0
157 165 0
160 170 0
163 175 0
164 173 0
158 166 0
160 168 0
156 165 0
162 172 0
163 173 0
159 166 0
162 170 0
160 171 0
162 172 0
160 180 0
162 182 0
160 179 0
155 175 0
162 182 0
164 184 0
161 179 0
153 171 0
161 180 0
161 180 0
156 175 0
159 178 0
161 181 0
161 181 0
161 181 0
157 176 0
161 180 0
155 174 0
159 178 0
154 173 0
159 179 0
163 182 0
159 180 0
157 176 0
159 178 0
159 178 0
158 178 0
161 181 0
157 177 0
159 179 0
157 176 0
155 173 0
152 169 0
159 179 0
156 175 0
160 180 0
157 177 0
157 176 0
157 177 0
149 169 0
155 174 0
153 173 0
156 175 0
154 174 0
154 174 0
152 171 0
150 169 0
160 180 0
157 178 0
156 177 0
155 174 0
154 174 0
153 174 0
160 179 0
155 174 0
154 173 0
150 170 0
152 172 0
153 173 0
153 173 0
155 175 0
149 170 0
155 175 0
155 175 0
155 175 0
150 170 0
149 170 0
148 168 0
149 170 0
149 168 0
154 174 0
155 176 0
153 173 0
148 168 0
151 170 0
152 171 0
146 167 0
152 172 0
149 169 0
153 174 0
148 170 0
149 169 0
147 168 0
150 170 0
151 172 0
142 160 0
158 179 0
150 172 0
159 180 0
151 174 0
155 175 0
152 173 0
145 167 0
153 176 0
148 169 0
148 169 0
151 172 0
148 169 0
156 177 0
156 176 0
149 170 0
147 170 0
150 171 0
148 169 0
149 169 0
149 170 0
149 170 0
155 177 0
138 159 0
149 171 0
150 172 0
154 175 0
153 174 0
145 167 0
147 168 0
148 169 0
156 179 0
156 177 0
153 175 0
150 172 0
148 170 0
146 166 0
150 173 0
152 173 0
144 166 0
157 179 0
154 175 0
153 173 0
144 166 0
146 167 0
155 176 0
150 172 0
157 179 0
153 175 0
156 177 0
145 166 0
144 166 0
152 173 0
157 178 0
145 167 0
149 171 0
144 167 0
149 169 0
153 175 0
142 162 0
155 177 0
144 166 0
146 168 0
150 171 0
146 168 0
150 171 0
149 170 0
151 172 0
152 174 0
143 165 0
152 173 0
139 158 0
141 162 0
141 161 0
146 167 0
141 163 0
142 164 0
148 169 0
146 167 0
146 169 0
139 160 0
150 172 0
142 163 0
151 173 0
152 174 0
145 167 0
139 160 0
143 165 0
147 169 0
139 162 0
146 167 0
148 168 0
145 166 0
146 167 0
140 162 0
144 167 0
142 163 0
143 163 0
141 163 0
144 166 0
142 164 0
148 169 0
151 172 0
137 159 0
146 168 0
151 171 0
145 165 0
146 167 0
135 156 0
140 161 0
142 162 0
140 161 0
140 161 0
147 168 0
146 168 0
135 156 0
142 163 0
149 170 0
136 157 0
144 164 0
134 155 0
145 166 0
145 165 0
142 162 0
147 167 0
151 171 0
141 163 0
136 156 0
150 171 0
149 171 0
150 171 0
152 173 0
137 156 0
142 163 0
147 167 0
139 160 0
143 163 0
146 167 0
141 161 0
143 164 0
137 158 0
143 164 0
143 163 0
149 169 0
147 169 0
145 164 0
153 173 0
145 166 0
147 167 0
144 166 0
152 172 0
145 165 0
148 167 0
135 156 0
143 161 0
149 166 0
138 159 0
155 176 0
137 158 0
142 163 0
145 164 0
141 163 0
146 164 0
144 164 0
143 162 0
146 165 0
148 166 0
144 164 0
151 173 0
149 169 0
141 159 0
147 169 0
151 171 0
149 169 0
150 169 0
143 162 0
144 163 0
146 163 0
145 163 0
150 170 0
150 169 0
157 176 0
144 162 0
150 169 0
150 168 0
149 169 0
149 168 0
149 168 0
152 171 0
139 156 0
149 166 0
148 168 0
151 171 0
142 160 0
145 164 0
149 168 0
147 165 0
143 161 0
144 161 0
150 168 0
140 158 0
150 168 0
149 167 0
151 169 0
143 158 0
144 160 0
148 164 0
151 170 0
152 170 0
152 171 0
148 164 0
151 169 0
146 160 0
148 165 0
146 161 0
155 172 0
150 168 0
141 158 0
151 168 0
152 167 0
148 162 0
150 166 0
155 173 0
153 169 0
146 162 0
154 171 0
147 162 0
154 169 0
146 162 0
154 170 0
154 171 0
154 170 0
149 161 0
156 170 0
153 170 0
152 165 0
153 165 0
153 166 0
150 163 0
153 168 0
156 168 0
154 171 0
154 169 0
149 163 0
152 168 0
142 157 0
149 159 0
152 166 0
153 169 0
152 164 0
153 164 0
156 171 0
153 167 0
157 168 0
148 162 0
158 171 0
151 162 0
156 170 0
152 164 0
158 170 0
152 165 0
161 175 0
154 164 0
154 164 0
150 160 0
159 174 0
153 166 0
145 157 0
159 170 0
157 169 0
156 169 0
157 167 0
157 169 0
158 170 0
155 166 0
154 168 0
155 167 0
155 166 0
155 166 0
147 157 0
156 166 0
157 166 0
158 170 0
155 167 0
158 166 0
153 163 0
158 169 0
153 162 0
157 169 0
160 171 0
158 169 0
156 163 0
159 167 0
153 161 0
159 170 0
156 166 0
159 170 0
165 175 0
158 167 0
158 166 0
152 163 0
151 160 0
158 167 0
166 178 0
160 172 0
159 171 0
158 166 0
163 174 0
158 166 0
161 171 0
160 173 0
162 172 0
162 173 0
161 170 0
159 172 0
161 182 0
158 177 0
161 181 0
158 178 0
162 181 0
159 178 0
155 174 0
153 172 0
159 178 0
159 178 0
158 177 0
158 177 0
157 177 0
158 177 0
154 173 0
155 175 0
160 180 0
161 180 0
157 176 0
158 176 0
155 175 0
160 180 0
149 167 0
159 178 0
161 181 0
155 174 0
156 176 0
153 171 0
156 176 0
153 172 0
156 176 0
154 173 0
157 176 0
150 169 0
155 174 0
157 177 0
160 180 0
151 170 0
151 171 0
158 178 0
154 174 0
157 178 0
149 168 0
150 170 0
155 175 0
158 179 0
157 178 0
153 173 0
153 173 0
154 174 0
161 180 0
148 168 0
156 176 0
152 173 0
151 172 0
155 175 0
153 172 0
150 169 0
154 174 0
156 177 0
159 180 0
150 170 0
148 169 0
145 164 0
160 179 0
157 177 0
157 177 0
152 172 0
158 179 0
147 168 0
154 174 0
148 169 0
150 170 0
151 171 0
147 168 0
157 178 0
147 167 0
154 175 0
150 171 0
149 170 0
159 180 0
149 171 0
148 169 0
154 174 0
151 172 0
153 175 0
154 174 0
149 169 0
154 175 0
155 176 0
157 177 0
143 164 0
156 177 0
152 173 0
161 182 0
153 174 0
147 168 0
154 175 0
151 173 0
150 171 0
159 180 0
146 167 0
154 175 0
158 179 0
152 173 0
145 166 0
154 175 0
147 166 0
149 169 0
152 174 0
145 166 0
158 180 0
149 171 0
153 174 0
152 173 0
147 167 0
150 172 0
146 166 0
146 167 0
151 174 0
148 169 0
151 173 0
153 174 0
143 165 0
152 173 0
140 160 0
151 174 0
150 170 0
146 166 0
153 174 0
155 177 0
150 172 0
147 169 0
150 172 0
152 173 0
145 167 0
152 174 0
151 173 0
147 169 0
153 174 0
147 168 0
150 174 0
145 166 0
147 168 0
148 169 0
152 174 0
148 170 0
153 176 0
151 172 0
151 173 0
154 177 0
145 167 0
142 163 0
147 169 0
147 169 0
150 172 0
151 173 0
145 166 0
150 171 0
148 171 0
143 164 0
139 160 0
144 166 0
141 162 0
145 167 0
149 169 0
145 166 0
147 168 0
144 165 0
147 168 0
147 168 0
143 164 0
144 166 0
155 177 0
144 165 0
148 170 0
148 169 0
150 172 0
149 171 0
151 173 0
150 171 0
147 168 0
145 166 0
147 168 0
142 164 0
145 166 0
148 170 0
146 167 0
146 169 0
146 168 0
154 174 0
148 168 0
152 173 0
150 171 0
149 171 0
145 166 0
145 166 0
147 168 0
140 161 0
150 170 0
147 169 0
143 164 0
142 163 0
154 176 0
151 172 0
133 155 0
142 163 0
150 171 0
145 166 0
146 166 0
138 159 0
145 164 0
143 162 0
146 167 0
153 173 0
151 172 0
143 165 0
153 175 0
143 164 0
143 165 0
137 158 0
149 168 0
154 176 0
151 173 0
138 159 0
147 166 0
145 166 0
144 165 0
147 167 0
147 168 0
150 169 0
139 159 0
151 172 0
146 166 0
150 170 0
144 164 0
150 170 0
144 162 0
149 170 0
145 165 0
146 166 0
148 169 0
138 159 0
146 166 0
146 165 0
148 167 0
148 166 0
144 165 0
149 167 0
148 168 0
147 167 0
145 164 0
149 169 0
149 169 0
144 162 0
153 173 0
155 176 0
150 170 0
155 175 0
145 165 0
152 172 0
154 173 0
159 178 0
158 180 0
153 173 0
148 168 0
144 163 0
159 178 0
150 171 0
149 168 0
149 169 0
142 161 0
148 166 0
155 173 0
149 166 0
152 172 0
151 170 0
147 165 0
153 172 0
151 169 0
151 169 0
152 171 0
151 170 0
148 167 0
153 172 0
147 166 0
147 164 0
150 167 0
141 158 0
149 166 0
152 170 0
149 169 0
150 166 0
145 161 0
155 172 0
147 162 0
149 166 0
148 162 0
145 159 0
156 174 0
159 174 0
145 161 0
147 166 0
148 164 0
150 167 0
148 162 0
144 160 0
149 165 0
150 166 0
142 159 0
144 158 0
148 166 0
161 178 0
156 172 0
145 159 0
146 163 0
149 165 0
145 162 0
158 173 0
156 171 0
154 166 0
153 169 0
148 163 0
154 168 0
153 167 0
151 165 0
152 165 0
156 172 0
149 163 0
149 166 0
148 161 0
153 167 0
155 169 0
157 171 0
150 163 0
149 163 0
149 163 0
153 167 0
152 165 0
150 165 0
148 158 0
149 161 0
154 163 0
147 159 0
147 159 0
157 173 0
152 163 0
152 164 0
157 170 0
159 170 0
155 169 0
152 164 0
155 164 0
156 167 0
146 158 0
156 167 0
153 165 0
156 166 0
155 167 0
161 174 0
160 172 0
157 169 0
150 159 0
158 168 0
156 169 0
150 158 0
153 161 0
156 167 0
153 159 0
159 170 0
155 167 0
156 166 0
160 174 0
160 169 0
155 166 0
154 164 0
156 164 0
158 169 0
158 170 0
153 164 0
156 164 0
161 173 0
160 171 0
162 175 0
153 161 0
162 172 0
161 171 0
159 169 0
159 164 0
156 163 0
154 164 0
164 174 0
156 163 0
160 171 0
164 176 0
161 172 0
163 174 0
160 171 0
163 175 0
156 164 0
162 182 0
162 182 0
159 179 0
156 175 0
160 178 0
157 177 0
160 180 0
165 184 0
159 180 0
157 176 0
156 175 0
162 181 0
157 178 0
160 179 0
154 173 0
159 178 0
157 176 0
160 180 0
158 177 0
160 179 0
159 178 0
154 173 0
155 173 0
149 167 0
158 177 0
165 184 0
159 179 0
159 179 0
156 175 0
164 183 0
155 174 0
156 175 0
159 178 0
151 170 0
155 175 0
156 175 0
155 176 0
156 176 0
152 171 0
158 178 0
160 179 0
155 175 0
159 179 0
158 178 0
155 175 0
155 174 0
154 174 0
158 177 0
158 178 0
152 171 0
155 175 0
149 168 0
157 177 0
148 168 0
154 174 0
147 166 0
157 177 0
148 168 0
144 163 0
149 169 0
154 174 0
149 169 0
157 177 0
151 172 0
157 179 0
150 171 0
154 175 0
156 175 0
162 182 0
149 170 0
151 172 0
148 168 0
152 171 0
154 176 0
159 180 0
156 176 0
154 174 0
154 173 0
155 176 0
153 173 0
154 175 0
153 174 0
150 170 0
153 174 0
150 172 0
153 175 0
150 171 0
147 167 0
155 176 0
147 168 0
147 167 0
153 173 0
150 171 0
153 173 0
156 176 0
155 176 0
150 172 0
149 171 0
154 175 0
155 176 0
157 177 0
150 171 0
147 168 0
154 174 0
155 176 0
151 172 0
151 172 0
154 175 0
156 177 0
156 178 0
147 168 0
151 172 0
145 167 0
150 171 0
148 168 0
148 169 0
148 168 0
152 174 0
148 169 0
153 174 0
146 166 0
148 170 0
141 162 0
149 171 0
144 165 0
151 172 0
149 171 0
156 178 0
151 173 0
149 171 0
151 173 0
153 174 0
144 165 0
152 173 0
151 172 0
153 175 0
152 174 0
148 170 0
151 173 0
146 166 0
147 169 0
145 167 0
152 175 0
139 161 0
149 170 0
147 168 0
154 176 0
145 168 0
147 168 0
152 174 0
153 174 0
150 171 0
150 172 0
149 170 0
150 171 0
147 169 0
155 177 0
153 175 0
152 174 0
148 169 0
149 170 0
151 171 0
151 172 0
146 167 0
148 169 0
155 177 0
144 164 0
145 167 0
151 172 0
150 173 0
145 167 0
154 176 0
146 168 0
140 160 0
149 170 0
148 170 0
151 173 0
145 167 0
146 166 0
144 164 0
149 171 0
148 167 0
145 168 0
146 168 0
145 166 0
143 165 0
144 164 0
145 166 0
149 171 0
141 162 0
142 162 0
145 166 0
144 163 0
150 172 0
145 167 0
148 170 0
146 167 0
144 166 0
137 158 0
144 166 0
140 161 0
144 165 0
153 174 0
149 169 0
149 170 0
141 162 0
151 172 0
148 169 0
155 176 0
146 167 0
149 171 0
148 169 0
148 167 0
152 171 0
147 166 0
139 159 0
148 168 0
152 174 0
152 172 0
142 162 0
141 160 0
148 168 0
150 170 0
154 175 0
147 168 0
148 168 0
146 165 0
152 174 0
148 169 0
141 161 0
148 169 0
148 167 0
153 174 0
147 168 0
144 164 0
140 162 0
150 171 0
149 169 0
143 164 0
152 171 0
150 169 0
150 170 0
150 170 0
156 175 0
145 166 0
140 161 0
154 173 0
146 164 0
143 163 0
149 168 0
147 166 0
149 167 0
142 161 0
147 167 0
153 172 0
157 179 0
154 174 0
147 167 0
147 167 0
147 167 0
151 171 0
146 167 0
144 164 0
146 166 0
150 168 0
149 170 0
149 168 0
150 170 0
150 170 0
155 175 0
148 168 0
148 165 0
149 168 0
150 169 0
150 170 0
150 166 0
147 165 0
150 168 0
144 163 0
143 163 0
155 173 0
150 170 0
151 169 0
149 166 0
154 174 0
152 171 0
144 161 0
152 169 0
153 170 0
148 165 0
152 168 0
148 165 0
148 165 0
148 166 0
150 167 0
149 168 0
156 174 0
154 171 0
153 169 0
152 167 0
153 171 0
151 168 0
153 170 0
147 161 0
157 174 0
149 168 0
150 169 0
148 163 0
155 172 0
149 165 0
148 165 0
149 163 0
151 166 0
150 165 0
158 175 0
151 169 0
151 167 0
151 165 0
155 171 0
152 167 0
154 169 0
154 170 0
158 173 0
155 170 0
151 167 0
153 168 0
149 163 0
149 162 0
154 170 0
153 171 0
157 174 0
154 166 0
152 167 0
157 173 0
151 166 0
159 174 0
154 168 0
159 172 0
151 166 0
151 163 0
156 168 0
149 160 0
161 176 0
158 170 0
161 173 0
152 164 0
158 172 0
151 163 0
153 166 0
149 163 0
159 174 0
155 169 0
159 172 0
149 161 0
152 165 0
155 166 0
157 170 0
152 165 0
160 173 0
156 168 0
152 161 0
162 175 0
159 171 0
157 167 0
153 165 0
160 171 0
158 171 0
155 167 0
159 168 0
154 165 0
154 164 0
159 171 0
159 170 0
155 166 0
155 163 0
158 169 0
160 172 0
160 170 0
156 166 0
157 167 0
155 164 0
153 165 0
159 169 0
155 165 0
157 168 0
154 164 0
160 169 0
163 172 0
156 165 0
161 172 0
160 169 0
159 170 0
158 167 0
162 172 0
156 165 0
163 173 0
159 169 0
160 169 0
157 166 0
159 168 0
162 182 0
160 178 0
159 179 0
159 178 0
154 172 0
159 179 0
155 174 0
163 183 0
157 176 0
156 176 0
161 181 0
156 175 0
156 175 0
165 185 0
158 177 0
159 179 0
159 179 0
159 179 0
155 174 0
162 182 0
159 179 0
158 177 0
159 179 0
159 178 0
159 179 0
158 178 0
159 179 0
156 176 0
157 177 0
155 175 0
158 178 0
155 174 0
151 170 0
152 171 0
152 171 0
155 175 0
154 173 0
157 177 0
152 171 0
152 172 0
153 172 0
149 168 0
155 175 0
156 175 0
154 173 0
157 178 0
147 166 0
156 176 0
158 178 0
154 174 0
153 174 0
153 172 0
161 181 0
156 176 0
143 163 0
154 175 0
152 172 0
155 175 0
156 176 0
154 173 0
154 175 0
155 176 0
148 168 0
148 168 0
153 174 0
158 178 0
153 175 0
148 169 0
153 174 0
151 172 0
152 173 0
152 173 0
163 183 0
155 175 0
154 175 0
152 172 0
154 175 0
148 169 0
153 174 0
151 171 0
152 172 0
152 173 0
148 168 0
153 174 0
153 174 0
148 169 0
154 176 0
156 177 0
152 173 0
155 176 0
156 178 0
152 173 0
150 171 0
161 182 0
147 168 0
155 175 0
152 174 0
155 176 0
150 171 0
156 179 0
154 175 0
152 175 0
145 166 0
151 173 0
159 181 0
150 171 0
148 170 0
157 178 0
150 172 0
149 170 0
161 183 0
153 174 0
153 175 0
151 174 0
152 174 0
152 171 0
150 172 0
154 174 0
154 175 0
151 173 0
154 176 0
151 172 0
143 164 0
152 174 0
144 165 0
158 180 0
152 174 0
151 172 0
154 176 0
141 163 0
142 162 0
150 171 0
141 164 0
156 179 0
152 173 0
151 172 0
148 170 0
141 161 0
148 170 0
154 176 0
149 170 0
147 167 0
145 167 0
151 173 0
146 168 0
144 165 0
152 174 0
147 169 0
145 167 0
146 167 0
148 169 0
153 174 0
143 164 0
147 168 0
142 164 0
149 171 0
146 166 0
148 170 0
146 168 0
142 163 0
151 172 0
154 175 0
147 168 0
152 173 0
155 176 0
142 164 0
139 161 0
143 164 0
151 174 0
151 172 0
146 166 0
148 171 0
147 169 0
151 173 0
153 174 0
148 170 0
156 179 0
147 169 0
151 174 0
146 166 0
143 164 0
145 165 0
147 169 0
148 169 0
139 159 0
151 172 0
150 172 0
140 158 0
146 168 0
150 170 0
151 172 0
145 165 0
145 166 0
146 167 0
152 173 0
140 160 0
142 164 0
150 171 0
145 168 0
146 168 0
149 169 0
150 172 0
144 165 0
148 168 0
150 170 0
147 167 0
154 175 0
143 163 0
148 169 0
153 174 0
143 164 0
155 176 0
144 164 0
146 166 0
152 172 0
150 172 0
147 167 0
147 168 0
143 163 0
147 168 0
145 167 0
149 170 0
149 170 0
149 169 0
150 172 0
135 156 0
144 165 0
139 158 0
143 165 0
155 175 0
155 175 0
142 162 0
148 169 0
143 163 0
149 171 0
152 172 0
143 164 0
148 167 0
151 173 0
151 170 0
151 172 0
145 164 0
146 164 0
150 171 0
140 161 0
150 170 0
154 173 0
144 165 0
134 153 0
144 164 0
145 166 0
149 169 0
154 175 0
147 166 0
144 164 0
150 169 0
153 172 0
154 174 0
148 168 0
150 168 0
156 178 0
150 167 0
145 165 0
151 170 0
139 158 0
157 176 0
147 166 0
150 170 0
155 174 0
156 176 0
151 171 0
151 170 0
152 170 0
150 169 0
147 166 0
152 171 0
149 168 0
144 160 0
144 164 0
147 165 0
148 165 0
153 174 0
155 174 0
148 168 0
151 171 0
150 169 0
151 167 0
154 172 0
150 169 0
154 171 0
153 172 0
153 172 0
146 165 0
156 175 0
151 168 0
153 171 0
158 174 0
148 164 0
149 166 0
150 167 0
150 168 0
146 165 0
150 165 0
149 166 0
158 175 0
152 168 0
151 167 0
149 166 0
151 168 0
152 168 0
151 167 0
155 168 0
157 174 0
145 159 0
155 172 0
158 175 0
150 167 0
158 175 0
151 168 0
153 171 0
148 164 0
157 171 0
164 182 0
148 163 0
155 169 0
155 170 0
152 168 0
157 174 0
149 165 0
154 170 0
156 171 0
152 164 0
149 163 0
145 159 0
155 169 0
154 168 0
155 169 0
153 169 0
154 167 0
146 162 0
151 165 0
148 157 0
153 167 0
158 171 0
146 159 0
156 169 0
156 170 0
150 160 0
160 174 0
156 169 0
157 171 0
154 166 0
157 170 0
155 166 0
156 169 0
156 169 0
152 168 0
154 165 0
162 172 0
153 165 0
156 166 0
156 167 0
155 167 0
158 171 0
156 168 0
156 166 0
156 166 0
154 165 0
156 168 0
155 165 0
157 168 0
153 164 0
153 164 0
160 173 0
154 162 0
152 165 0
157 166 0
166 179 0
161 173 0
156 167 0
157 172 0
160 171 0
160 172 0
152 161 0
160 171 0
155 167 0
158 168 0
154 163 0
160 171 0
160 170 0
150 158 0
158 168 0
162 174 0
157 167 0
163 173 0
158 167 0
159 171 0
162 176 0
165 177 0
162 176 0
160 180 0
160 179 0
164 183 0
157 176 0
155 175 0
166 186 0
159 178 0
158 178 0
162 183 0
161 180 0
159 179 0
156 175 0
163 182 0
154 173 0
157 177 0
161 179 0
158 178 0
157 176 0
160 179 0
157 176 0
157 177 0
156 176 0
154 173 0
160 180 0
159 179 0
159 178 0
157 177 0
155 175 0
165 185 0
157 177 0
151 170 0
160 179 0
159 179 0
153 172 0
159 180 0
155 175 0
153 172 0
157 177 0
156 174 0
156 176 0
155 175 0
152 171 0
156 176 0
159 180 0
157 177 0
151 170 0
154 172 0
160 180 0
155 176 0
148 169 0
156 176 0
152 172 0
164 185 0
157 176 0
155 175 0
153 173 0
151 171 0
157 177 0
159 180 0
155 175 0
151 172 0
152 172 0
155 174 0
155 176 0
154 175 0
155 175 0
157 177 0
153 174 0
153 174 0
156 177 0
153 172 0
151 172 0
150 171 0
155 175 0
151 172 0
153 174 0
150 171 0
157 178 0
155 176 0
150 171 0
149 171 0
156 177 0
160 182 0
158 181 0
157 177 0
151 172 0
154 175 0
150 172 0
157 178 0
146 167 0
148 169 0
155 177 0
146 167 0
153 174 0
155 178 0
155 176 0
155 177 0
153 175 0
154 175 0
151 172 0
151 173 0
147 169 0
160 181 0
160 182 0
152 173 0
151 172 0
149 171 0
154 177 0
159 181 0
153 174 0
150 170 0
152 175 0
154 175 0
151 173 0
148 169 0
150 170 0
145 164 0
149 171 0
152 174 0
146 168 0
152 173 0
150 172 0
155 177 0
155 177 0
163 185 0
154 176 0
148 169 0
146 166 0
153 175 0
148 168 0
151 173 0
145 167 0
156 178 0
152 174 0
152 174 0
146 167 0
140 162 0
152 173 0
150 172 0
154 177 0
147 168 0
146 167 0
153 173 0
151 173 0
155 176 0
144 166 0
149 171 0
147 169 0
145 166 0
149 170 0
147 169 0
144 164 0
153 175 0
149 171 0
147 168 0
147 169 0
147 168 0
145 166 0
146 167 0
139 160 0
148 171 0
142 164 0
148 168 0
144 165 0
157 178 0
153 174 0
150 171 0
151 172 0
143 165 0
140 161 0
146 168 0
148 168 0
148 169 0
146 167 0
150 172 0
148 169 0
148 169 0
147 168 0
148 168 0
150 172 0
147 169 0
141 162 0
142 164 0
144 165 0
148 169 0
153 174 0
137 158 0
145 166 0
151 172 0
149 170 0
145 168 0
142 162 0
147 168 0
146 169 0
153 174 0
146 167 0
149 170 0
142 165 0
142 162 0
143 164 0
149 170 0
157 180 0
147 168 0
145 165 0
152 173 0
152 172 0
150 170 0
153 174 0
148 169 0
153 174 0
150 172 0
150 172 0
150 169 0
144 163 0
134 154 0
149 171 0
143 164 0
157 178 0
148 168 0
146 166 0
148 170 0
149 169 0
147 168 0
143 163 0
151 172 0
140 160 0
155 175 0
144 165 0
150 172 0
148 167 0
144 164 0
149 171 0
154 174 0
152 174 0
137 157 0
138 158 0
149 171 0
151 172 0
148 169 0
148 169 0
140 161 0
152 170 0
149 170 0
152 173 0
142 160 0
144 164 0
144 164 0
150 171 0
151 170 0
144 163 0
149 169 0
146 165 0
141 160 0
144 164 0
154 172 0
151 172 0
152 173 0
148 166 0
148 167 0
148 169 0
147 166 0
145 166 0
144 164 0
150 169 0
150 171 0
148 167 0
146 165 0
148 169 0
146 164 0
157 177 0
147 167 0
157 177 0
151 171 0
153 173 0
155 174 0
155 176 0
149 168 0
151 171 0
149 168 0
152 171 0
149 171 0
146 163 0
149 165 0
157 176 0
157 178 0
149 167 0
142 162 0
152 169 0
157 175 0
156 175 0
151 171 0
152 170 0
156 176 0
152 171 0
151 167 0
149 167 0
150 168 0
159 174 0
153 173 0
143 160 0
156 174 0
151 166 0
140 156 0
153 170 0
156 175 0
156 174 0
152 168 0
157 173 0
156 175 0
148 166 0
146 162 0
150 166 0
146 163 0
157 172 0
149 164 0
149 165 0
154 170 0
156 171 0
150 165 0
158 173 0
157 173 0
148 162 0
148 164 0
152 169 0
155 169 0
148 165 0
149 162 0
153 167 0
157 171 0
150 163 0
155 169 0
154 166 0
148 165 0
155 170 0
155 170 0
149 162 0
155 171 0
147 161 0
147 161 0
156 171 0
155 170 0
157 171 0
156 171 0
151 165 0
147 158 0
154 167 0
156 168 0
158 169 0
155 168 0
156 168 0
153 166 0
153 165 0
157 170 0
151 165 0
155 167 0
155 170 0
156 169 0
155 167 0
152 164 0
153 165 0
153 163 0
155 167 0
157 168 0
153 165 0
153 169 0
161 175 0
162 178 0
151 163 0
157 167 0
156 166 0
163 175 0
158 171 0
153 163 0
157 168 0
156 166 0
153 161 0
158 168 0
158 170 0
157 168 0
159 172 0
155 165 0
153 162 0
158 169 0
158 170 0
162 174 0
158 171 0
156 165 0
162 172 0
163 174 0
164 177 0
159 170 0
155 164 0
160 170 0
160 168 0
161 171 0
162 173 0
159 169 0
165 177 0
163 174 0
156 168 0
160 179 0
155 174 0
161 179 0
160 180 0
164 184 0
156 176 0
158 178 0
159 178 0
161 180 0
160 180 0
155 174 0
158 177 0
159 179 0
159 179 0
163 183 0
158 178 0
158 177 0
161 181 0
151 171 0
157 178 0
158 177 0
164 183 0
158 177 0
156 176 0
156 175 0
161 180 0
155 175 0
158 178 0
153 172 0
148 168 0
157 176 0
157 178 0
152 171 0
158 178 0
164 185 0
163 183 0
144 163 0
154 174 0
157 176 0
155 175 0
156 176 0
163 184 0
155 176 0
154 174 0
154 173 0
152 172 0
157 177 0
154 175 0
159 180 0
157 178 0
152 173 0
154 174 0
154 175 0
152 172 0
158 179 0
152 172 0
158 179 0
149 170 0
156 176 0
157 177 0
158 178 0
154 175 0
153 174 0
156 177 0
156 176 0
158 179 0
157 177 0
153 174 0
145 165 0
153 174 0
150 171 0
151 171 0
154 175 0
157 178 0
152 173 0
152 173 0
153 174 0
150 171 0
147 168 0
153 175 0
153 174 0
157 178 0
155 177 0
157 178 0
153 174 0
153 175 0
146 166 0
155 176 0
150 171 0
154 176 0
152 173 0
145 167 0
147 167 0
146 167 0
158 179 0
158 181 0
154 176 0
152 174 0
152 174 0
150 173 0
157 179 0
150 170 0
146 167 0
155 178 0
154 175 0
156 178 0
156 177 0
155 176 0
149 171 0
148 168 0
152 174 0
149 170 0
144 164 0
155 176 0
154 176 0
150 172 0
159 182 0
154 176 0
158 180 0
149 170 0
154 176 0
146 168 0
153 175 0
151 173 0
147 168 0
154 177 0
144 165 0
152 174 0
149 170 0
146 168 0
135 155 0
147 168 0
144 165 0
152 174 0
154 176 0
143 164 0
151 174 0
148 169 0
146 168 0
152 174 0
148 169 0
147 168 0
150 171 0
147 168 0
138 159 0
147 168 0
152 173 0
146 167 0
146 167 0
149 172 0
150 171 0
150 171 0
152 174 0
143 166 0
150 170 0
151 174 0
147 169 0
146 167 0
152 174 0
143 164 0
139 161 0
152 174 0
144 166 0
148 169 0
145 166 0
151 173 0
144 165 0
148 170 0
139 160 0
141 162 0
140 162 0
155 177 0
144 167 0
153 173 0
145 166 0
144 165 0
152 174 0
145 166 0
154 175 0
151 173 0
153 175 0
149 169 0
135 157 0
147 168 0
138 159 0
145 166 0
149 170 0
148 169 0
156 178 0
147 168 0
150 172 0
150 171 0
151 173 0
152 173 0
146 167 0
148 171 0
142 163 0
144 164 0
145 166 0
145 165 0
144 165 0
138 158 0
152 172 0
137 157 0
150 171 0
146 168 0
140 160 0
150 172 0
148 170 0
148 168 0
146 167 0
141 162 0
149 170 0
145 167 0
144 166 0
141 163 0
143 165 0
147 170 0
151 172 0
146 168 0
146 168 0
146 166 0
146 165 0
146 165 0
154 175 0
145 166 0
142 163 0
152 172 0
154 173 0
146 167 0
148 168 0
149 168 0
155 176 0
147 168 0
147 168 0
144 165 0
142 161 0
145 167 0
147 165 0
152 172 0
147 166 0
147 168 0
153 174 0
156 177 0
153 174 0
154 173 0
142 162 0
151 170 0
152 174 0
149 169 0
147 167 0
159 180 0
144 165 0
152 172 0
148 170 0
139 159 0
149 169 0
145 163 0
140 158 0
147 167 0
145 166 0
153 172 0
147 167 0
147 167 0
148 170 0
148 168 0
151 170 0
152 171 0
151 171 0
153 172 0
150 168 0
143 162 0
157 176 0
144 163 0
141 160 0
154 174 0
155 173 0
154 173 0
143 162 0
150 171 0
149 169 0
151 168 0
154 172 0
154 173 0
153 173 0
146 164 0
161 180 0
143 162 0
147 164 0
153 172 0
157 174 0
148 164 0
157 175 0
152 170 0
147 164 0
155 172 0
153 171 0
153 171 0
152 171 0
160 180 0
159 179 0
156 174 0
148 164 0
155 173 0
148 166 0
144 158 0
149 163 0
152 171 0
154 171 0
147 164 0
153 170 0
156 173 0
152 169 0
151 167 0
151 168 0
149 163 0
160 177 0
155 170 0
151 166 0
152 170 0
153 166 0
156 172 0
160 177 0
160 173 0
157 173 0
157 174 0
155 170 0
154 170 0
147 161 0
158 175 0
154 170 0
153 168 0
155 170 0
155 170 0
157 171 0
153 167 0
158 172 0
159 173 0
154 169 0
155 169 0
150 163 0
153 167 0
156 171 0
155 168 0
156 169 0
155 169 0
162 177 0
156 167 0
155 168 0
153 166 0
154 167 0
155 168 0
152 168 0
151 164 0
159 172 0
157 169 0
153 165 0
156 169 0
151 165 0
156 170 0
158 169 0
157 170 0
158 170 0
158 170 0
154 166 0
153 167 0
153 162 0
156 168 0
156 171 0
165 179 0
150 161 0
153 164 0
150 162 0
156 167 0
160 172 0
154 165 0
155 164 0
155 164 0
157 170 0
155 164 0
160 172 0
161 175 0
156 168 0
157 168 0
155 166 0
162 176 0
158 169 0
157 170 0
155 163 0
157 166 0
157 169 0
157 170 0
160 173 0
157 168 0
157 164 0
158 167 0
164 177 0
161 171 0
162 176 0
157 167 0
159 179 0
164 184 0
159 178 0
159 180 0
161 179 0
158 177 0
162 181 0
161 180 0
160 179 0
156 176 0
161 182 0
163 183 0
158 178 0
154 174 0
157 176 0
159 178 0
155 176 0
156 175 0
157 177 0
157 177 0
161 180 0
158 179 0
157 176 0
163 184 0
157 176 0
156 176 0
155 174 0
154 172 0
159 179 0
159 179 0
152 173 0
159 178 0
162 182 0
161 182 0
156 176 0
161 182 0
156 176 0
154 174 0
159 179 0
157 178 0
151 171 0
151 171 0
154 175 0
159 179 0
153 172 0
157 177 0
155 176 0
159 179 0
158 180 0
154 174 0
154 174 0
153 173 0
157 177 0
151 170 0
155 175 0
150 170 0
155 176 0
153 172 0
151 173 0
149 169 0
153 174 0
154 175 0
150 171 0
155 177 0
151 172 0
149 169 0
156 177 0
158 179 0
161 181 0
153 173 0
153 175 0
151 171 0
149 170 0
158 180 0
151 172 0
154 175 0
156 177 0
145 165 0
158 179 0
159 182 0
156 177 0
152 173 0
153 175 0
151 172 0
154 174 0
152 173 0
155 176 0
160 181 0
156 178 0
153 173 0
149 171 0
148 169 0
146 167 0
150 172 0
152 172 0
152 174 0
159 181 0
153 173 0
153 175 0
144 166 0
149 169 0
153 175 0
152 173 0
151 173 0
148 170 0
155 177 0
157 179 0
152 174 0
156 177 0
154 175 0
151 172 0
148 169 0
149 170 0
152 173 0
151 173 0
152 173 0
156 178 0
153 174 0
152 173 0
152 174 0
152 174 0
149 171 0
153 175 0
150 172 0
144 166 0
151 173 0
152 173 0
144 164 0
152 173 0
149 170 0
148 170 0
151 172 0
149 171 0
148 169 0
153 175 0
147 168 0
156 178 0
151 172 0
148 169 0
147 168 0
151 172 0
144 165 0
144 166 0
147 170 0
148 169 0
148 170 0
155 176 0
150 172 0
152 173 0
144 165 0
151 173 0
149 171 0
145 167 0
153 173 0
152 174 0
156 178 0
154 176 0
142 164 0
144 166 0
146 166 0
142 162 0
147 169 0
149 171 0
151 173 0
148 169 0
145 167 0
156 177 0
147 167 0
149 169 0
149 170 0
148 170 0
149 172 0
148 169 0
145 166 0
149 170 0
142 163 0
142 163 0
157 178 0
149 171 0
149 169 0
148 170 0
147 168 0
144 165 0
144 165 0
154 174 0
151 173 0
146 166 0
148 170 0
142 162 0
153 173 0
148 169 0
135 155 0
145 165 0
144 163 0
140 161 0
141 161 0
152 174 0
142 164 0
146 167 0
145 168 0
148 170 0
138 159 0
143 165 0
149 171 0
146 166 0
149 169 0
152 174 0
145 166 0
152 173 0
148 168 0
145 166 0
144 165 0
144 166 0
148 169 0
146 167 0
148 169 0
151 172 0
154 175 0
151 173 0
150 172 0
150 172 0
139 160 0
150 170 0
151 172 0
148 169 0
152 173 0
150 172 0
144 164 0
144 165 0
149 169 0
145 166 0
142 162 0
149 169 0
153 173 0
155 175 0
141 161 0
152 173 0
147 167 0
152 174 0
149 171 0
148 171 0
148 167 0
151 169 0
152 171 0
152 171 0
153 174 0
145 164 0
156 175 0
153 173 0
158 179 0
154 175 0
150 172 0
152 173 0
150 170 0
145 166 0
149 169 0
156 175 0
143 163 0
155 175 0
150 169 0
150 169 0
150 170 0
158 178 0
151 169 0
154 174 0
143 162 0
152 171 0
149 167 0
149 170 0
149 167 0
143 162 0
148 166 0
154 173 0
148 169 0
149 169 0
151 169 0
154 172 0
146 163 0
152 172 0
147 167 0
148 169 0
153 174 0
153 172 0
152 170 0
157 176 0
153 173 0
154 172 0
146 163 0
151 169 0
152 170 0
149 167 0
146 162 0
146 163 0
155 174 0
149 167 0
154 171 0
156 174 0
152 170 0
147 164 0
151 172 0
155 174 0
147 165 0
150 168 0
146 165 0
154 171 0
150 168 0
146 164 0
151 166 0
149 168 0
158 178 0
152 165 0
146 163 0
154 170 0
155 174 0
150 167 0
157 173 0
147 165 0
147 163 0
162 180 0
154 171 0
149 166 0
157 172 0
155 173 0
155 171 0
147 163 0
151 168 0
151 167 0
144 160 0
155 172 0
152 167 0
154 169 0
152 164 0
158 175 0
146 160 0
157 172 0
156 171 0
155 169 0
150 163 0
155 170 0
155 171 0
158 176 0
156 169 0
146 158 0
159 173 0
160 175 0
149 162 0
148 162 0
155 167 0
154 166 0
158 173 0
152 165 0
153 167 0
155 170 0
156 172 0
155 169 0
150 162 0
154 168 0
159 172 0
156 169 0
156 168 0
151 163 0
153 165 0
159 174 0
158 172 0
158 171 0
161 173 0
160 174 0
156 169 0
155 167 0
161 174 0
154 168 0
156 170 0
158 169 0
160 172 0
153 163 0
159 170 0
161 176 0
158 169 0
153 166 0
159 171 0
162 174 0
157 166 0
158 170 0
157 169 0
152 162 0
157 170 0
160 172 0
155 168 0
155 166 0
161 172 0
158 168 0
159 174 0
163 175 0
157 170 0
159 170 0
161 175 0
158 170 0
163 175 0
160 172 0
162 174 0
164 183 0
160 180 0
161 182 0
159 178 0
156 177 0
161 182 0
165 185 0
156 177 0
160 179 0
158 177 0
161 182 0
161 181 0
157 178 0
161 182 0
160 179 0
158 178 0
160 180 0
158 179 0
161 182 0
160 180 0
161 181 0
159 179 0
161 180 0
159 179 0
160 180 0
157 175 0
162 182 0
158 178 0
159 179 0
157 177 0
158 178 0
155 175 0
157 176 0
161 181 0
153 173 0
157 177 0
154 174 0
154 174 0
159 179 0
156 177 0
157 178 0
154 176 0
149 168 0
155 175 0
157 177 0
157 177 0
156 176 0
158 177 0
152 173 0
155 174 0
151 171 0
150 170 0
151 170 0
158 178 0
155 174 0
150 170 0
157 177 0
148 168 0
157 177 0
152 173 0
157 178 0
150 171 0
154 175 0
157 178 0
153 174 0
153 174 0
156 177 0
152 173 0
153 174 0
156 176 0
149 169 0
152 173 0
151 172 0
155 176 0
158 180 0
150 172 0
157 179 0
151 172 0
151 172 0
156 177 0
155 175 0
145 167 0
155 176 0
158 180 0
153 174 0
155 176 0
147 169 0
155 176 0
151 172 0
151 173 0
144 164 0
147 168 0
156 176 0
150 172 0
154 176 0
148 169 0
152 173 0
150 172 0
150 171 0
154 176 0
154 175 0
150 171 0
156 177 0
148 170 0
151 172 0
155 177 0
153 176 0
151 173 0
157 179 0
154 176 0
145 167 0
139 159 0
150 172 0
158 179 0
152 173 0
140 162 0
155 177 0
151 173 0
153 174 0
152 174 0
154 176 0
154 175 0
146 168 0
151 172 0
147 167 0
154 176 0
156 178 0
147 169 0
145 166 0
150 171 0
142 164 0
150 172 0
154 176 0
147 168 0
151 171 0
151 174 0
149 170 0
150 171 0
149 170 0
147 169 0
145 167 0
147 169 0
145 167 0
152 173 0
151 173 0
156 177 0
155 178 0
151 173 0
148 169 0
155 177 0
152 174 0
153 174 0
152 174 0
149 170 0
149 171 0
150 171 0
150 172 0
148 168 0
147 169 0
146 168 0
143 164 0
155 176 0
152 174 0
140 161 0
137 158 0
144 164 0
147 169 0
147 169 0
153 175 0
145 168 0
150 171 0
158 180 0
147 167 0
152 174 0
139 160 0
152 174 0
148 171 0
140 162 0
155 175 0
155 177 0
144 165 0
150 171 0
145 167 0
155 178 0
153 174 0
140 160 0
143 165 0
149 170 0
144 165 0
146 168 0
154 175 0
155 176 0
142 163 0
142 163 0
145 166 0
149 170 0
147 168 0
153 175 0
148 169 0
149 170 0
150 172 0
154 176 0
149 169 0
156 179 0
152 173 0
150 170 0
144 164 0
148 171 0
142 162 0
146 167 0
143 165 0
148 168 0
152 174 0
148 169 0
154 175 0
154 174 0
151 172 0
151 173 0
142 163 0
153 172 0
156 178 0
146 166 0
151 172 0
146 166 0
146 166 0
144 165 0
144 164 0
148 169 0
150 172 0
146 166 0
150 170 0
150 171 0
148 169 0
151 172 0
146 166 0
149 171 0
141 162 0
147 168 0
154 175 0
146 165 0
156 176 0
145 167 0
151 171 0
150 171 0
148 168 0
149 169 0
149 169 0
150 171 0
151 171 0
147 167 0
146 166 0
150 172 0
152 170 0
147 168 0
151 171 0
146 165 0
153 172 0
147 168 0
148 169 0
154 174 0
144 162 0
156 176 0
148 167 0
149 169 0
150 172 0
148 168 0
153 172 0
149 169 0
152 172 0
151 170 0
148 168 0
145 164 0
152 173 0
158 175 0
147 167 0
154 172 0
151 172 0
151 172 0
147 166 0
155 175 0
147 165 0
141 160 0
151 169 0
151 171 0
153 172 0
148 166 0
158 177 0
148 165 0
154 173 0
148 167 0
152 171 0
153 172 0
145 161 0
154 173 0
158 177 0
146 165 0
154 172 0
157 173 0
155 173 0
147 164 0
149 168 0
150 166 0
157 175 0
152 171 0
159 178 0
154 172 0
151 170 0
158 178 0
150 167 0
151 168 0
155 175 0
156 175 0
156 171 0
148 165 0
153 170 0
153 171 0
153 170 0
155 172 0
159 177 0
149 167 0
152 171 0
155 174 0
154 169 0
157 172 0
154 169 0
154 168 0
154 169 0
153 168 0
152 169 0
156 172 0
153 169 0
154 171 0
158 173 0
156 170 0
150 167 0
151 166 0
151 166 0
157 174 0
152 168 0
158 172 0
158 173 0
153 169 0
157 172 0
155 171 0
159 175 0
149 160 0
152 167 0
151 166 0
156 168 0
154 166 0
159 174 0
156 171 0
157 168 0
161 175 0
154 170 0
153 169 0
156 166 0
155 167 0
159 172 0
151 163 0
159 173 0
158 173 0
153 166 0
150 161 0
152 164 0
160 175 0
158 172 0
160 174 0
159 174 0
156 168 0
158 171 0
160 172 0
160 172 0
161 175 0
160 171 0
164 177 0
159 169 0
159 171 0
161 173 0
155 165 0
159 172 0
158 171 0
158 166 0
162 174 0
162 178 0
164 179 0
156 167 0
157 168 0
154 165 0
159 170 0
161 173 0
158 171 0
160 171 0
159 171 0
160 170 0
166 179 0
162 175 0
162 176 0
156 167 0
157 165 0
157 177 0
163 183 0
165 185 0
159 178 0
160 181 0
165 186 0
163 184 0
162 182 0
161 180 0
157 177 0
156 174 0
158 178 0
156 177 0
155 175 0
157 176 0
159 179 0
159 179 0
159 181 0
157 177 0
159 179 0
159 179 0
162 181 0
152 171 0
160 181 0
157 177 0
158 179 0
156 176 0
159 180 0
161 180 0
156 175 0
159 178 0
157 177 0
160 180 0
155 175 0
161 182 0
156 176 0
153 173 0
155 176 0
159 180 0
155 175 0
149 170 0
152 172 0
159 180 0
151 170 0
156 176 0
160 181 0
159 180 0
159 179 0
150 171 0
155 176 0
159 180 0
157 178 0
157 177 0
159 180 0
152 171 0
153 173 0
152 173 0
153 174 0
146 166 0
150 170 0
157 178 0
156 177 0
155 176 0
152 173 0
154 175 0
150 171 0
159 179 0
160 182 0
149 169 0
152 173 0
156 177 0
154 175 0
153 175 0
146 166 0
157 178 0
155 176 0
150 170 0
158 178 0
150 170 0
150 172 0
152 174 0
152 173 0
151 173 0
148 169 0
153 175 0
153 173 0
151 173 0
159 181 0
152 172 0
157 178 0
158 179 0
150 171 0
157 179 0
154 175 0
156 177 0
148 172 0
157 180 0
156 178 0
148 169 0
160 180 0
147 168 0
153 176 0
150 171 0
149 170 0
149 172 0
151 172 0
151 172 0
149 170 0
147 167 0
153 176 0
152 175 0
159 182 0
151 172 0
155 177 0
149 171 0
155 177 0
145 166 0
150 171 0
154 176 0
149 171 0
155 177 0
147 168 0
142 164 0
154 176 0
152 174 0
148 170 0
150 171 0
154 176 0
157 180 0
155 176 0
153 176 0
147 168 0
146 166 0
147 169 0
149 171 0
150 172 0
145 166 0
152 172 0
149 170 0
156 176 0
154 175 0
145 166 0
151 172 0
151 173 0
140 161 0
143 164 0
148 169 0
143 166 0
156 179 0
153 174 0
148 169 0
152 173 0
150 172 0
146 168 0
151 174 0
158 180 0
149 170 0
148 170 0
151 173 0
152 173 0
148 169 0
148 169 0
149 171 0
149 171 0
155 177 0
153 174 0
152 173 0
145 165 0
142 162 0
151 172 0
148 169 0
143 164 0
150 172 0
154 176 0
154 176 0
151 172 0
146 168 0
148 170 0
151 173 0
147 167 0
147 167 0
148 169 0
151 173 0
150 171 0
148 169 0
150 172 0
154 175 0
152 173 0
150 172 0
147 169 0
149 171 0
145 167 0
148 169 0
146 168 0
146 168 0
146 167 0
150 171 0
150 171 0
153 172 0
151 173 0
157 178 0
151 173 0
150 170 0
144 165 0
143 163 0
143 164 0
145 168 0
139 160 0
152 175 0
144 165 0
148 170 0
147 170 0
144 165 0
156 177 0
145 166 0
147 168 0
153 175 0
151 173 0
144 164 0
146 166 0
154 175 0
146 169 0
152 174 0
155 176 0
152 174 0
151 172 0
144 166 0
152 171 0
148 169 0
148 169 0
148 169 0
144 164 0
150 171 0
148 168 0
151 173 0
154 175 0
152 172 0
153 175 0
150 170 0
144 164 0
138 160 0
150 171 0
148 169 0
141 162 0
148 168 0
146 167 0
147 165 0
152 174 0
154 173 0
146 167 0
151 170 0
149 169 0
148 169 0
148 168 0
153 172 0
149 169 0
144 165 0
148 170 0
151 173 0
154 174 0
151 171 0
145 165 0
151 172 0
150 170 0
154 173 0
146 164 0
146 166 0
149 168 0
149 168 0
146 166 0
153 171 0
156 175 0
148 168 0
148 166 0
148 167 0
149 168 0
159 178 0
154 176 0
148 166 0
155 174 0
148 168 0
152 172 0
146 165 0
153 169 0
142 159 0
149 169 0
157 175 0
151 168 0
154 172 0
151 167 0
145 164 0
154 174 0
143 162 0
156 174 0
154 171 0
154 173 0
157 176 0
149 167 0
150 167 0
151 170 0
155 174 0
155 174 0
153 172 0
158 177 0
157 175 0
154 171 0
155 175 0
158 175 0
153 170 0
150 168 0
153 172 0
159 176 0
154 172 0
155 171 0
149 164 0
150 165 0
151 166 0
154 171 0
154 171 0
155 172 0
152 172 0
151 167 0
147 164 0
160 176 0
153 169 0
158 176 0
156 173 0
155 171 0
157 176 0
157 173 0
152 168 0
153 168 0
156 169 0
153 169 0
150 167 0
160 175 0
158 176 0
148 165 0
156 173 0
156 172 0
147 165 0
157 174 0
154 171 0
154 171 0
153 167 0
155 169 0
153 168 0
157 172 0
148 161 0
158 173 0
157 171 0
159 172 0
161 177 0
155 169 0
156 171 0
159 175 0
157 172 0
158 171 0
157 171 0
157 172 0
155 167 0
160 174 0
155 167 0
161 174 0
152 165 0
156 168 0
158 172 0
159 172 0
156 167 0
155 168 0
156 169 0
154 167 0
157 172 0
160 170 0
160 173 0
153 167 0
154 164 0
159 173 0
157 167 0
155 167 0
160 174 0
162 177 0
154 165 0
157 169 0
160 172 0
158 169 0
157 167 0
157 167 0
161 176 0
155 167 0
161 173 0
157 167 0
159 171 0
158 170 0
159 169 0
159 171 0
161 172 0
157 168 0
157 169 0
162 176 0
160 180 0
161 182 0
156 176 0
161 182 0
158 177 0
161 181 0
155 174 0
161 181 0
159 179 0
160 179 0
157 177 0
158 178 0
160 180 0
156 177 0
158 178 0
159 179 0
159 179 0
157 177 0
162 182 0
154 173 0
163 184 0
152 173 0
155 175 0
157 177 0
158 178 0
157 176 0
160 179 0
155 175 0
155 176 0
156 175 0
154 173 0
156 177 0
157 177 0
159 179 0
155 175 0
158 178 0
154 174 0
157 178 0
154 175 0
155 175 0
159 180 0
158 180 0
161 181 0
153 174 0
159 181 0
153 174 0
152 173 0
151 171 0
146 167 0
160 180 0
149 170 0
158 180 0
147 167 0
158 179 0
151 171 0
157 178 0
155 176 0
154 174 0
156 177 0
153 174 0
155 176 0
158 178 0
146 167 0
155 176 0
153 173 0
155 176 0
160 183 0
154 175 0
152 173 0
152 173 0
156 177 0
151 172 0
152 172 0
160 181 0
156 176 0
158 180 0
155 176 0
154 175 0
158 180 0
153 175 0
158 180 0
150 170 0
156 178 0
145 166 0
156 178 0
153 175 0
152 173 0
148 169 0
151 173 0
159 181 0
159 182 0
154 175 0
155 175 0
154 175 0
152 173 0
161 183 0
151 173 0
154 175 0
150 172 0
151 173 0
144 164 0
159 180 0
151 172 0
154 175 0
154 174 0
151 172 0
162 183 0
146 169 0
153 174 0
153 175 0
142 163 0
151 173 0
150 171 0
149 171 0
157 179 0
159 180 0
156 177 0
150 172 0
152 173 0
156 180 0
157 178 0
157 180 0
150 172 0
152 175 0
159 181 0
155 178 0
153 176 0
146 168 0
150 171 0
155 178 0
148 169 0
143 165 0
154 175 0
153 174 0
151 173 0
151 174 0
154 176 0
148 171 0
151 174 0
149 170 0
157 179 0
156 179 0
148 170 0
158 179 0
143 165 0
148 169 0
147 171 0
152 174 0
149 170 0
150 171 0
153 175 0
152 173 0
149 170 0
148 171 0
144 166 0
153 175 0
146 167 0
151 172 0
159 182 0
148 169 0
149 170 0
146 167 0
153 174 0
148 169 0
143 164 0
150 172 0
154 175 0
148 170 0
145 166 0
146 167 0
141 162 0
142 164 0
145 167 0
143 165 0
156 177 0
154 174 0
149 171 0
151 172 0
150 170 0
148 167 0
150 171 0
150 171 0
137 159 0
151 174 0
151 174 0
149 172 0
148 169 0
154 177 0
148 169 0
145 166 0
145 167 0
149 172 0
147 169 0
146 166 0
156 178 0
150 171 0
152 174 0
143 164 0
148 168 0
152 173 0
150 171 0
145 167 0
141 163 0
152 174 0
142 163 0
150 172 0
146 167 0
147 167 0
151 172 0
146 166 0
150 172 0
143 164 0
145 165 0
153 173 0
146 165 0
149 170 0
150 171 0
142 164 0
153 174 0
147 169 0
144 165 0
149 170 0
144 165 0
153 173 0
150 171 0
144 164 0
146 166 0
148 170 0
147 168 0
147 168 0
151 172 0
151 172 0
145 164 0
148 169 0
140 159 0
155 175 0
148 168 0
155 175 0
152 172 0
153 174 0
153 173 0
147 167 0
148 170 0
150 170 0
146 165 0
152 173 0
136 157 0
151 172 0
148 169 0
150 172 0
150 171 0
147 165 0
142 162 0
151 171 0
152 172 0
154 176 0
152 172 0
154 175 0
138 158 0
146 165 0
145 164 0
148 170 0
154 173 0
153 174 0
151 171 0
150 170 0
147 167 0
148 169 0
149 168 0
146 166 0
148 168 0
149 167 0
155 175 0
155 176 0
151 171 0
153 174 0
147 167 0
150 169 0
149 170 0
147 165 0
154 174 0
143 162 0
149 168 0
145 164 0
154 171 0
157 175 0
152 171 0
154 173 0
153 173 0
152 169 0
147 164 0
158 176 0
151 167 0
152 168 0
152 169 0
154 172 0
153 172 0
158 175 0
159 178 0
152 171 0
152 170 0
152 170 0
153 172 0
147 165 0
153 170 0
157 176 0
151 167 0
153 172 0
152 170 0
160 176 0
153 173 0
151 168 0
158 176 0
154 173 0
157 175 0
157 174 0
157 177 0
152 168 0
156 172 0
154 171 0
151 165 0
151 168 0
154 172 0
149 165 0
151 169 0
153 167 0
154 169 0
153 171 0
149 166 0
156 174 0
149 166 0
162 179 0
152 167 0
157 174 0
154 170 0
149 165 0
152 168 0
153 171 0
154 168 0
157 173 0
159 173 0
154 168 0
160 174 0
153 166 0
154 169 0
151 164 0
153 168 0
152 168 0
157 172 0
150 166 0
151 166 0
159 174 0
156 170 0
156 171 0
154 170 0
161 176 0
156 169 0
163 179 0
155 169 0
158 172 0
161 175 0
154 166 0
160 174 0
147 159 0
155 168 0
156 168 0
157 168 0
153 167 0
156 167 0
158 170 0
162 177 0
155 166 0
163 178 0
155 168 0
151 163 0
160 172 0
161 174 0
156 169 0
159 171 0
151 164 0
154 165 0
156 168 0
156 169 0
156 167 0
160 173 0
160 172 0
161 173 0
163 178 0
158 171 0
156 168 0
159 171 0
162 173 0
160 172 0
164 177 0
157 168 0
155 168 0
160 171 0
158 171 0
162 174 0
155 166 0
161 181 0
162 182 0
161 182 0
163 183 0
161 182 0
162 181 0
158 179 0
162 182 0
157 177 0
161 180 0
160 180 0
162 183 0
158 178 0
159 180 0
159 179 0
160 182 0
159 180 0
161 181 0
157 178 0
161 182 0
156 177 0
157 177 0
159 178 0
161 181 0
154 174 0
158 178 0
157 177 0
158 178 0
160 182 0
159 179 0
152 171 0
158 179 0
157 177 0
152 173 0
161 182 0
153 174 0
154 175 0
166 187 0
159 180 0
150 170 0
150 169 0
155 176 0
157 178 0
159 178 0
153 173 0
151 172 0
158 178 0
154 174 0
161 182 0
157 177 0
155 175 0
158 178 0
150 169 0
152 172 0
153 175 0
158 179 0
153 175 0
153 174 0
152 173 0
157 180 0
157 178 0
157 179 0
152 174 0
155 176 0
154 175 0
156 178 0
155 177 0
157 179 0
154 175 0
160 181 0
155 176 0
157 178 0
155 176 0
152 173 0
156 177 0
154 175 0
151 172 0
151 172 0
150 171 0
158 178 0
148 168 0
160 180 0
154 174 0
160 183 0
155 177 0
156 177 0
155 176 0
157 178 0
144 164 0
152 173 0
158 180 0
154 175 0
154 176 0
158 179 0
152 173 0
158 179 0
157 179 0
153 174 0
150 172 0
154 176 0
159 182 0
157 179 0
149 170 0
150 171 0
161 182 0
153 175 0
153 174 0
154 176 0
157 179 0
155 176 0
143 165 0
156 178 0
154 176 0
157 179 0
150 171 0
151 172 0
156 177 0
153 174 0
157 180 0
149 171 0
158 180 0
158 178 0
151 173 0
156 178 0
149 169 0
150 172 0
144 166 0
153 175 0
151 172 0
156 179 0
156 178 0
150 173 0
153 174 0
149 169 0
145 165 0
149 170 0
154 175 0
151 173 0
154 177 0
146 168 0
161 183 0
152 174 0
149 172 0
155 177 0
146 168 0
153 174 0
150 173 0
154 176 0
149 171 0
144 166 0
152 174 0
150 171 0
152 174 0
154 176 0
150 173 0
149 171 0
145 166 0
147 169 0
151 172 0
146 167 0
148 169 0
145 167 0
147 169 0
151 172 0
148 170 0
142 164 0
144 165 0
149 171 0
149 171 0
148 170 0
148 170 0
150 171 0
144 166 0
144 168 0
144 165 0
143 164 0
149 172 0
150 172 0
150 173 0
156 179 0
140 160 0
146 167 0
148 169 0
141 164 0
150 172 0
154 175 0
152 173 0
142 162 0
148 168 0
145 168 0
155 177 0
148 169 0
151 173 0
153 176 0
152 174 0
155 178 0
152 173 0
145 167 0
151 172 0
150 171 0
151 172 0
150 171 0
149 170 0
151 172 0
156 179 0
151 173 0
148 168 0
146 167 0
150 170 0
148 169 0
140 161 0
149 172 0
149 170 0
151 172 0
143 165 0
143 164 0
149 170 0
152 172 0
152 173 0
148 170 0
154 174 0
151 172 0
146 166 0
148 169 0
148 169 0
142 163 0
150 169 0
149 169 0
152 174 0
147 166 0
140 161 0
151 172 0
153 173 0
143 162 0
148 169 0
156 176 0
142 162 0
147 167 0
148 167 0
152 171 0
154 175 0
153 173 0
138 158 0
147 167 0
149 170 0
158 180 0
143 164 0
149 170 0
149 168 0
154 176 0
152 173 0
149 167 0
159 180 0
150 172 0
155 176 0
149 170 0
153 175 0
149 168 0
153 174 0
155 173 0
149 168 0
155 175 0
149 169 0
156 177 0
155 176 0
151 171 0
147 165 0
149 169 0
150 169 0
155 177 0
151 171 0
155 177 0
152 173 0
152 173 0
154 174 0
156 173 0
151 169 0
153 173 0
150 169 0
156 175 0
152 172 0
156 178 0
153 173 0
158 177 0
150 170 0
156 175 0
151 170 0
158 179 0
155 174 0
152 173 0
150 167 0
153 171 0
152 171 0
153 172 0
150 167 0
148 166 0
155 176 0
153 172 0
162 183 0
152 170 0
160 177 0
153 170 0
150 167 0
150 168 0
155 173 0
144 161 0
156 175 0
146 163 0
152 171 0
157 175 0
154 170 0
147 167 0
157 176 0
161 181 0
153 170 0
151 170 0
160 177 0
151 168 0
147 162 0
155 173 0
152 170 0
151 169 0
149 167 0
157 173 0
150 167 0
158 176 0
152 168 0
158 172 0
153 171 0
153 168 0
156 172 0
154 172 0
157 174 0
153 170 0
162 179 0
151 166 0
155 170 0
153 168 0
153 167 0
159 175 0
161 178 0
159 175 0
159 173 0
149 162 0
157 173 0
156 173 0
158 172 0
156 172 0
156 169 0
153 169 0
160 173 0
151 166 0
155 169 0
152 167 0
155 169 0
159 175 0
167 183 0
156 172 0
161 179 0
157 172 0
158 173 0
154 170 0
154 170 0
155 168 0
161 176 0
153 163 0
157 171 0
154 166 0
155 168 0
159 174 0
152 162 0
161 177 0
156 168 0
152 163 0
158 172 0
160 172 0
163 177 0
162 176 0
156 168 0
162 176 0
155 167 0
159 172 0
154 170 0
154 167 0
155 166 0
154 164 0
161 178 0
156 169 0
161 174 0
161 174 0
158 169 0
159 171 0
156 168 0
163 176 0
160 173 0
155 166 0
157 168 0
158 170 0
162 173 0
164 176 0
161 181 0
158 178 0
161 181 0
158 178 0
160 180 0
159 179 0
155 175 0
163 184 0
157 177 0
157 177 0
157 177 0
160 180 0
159 180 0
156 176 0
159 180 0
156 175 0
156 175 0
160 180 0
158 178 0
160 180 0
157 178 0
162 182 0
162 182 0
158 179 0
152 172 0
149 169 0
161 180 0
158 178 0
162 182 0
154 175 0
157 177 0
158 179 0
161 181 0
159 179 0
154 175 0
156 176 0
153 174 0
155 174 0
159 180 0
150 170 0
156 178 0
161 182 0
157 178 0
155 176 0
160 180 0
155 177 0
157 178 0
159 180 0
151 172 0
152 172 0
153 174 0
157 177 0
155 176 0
154 174 0
152 172 0
148 167 0
153 174 0
156 177 0
160 180 0
156 177 0
157 179 0
159 181 0
156 177 0
154 176 0
154 175 0
148 170 0
157 178 0
155 175 0
154 175 0
149 169 0
157 178 0
156 178 0
154 176 0
160 182 0
156 177 0
154 174 0
145 167 0
151 173 0
162 184 0
153 173 0
154 174 0
149 170 0
156 177 0
159 180 0
151 172 0
153 175 0
157 178 0
151 172 0
153 174 0
156 178 0
154 175 0
153 174 0
156 177 0
153 174 0
161 182 0
144 164 0
157 179 0
157 180 0
155 177 0
153 174 0
150 170 0
154 175 0
151 172 0
153 175 0
156 178 0
149 171 0
152 174 0
154 175 0
147 168 0
148 169 0
161 183 0
154 177 0
155 176 0
154 176 0
154 176 0
147 169 0
154 175 0
152 174 0
153 176 0
153 175 0
151 173 0
152 174 0
144 166 0
152 173 0
138 159 0
154 176 0
153 175 0
153 174 0
152 174 0
154 175 0
145 167 0
149 170 0
155 177 0
154 176 0
148 170 0
149 171 0
148 170 0
156 178 0
158 180 0
151 173 0
157 180 0
147 168 0
152 176 0
145 167 0
152 175 0
146 168 0
150 172 0
147 168 0
146 168 0
152 174 0
145 166 0
152 174 0
146 168 0
150 173 0
151 172 0
151 172 0
152 173 0
147 167 0
154 176 0
152 175 0
149 171 0
150 173 0
151 171 0
155 176 0
152 173 0
143 166 0
157 179 0
150 171 0
150 171 0
150 173 0
149 170 0
153 175 0
155 178 0
150 172 0
150 172 0
145 166 0
152 174 0
153 174 0
148 170 0
151 172 0
151 173 0
146 168 0
145 165 0
151 172 0
151 173 0
154 177 0
150 173 0
144 166 0
152 174 0
154 175 0
145 165 0
155 176 0
151 173 0
161 183 0
151 172 0
151 172 0
143 164 0
144 165 0
145 166 0
147 169 0
145 166 0
145 166 0
159 180 0
154 176 0
139 160 0
150 172 0
148 169 0
152 172 0
149 171 0
153 174 0
157 179 0
152 173 0
147 168 0
147 168 0
147 167 0
144 165 0
149 170 0
152 172 0
152 173 0
149 171 0
145 165 0
154 176 0
147 169 0
147 168 0
137 157 0
148 168 0
148 168 0
151 172 0
154 176 0
153 174 0
149 170 0
148 168 0
154 176 0
150 171 0
148 169 0
151 172 0
153 174 0
149 170 0
140 157 0
152 174 0
143 163 0
146 166 0
153 174 0
150 170 0
152 172 0
160 180 0
152 172 0
149 170 0
150 170 0
153 174 0
157 178 0
149 169 0
150 171 0
150 170 0
148 168 0
148 169 0
153 173 0
147 166 0
150 171 0
152 171 0
150 171 0
154 175 0
154 174 0
147 166 0
154 174 0
153 173 0
150 169 0
150 171 0
155 175 0
152 173 0
148 167 0
157 178 0
147 167 0
153 173 0
151 171 0
150 168 0
146 166 0
149 168 0
153 173 0
157 177 0
142 161 0
147 165 0
149 168 0
151 171 0
155 175 0
149 170 0
153 172 0
150 168 0
151 170 0
156 173 0
155 175 0
155 177 0
159 179 0
154 173 0
155 173 0
148 168 0
151 168 0
150 168 0
157 177 0
157 176 0
156 175 0
158 174 0
157 177 0
151 168 0
155 175 0
159 179 0
148 164 0
152 171 0
154 172 0
151 171 0
147 164 0
149 167 0
153 169 0
147 164 0
161 178 0
158 177 0
153 170 0
146 161 0
157 173 0
156 172 0
162 179 0
149 165 0
151 168 0
151 169 0
148 166 0
157 172 0
155 171 0
153 168 0
148 164 0
159 175 0
154 169 0
160 178 0
149 165 0
154 169 0
154 170 0
150 164 0
151 169 0
152 166 0
157 174 0
156 173 0
157 173 0
158 173 0
148 163 0
158 171 0
151 167 0
157 174 0
157 173 0
158 174 0
160 176 0
157 173 0
155 169 0
157 172 0
152 167 0
158 173 0
146 158 0
155 171 0
154 167 0
158 172 0
151 163 0
160 174 0
151 165 0
157 172 0
152 165 0
157 173 0
157 169 0
160 174 0
156 169 0
154 166 0
162 176 0
155 166 0
153 170 0
160 172 0
159 172 0
153 164 0
154 169 0
162 177 0
155 168 0
161 177 0
160 175 0
162 174 0
158 170 0
159 174 0
163 178 0
164 177 0
158 169 0
157 171 0
154 166 0
157 170 0
158 169 0
162 174 0
163 179 0
161 172 0
160 173 0
160 172 0
162 177 0
161 174 0
160 173 0
160 172 0
164 178 0
157 167 0
161 182 0
158 178 0
161 182 0
158 179 0
161 180 0
161 180 0
159 180 0
159 179 0
161 181 0
164 185 0
159 179 0
159 179 0
158 179 0
158 178 0
159 179 0
157 178 0
157 176 0
156 176 0
159 180 0
158 178 0
155 175 0
161 181 0
156 177 0
159 180 0
159 180 0
157 177 0
154 174 0
152 173 0
159 180 0
161 181 0
159 179 0
160 182 0
154 174 0
163 185 0
159 180 0
153 172 0
158 179 0
158 178 0
161 182 0
153 174 0
155 177 0
161 181 0
156 177 0
152 174 0
155 175 0
152 171 0
155 175 0
152 173 0
150 172 0
159 180 0
156 177 0
162 183 0
158 179 0
153 173 0
160 181 0
158 180 0
154 176 0
156 177 0
156 177 0
153 174 0
152 173 0
158 179 0
161 182 0
149 169 0
160 182 0
156 177 0
154 175 0
149 171 0
154 175 0
156 177 0
158 180 0
152 174 0
153 173 0
159 181 0
152 173 0
157 179 0
155 176 0
159 181 0
156 176 0
155 176 0
155 177 0
157 179 0
156 177 0
148 169 0
156 177 0
151 171 0
156 178 0
152 174 0
153 174 0
156 177 0
153 175 0
153 176 0
150 172 0
150 172 0
147 169 0
155 176 0
156 177 0
150 171 0
150 170 0
155 177 0
157 178 0
149 171 0
153 174 0
157 179 0
151 173 0
155 177 0
155 177 0
150 171 0
155 177 0
160 184 0
154 176 0
155 177 0
152 173 0
156 177 0
156 178 0
152 174 0
157 179 0
154 176 0
154 177 0
156 178 0
148 169 0
155 177 0
153 175 0
145 166 0
157 179 0
155 178 0
152 174 0
151 172 0
157 179 0
156 178 0
150 172 0
150 170 0
153 174 0
152 172 0
146 168 0
153 174 0
152 174 0
152 174 0
154 176 0
148 170 0
146 169 0
159 181 0
151 172 0
153 176 0
154 176 0
154 175 0
151 172 0
158 180 0
148 169 0
148 170 0
157 179 0
146 169 0
149 172 0
150 171 0
154 176 0
151 174 0
153 175 0
149 172 0
150 173 0
148 170 0
153 175 0
152 173 0
147 168 0
146 169 0
150 174 0
145 165 0
150 171 0
146 167 0
147 168 0
150 172 0
152 174 0
145 167 0
151 172 0
147 168 0
152 175 0
150 172 0
151 173 0
150 172 0
152 175 0
151 172 0
154 177 0
146 168 0
155 176 0
152 175 0
146 168 0
145 166 0
149 171 0
149 169 0
147 168 0
150 173 0
148 170 0
153 174 0
153 175 0
143 165 0
146 167 0
150 171 0
152 175 0
142 164 0
152 173 0
150 171 0
149 169 0
146 168 0
147 168 0
149 170 0
149 170 0
152 173 0
145 166 0
149 170 0
146 168 0
150 171 0
141 162 0
152 173 0
146 167 0
150 171 0
146 167 0
152 174 0
140 162 0
142 163 0
141 162 0
150 172 0
151 173 0
153 175 0
151 172 0
152 174 0
150 170 0
158 179 0
153 173 0
159 180 0
146 167 0
149 169 0
150 172 0
153 173 0
149 169 0
153 172 0
153 176 0
152 172 0
145 166 0
155 176 0
152 172 0
153 175 0
154 177 0
150 170 0
148 170 0
149 168 0
156 178 0
145 167 0
151 170 0
151 172 0
149 167 0
152 173 0
149 169 0
148 168 0
152 171 0
153 172 0
153 173 0
154 174 0
149 168 0
148 168 0
149 169 0
149 169 0
148 168 0
150 169 0
150 170 0
150 170 0
142 162 0
146 165 0
155 176 0
152 173 0
150 171 0
152 171 0
154 173 0
149 169 0
150 170 0
158 178 0
155 176 0
152 172 0
152 171 0
154 172 0
152 172 0
153 172 0
149 169 0
147 167 0
151 171 0
155 175 0
150 169 0
156 175 0
155 175 0
159 180 0
153 170 0
153 173 0
153 171 0
154 173 0
158 178 0
154 171 0
151 170 0
153 173 0
160 180 0
153 169 0
154 172 0
151 168 0
150 171 0
154 173 0
151 169 0
153 173 0
148 166 0
155 174 0
157 175 0
152 169 0
154 173 0
152 170 0
158 177 0
150 166 0
152 169 0
153 170 0
155 173 0
151 167 0
152 170 0
157 176 0
148 166 0
147 162 0
156 173 0
159 176 0
157 173 0
146 164 0
157 173 0
159 175 0
159 176 0
154 172 0
154 170 0
152 170 0
156 174 0
152 169 0
155 171 0
152 167 0
153 168 0
147 163 0
163 179 0
149 167 0
158 176 0
157 170 0
159 175 0
151 166 0
147 161 0
161 176 0
155 172 0
159 175 0
158 173 0
150 165 0
159 175 0
156 172 0
156 171 0
159 176 0
154 168 0
158 173 0
158 173 0
161 173 0
157 172 0
158 172 0
160 175 0
159 174 0
163 181 0
157 170 0
159 173 0
158 172 0
151 165 0
157 172 0
163 178 0
156 169 0
154 168 0
163 177 0
160 174 0
160 174 0
156 171 0
159 173 0
160 175 0
160 175 0
154 167 0
160 174 0
156 167 0
159 172 0
158 169 0
153 167 0
157 170 0
158 172 0
158 171 0
158 170 0
158 171 0
164 176 0
153 162 0
159 169 0
157 169 0
154 166 0
156 167 0
160 173 0
155 164 0
164 176 0
163 176 0
162 174 0
160 173 0
153 165 0
165 185 0
163 184 0
162 183 0
158 178 0
159 179 0
161 181 0
156 176 0
164 184 0
159 180 0
158 179 0
153 173 0
158 177 0
162 181 0
161 181 0
158 178 0
157 178 0
158 179 0
157 177 0
161 183 0
160 180 0
159 180 0
154 175 0
153 173 0
161 180 0
155 176 0
153 173 0
154 174 0
160 182 0
156 177 0
156 178 0
153 174 0
154 175 0
156 176 0
162 182 0
157 179 0
160 181 0
156 176 0
161 183 0
162 182 0
155 175 0
163 185 0
157 178 0
158 179 0
156 177 0
156 177 0
160 181 0
151 172 0
159 179 0
155 176 0
162 182 0
156 176 0
158 178 0
158 180 0
163 184 0
154 175 0
151 171 0
152 173 0
153 174 0
155 174 0
155 176 0
156 177 0
156 177 0
147 167 0
153 174 0
158 179 0
153 174 0
164 186 0
158 178 0
153 174 0
160 181 0
156 178 0
153 174 0
157 178 0
153 174 0
154 175 0
150 173 0
154 175 0
154 175 0
157 178 0
153 175 0
149 170 0
156 177 0
157 179 0
158 180 0
151 172 0
156 178 0
155 177 0
155 177 0
150 171 0
152 173 0
150 171 0
146 167 0
157 178 0
159 180 0
156 177 0
153 175 0
157 180 0
151 173 0
157 180 0
151 172 0
150 171 0
150 170 0
157 179 0
154 175 0
156 178 0
155 177 0
155 177 0
151 171 0
156 177 0
150 171 0
150 172 0
158 179 0
153 175 0
158 180 0
150 172 0
148 169 0
158 179 0
154 177 0
154 176 0
154 176 0
152 175 0
147 169 0
156 178 0
150 173 0
158 180 0
148 171 0
152 175 0
154 176 0
153 175 0
159 181 0
154 176 0
143 164 0
154 177 0
154 175 0
154 176 0
149 171 0
159 182 0
150 172 0
148 171 0
153 173 0
151 173 0
151 172 0
154 176 0
153 174 0
146 170 0
156 178 0
152 175 0
152 174 0
156 177 0
149 173 0
149 170 0
146 167 0
154 177 0
153 173 0
149 169 0
146 167 0
156 179 0
154 176 0
151 173 0
152 173 0
154 177 0
150 171 0
153 176 0
143 165 0
148 169 0
149 171 0
147 169 0
154 176 0
152 173 0
148 169 0
151 172 0
148 169 0
142 164 0
156 180 0
157 181 0
151 173 0
153 174 0
153 175 0
152 175 0
146 169 0
147 168 0
148 169 0
150 172 0
148 170 0
149 171 0
153 174 0
149 171 0
151 174 0
150 172 0
148 169 0
148 169 0
148 169 0
153 174 0
149 171 0
151 172 0
156 177 0
147 169 0
148 171 0
156 176 0
152 174 0
146 169 0
154 175 0
144 165 0
148 169 0
149 170 0
149 170 0
147 168 0
147 170 0
149 169 0
154 175 0
151 172 0
149 170 0
150 172 0
144 165 0
145 165 0
148 171 0
149 170 0
151 172 0
148 170 0
146 167 0
157 179 0
148 169 0
151 172 0
149 170 0
152 174 0
143 164 0
153 174 0
152 173 0
149 169 0
147 168 0
156 176 0
148 170 0
152 173 0
154 174 0
151 171 0
148 169 0
144 165 0
149 170 0
156 177 0
150 171 0
143 163 0
161 182 0
149 170 0
153 174 0
152 173 0
154 174 0
147 167 0
145 165 0
149 168 0
152 171 0
152 172 0
150 169 0
146 165 0
149 169 0
149 170 0
154 174 0
149 170 0
149 170 0
157 177 0
154 173 0
155 175 0
149 168 0
149 168 0
158 177 0
154 174 0
147 166 0
141 161 0
160 180 0
152 171 0
154 175 0
154 172 0
157 178 0
148 168 0
152 171 0
155 177 0
150 168 0
149 167 0
149 167 0
156 178 0
146 168 0
151 168 0
153 171 0
153 172 0
149 168 0
152 171 0
153 173 0
149 168 0
161 181 0
152 171 0
147 166 0
157 178 0
154 174 0
154 173 0
149 165 0
154 171 0
156 174 0
155 175 0
153 171 0
158 178 0
153 171 0
146 164 0
154 174 0
156 176 0
147 167 0
152 170 0
146 164 0
152 171 0
152 170 0
159 179 0
156 175 0
156 174 0
152 170 0
153 172 0
158 176 0
155 171 0
150 166 0
152 170 0
155 172 0
156 177 0
157 175 0
160 178 0
162 180 0
160 178 0
155 173 0
158 176 0
161 179 0
157 173 0
154 171 0
156 174 0
157 173 0
152 170 0
162 181 0
159 175 0
152 171 0
157 174 0
151 168 0
155 173 0
153 170 0
157 173 0
159 177 0
161 178 0
157 173 0
148 165 0
155 171 0
151 165 0
155 172 0
157 173 0
159 172 0
157 172 0
152 165 0
152 167 0
154 169 0
161 177 0
151 166 0
159 176 0
158 174 0
162 177 0
157 171 0
157 172 0
160 175 0
153 168 0
159 175 0
157 172 0
162 179 0
159 173 0
160 174 0
157 169 0
157 171 0
162 177 0
155 167 0
156 170 0
156 170 0
151 165 0
158 174 0
157 171 0
162 177 0
155 168 0
154 166 0
161 175 0
155 167 0
164 180 0
157 171 0
159 174 0
157 171 0
152 163 0
157 168 0
161 174 0
159 173 0
161 175 0
163 176 0
162 176 0
159 172 0
155 169 0
159 173 0
159 171 0
160 174 0
161 174 0
154 165 0
160 172 0
160 171 0
159 181 0
157 178 0
159 179 0
166 186 0
163 183 0
164 183 0
167 187 0
158 178 0
157 177 0
160 180 0
159 179 0
164 185 0
156 175 0
160 181 0
156 177 0
156 177 0
153 172 0
162 183 0
160 181 0
158 178 0
158 179 0
158 180 0
156 176 0
157 178 0
162 183 0
158 178 0
147 166 0
155 176 0
159 179 0
156 176 0
161 183 0
155 174 0
166 188 0
164 185 0
157 178 0
161 181 0
156 176 0
157 177 0
150 170 0
156 177 0
152 172 0
158 178 0
157 177 0
154 175 0
157 177 0
155 175 0
153 173 0
157 178 0
158 179 0
155 176 0
156 176 0
153 174 0
155 175 0
161 183 0
158 178 0
153 174 0
155 177 0
161 182 0
156 177 0
156 177 0
156 177 0
158 180 0
155 176 0
156 177 0
155 177 0
155 178 0
149 171 0
154 175 0
155 175 0
162 184 0
157 178 0
150 172 0
156 177 0
156 177 0
154 175 0
156 178 0
142 162 0
154 176 0
157 179 0
155 176 0
159 181 0
150 171 0
155 176 0
158 180 0
160 181 0
153 174 0
156 177 0
153 173 0
155 177 0
156 177 0
151 172 0
159 181 0
157 179 0
152 172 0
153 174 0
154 176 0
157 179 0
152 175 0
146 169 0
154 175 0
161 184 0
156 177 0
156 178 0
162 184 0
157 178 0
149 170 0
149 172 0
154 176 0
151 173 0
150 173 0
143 164 0
156 178 0
149 170 0
155 177 0
152 175 0
156 176 0
155 176 0
150 171 0
156 177 0
153 175 0
147 168 0
151 173 0
150 172 0
150 173 0
153 175 0
145 167 0
156 177 0
149 170 0
159 181 0
145 166 0
148 168 0
150 172 0
151 172 0
155 177 0
150 171 0
155 178 0
153 175 0
155 176 0
148 168 0
142 162 0
155 178 0
151 173 0
159 181 0
149 171 0
144 165 0
152 174 0
154 175 0
142 163 0
146 168 0
153 174 0
148 170 0
145 167 0
147 170 0
153 173 0
148 170 0
150 171 0
149 172 0
148 169 0
147 169 0
156 177 0
151 173 0
152 174 0
148 170 0
146 168 0
147 169 0
143 166 0
153 175 0
149 170 0
152 173 0
149 169 0
149 171 0
150 172 0
145 167 0
157 179 0
149 172 0
142 163 0
152 174 0
154 176 0
144 165 0
145 167 0
154 177 0
149 171 0
154 176 0
152 174 0
154 177 0
146 167 0
153 173 0
148 171 0
155 177 0
149 170 0
149 170 0
145 167 0
146 168 0
144 166 0
153 174 0
149 170 0
154 175 0
151 171 0
153 175 0
151 174 0
155 175 0
154 174 0
151 172 0
154 175 0
147 168 0
149 169 0
156 177 0
151 172 0
150 171 0
146 167 0
155 177 0
153 176 0
148 170 0
145 163 0
156 178 0
155 178 0
145 167 0
145 166 0
156 178 0
157 178 0
152 173 0
150 171 0
155 176 0
151 171 0
151 171 0
153 174 0
153 173 0
153 172 0
156 177 0
150 171 0
146 165 0
153 175 0
150 171 0
148 171 0
151 172 0
147 167 0
150 171 0
153 174 0
147 168 0
154 174 0
152 173 0
152 174 0
148 168 0
150 170 0
154 174 0
155 175 0
150 170 0
150 170 0
154 176 0
150 170 0
157 178 0
154 175 0
148 168 0
155 175 0
148 167 0
143 162 0
157 178 0
153 174 0
155 174 0
147 168 0
151 172 0
157 178 0
151 171 0
144 164 0
145 166 0
145 163 0
151 170 0
154 175 0
147 167 0
146 166 0
155 175 0
154 172 0
150 170 0
156 177 0
157 179 0
150 169 0
153 172 0
147 166 0
154 175 0
158 179 0
148 167 0
153 174 0
144 163 0
153 172 0
156 176 0
147 166 0
157 178 0
149 165 0
157 176 0
159 178 0
153 172 0
152 172 0
160 182 0
155 174 0
149 169 0
152 171 0
154 172 0
152 170 0
149 169 0
151 167 0
158 179 0
154 173 0
155 174 0
153 171 0
155 174 0
151 169 0
156 176 0
156 175 0
157 177 0
155 174 0
154 172 0
160 180 0
149 167 0
155 174 0
158 175 0
156 173 0
163 181 0
153 171 0
160 176 0
156 176 0
154 171 0
154 172 0
153 169 0
160 175 0
154 171 0
149 166 0
160 178 0
149 166 0
150 167 0
151 168 0
156 173 0
161 179 0
154 169 0
154 170 0
156 175 0
161 179 0
162 179 0
156 173 0
161 177 0
153 168 0
156 173 0
156 171 0
150 164 0
159 176 0
154 171 0
154 171 0
156 174 0
155 171 0
159 177 0
155 171 0
155 172 0
156 170 0
159 174 0
150 164 0
158 173 0
154 169 0
156 171 0
158 172 0
157 171 0
158 176 0
157 170 0
154 169 0
160 176 0
154 172 0
150 164 0
157 172 0
162 178 0
148 164 0
160 177 0
158 171 0
154 165 0
151 164 0
159 174 0
158 172 0
153 165 0
160 174 0
158 172 0
154 168 0
157 169 0
159 172 0
158 171 0
162 176 0
162 176 0
155 169 0
158 173 0
158 170 0
166 179 0
156 168 0
160 174 0
153 169 0
158 171 0
160 174 0
165 179 0
158 172 0
164 178 0
157 169 0
161 175 0
157 169 0
162 175 0
158 173 0
159 181 0
163 185 0
159 179 0
161 180 0
156 176 0
162 183 0
161 181 0
161 181 0
164 185 0
162 184 0
160 180 0
157 178 0
157 177 0
162 183 0
158 178 0
156 177 0
161 181 0
155 175 0
154 175 0
155 175 0
160 181 0
156 177 0
154 174 0
158 179 0
159 179 0
159 180 0
154 174 0
156 177 0
159 180 0
162 183 0
158 178 0
159 179 0
153 174 0
154 173 0
153 174 0
156 177 0
160 180 0
155 176 0
153 172 0
156 177 0
156 176 0
159 180 0
156 179 0
158 180 0
153 175 0
158 179 0
159 179 0
156 175 0
163 184 0
156 177 0
162 185 0
157 178 0
157 179 0
158 179 0
156 177 0
163 184 0
159 181 0
155 176 0
164 186 0
155 176 0
161 182 0
154 176 0
162 185 0
157 178 0
157 178 0
152 172 0
157 178 0
158 180 0
153 174 0
154 176 0
162 184 0
152 175 0
156 177 0
156 177 0
153 175 0
155 177 0
150 172 0
158 180 0
155 177 0
155 176 0
154 175 0
148 170 0
150 172 0
155 178 0
149 170 0
156 178 0
148 169 0
155 177 0
154 175 0
152 174 0
158 179 0
156 178 0
152 174 0
152 174 0
152 174 0
150 172 0
148 169 0
161 183 0
156 178 0
152 174 0
154 175 0
149 171 0
152 175 0
152 175 0
148 169 0
152 174 0
160 182 0
146 166 0
153 176 0
153 175 0
156 179 0
159 181 0
157 179 0
157 179 0
155 177 0
159 182 0
147 169 0
148 171 0
152 173 0
154 176 0
154 177 0
153 175 0
150 172 0
147 170 0
150 172 0
161 184 0
153 176 0
153 173 0
155 176 0
156 179 0
147 169 0
152 174 0
158 180 0
151 172 0
153 175 0
156 178 0
154 175 0
156 179 0
155 177 0
150 171 0
161 184 0
153 175 0
150 173 0
150 171 0
149 170 0
155 177 0
155 177 0
155 177 0
152 174 0
151 174 0
151 173 0
151 173 0
152 173 0
149 170 0
153 174 0
147 169 0
150 172 0
150 172 0
153 175 0
149 171 0
149 171 0
153 175 0
155 178 0
150 173 0
143 164 0
143 165 0
153 175 0
147 168 0
154 174 0
151 172 0
148 171 0
144 165 0
146 167 0
153 175 0
144 166 0
146 167 0
144 164 0
155 177 0
147 169 0
150 172 0
154 176 0
142 162 0
148 170 0
150 171 0
141 161 0
152 173 0
141 162 0
153 175 0
149 171 0
153 175 0
150 171 0
154 177 0
142 164 0
150 172 0
154 175 0
142 163 0
149 171 0
153 175 0
153 174 0
156 178 0
153 176 0
147 168 0
156 177 0
146 167 0
149 171 0
148 169 0
149 170 0
149 171 0
152 175 0
153 175 0
154 176 0
150 172 0
141 163 0
149 170 0
153 175 0
151 172 0
148 170 0
149 172 0
154 176 0
153 172 0
153 176 0
143 164 0
151 173 0
155 177 0
149 168 0
149 168 0
145 165 0
152 174 0
152 172 0
152 175 0
150 171 0
145 165 0
150 169 0
152 174 0
146 166 0
149 170 0
159 182 0
149 171 0
153 174 0
152 174 0
153 174 0
150 172 0
152 171 0
153 172 0
153 174 0
151 170 0
147 168 0
146 166 0
146 165 0
146 164 0
148 169 0
154 175 0
156 176 0
151 171 0
147 167 0
151 173 0
151 172 0
143 165 0
149 169 0
146 166 0
157 175 0
153 175 0
150 172 0
158 180 0
152 172 0
157 177 0
149 169 0
158 178 0
150 170 0
152 173 0
154 174 0
156 177 0
154 172 0
152 173 0
149 170 0
157 177 0
152 173 0
159 179 0
150 168 0
152 171 0
151 172 0
158 177 0
152 172 0
158 178 0
156 177 0
156 177 0
153 173 0
148 167 0
152 172 0
148 167 0
150 170 0
158 178 0
150 169 0
151 172 0
148 166 0
159 178 0
158 179 0
155 174 0
156 174 0
153 170 0
153 172 0
154 173 0
150 170 0
145 161 0
154 170 0
163 184 0
151 169 0
149 165 0
153 172 0
154 172 0
149 167 0
153 170 0
159 177 0
158 177 0
151 168 0
160 179 0
154 173 0
159 176 0
157 176 0
151 168 0
159 176 0
159 178 0
157 174 0
158 176 0
155 172 0
149 166 0
154 172 0
153 169 0
154 170 0
155 173 0
154 170 0
160 177 0
155 171 0
150 165 0
160 180 0
157 175 0
153 172 0
156 173 0
154 170 0
155 171 0
159 176 0
154 170 0
160 176 0
158 174 0
154 169 0
161 175 0
154 169 0
156 171 0
160 176 0
164 181 0
161 176 0
158 174 0
151 165 0
150 165 0
160 175 0
158 174 0
154 172 0
157 171 0
158 174 0
156 173 0
162 178 0
159 175 0
154 170 0
156 170 0
154 167 0
156 172 0
161 179 0
156 171 0
163 179 0
155 170 0
157 173 0
153 164 0
159 174 0
155 171 0
161 176 0
158 174 0
153 168 0
159 174 0
154 167 0
157 173 0
159 173 0
158 170 0
152 163 0
159 174 0
161 177 0
161 173 0
159 174 0
152 167 0
155 169 0
159 174 0
157 171 0
160 172 0
157 171 0
157 170 0
156 169 0
159 170 0
163 176 0
158 170 0
158 173 0
154 165 0
158 178 0
158 178 0
159 180 0
160 180 0
158 179 0
162 183 0
158 178 0
163 185 0
155 176 0
167 187 0
162 183 0
157 178 0
165 185 0
157 177 0
156 177 0
161 182 0
158 179 0
164 185 0
160 181 0
159 180 0
158 180 0
156 177 0
159 178 0
160 181 0
162 182 0
159 180 0
154 175 0
158 178 0
163 184 0
159 179 0
159 180 0
161 182 0
157 179 0
159 179 0
155 175 0
157 178 0
149 170 0
155 177 0
155 176 0
159 180 0
151 172 0
162 183 0
154 175 0
151 173 0
156 177 0
158 179 0
161 183 0
161 181 0
156 178 0
162 183 0
160 180 0
156 177 0
152 173 0
153 174 0
160 182 0
154 175 0
161 183 0
160 181 0
151 173 0
150 172 0
156 177 0
161 182 0
157 179 0
158 179 0
154 175 0
157 179 0
157 178 0
155 176 0
157 178 0
154 176 0
159 180 0
156 178 0
155 175 0
154 175 0
147 168 0
152 174 0
145 167 0
155 176 0
155 176 0
154 176 0
157 178 0
154 175 0
155 177 0
153 175 0
156 178 0
153 175 0
159 181 0
147 168 0
156 176 0
156 178 0
154 174 0
155 176 0
151 173 0
153 174 0
157 178 0
156 179 0
156 178 0
159 181 0
157 178 0
152 172 0
157 179 0
152 173 0
156 177 0
156 178 0
156 177 0
156 178 0
156 179 0
156 178 0
151 172 0
154 176 0
151 173 0
148 168 0
152 175 0
154 175 0
155 177 0
151 174 0
155 177 0
157 180 0
155 176 0
152 174 0
156 179 0
158 179 0
147 169 0
157 179 0
150 171 0
150 172 0
153 175 0
149 171 0
153 175 0
153 175 0
158 181 0
154 176 0
148 169 0
150 172 0
157 178 0
158 180 0
153 176 0
147 169 0
158 180 0
155 177 0
150 173 0
154 175 0
151 171 0
147 170 0
156 179 0
149 171 0
147 169 0
150 172 0
158 181 0
158 180 0
156 177 0
151 172 0
156 179 0
152 173 0
157 179 0
158 178 0
154 174 0
154 176 0
148 170 0
143 163 0
153 175 0
152 174 0
155 176 0
145 168 0
153 176 0
157 179 0
143 165 0
153 175 0
141 161 0
157 179 0
157 178 0
153 175 0
153 174 0
150 171 0
156 178 0
152 174 0
156 178 0
148 171 0
161 183 0
139 161 0
148 170 0
156 177 0
146 168 0
147 169 0
150 172 0
155 177 0
153 175 0
151 172 0
147 168 0
151 173 0
156 177 0
143 165 0
143 163 0
154 175 0
144 166 0
144 165 0
148 171 0
152 173 0
154 175 0
153 175 0
150 172 0
150 173 0
145 166 0
144 165 0
154 177 0
142 164 0
148 168 0
149 170 0
149 171 0
146 167 0
152 174 0
144 165 0
148 169 0
145 167 0
154 173 0
140 160 0
158 179 0
150 170 0
148 169 0
150 171 0
152 173 0
148 169 0
149 170 0
155 175 0
145 166 0
148 169 0
154 175 0
150 170 0
155 177 0
142 163 0
142 164 0
153 174 0
151 172 0
142 163 0
149 170 0
154 176 0
156 177 0
149 172 0
150 170 0
149 170 0
154 175 0
154 176 0
158 178 0
150 170 0
150 170 0
140 159 0
157 177 0
153 174 0
154 176 0
149 171 0
159 179 0
151 171 0
149 169 0
149 170 0
150 171 0
153 175 0
148 168 0
151 171 0
150 171 0
152 173 0
153 174 0
156 175 0
157 177 0
155 176 0
147 167 0
153 172 0
157 177 0
155 176 0
149 168 0
149 169 0
151 169 0
147 167 0
151 170 0
143 161 0
155 175 0
156 178 0
161 182 0
158 176 0
159 180 0
150 172 0
156 177 0
148 167 0
149 168 0
155 176 0
150 168 0
153 172 0
148 169 0
155 173 0
149 168 0
154 174 0
155 176 0
157 177 0
151 169 0
154 173 0
156 176 0
150 167 0
152 170 0
157 177 0
151 170 0
152 173 0
153 172 0
151 169 0
149 166 0
158 176 0
150 170 0
154 171 0
152 169 0
152 169 0
152 169 0
159 178 0
156 177 0
153 174 0
157 176 0
160 180 0
152 171 0
151 168 0
156 175 0
159 177 0
150 168 0
157 177 0
155 174 0
148 163 0
153 169 0
153 172 0
156 175 0
156 174 0
147 165 0
158 176 0
150 168 0
154 170 0
153 172 0
156 171 0
151 168 0
163 182 0
158 175 0
154 171 0
154 170 0
158 175 0
156 174 0
159 175 0
151 165 0
156 173 0
154 171 0
153 168 0
156 171 0
155 169 0
163 181 0
154 172 0
159 176 0
155 170 0
153 169 0
152 169 0
159 175 0
158 173 0
150 165 0
159 174 0
156 172 0
153 170 0
155 172 0
156 172 0
157 173 0
163 178 0
154 170 0
165 182 0
154 168 0
152 168 0
157 172 0
159 173 0
156 172 0
156 172 0
152 167 0
161 174 0
155 170 0
158 174 0
162 179 0
160 173 0
157 172 0
163 177 0
163 178 0
159 171 0
161 174 0
159 174 0
161 175 0
163 178 0
161 175 0
158 171 0
160 175 0
159 174 0
155 168 0
155 167 0
158 169 0
160 175 0
162 177 0
158 172 0
157 172 0
157 168 0
160 175 0
157 170 0
163 177 0
163 177 0
160 181 0
162 184 0
158 179 0
162 181 0
165 186 0
159 179 0
159 180 0
155 175 0
161 181 0
162 183 0
160 181 0
160 181 0
159 180 0
159 179 0
164 185 0
159 180 0
156 177 0
163 184 0
159 180 0
162 183 0
153 173 0
153 174 0
153 174 0
162 183 0
153 173 0
161 181 0
160 180 0
159 180 0
161 182 0
152 172 0
161 183 0
160 182 0
156 176 0
158 179 0
154 172 0
152 174 0
159 180 0
153 174 0
157 178 0
157 179 0
161 183 0
155 175 0
154 175 0
158 179 0
157 179 0
154 175 0
166 187 0
156 178 0
159 180 0
159 179 0
161 182 0
156 177 0
162 182 0
154 174 0
158 179 0
163 186 0
157 177 0
158 178 0
154 175 0
159 180 0
162 184 0
161 183 0
155 177 0
161 183 0
152 174 0
158 179 0
157 179 0
157 179 0
158 178 0
154 174 0
153 174 0
157 179 0
155 178 0
158 179 0
152 173 0
155 176 0
152 173 0
157 179 0
155 176 0
158 179 0
163 185 0
160 183 0
156 177 0
154 176 0
159 181 0
150 171 0
155 177 0
155 177 0
156 178 0
162 184 0
153 175 0
156 178 0
156 177 0
152 174 0
150 173 0
156 178 0
155 176 0
157 178 0
157 179 0
146 167 0
150 173 0
147 168 0
161 182 0
156 179 0
147 168 0
153 174 0
149 170 0
150 171 0
153 175 0
153 176 0
149 170 0
150 171 0
152 174 0
146 168 0
153 175 0
151 174 0
159 180 0
153 175 0
154 176 0
153 176 0
152 174 0
152 174 0
152 174 0
153 175 0
153 174 0
156 178 0
155 176 0
147 168 0
156 178 0
157 180 0
159 181 0
153 177 0
155 176 0
153 175 0
148 170 0
153 176 0
155 178 0
148 169 0
156 177 0
153 175 0
147 168 0
148 170 0
147 169 0
154 175 0
148 171 0
156 176 0
150 171 0
149 170 0
155 177 0
156 179 0
155 178 0
154 175 0
151 173 0
146 168 0
150 172 0
156 178 0
160 182 0
152 175 0
140 161 0
150 171 0
150 171 0
154 175 0
154 176 0
150 172 0
153 175 0
150 172 0
155 177 0
149 171 0
152 174 0
151 172 0
151 172 0
144 166 0
143 166 0
154 176 0
153 175 0
155 176 0
154 175 0
150 171 0
156 176 0
154 177 0
151 173 0
158 180 0
154 175 0
146 167 0
157 179 0
147 170 0
151 172 0
149 169 0
149 171 0
154 176 0
149 170 0
159 180 0
148 168 0
148 170 0
151 172 0
152 174 0
153 174 0
157 178 0
149 170 0
143 166 0
148 171 0
146 165 0
149 171 0
151 173 0
150 169 0
149 169 0
152 172 0
150 173 0
148 168 0
149 170 0
152 173 0
157 178 0
157 180 0
151 173 0
153 174 0
154 175 0
151 169 0
149 169 0
157 179 0
150 173 0
150 173 0
147 167 0
157 178 0
154 176 0
153 175 0
152 173 0
154 174 0
152 173 0
150 168 0
155 176 0
154 174 0
152 175 0
153 174 0
151 172 0
151 172 0
151 172 0
151 172 0
150 172 0
149 169 0
150 168 0
151 174 0
141 162 0
152 173 0
154 177 0
153 174 0
146 167 0
152 173 0
158 179 0
152 173 0
149 169 0
148 166 0
156 176 0
144 163 0
151 170 0
144 163 0
160 181 0
154 174 0
151 171 0
150 172 0
155 176 0
157 178 0
155 176 0
151 171 0
144 165 0
150 170 0
154 174 0
147 166 0
154 174 0
158 178 0
156 176 0
149 169 0
152 171 0
150 169 0
154 175 0
150 170 0
148 168 0
150 170 0
158 178 0
155 177 0
153 171 0
152 173 0
163 185 0
147 169 0
150 169 0
149 169 0
142 159 0
151 170 0
153 174 0
155 175 0
151 170 0
152 171 0
152 172 0
152 171 0
158 177 0
150 170 0
153 172 0
155 173 0
148 166 0
155 175 0
157 178 0
147 167 0
150 169 0
160 181 0
156 174 0
157 175 0
153 171 0
154 173 0
155 174 0
155 174 0
153 171 0
149 168 0
152 169 0
149 167 0
150 170 0
155 173 0
153 172 0
157 176 0
157 177 0
159 177 0
159 177 0
158 175 0
156 174 0
160 177 0
149 167 0
155 171 0
155 173 0
153 171 0
160 180 0
160 178 0
159 178 0
156 173 0
155 173 0
160 176 0
149 164 0
155 171 0
153 172 0
148 165 0
158 174 0
161 180 0
157 173 0
155 172 0
158 174 0
156 173 0
152 169 0
149 163 0
158 176 0
156 172 0
164 182 0
155 174 0
156 171 0
155 171 0
159 177 0
157 173 0
153 170 0
151 165 0
157 173 0
151 168 0
157 174 0
155 167 0
153 168 0
162 177 0
152 167 0
155 170 0
160 174 0
158 174 0
155 170 0
160 176 0
155 170 0
151 165 0
157 172 0
161 177 0
157 172 0
157 172 0
157 171 0
158 172 0
154 169 0
157 172 0
154 167 0
159 173 0
156 170 0
155 167 0
162 178 0
154 169 0
159 176 0
153 165 0
155 170 0
156 168 0
162 175 0
164 180 0
160 175 0
159 173 0
160 176 0
162 178 0
164 179 0
156 169 0
161 178 0
160 175 0
164 179 0
159 171 0
159 172 0
165 186 0
158 179 0
162 183 0
159 180 0
161 182 0
162 183 0
164 185 0
163 184 0
159 180 0
158 179 0
157 178 0
161 183 0
158 178 0
156 177 0
162 184 0
159 180 0
157 178 0
156 177 0
161 182 0
159 179 0
159 178 0
161 182 0
158 180 0
154 175 0
159 181 0
156 177 0
162 183 0
162 182 0
159 180 0
156 177 0
153 175 0
162 184 0
160 182 0
156 177 0
160 180 0
163 183 0
157 178 0
158 179 0
158 179 0
159 180 0
157 178 0
160 182 0
158 179 0
155 178 0
158 180 0
158 179 0
152 174 0
152 173 0
158 180 0
158 178 0
158 179 0
154 176 0
153 174 0
159 180 0
151 171 0
154 175 0
155 177 0
155 176 0
157 178 0
158 179 0
155 176 0
152 172 0
156 177 0
156 178 0
159 180 0
155 176 0
153 174 0
156 178 0
156 178 0
154 176 0
156 178 0
157 179 0
153 174 0
158 180 0
147 168 0
158 179 0
159 181 0
152 174 0
157 179 0
155 177 0
161 182 0
158 180 0
157 180 0
154 175 0
156 177 0
157 179 0
153 175 0
154 175 0
152 173 0
151 173 0
156 178 0
152 175 0
151 173 0
154 176 0
148 170 0
151 172 0
156 177 0
154 176 0
156 179 0
144 166 0
153 176 0
158 179 0
151 173 0
149 171 0
156 178 0
157 179 0
156 179 0
158 177 0
153 175 0
149 171 0
146 167 0
150 171 0
157 179 0
150 171 0
156 178 0
150 171 0
154 175 0
154 176 0
151 170 0
153 174 0
156 178 0
155 177 0
151 173 0
151 174 0
153 176 0
154 178 0
157 180 0
155 179 0
154 177 0
154 176 0
158 180 0
156 179 0
152 174 0
150 172 0
158 180 0
154 175 0
157 179 0
152 174 0
148 171 0
156 177 0
154 176 0
158 180 0
157 179 0
154 176 0
155 177 0
149 170 0
159 182 0
150 173 0
152 175 0
151 172 0
148 170 0
150 173 0
149 171 0
149 171 0
159 182 0
148 170 0
150 172 0
151 172 0
153 176 0
150 173 0
150 172 0
154 176 0
150 173 0
152 174 0
147 169 0
148 170 0
155 176 0
149 170 0
152 174 0
157 179 0
153 174 0
154 175 0
151 175 0
149 170 0
148 169 0
151 173 0
145 166 0
156 176 0
158 180 0
155 177 0
150 172 0
147 168 0
157 178 0
152 174 0
148 170 0
149 169 0
157 179 0
149 169 0
154 175 0
150 172 0
146 167 0
155 176 0
152 175 0
150 170 0
151 173 0
148 168 0
153 175 0
143 164 0
155 178 0
151 173 0
152 173 0
145 166 0
152 173 0
158 179 0
154 176 0
154 174 0
150 171 0
147 168 0
148 169 0
145 166 0
152 174 0
159 180 0
156 178 0
152 173 0
153 174 0
149 170 0
149 171 0
145 167 0
153 174 0
151 171 0
150 172 0
152 173 0
159 180 0
151 170 0
157 179 0
145 166 0
151 173 0
160 181 0
152 173 0
157 178 0
152 173 0
147 168 0
150 170 0
145 164 0
155 175 0
157 179 0
151 173 0
155 177 0
152 172 0
153 173 0
152 172 0
152 172 0
146 167 0
155 175 0
148 170 0
156 176 0
152 173 0
147 167 0
159 179 0
147 167 0
147 167 0
150 172 0
149 169 0
152 174 0
153 175 0
158 181 0
152 171 0
154 175 0
155 177 0
161 181 0
148 168 0
149 170 0
156 177 0
158 178 0
154 175 0
151 173 0
155 176 0
152 174 0
152 172 0
149 169 0
154 174 0
152 174 0
155 176 0
152 173 0
154 175 0
151 171 0
148 169 0
153 174 0
152 173 0
152 170 0
147 166 0
151 169 0
155 175 0
153 173 0
153 175 0
151 169 0
154 174 0
151 171 0
157 176 0
151 170 0
155 176 0
151 169 0
154 172 0
156 176 0
155 174 0
151 170 0
152 170 0
154 174 0
155 174 0
152 170 0
156 175 0
158 178 0
153 172 0
155 173 0
157 176 0
157 175 0
160 180 0
153 172 0
156 175 0
156 174 0
162 181 0
157 175 0
159 178 0
155 174 0
157 177 0
155 174 0
154 171 0
155 172 0
157 177 0
148 167 0
148 166 0
155 173 0
160 177 0
153 168 0
157 175 0
158 176 0
156 175 0
157 174 0
154 170 0
155 173 0
159 176 0
160 178 0
153 171 0
152 169 0
157 175 0
152 168 0
156 174 0
161 180 0
158 175 0
156 172 0
156 172 0
152 170 0
153 170 0
157 173 0
157 175 0
154 170 0
156 175 0
153 169 0
155 169 0
154 170 0
162 179 0
152 168 0
166 183 0
158 174 0
152 171 0
148 159 0
154 168 0
162 177 0
149 164 0
159 174 0
159 177 0
151 167 0
154 171 0
157 174 0
157 172 0
156 171 0
161 177 0
164 180 0
159 176 0
162 178 0
161 174 0
157 171 0
158 174 0
164 179 0
156 173 0
160 177 0
161 175 0
153 168 0
156 170 0
161 176 0
159 172 0
162 178 0
158 173 0
161 177 0
162 176 0
158 173 0
159 174 0
158 170 0
158 174 0
164 179 0
163 177 0
160 173 0
164 180 0
157 171 0
159 176 0
158 171 0
156 173 0
158 174 0
156 167 0
161 174 0
