P3
400 225
255
173 197 0
174 197 0
174 198 0
175 198 0
175 198 0
174 197 0
175 198 0
176 199 0
175 198 0
173 196 0
174 197 0
173 196 0
172 196 0
173 197 0
173 196 0
173 197 0
175 198 0
173 197 0
172 196 0
172 195 0
176 199 0
173 197 0
176 199 0
174 198 0
174 197 0
174 197 0
173 196 0
175 198 0
173 197 0
172 196 0
175 198 0
175 198 0
176 199 0
175 198 0
173 197 0
174 197 0
174 197 0
173 196 0
175 198 0
174 197 0
173 197 0
173 197 0
172 196 0
173 197 0
176 198 0
172 195 0
174 197 0
173 196 0
173 196 0
171 195 0
175 198 0
173 197 0
172 195 0
174 198 0
172 195 0
174 198 0
174 197 0
173 196 0
173 197 0
173 197 0
173 196 0
172 196 0
174 197 0
173 196 0
174 197 0
174 197 0
173 196 0
174 198 0
174 197 0
172 196 0
173 197 0
172 196 0
174 197 0
173 196 0
172 196 0
175 198 0
173 196 0
175 198 0
171 195 0
174 198 0
172 196 0
175 198 0
175 198 0
175 198 0
172 195 0
175 198 0
172 195 0
172 195 0
173 196 0
174 198 0
173 196 0
172 196 0
173 196 0
173 197 0
173 197 0
172 196 0
171 195 0
172 195 0
175 198 0
173 196 0
172 196 0
173 197 0
172 196 0
173 197 0
174 198 0
173 196 0
173 197 0
174 198 0
174 197 0
172 196 0
170 194 0
172 196 0
176 198 0
171 195 0
173 196 0
174 197 0
174 197 0
173 196 0
173 197 0
171 195 0
173 197 0
172 195 0
172 196 0
174 197 0
174 197 0
172 196 0
173 197 0
174 197 0
173 196 0
173 197 0
174 197 0
172 196 0
171 195 0
173 197 0
174 198 0
173 197 0
174 197 0
173 197 0
174 198 0
170 193 0
175 198 0
174 197 0
172 196 0
173 197 0
173 196 0
175 197 0
173 196 0
175 197 0
174 198 0
172 196 0
174 197 0
171 194 0
174 196 0
174 197 0
175 198 0
172 195 0
172 194 0
171 194 0
172 195 0
173 197 0
172 196 0
173 196 0
170 194 0
174 197 0
171 195 0
173 197 0
174 196 0
171 196 0
174 197 0
171 195 0
173 197 0
175 197 0
173 197 0
169 192 0
172 196 0
170 194 0
172 196 0
172 195 0
172 195 0
172 196 0
174 197 0
173 196 0
174 197 0
172 196 0
172 195 0
171 194 0
173 196 0
174 196 0
174 197 0
175 197 0
174 197 0
173 197 0
173 197 0
175 198 0
169 193 0
172 196 0
175 197 0
174 197 0
172 195 0
171 194 0
171 194 0
172 196 0
172 196 0
173 196 0
172 196 0
174 197 0
174 197 0
172 196 0
173 196 0
172 196 0
173 196 0
172 195 0
171 195 0
173 196 0
174 197 0
172 195 0
173 196 0
172 196 0
174 197 0
171 194 0
174 197 0
174 196 0
173 196 0
173 196 0
172 194 0
170 194 0
172 195 0
171 195 0
172 195 0
173 196 0
174 196 0
174 196 0
171 194 0
171 195 0
171 195 0
174 196 0
172 194 0
173 196 0
172 195 0
171 193 16
171 192 22
170 191 19
168 188 25
166 185 32
166 183 34
160 175 37
159 172 44
161 176 41
164 176 56
162 171 56
164 169 65
151 159 54
151 154 64
151 155 67
150 152 66
151 149 75
158 155 85
156 152 86
150 145 87
148 142 87
148 143 87
150 144 86
150 145 89
152 147 92
155 150 97
157 152 97
155 150 96
149 144 93
144 141 90
152 148 96
154 150 98
155 151 96
154 151 99
153 149 94
160 154 100
159 154 99
157 153 100
165 161 106
161 158 103
152 150 99
161 156 103
159 155 103
163 159 104
156 153 101
155 152 99
161 158 105
159 155 103
161 158 103
165 161 107
157 154 103
159 156 103
163 160 106
160 158 106
167 164 109
168 164 108
166 162 108
159 157 106
163 161 108
165 162 108
167 164 110
166 163 109
165 162 108
164 161 108
162 160 107
166 162 108
160 158 106
168 165 110
166 164 109
159 157 105
163 161 108
164 162 108
165 163 109
166 163 108
165 163 109
166 165 110
159 156 104
166 163 109
160 159 107
162 160 108
164 161 108
163 160 106
161 159 106
163 161 108
166 163 109
163 160 107
163 160 107
166 164 109
165 162 108
164 161 108
163 160 106
165 162 108
166 162 108
168 165 110
160 158 106
160 158 105
168 165 109
163 160 106
163 160 106
163 160 106
161 159 106
163 160 106
160 157 104
161 158 105
159 155 103
162 159 105
161 158 104
153 150 99
162 159 105
161 158 104
161 157 104
158 155 102
154 151 99
163 159 104
154 151 99
159 155 100
156 151 99
164 158 103
162 158 103
158 153 99
149 145 94
154 150 97
158 152 96
159 153 95
153 147 93
148 143 90
155 149 97
143 139 87
154 148 90
151 145 90
153 148 93
149 144 90
147 143 84
148 144 80
148 144 81
138 139 72
154 156 73
142 144 64
155 159 67
156 165 60
158 170 53
157 170 48
160 176 41
167 181 47
168 186 36
165 184 30
171 191 25
174 196 22
172 196 11
176 199 0
175 198 0
173 195 0
175 198 0
174 197 0
174 198 0
175 198 0
176 198 0
173 197 0
172 197 0
173 196 0
174 197 0
173 197 0
175 198 0
173 196 0
174 197 0
174 197 0
174 197 0
174 198 0
173 196 0
175 198 0
174 198 0
173 196 0
174 197 0
174 197 0
174 197 0
174 197 0
176 199 0
174 198 0
174 198 0
175 198 0
173 197 0
172 196 0
175 198 0
176 198 0
176 198 0
174 197 0
174 197 0
173 197 0
174 197 0
173 197 0
172 196 0
174 197 0
173 197 0
172 195 0
172 195 0
173 197 0
171 195 0
174 197 0
173 197 0
173 196 0
174 197 0
174 198 0
175 198 0
173 197 0
175 198 0
176 198 0
174 197 0
173 197 0
173 197 0
173 197 0
173 197 0
174 196 0
172 196 0
174 197 0
174 198 0
175 198 0
173 197 0
175 198 0
175 198 0
175 198 0
175 198 0
173 196 0
173 197 0
174 197 0
173 196 0
172 196 0
173 196 0
174 198 0
173 197 0
171 195 0
173 196 0
175 198 0
175 198 0
172 196 0
173 196 0
175 198 0
174 197 0
175 198 0
174 197 0
174 197 0
173 196 0
174 197 0
175 198 0
174 197 0
174 197 0
173 197 0
174 197 0
172 195 0
174 198 0
174 197 0
171 195 0
173 197 0
175 198 0
172 196 0
174 196 0
174 198 0
173 196 0
173 197 0
175 198 0
173 197 0
175 198 0
174 198 0
173 196 0
175 198 0
174 198 0
174 198 0
171 194 0
173 195 0
175 198 0
173 196 0
172 196 0
172 195 0
172 195 0
172 196 0
172 196 0
172 196 0
172 196 0
174 197 0
172 195 0
172 195 0
174 197 0
173 197 0
172 196 0
174 197 0
174 197 0
173 196 0
171 195 0
172 196 0
174 197 0
172 196 0
174 198 0
174 197 0
174 197 0
174 198 0
173 196 0
173 196 0
173 196 0
173 196 0
171 194 0
172 196 0
173 196 0
174 198 0
172 195 0
172 196 0
175 198 0
175 198 0
173 197 0
173 196 0
174 198 0
172 195 0
172 195 0
170 194 0
173 196 0
174 197 0
175 197 0
175 198 0
170 194 0
173 195 0
173 197 0
173 196 0
170 193 0
171 195 0
173 195 0
175 197 0
172 195 0
174 197 0
174 197 0
174 197 0
172 196 0
173 196 0
174 198 0
175 198 0
172 195 0
173 196 0
173 195 0
174 197 0
175 198 0
172 196 0
171 194 0
173 196 0
174 198 0
173 196 0
173 197 0
173 196 0
173 196 0
173 197 0
175 197 0
172 196 0
172 195 0
172 195 0
173 197 0
171 195 0
171 195 0
173 196 0
173 196 0
171 195 0
171 194 0
173 195 0
172 196 0
172 195 0
174 197 0
174 197 0
172 195 0
173 197 0
173 196 0
173 196 0
173 196 0
172 195 0
172 195 0
172 196 0
172 194 0
173 196 0
174 197 0
172 196 0
174 196 0
174 197 0
174 197 0
174 197 0
175 197 0
172 194 0
173 197 0
174 198 0
174 197 0
171 194 0
172 195 0
171 195 0
172 196 0
171 194 0
174 197 0
171 194 0
173 197 0
173 196 0
173 196 0
174 197 0
175 198 0
173 195 0
173 196 0
174 196 0
173 197 0
170 194 11
174 195 16
171 191 25
169 189 30
166 186 28
162 181 25
161 178 32
166 182 45
166 182 44
158 168 56
154 166 50
158 164 69
152 159 62
150 155 66
150 152 70
157 157 81
148 147 76
146 144 76
149 144 87
147 143 82
151 146 90
154 149 95
155 150 96
155 149 89
154 148 92
155 149 93
156 151 95
155 150 94
145 141 88
150 146 94
150 145 94
155 151 97
163 159 103
159 155 97
158 153 100
167 162 106
160 156 102
147 143 93
158 154 101
153 150 99
158 153 101
158 154 101
160 157 103
156 153 102
156 154 100
163 159 106
166 162 106
158 154 102
167 164 108
163 161 108
160 157 104
161 158 104
161 158 106
160 158 105
163 160 106
160 158 106
168 165 109
166 163 108
165 162 108
162 160 107
162 159 106
166 162 108
163 160 107
168 165 110
166 164 110
162 160 108
161 159 106
165 162 108
165 162 108
165 163 109
165 163 109
164 163 109
164 162 108
164 162 108
166 164 110
166 163 109
162 159 106
163 161 108
165 162 108
166 164 109
164 162 108
161 159 106
162 160 107
163 161 108
164 161 108
165 162 108
166 164 109
163 160 107
160 158 105
164 162 109
161 160 107
163 161 108
165 162 108
169 166 111
161 159 106
167 164 109
159 156 104
161 159 106
167 165 110
160 157 105
163 161 108
158 155 103
160 157 104
164 160 106
156 153 102
159 155 102
160 156 103
165 162 106
162 158 103
164 161 106
167 164 108
160 156 103
157 154 100
159 155 101
160 155 101
162 158 104
160 156 101
162 157 103
160 155 99
159 153 101
155 151 97
160 156 101
147 143 90
163 157 101
151 147 93
160 155 97
157 152 98
159 154 97
154 149 94
157 152 97
153 147 92
146 142 88
147 142 87
142 136 83
150 144 90
149 144 80
153 150 80
157 155 86
152 152 75
151 155 67
154 159 67
155 161 62
158 169 54
165 177 52
160 177 37
167 186 32
169 189 30
168 188 28
169 190 19
171 194 16
174 197 0
175 198 0
173 197 0
172 196 0
171 195 0
172 196 0
174 197 0
173 197 0
173 197 0
174 197 0
173 196 0
174 197 0
176 197 0
175 198 0
174 197 0
174 197 0
174 197 0
175 198 0
175 198 0
173 197 0
173 196 0
174 197 0
173 197 0
175 198 0
175 198 0
173 197 0
173 197 0
175 198 0
173 197 0
174 197 0
173 197 0
173 196 0
174 198 0
171 195 0
172 197 0
173 197 0
174 197 0
173 197 0
174 198 0
174 197 0
175 198 0
175 198 0
175 198 0
174 197 0
172 197 0
174 197 0
173 196 0
175 198 0
175 198 0
174 198 0
173 196 0
173 197 0
174 197 0
173 197 0
173 196 0
174 197 0
173 196 0
172 196 0
173 197 0
174 197 0
174 197 0
174 197 0
174 197 0
174 198 0
173 196 0
175 198 0
175 198 0
173 197 0
174 197 0
172 196 0
172 196 0
173 197 0
174 198 0
173 197 0
174 197 0
171 195 0
175 198 0
172 196 0
174 197 0
173 197 0
174 197 0
174 197 0
173 196 0
172 196 0
173 197 0
173 197 0
174 197 0
172 195 0
174 197 0
173 196 0
172 195 0
174 197 0
173 196 0
176 198 0
174 197 0
173 197 0
175 198 0
173 197 0
173 196 0
173 196 0
172 196 0
174 197 0
171 195 0
172 195 0
176 199 0
171 195 0
174 197 0
173 197 0
172 196 0
174 198 0
174 197 0
173 196 0
173 196 0
172 196 0
174 197 0
174 196 0
175 198 0
173 196 0
173 196 0
171 194 0
172 196 0
171 195 0
174 197 0
172 196 0
174 197 0
172 196 0
173 197 0
175 198 0
172 196 0
174 197 0
175 198 0
173 196 0
172 196 0
173 196 0
172 195 0
171 195 0
172 196 0
173 197 0
173 197 0
173 196 0
173 196 0
174 196 0
172 196 0
175 198 0
174 196 0
174 197 0
173 196 0
174 197 0
173 196 0
172 196 0
173 196 0
174 197 0
173 196 0
172 195 0
167 190 0
173 196 0
173 195 0
171 195 0
173 196 0
173 196 0
175 198 0
175 198 0
174 197 0
173 196 0
172 195 0
173 196 0
172 196 0
175 197 0
174 197 0
175 197 0
175 198 0
173 196 0
176 199 0
175 197 0
174 197 0
172 196 0
174 197 0
173 196 0
174 197 0
174 197 0
172 194 0
173 197 0
173 197 0
173 196 0
173 197 0
173 197 0
171 195 0
173 196 0
175 197 0
171 195 0
171 195 0
173 196 0
174 197 0
174 197 0
174 197 0
174 196 0
175 197 0
174 197 0
175 197 0
173 197 0
172 196 0
174 197 0
173 196 0
172 196 0
175 198 0
174 197 0
172 195 0
174 196 0
174 197 0
175 197 0
175 198 0
173 196 0
172 195 0
171 195 0
173 196 0
174 196 0
171 195 0
173 195 0
169 193 0
171 195 0
174 197 0
175 197 0
172 196 0
171 194 0
174 197 0
174 198 0
174 198 0
172 195 0
172 196 0
172 195 0
171 195 0
172 195 0
175 198 0
172 195 0
174 196 0
172 195 0
174 197 0
173 196 0
174 197 0
174 197 0
174 196 0
172 196 0
172 195 0
174 197 0
171 195 0
174 197 0
169 192 0
173 196 0
173 197 0
172 194 16
172 195 16
172 194 16
166 186 22
167 187 25
164 184 32
157 175 19
163 177 47
155 167 49
156 171 40
148 161 42
163 173 60
152 157 67
144 148 60
151 152 70
147 148 71
151 149 83
154 153 78
146 143 77
143 139 82
148 143 87
146 140 85
154 148 94
151 145 87
157 151 92
152 147 94
150 145 87
149 144 93
158 153 95
150 145 91
155 149 95
159 154 101
165 160 103
157 152 97
159 155 98
160 155 102
158 154 99
157 154 101
157 153 100
151 147 95
161 158 104
162 159 103
154 151 101
159 155 101
158 154 101
163 159 106
163 159 105
164 160 106
162 158 104
164 160 106
162 158 104
164 161 107
156 154 104
161 158 104
156 154 103
160 156 104
160 157 105
163 159 106
165 162 108
162 158 104
167 165 110
164 161 107
163 161 107
162 160 107
164 161 107
163 161 107
166 163 108
169 166 110
168 165 110
165 162 109
168 165 110
165 162 108
166 164 109
164 162 108
163 161 108
164 162 109
166 163 109
169 166 111
163 160 107
167 165 110
172 169 112
169 166 111
167 164 109
164 162 109
164 162 108
169 166 111
166 164 109
163 161 108
170 167 111
163 160 106
166 163 109
164 162 108
168 165 109
165 162 108
163 160 107
165 162 108
168 164 109
167 164 108
166 163 109
156 154 103
163 159 106
161 158 105
165 162 108
170 167 110
165 162 108
166 164 109
160 156 102
169 165 109
160 157 104
161 158 104
162 158 104
152 149 98
150 146 96
157 154 101
167 162 107
159 154 100
158 154 101
152 149 97
162 157 101
154 149 95
153 149 96
156 151 97
164 160 103
165 159 103
161 156 100
157 153 95
153 149 93
151 146 95
159 153 97
152 146 91
152 147 93
154 148 92
150 144 90
151 145 88
152 145 87
152 146 92
146 141 86
146 142 84
149 145 81
148 148 74
143 145 62
153 154 72
155 162 64
159 165 64
160 173 48
160 173 47
166 183 42
169 188 34
171 190 30
169 190 25
174 195 22
170 193 11
173 196 11
172 197 0
173 195 0
175 198 0
171 195 0
174 198 0
175 198 0
174 198 0
172 196 0
172 196 0
173 196 0
173 196 0
176 199 0
174 198 0
174 197 0
174 197 0
173 197 0
172 196 0
174 197 0
173 197 0
173 197 0
174 198 0
172 196 0
175 198 0
173 197 0
173 195 0
173 196 0
174 197 0
174 197 0
173 197 0
172 195 0
173 197 0
173 197 0
174 197 0
175 198 0
174 197 0
174 197 0
172 195 0
175 198 0
174 197 0
176 199 0
173 197 0
172 195 0
175 198 0
174 197 0
175 197 0
175 198 0
173 196 0
173 196 0
171 195 0
176 199 0
173 197 0
172 195 0
173 196 0
174 197 0
174 197 0
175 198 0
175 198 0
174 197 0
174 197 0
174 197 0
172 196 0
174 197 0
175 198 0
175 198 0
174 196 0
173 197 0
174 198 0
174 197 0
174 197 0
171 194 0
173 196 0
173 197 0
175 198 0
174 198 0
172 195 0
174 198 0
173 197 0
174 197 0
175 198 0
173 196 0
172 196 0
174 197 0
175 198 0
173 196 0
174 198 0
170 194 0
172 195 0
173 197 0
174 198 0
173 196 0
174 197 0
172 196 0
173 197 0
175 198 0
173 196 0
170 194 0
173 196 0
174 197 0
173 197 0
170 195 0
171 194 0
172 196 0
175 198 0
173 196 0
172 196 0
173 197 0
173 197 0
176 199 0
174 197 0
173 197 0
174 197 0
172 195 0
173 196 0
172 196 0
172 196 0
173 196 0
171 195 0
172 196 0
174 197 0
172 194 0
172 196 0
173 197 0
174 196 0
171 195 0
173 195 0
176 199 0
172 195 0
172 196 0
172 196 0
174 197 0
171 195 0
174 198 0
172 195 0
173 196 0
172 196 0
172 196 0
172 196 0
173 196 0
172 196 0
173 197 0
176 198 0
173 197 0
173 197 0
173 196 0
175 198 0
173 197 0
173 196 0
172 195 0
174 197 0
170 193 0
175 198 0
174 197 0
173 196 0
172 194 0
174 197 0
173 196 0
175 197 0
172 196 0
172 195 0
173 196 0
175 198 0
175 198 0
174 197 0
173 196 0
173 196 0
171 194 0
174 197 0
174 198 0
174 197 0
171 194 0
171 195 0
171 195 0
170 193 0
172 196 0
172 195 0
171 195 0
174 198 0
174 198 0
175 198 0
174 197 0
172 195 0
171 193 0
173 196 0
173 196 0
173 196 0
171 194 0
173 196 0
173 196 0
174 196 0
173 196 0
172 195 0
174 196 0
172 195 0
170 193 0
172 195 0
175 198 0
172 195 0
173 196 0
172 196 0
172 195 0
173 196 0
171 195 0
173 197 0
172 195 0
172 195 0
172 196 0
175 198 0
173 196 0
173 196 0
170 194 0
172 195 0
171 194 0
175 198 0
173 196 0
172 195 0
173 196 0
173 196 0
173 196 0
174 197 0
172 196 0
173 196 0
173 197 0
174 197 0
171 194 0
173 197 0
175 198 0
172 195 0
171 194 0
173 196 0
172 194 0
173 196 0
174 196 0
173 196 0
173 196 0
173 196 0
172 194 0
171 194 0
173 196 0
173 197 0
172 195 0
174 197 0
172 196 0
174 197 0
173 196 0
175 197 0
175 197 0
171 195 0
168 190 19
169 191 19
172 192 22
172 192 22
164 183 32
167 187 25
165 182 34
161 175 39
155 169 45
165 177 53
159 166 61
153 158 65
156 160 70
151 155 68
154 154 75
143 145 69
148 146 77
140 137 71
151 146 88
154 148 91
149 143 85
140 134 80
141 137 86
153 148 90
149 144 92
148 143 88
153 149 93
159 154 98
150 145 91
154 149 92
149 145 94
158 153 98
160 155 98
157 152 99
147 143 90
161 157 102
159 155 101
156 151 99
157 153 100
158 153 100
153 151 101
163 159 103
156 152 99
166 161 107
157 154 103
160 155 103
164 161 105
158 154 102
161 158 105
162 159 106
167 164 109
170 167 110
169 165 110
154 152 102
163 159 105
161 158 106
164 161 107
165 162 108
167 164 108
163 161 107
167 164 109
165 162 108
162 160 107
164 163 109
163 160 107
167 164 109
169 166 111
169 166 110
166 164 110
162 160 107
167 165 110
165 163 110
161 158 106
169 166 110
163 161 108
168 165 110
167 165 110
165 163 109
166 163 109
162 160 107
164 162 108
170 167 111
165 163 109
165 162 108
167 163 109
164 162 108
165 162 108
165 163 109
165 162 108
166 164 109
166 164 109
166 164 110
167 165 110
168 165 110
162 159 106
169 166 111
166 163 108
166 162 108
160 157 103
162 159 106
168 164 109
163 159 104
164 161 106
162 160 106
160 158 105
167 163 108
167 163 108
169 164 108
160 158 105
158 155 103
164 159 104
160 156 103
167 162 106
162 158 101
159 155 101
163 159 103
155 151 97
157 154 99
153 150 98
156 154 102
161 158 103
161 156 101
155 152 98
161 156 101
146 142 91
160 154 98
160 154 97
162 158 101
160 155 97
156 150 94
147 143 86
153 148 94
148 142 87
146 141 85
151 146 87
146 140 81
143 139 84
155 148 90
138 135 74
159 155 84
149 151 69
160 163 72
154 157 68
148 153 62
154 167 45
156 170 49
163 179 41
171 187 45
166 186 25
172 193 22
168 191 16
172 194 16
173 196 0
174 197 0
172 196 0
173 197 0
174 197 0
175 198 0
171 195 0
172 196 0
173 196 0
171 196 0
174 197 0
174 197 0
174 198 0
175 198 0
174 197 0
172 196 0
175 198 0
174 197 0
176 198 0
175 198 0
172 195 0
174 197 0
172 196 0
174 197 0
175 198 0
173 196 0
174 197 0
175 198 0
173 197 0
175 198 0
172 196 0
175 198 0
174 197 0
172 196 0
174 198 0
174 197 0
173 197 0
173 197 0
174 198 0
174 198 0
175 198 0
174 197 0
173 197 0
174 197 0
173 197 0
172 196 0
174 196 0
172 196 0
172 195 0
176 199 0
176 199 0
174 197 0
175 198 0
175 197 0
174 198 0
173 196 0
173 197 0
172 196 0
173 196 0
174 197 0
174 197 0
173 197 0
173 196 0
174 197 0
175 198 0
174 197 0
175 197 0
174 198 0
174 197 0
172 195 0
172 196 0
174 197 0
175 198 0
175 198 0
172 196 0
173 197 0
176 198 0
172 195 0
173 197 0
173 196 0
173 196 0
173 197 0
176 198 0
173 196 0
174 198 0
175 198 0
173 197 0
174 197 0
173 196 0
171 194 0
173 196 0
174 198 0
173 197 0
173 196 0
173 197 0
174 197 0
173 197 0
173 196 0
172 195 0
174 197 0
173 197 0
174 197 0
172 196 0
174 197 0
173 197 0
173 197 0
173 197 0
174 196 0
173 196 0
173 196 0
173 196 0
173 196 0
171 196 0
172 196 0
172 195 0
174 197 0
171 194 0
173 196 0
174 198 0
174 197 0
174 197 0
172 196 0
174 197 0
172 195 0
170 193 0
174 197 0
171 194 0
173 196 0
175 197 0
172 196 0
174 197 0
173 196 0
173 197 0
174 198 0
175 197 0
173 197 0
173 196 0
174 197 0
173 197 0
173 197 0
175 198 0
174 197 0
173 197 0
172 196 0
172 196 0
173 196 0
173 196 0
175 198 0
170 194 0
173 195 0
175 197 0
171 195 0
176 199 0
173 196 0
174 197 0
172 196 0
173 197 0
173 196 0
175 198 0
173 197 0
171 195 0
174 197 0
171 195 0
173 196 0
173 196 0
174 197 0
169 194 0
174 198 0
174 197 0
173 197 0
172 196 0
174 197 0
171 193 0
170 193 0
173 197 0
173 196 0
171 194 0
172 196 0
172 195 0
172 194 0
175 198 0
174 196 0
175 198 0
173 196 0
173 196 0
171 195 0
172 195 0
172 196 0
174 197 0
174 197 0
172 195 0
173 197 0
173 196 0
172 195 0
170 194 0
172 195 0
176 198 0
175 198 0
172 195 0
173 196 0
171 194 0
173 197 0
171 194 0
173 196 0
172 193 0
176 198 0
173 196 0
175 198 0
175 196 0
173 197 0
174 196 0
173 195 0
171 194 0
174 197 0
174 197 0
173 196 0
172 194 0
174 197 0
174 197 0
171 195 0
172 196 0
171 194 0
171 194 0
174 197 0
174 197 0
171 195 0
173 196 0
172 196 0
174 197 0
173 197 0
171 194 0
173 197 0
174 196 0
169 192 0
175 198 0
171 195 0
175 197 0
171 194 0
174 197 0
173 195 0
172 196 0
172 195 0
172 195 0
173 196 0
174 197 0
173 196 0
172 195 0
173 195 11
172 194 0
169 190 19
164 183 16
169 190 19
166 183 36
162 179 37
165 180 41
162 174 48
157 167 60
156 165 62
151 160 58
155 159 64
154 157 71
151 155 70
144 145 71
134 133 67
144 142 82
154 149 85
145 141 78
146 141 83
158 152 94
153 148 89
140 136 83
144 140 88
151 146 90
150 145 92
148 144 92
155 150 95
146 143 90
147 144 92
151 147 93
155 151 99
161 157 102
153 149 97
156 153 100
148 144 95
154 151 98
151 148 96
158 155 103
156 152 100
157 153 101
159 155 102
161 158 104
160 156 102
158 155 101
156 152 100
162 159 105
165 161 107
159 157 105
170 166 110
169 165 109
165 161 107
168 164 108
165 161 107
161 159 106
164 162 108
160 158 106
168 165 110
166 163 108
169 165 109
162 159 106
168 165 110
162 160 107
160 158 106
165 162 108
162 160 107
167 165 110
170 167 111
165 161 107
166 163 108
167 164 109
162 160 107
166 163 109
169 166 111
162 159 106
166 163 109
164 162 108
168 166 111
165 162 108
163 160 107
163 161 108
166 163 109
163 160 107
167 165 110
163 161 108
165 163 109
164 162 109
170 167 111
164 162 108
162 160 107
165 163 109
169 165 110
165 163 109
165 162 108
162 159 106
167 165 110
165 162 108
160 157 105
165 162 108
166 164 109
168 163 108
165 162 108
164 161 106
162 158 104
163 160 105
157 154 101
166 163 109
165 161 107
166 163 108
166 162 106
164 160 105
162 159 105
162 159 104
163 160 104
165 161 104
163 159 104
166 161 104
160 156 101
157 153 100
164 158 102
161 156 101
156 152 97
161 157 103
154 150 96
158 154 97
155 151 97
153 149 95
162 156 101
162 155 99
152 146 90
162 156 97
156 151 95
150 145 90
153 147 92
144 138 86
155 149 92
146 140 85
155 150 86
146 140 82
154 149 84
153 151 83
149 149 73
151 155 62
154 160 62
146 156 51
168 177 59
161 175 45
162 176 47
166 182 42
167 186 25
164 184 22
171 192 19
173 195 16
174 197 0
174 197 0
175 198 0
173 196 0
173 197 0
173 196 0
174 197 0
176 198 0
174 197 0
175 198 0
175 198 0
172 195 0
175 197 0
175 198 0
174 198 0
174 197 0
174 198 0
172 196 0
176 199 0
175 198 0
175 198 0
172 196 0
171 195 0
173 196 0
175 198 0
172 196 0
172 195 0
174 197 0
175 198 0
175 197 0
173 196 0
174 197 0
174 197 0
173 196 0
175 198 0
172 196 0
173 197 0
174 198 0
174 198 0
174 197 0
173 196 0
175 198 0
175 198 0
175 198 0
174 198 0
171 194 0
176 199 0
173 196 0
173 196 0
173 197 0
174 198 0
170 195 0
175 197 0
172 196 0
173 196 0
173 196 0
173 197 0
173 197 0
174 197 0
174 197 0
174 198 0
175 198 0
174 197 0
172 195 0
174 197 0
174 197 0
171 195 0
172 195 0
174 197 0
175 198 0
175 198 0
174 197 0
172 195 0
173 196 0
174 197 0
173 196 0
174 197 0
173 197 0
175 198 0
174 197 0
173 197 0
176 199 0
173 197 0
174 197 0
175 198 0
175 198 0
173 197 0
173 197 0
174 197 0
175 198 0
174 197 0
173 197 0
175 198 0
173 196 0
173 196 0
175 198 0
175 198 0
174 197 0
172 195 0
173 197 0
174 197 0
174 197 0
173 197 0
169 193 0
174 198 0
173 196 0
173 197 0
171 195 0
175 198 0
173 197 0
172 196 0
170 194 0
174 197 0
173 196 0
172 196 0
174 197 0
175 198 0
173 196 0
174 198 0
175 198 0
175 198 0
173 196 0
174 197 0
171 195 0
173 197 0
172 195 0
173 196 0
173 196 0
172 196 0
174 197 0
173 196 0
174 197 0
171 196 0
174 197 0
171 194 0
173 196 0
173 196 0
173 196 0
172 195 0
175 197 0
173 196 0
173 197 0
170 193 0
171 195 0
174 198 0
172 196 0
175 198 0
170 194 0
172 196 0
173 196 0
173 197 0
174 198 0
175 198 0
174 197 0
173 197 0
173 196 0
171 195 0
176 198 0
172 195 0
172 195 0
173 196 0
175 198 0
173 196 0
174 197 0
175 198 0
173 197 0
173 196 0
172 196 0
173 197 0
172 196 0
171 194 0
170 194 0
172 195 0
174 196 0
174 197 0
175 197 0
172 196 0
174 197 0
173 197 0
173 196 0
172 195 0
172 194 0
173 196 0
175 198 0
173 196 0
170 195 0
173 197 0
174 197 0
172 195 0
175 198 0
173 197 0
172 195 0
172 196 0
172 195 0
171 195 0
171 194 0
171 195 0
172 196 0
172 195 0
173 197 0
172 195 0
173 196 0
172 196 0
172 196 0
173 196 0
171 194 0
172 195 0
172 195 0
174 196 0
172 195 0
172 195 0
172 195 0
172 196 0
173 196 0
174 196 0
173 196 0
174 196 0
172 194 0
174 197 0
174 198 0
174 197 0
172 195 0
176 198 0
174 197 0
174 197 0
172 196 0
174 197 0
171 195 0
174 197 0
174 197 0
172 196 0
172 196 0
173 197 0
171 194 0
172 195 0
172 196 0
173 196 0
174 197 0
171 195 0
174 196 0
171 195 0
170 193 0
174 197 0
174 196 0
174 197 0
174 197 0
170 192 0
170 191 19
167 184 37
162 180 25
168 185 34
166 182 41
159 176 37
160 173 45
155 168 45
155 165 45
150 159 58
163 172 64
153 155 68
143 146 64
148 149 72
150 151 72
143 140 73
150 147 83
151 147 84
151 145 89
150 145 90
153 147 90
149 145 91
149 145 90
144 139 88
156 150 94
145 140 89
150 146 95
158 154 99
155 151 97
167 161 102
150 146 92
162 157 102
155 152 99
147 142 93
160 155 100
159 155 102
152 149 98
158 155 102
157 154 102
166 161 106
160 156 103
163 160 105
158 155 102
163 159 105
163 161 106
160 157 103
160 158 105
161 157 103
163 159 106
165 161 107
170 166 111
159 156 103
162 159 106
159 156 104
169 166 109
159 156 104
163 160 108
160 158 106
157 154 103
162 159 106
163 161 108
160 158 105
157 155 104
164 161 107
166 164 110
167 165 110
164 161 108
171 168 112
167 164 110
167 164 109
167 164 109
166 163 108
166 164 110
168 165 110
164 162 108
165 162 108
163 160 107
161 159 106
165 163 109
171 168 112
167 164 110
171 168 112
164 162 108
168 165 109
168 165 110
164 162 108
169 167 112
164 161 108
164 162 108
166 164 109
165 161 107
169 166 110
165 163 109
166 163 109
164 161 106
161 159 106
169 164 109
167 165 110
167 164 109
165 163 109
165 162 108
166 163 108
168 165 110
167 164 108
163 159 104
163 159 105
164 161 107
168 164 108
160 156 103
160 157 103
165 161 106
164 161 104
165 161 105
159 156 103
161 157 101
162 158 101
160 155 99
164 161 104
160 157 103
161 157 100
158 154 97
162 157 103
160 155 99
157 152 98
153 149 93
159 155 99
164 157 99
157 152 96
153 148 95
161 155 99
157 152 93
158 153 96
159 152 97
149 144 90
159 153 95
158 152 95
147 140 84
152 147 91
152 145 86
145 140 82
159 155 88
155 155 79
155 159 73
140 145 57
155 164 58
154 163 51
159 171 52
159 175 41
169 185 44
168 188 28
166 185 32
167 188 30
168 189 19
173 195 11
173 196 0
175 198 0
174 196 0
174 197 0
173 196 0
173 197 0
174 198 0
175 197 0
173 197 0
173 197 0
173 197 0
175 198 0
174 198 0
175 198 0
174 198 0
174 198 0
174 197 0
174 197 0
173 197 0
173 197 0
174 198 0
174 197 0
173 197 0
175 198 0
175 198 0
174 198 0
173 197 0
174 197 0
174 197 0
171 196 0
172 196 0
173 196 0
174 198 0
173 197 0
172 196 0
171 195 0
174 197 0
174 197 0
175 198 0
174 198 0
172 196 0
175 198 0
174 197 0
174 197 0
174 197 0
173 197 0
173 196 0
173 197 0
174 197 0
172 195 0
173 197 0
173 197 0
172 197 0
173 196 0
172 195 0
173 197 0
172 196 0
175 198 0
173 197 0
174 197 0
173 196 0
171 196 0
174 198 0
175 198 0
171 195 0
175 198 0
172 196 0
174 197 0
174 198 0
172 196 0
173 197 0
174 197 0
172 196 0
173 197 0
172 196 0
170 194 0
175 198 0
172 196 0
172 196 0
173 196 0
173 197 0
175 198 0
173 196 0
173 196 0
174 197 0
174 197 0
172 195 0
172 196 0
174 198 0
175 198 0
173 197 0
172 196 0
173 196 0
174 197 0
174 197 0
173 196 0
171 195 0
175 197 0
173 197 0
170 194 0
174 197 0
173 197 0
175 198 0
174 198 0
175 198 0
174 198 0
171 195 0
173 197 0
172 195 0
173 197 0
172 196 0
173 196 0
173 196 0
174 197 0
174 197 0
175 198 0
175 198 0
174 197 0
173 197 0
171 194 0
172 196 0
172 195 0
174 197 0
174 198 0
174 197 0
174 198 0
173 197 0
173 196 0
174 198 0
174 198 0
171 195 0
174 197 0
174 196 0
175 198 0
171 195 0
174 197 0
170 194 0
173 197 0
172 197 0
174 198 0
174 197 0
174 197 0
174 198 0
172 195 0
172 195 0
175 198 0
173 196 0
173 196 0
173 196 0
173 197 0
173 197 0
172 195 0
174 198 0
174 197 0
171 195 0
177 199 0
172 196 0
173 196 0
173 197 0
170 194 0
171 194 0
173 196 0
172 196 0
173 196 0
174 196 0
171 195 0
174 197 0
173 196 0
174 198 0
171 195 0
172 196 18
173 195 25
169 192 25
170 193 31
170 192 40
166 190 44
167 191 47
166 189 60
168 191 36
167 191 54
167 190 51
166 190 60
162 186 67
158 181 76
163 186 65
166 190 60
166 189 54
162 185 63
164 187 60
163 187 65
169 193 40
165 189 51
170 192 36
171 194 18
173 197 18
171 194 31
173 196 0
173 196 18
171 194 0
173 197 0
173 197 0
170 194 0
174 197 0
175 197 0
171 195 0
173 196 0
170 194 0
172 195 0
172 195 0
175 198 0
173 196 0
174 197 0
173 197 0
170 192 0
172 195 0
173 196 0
172 195 0
172 196 0
170 195 0
173 196 0
173 196 0
170 193 0
171 195 0
172 196 0
172 195 0
173 196 0
174 197 0
175 197 0
172 195 0
174 197 0
170 194 0
174 196 0
174 197 0
170 193 0
171 194 0
171 194 0
172 196 0
176 199 0
170 193 0
172 195 0
173 196 0
171 194 0
172 196 0
171 194 0
169 192 11
172 193 19
168 190 16
167 187 19
163 181 28
159 178 28
158 174 39
156 170 41
164 176 53
157 169 44
158 166 63
149 160 48
151 157 61
157 163 66
148 151 70
155 153 81
145 144 73
139 135 78
141 137 78
142 138 86
146 141 89
153 147 88
136 132 82
156 150 89
149 144 86
151 146 90
161 156 96
154 150 91
144 140 89
145 140 86
166 161 103
153 149 95
160 155 100
157 153 94
160 155 101
150 146 95
158 154 101
161 157 102
158 155 103
157 153 101
157 153 101
161 157 104
158 154 101
154 151 100
158 154 102
160 157 104
165 161 106
158 155 103
167 164 108
160 156 104
156 153 100
161 158 105
166 163 108
162 159 107
169 166 110
170 167 112
161 159 107
160 158 106
163 160 107
163 160 107
160 158 106
166 163 109
172 168 110
163 161 107
164 161 107
168 165 110
165 164 110
167 165 110
166 164 109
172 168 111
167 165 110
165 162 108
164 162 109
170 167 112
162 159 106
165 163 109
170 167 111
166 163 109
162 160 107
171 167 111
166 164 110
167 165 110
167 165 110
166 164 110
166 164 109
170 167 112
167 163 109
160 158 105
162 160 107
168 165 110
161 159 106
168 166 110
171 167 111
170 165 109
168 165 110
163 161 108
168 164 109
163 159 105
164 161 107
165 162 108
166 164 110
166 163 108
163 160 107
163 159 104
163 160 106
169 166 110
167 164 109
164 160 106
167 163 107
165 162 106
162 158 103
162 158 104
164 160 105
158 155 103
161 157 103
162 158 103
166 162 106
165 160 102
163 159 104
165 160 103
163 159 104
158 155 102
164 159 103
164 159 102
161 157 101
154 149 95
161 154 98
159 154 98
160 156 101
162 157 101
156 151 97
167 161 101
150 145 90
142 137 84
159 153 93
153 147 92
154 148 87
150 145 88
151 145 87
147 141 84
142 136 83
150 145 84
148 144 82
137 134 75
147 149 72
154 158 70
149 155 56
155 163 60
157 167 54
164 178 47
158 171 47
167 185 34
170 189 30
169 189 22
167 187 25
173 195 0
173 196 0
173 196 0
173 196 0
172 196 0
171 194 0
173 197 0
175 198 0
172 195 0
175 197 0
174 197 0
172 196 0
174 198 0
173 196 0
172 196 0
175 198 0
175 198 0
174 197 0
174 197 0
174 198 0
173 197 0
173 197 0
173 197 0
174 197 0
173 196 0
173 197 0
173 197 0
173 196 0
176 199 0
174 197 0
175 198 0
173 197 0
174 197 0
174 198 0
175 198 0
173 197 0
174 197 0
173 196 0
173 197 0
174 197 0
174 197 0
173 197 0
174 198 0
175 198 0
174 198 0
173 197 0
174 197 0
174 198 0
175 198 0
173 196 0
176 198 0
173 196 0
174 197 0
174 198 0
174 197 0
175 198 0
172 196 0
172 196 0
175 198 0
173 197 0
176 198 0
173 196 0
175 198 0
173 196 0
173 196 0
173 196 0
174 198 0
174 198 0
174 197 0
173 196 0
175 198 0
174 198 0
172 196 0
174 198 0
172 196 0
171 195 0
173 197 0
175 198 0
173 196 0
174 197 0
174 197 0
174 198 0
172 195 0
172 196 0
175 198 0
174 198 0
172 196 0
174 198 0
173 196 0
174 197 0
170 194 0
172 196 0
174 197 0
171 195 0
174 196 0
173 196 0
173 196 0
172 195 0
174 198 0
174 196 0
173 196 0
175 198 0
174 197 0
173 196 0
173 197 0
173 196 0
172 195 0
173 196 0
172 196 0
172 196 0
172 195 0
174 197 0
173 196 0
174 198 0
171 196 0
173 196 0
172 195 0
171 195 0
174 197 0
171 195 0
170 193 0
174 197 0
172 196 0
174 196 0
174 198 0
171 194 0
174 197 0
171 195 0
175 198 0
175 197 0
172 196 0
173 196 0
172 195 0
174 197 0
174 198 0
172 196 0
172 196 0
173 196 0
172 195 0
175 198 0
171 195 0
172 196 0
174 197 0
172 196 0
172 196 0
172 195 0
172 196 0
172 195 0
173 196 0
173 196 0
170 193 0
174 197 0
174 197 0
173 196 0
173 197 0
171 194 0
174 197 0
173 196 0
171 194 0
172 196 0
172 196 0
176 198 0
175 198 0
172 196 0
172 196 0
171 194 25
171 194 25
172 195 31
168 191 47
163 187 67
165 188 62
164 187 67
162 186 67
157 181 84
150 174 90
147 171 103
144 169 107
137 163 114
144 168 111
139 164 113
137 161 115
141 166 111
135 161 118
139 163 113
129 155 128
143 168 110
141 165 113
142 167 110
128 154 126
138 161 111
148 172 102
145 169 107
154 178 88
151 175 94
155 179 87
158 181 78
161 184 76
158 183 74
165 188 65
166 189 51
172 195 31
169 192 44
174 196 0
171 194 0
171 194 0
172 196 0
175 197 0
174 196 0
174 197 0
173 195 0
175 198 0
175 198 0
170 193 0
171 194 0
171 194 0
173 196 0
173 196 0
174 196 0
172 195 0
172 195 0
174 197 0
171 194 0
172 196 0
175 198 0
171 194 0
173 196 0
173 197 0
173 196 0
173 197 0
174 198 0
172 195 0
173 195 0
173 195 0
173 197 0
171 195 0
172 196 0
172 196 0
172 195 0
173 196 0
171 194 0
173 195 0
173 196 0
173 197 0
172 196 0
173 195 0
171 193 11
168 190 16
167 188 22
168 188 25
168 184 42
160 175 37
163 179 39
161 176 41
160 172 44
158 169 56
150 158 57
153 160 59
150 154 62
152 154 71
143 143 67
156 154 84
147 145 79
143 139 80
140 136 78
154 149 93
148 142 86
145 140 85
142 138 85
144 140 86
148 142 86
160 154 97
148 144 90
151 147 94
149 146 92
150 145 90
151 147 93
149 146 94
154 149 94
153 149 97
159 155 101
154 151 98
155 152 99
153 149 97
161 157 103
154 150 100
162 158 103
156 153 100
160 156 103
160 156 103
153 150 99
161 158 105
169 165 109
163 160 106
161 158 105
161 158 104
164 161 106
160 157 104
163 159 106
167 164 108
159 156 104
166 162 108
164 161 108
164 162 108
163 160 107
163 160 107
162 159 106
162 160 107
167 164 110
164 161 108
164 162 108
159 157 105
167 163 109
163 161 108
168 166 111
163 160 107
166 164 109
164 161 108
163 160 107
160 157 105
166 164 109
168 165 111
171 168 112
168 167 112
170 167 112
169 165 110
164 161 108
167 164 109
168 165 110
167 164 109
167 165 110
167 163 109
161 159 106
170 167 112
168 165 110
166 163 109
168 165 110
167 164 109
165 163 109
169 166 110
166 163 109
169 165 110
165 162 108
166 163 108
164 162 108
161 158 105
163 160 106
163 160 107
165 162 108
163 160 106
168 164 108
163 161 107
169 166 110
159 156 103
166 162 108
154 152 100
168 165 109
166 163 108
160 156 103
163 158 104
161 157 103
165 161 107
164 160 103
163 159 103
168 164 106
164 160 104
165 160 103
155 151 98
162 159 103
160 156 101
165 160 102
163 158 100
162 158 102
160 154 99
162 157 99
152 147 90
161 156 99
152 147 95
159 154 95
163 156 97
166 160 99
154 148 90
149 144 87
149 143 88
150 145 89
154 148 90
148 142 83
143 139 82
149 146 84
148 145 75
146 146 67
152 153 76
155 161 66
160 166 64
156 164 59
157 168 48
167 181 52
160 176 37
167 186 34
171 191 34
169 191 11
173 195 16
175 197 16
175 198 0
174 197 0
174 197 0
174 197 0
174 197 0
173 196 0
173 197 0
174 197 0
173 196 0
174 198 0
174 197 0
174 197 0
173 197 0
175 198 0
171 196 0
174 197 0
174 197 0
174 197 0
174 197 0
174 197 0
173 196 0
171 194 0
174 198 0
174 197 0
171 195 0
175 198 0
172 196 0
174 198 0
175 198 0
174 196 0
173 196 0
174 196 0
173 197 0
174 197 0
175 198 0
175 198 0
171 194 0
171 195 0
174 197 0
172 196 0
173 197 0
175 197 0
173 197 0
172 195 0
174 198 0
174 198 0
172 196 0
173 197 0
173 196 0
172 195 0
174 197 0
171 194 0
173 196 0
173 197 0
174 197 0
173 197 0
174 198 0
172 196 0
174 197 0
172 196 0
174 197 0
173 196 0
173 196 0
176 199 0
174 197 0
172 196 0
172 196 0
174 196 0
174 197 0
174 197 0
173 197 0
174 197 0
174 197 0
175 198 0
173 197 0
173 196 0
172 195 0
173 196 0
173 197 0
174 197 0
172 196 0
175 198 0
173 195 0
173 196 0
172 195 0
173 196 0
173 196 0
175 198 0
173 196 0
170 194 0
172 196 0
173 197 0
174 198 0
171 195 0
171 194 0
173 196 0
173 197 0
175 198 0
172 195 0
175 198 0
174 197 0
175 198 0
173 196 0
173 197 0
172 195 0
173 197 0
172 196 0
174 197 0
172 196 0
174 197 0
176 199 0
171 196 0
175 198 0
173 196 0
173 196 0
177 199 0
172 196 0
172 196 0
172 195 0
173 196 0
174 197 0
172 196 0
173 197 0
174 197 0
173 197 0
172 196 0
173 196 0
174 197 0
173 197 0
173 196 0
173 196 0
173 197 0
174 197 0
173 196 0
173 197 0
171 195 0
173 195 0
174 197 0
172 196 0
171 194 0
173 197 0
172 196 0
173 196 0
174 198 0
175 198 0
172 195 0
173 197 0
172 195 0
175 197 0
173 197 0
174 197 0
175 198 0
174 197 0
173 196 0
172 194 0
173 196 0
173 196 0
174 196 0
174 196 0
173 196 0
170 193 40
170 193 25
168 191 47
162 186 62
154 178 80
150 174 88
150 175 97
143 168 107
137 162 117
132 158 124
118 145 141
123 149 136
112 139 148
102 131 156
106 134 153
92 122 163
102 130 156
97 126 160
101 130 154
87 118 166
88 118 165
82 114 168
81 113 169
97 127 160
82 114 168
97 126 160
83 115 168
89 121 162
108 136 149
99 128 158
107 134 153
120 146 140
110 137 147
129 154 129
131 156 128
134 160 122
142 167 107
148 172 102
147 171 100
150 174 92
161 185 72
167 190 62
164 188 60
170 192 31
172 195 18
172 195 0
172 196 0
169 192 0
172 196 0
174 197 0
174 197 0
172 195 0
172 195 0
172 195 0
171 194 0
172 195 0
173 196 0
172 195 0
171 195 0
174 197 0
170 194 0
173 197 0
176 198 0
171 194 0
174 197 0
173 197 0
173 195 0
171 194 0
174 197 0
171 194 0
174 197 0
173 196 0
172 196 0
172 195 0
173 196 0
171 193 0
173 197 0
173 196 0
173 196 0
171 194 0
173 197 0
174 197 0
172 194 11
170 193 11
169 189 11
168 188 19
163 181 25
166 187 25
162 179 39
162 176 45
152 166 37
158 167 61
151 160 53
140 145 56
151 156 61
145 146 71
140 141 65
141 141 72
154 152 77
150 146 83
145 140 84
147 142 83
148 143 85
141 137 81
151 147 89
142 138 83
146 141 86
146 142 89
154 148 93
153 147 91
152 147 94
142 139 87
162 157 98
162 156 100
149 144 93
147 144 93
161 156 101
162 159 105
160 156 103
156 152 99
154 150 98
152 148 97
158 154 100
154 151 100
158 155 101
160 156 103
155 152 101
150 147 99
162 158 104
163 159 106
161 158 106
164 161 107
164 161 108
154 152 102
162 158 106
170 166 110
165 161 108
158 155 104
161 158 106
164 162 108
169 166 111
162 160 107
162 160 107
166 163 109
166 164 109
165 163 109
166 163 108
162 160 107
166 163 109
165 162 108
166 164 111
168 165 110
165 163 109
166 162 108
166 164 110
156 155 104
165 162 109
164 162 108
170 167 111
173 170 113
167 164 109
170 167 112
166 164 110
170 167 111
167 166 111
170 167 112
173 169 112
170 168 112
162 160 108
166 162 108
172 169 112
172 168 112
166 164 110
165 162 108
167 164 109
165 162 108
168 165 110
167 165 110
168 165 109
169 166 110
170 167 110
164 162 108
167 164 109
166 162 107
172 169 112
170 166 110
165 163 107
167 163 107
165 163 108
164 160 106
168 164 107
167 163 108
168 165 109
162 158 103
164 161 106
168 163 108
159 156 103
162 159 103
165 159 103
168 163 106
171 165 108
158 154 101
160 156 103
171 166 107
160 155 99
166 160 102
163 158 101
163 158 101
167 162 104
162 156 98
158 153 99
164 160 103
161 157 100
156 150 95
159 153 98
160 154 97
156 150 94
156 152 92
157 151 93
150 145 90
157 151 95
146 140 86
148 143 87
134 129 80
157 150 87
150 144 83
140 137 76
152 152 78
153 152 79
153 157 65
150 153 68
163 167 71
154 165 49
164 176 56
159 175 32
164 182 39
166 187 19
169 189 28
174 196 16
173 195 11
174 196 0
173 197 0
174 197 0
175 198 0
173 197 0
174 197 0
173 196 0
175 198 0
173 196 0
175 198 0
173 196 0
173 197 0
172 195 0
175 198 0
174 197 0
174 198 0
173 197 0
174 197 0
175 198 0
174 198 0
174 197 0
175 198 0
174 197 0
174 197 0
174 198 0
174 197 0
174 197 0
173 196 0
171 195 0
174 198 0
174 197 0
173 197 0
175 198 0
173 196 0
173 197 0
173 196 0
175 198 0
174 197 0
171 195 0
173 197 0
172 196 0
174 198 0
171 194 0
172 195 0
175 198 0
174 197 0
176 198 0
173 197 0
175 198 0
174 196 0
171 195 0
173 197 0
171 195 0
169 192 0
177 199 0
172 196 0
175 198 0
173 196 0
172 196 0
173 197 0
174 198 0
173 196 0
173 196 0
173 196 0
172 197 0
171 195 0
174 197 0
172 196 0
174 197 0
174 197 0
171 194 0
172 195 0
173 197 0
174 197 0
174 197 0
174 197 0
174 198 0
173 197 0
174 198 0
174 197 0
176 198 0
173 197 0
172 196 0
173 196 0
175 198 0
175 198 0
172 196 0
173 197 0
173 195 0
173 197 0
176 199 0
174 197 0
174 197 0
174 197 0
173 197 0
173 196 0
173 196 0
173 196 0
171 196 0
171 195 0
172 194 0
174 197 0
173 196 0
172 195 0
173 196 0
172 195 0
172 196 0
174 198 0
173 197 0
172 195 0
170 194 0
172 196 0
171 194 0
174 197 0
173 197 0
175 198 0
172 196 0
172 196 0
174 197 0
174 196 0
173 196 0
171 195 0
173 197 0
172 196 0
174 197 0
171 194 0
172 196 0
173 196 0
171 195 0
173 197 0
173 197 0
174 197 0
172 195 0
171 194 0
172 195 0
174 197 0
175 198 0
175 197 0
175 197 0
173 196 0
173 197 0
174 197 0
171 194 0
171 195 0
173 195 0
173 197 0
172 195 0
170 194 0
174 197 0
172 196 0
175 198 0
174 197 0
173 196 0
174 196 0
174 197 0
172 196 18
174 196 18
170 193 31
166 190 47
160 184 70
157 181 80
149 173 97
139 164 113
135 160 121
126 152 134
122 148 136
97 127 157
102 131 156
91 121 163
84 116 167
75 109 173
65 102 179
67 103 177
64 100 179
62 99 181
64 100 180
61 99 180
61 99 181
62 99 181
61 99 181
62 99 181
62 99 180
62 99 181
61 99 181
61 98 180
62 99 181
62 99 181
62 99 179
62 99 181
61 98 179
62 99 181
72 106 176
71 106 174
69 104 177
72 106 175
76 109 170
99 128 159
111 138 149
118 145 140
130 156 128
130 155 128
143 168 105
148 172 97
148 171 95
159 182 80
164 188 60
163 186 57
170 193 31
172 194 18
172 195 0
171 194 0
173 196 0
174 197 0
174 197 0
171 194 0
172 195 0
172 195 0
172 196 0
173 196 0
171 194 0
172 196 0
173 196 0
173 196 0
173 196 0
175 198 0
173 197 0
173 197 0
174 197 0
175 198 0
172 196 0
171 195 0
173 196 0
172 195 0
171 195 0
172 195 0
172 196 0
171 194 0
172 195 0
172 196 0
173 196 0
171 194 0
170 193 11
172 194 16
170 190 25
170 190 28
163 182 32
168 188 25
163 179 34
159 175 36
157 170 48
163 175 54
157 169 48
158 163 65
149 158 60
151 154 69
139 140 64
139 137 72
147 144 77
141 137 79
134 130 73
142 135 81
155 150 88
150 144 90
152 146 93
151 144 88
156 150 94
155 149 94
148 143 84
153 149 96
141 137 84
153 148 94
145 142 89
151 147 93
156 152 95
153 149 96
152 148 93
150 146 93
157 154 100
152 149 99
147 144 96
154 152 101
159 156 104
162 158 104
158 154 102
154 151 100
155 152 100
166 162 106
157 154 101
157 155 104
161 157 104
159 156 103
155 152 102
149 147 98
159 157 104
159 157 105
163 161 108
162 159 106
160 157 105
164 160 107
162 158 105
163 161 107
159 156 104
162 160 108
162 159 107
165 161 107
164 161 108
164 161 108
163 160 106
163 161 108
167 165 110
171 168 112
167 165 110
169 166 111
165 163 108
166 163 109
169 166 110
166 164 110
168 165 110
168 165 110
168 166 111
161 158 106
166 163 109
168 164 109
165 163 109
168 165 110
171 168 112
168 165 110
172 169 112
167 166 110
163 160 107
167 164 109
165 163 109
171 167 110
172 169 112
171 168 111
167 165 110
163 160 106
169 166 110
167 165 110
170 167 111
160 158 104
170 167 111
166 163 109
169 166 110
169 165 109
169 164 108
165 161 105
167 163 108
165 160 106
168 163 106
163 160 106
169 165 109
166 162 108
165 162 106
167 163 106
162 158 104
163 160 104
162 158 103
162 157 103
165 161 104
167 163 104
158 154 100
157 154 102
166 161 104
154 149 95
164 160 103
163 158 101
160 156 101
165 159 101
161 157 101
162 157 101
156 152 95
152 149 95
160 155 100
155 151 94
146 141 90
158 153 95
154 149 92
155 149 94
159 153 93
155 148 91
151 146 87
148 143 87
147 141 83
149 143 86
156 149 90
136 132 73
154 149 86
148 146 72
151 153 72
147 152 60
155 161 61
162 169 59
160 172 51
161 175 48
166 182 42
170 188 37
167 185 30
172 193 28
170 192 0
172 193 11
175 198 0
176 198 0
173 197 0
173 196 0
172 196 0
173 196 0
173 196 0
175 198 0
174 198 0
173 197 0
174 197 0
171 195 0
174 197 0
174 197 0
174 197 0
173 196 0
173 196 0
173 196 0
174 198 0
175 197 0
174 197 0
174 197 0
173 196 0
171 195 0
177 199 0
174 197 0
172 195 0
175 198 0
175 198 0
174 197 0
172 196 0
174 197 0
173 196 0
173 196 0
174 196 0
174 198 0
173 197 0
175 198 0
173 197 0
173 197 0
173 197 0
174 197 0
173 197 0
175 198 0
173 197 0
172 196 0
174 197 0
174 197 0
173 196 0
175 198 0
171 195 0
174 197 0
175 198 0
174 198 0
173 196 0
174 197 0
174 197 0
173 196 0
173 196 0
175 198 0
173 197 0
174 197 0
173 195 0
172 196 0
172 195 0
174 197 0
171 195 0
171 195 0
174 197 0
174 197 0
174 197 0
173 196 0
173 195 0
173 196 0
173 197 0
172 195 0
175 198 0
174 197 0
174 197 0
173 197 0
174 197 0
173 197 0
174 197 0
174 197 0
174 197 0
174 197 0
171 195 0
171 195 0
173 196 0
174 197 0
172 195 0
171 195 0
174 198 0
174 197 0
174 197 0
172 196 0
172 196 0
173 197 0
174 197 0
174 196 0
172 197 0
175 198 0
173 196 0
173 197 0
173 196 0
171 195 0
174 197 0
171 195 0
173 197 0
172 196 0
173 196 0
174 197 0
174 198 0
175 198 0
173 197 0
175 197 0
174 197 0
174 197 0
173 197 0
175 197 0
171 195 0
174 197 0
173 196 0
173 196 0
172 196 0
173 196 0
174 197 0
173 196 0
172 195 0
173 196 0
171 194 0
171 195 0
174 197 0
170 194 0
172 196 0
175 197 0
175 198 0
174 196 0
173 197 0
172 196 0
172 194 0
171 195 0
172 195 0
175 198 0
175 197 0
174 197 0
172 195 0
173 197 0
173 196 0
172 195 0
170 194 0
173 195 18
170 194 0
170 193 47
167 190 57
161 185 67
152 175 94
139 164 114
135 161 120
127 152 133
114 141 147
92 122 163
80 112 170
79 111 170
68 103 178
64 100 180
61 99 180
62 99 180
62 99 181
62 99 181
61 98 181
62 99 181
61 99 181
61 99 181
62 99 181
62 99 181
62 99 181
62 99 181
61 98 181
61 98 181
61 99 181
61 98 181
62 99 181
61 98 179
61 99 181
61 98 181
61 99 181
61 99 181
62 99 181
62 99 181
62 99 181
61 98 181
62 99 181
61 99 181
61 99 180
61 99 180
62 99 181
68 104 177
75 108 170
83 115 167
89 120 164
103 131 151
112 139 147
127 153 129
136 161 115
150 175 90
163 186 60
161 185 70
165 188 54
170 192 21
170 193 25
173 196 0
173 196 0
172 195 0
173 196 0
172 196 0
173 196 0
172 195 0
173 196 0
171 194 0
172 196 0
172 194 0
171 194 0
173 195 0
172 196 0
172 195 0
173 195 0
173 196 0
174 197 0
174 197 0
172 195 0
172 195 0
172 195 0
173 194 0
173 195 0
172 195 0
172 195 0
174 197 0
172 195 0
172 195 11
172 195 0
173 196 0
163 184 19
167 186 36
168 188 25
161 179 34
167 183 45
156 171 41
156 167 54
157 169 50
155 165 51
150 156 61
147 150 58
155 161 66
148 148 71
146 145 75
145 143 76
148 145 80
143 138 84
149 143 88
153 147 88
144 140 80
146 142 90
153 149 92
148 143 86
154 148 94
158 152 95
149 144 89
155 149 96
154 150 97
152 149 96
164 157 101
155 151 98
150 148 96
152 149 97
150 147 97
158 154 100
159 155 101
152 149 97
154 151 99
157 153 101
160 156 102
159 157 105
160 157 104
154 152 100
155 153 103
162 159 105
160 157 106
159 157 104
154 151 101
159 157 105
161 157 104
160 158 106
161 158 103
160 157 106
160 157 105
166 162 108
161 158 106
165 162 108
166 163 108
167 163 108
165 161 107
163 160 108
163 160 107
166 164 110
166 163 109
163 160 107
166 163 109
169 166 111
167 164 109
172 168 112
171 168 111
170 167 111
166 164 110
168 165 110
172 169 112
168 166 110
167 165 111
169 166 111
169 166 111
170 167 111
168 166 110
165 163 109
168 166 111
171 168 112
172 169 112
170 167 112
168 166 110
168 166 111
168 165 110
165 163 109
170 167 111
167 165 110
164 161 107
171 167 111
168 166 111
171 167 110
169 166 110
169 166 110
169 165 109
161 158 105
169 166 110
162 160 106
164 161 107
165 161 107
174 170 113
167 164 108
171 167 110
168 164 109
169 164 108
162 159 104
164 160 105
165 161 106
169 164 105
162 158 103
161 157 103
170 165 106
170 166 108
168 163 107
160 156 98
166 163 104
167 162 104
167 162 107
168 163 106
167 163 106
156 151 99
167 162 105
159 154 97
164 159 101
162 156 99
158 152 97
165 160 100
152 146 93
160 154 97
152 146 90
155 149 93
153 148 91
154 149 93
155 148 90
150 145 89
154 147 88
155 150 91
153 147 93
142 136 80
157 150 91
152 147 84
146 141 81
153 149 79
145 146 68
157 158 76
160 165 63
153 158 64
151 160 51
157 171 45
162 174 48
164 180 42
167 184 34
166 185 22
171 192 30
169 192 11
174 197 0
173 197 0
174 197 0
173 197 0
172 195 0
175 198 0
174 197 0
174 197 0
176 198 0
173 197 0
174 198 0
172 196 0
174 197 0
173 196 0
172 196 0
175 197 0
174 197 0
173 197 0
176 198 0
176 198 0
172 196 0
173 197 0
174 198 0
175 198 0
171 194 0
174 197 0
175 198 0
174 197 0
172 196 0
172 196 0
173 197 0
174 197 0
174 197 0
173 197 0
173 197 0
174 198 0
173 196 0
172 196 0
173 197 0
174 197 0
175 198 0
175 198 0
174 197 0
174 197 0
174 197 0
173 197 0
174 197 0
172 196 0
173 197 0
172 195 0
173 197 0
175 197 0
176 198 0
175 198 0
175 198 0
174 197 0
173 197 0
173 197 0
172 195 0
171 195 0
173 197 0
173 196 0
174 197 0
175 198 0
175 198 0
173 196 0
174 197 0
175 198 0
175 198 0
173 196 0
172 195 0
172 195 0
172 195 0
171 196 0
172 196 0
174 198 0
175 197 0
172 195 0
173 196 0
174 198 0
175 198 0
176 198 0
170 194 0
173 196 0
173 196 0
172 196 0
171 194 0
173 197 0
172 196 0
173 197 0
172 196 0
175 197 0
173 196 0
173 196 0
173 196 0
171 195 0
174 197 0
175 197 0
172 195 0
173 196 0
175 198 0
175 198 0
174 197 0
172 196 0
172 195 0
172 195 0
172 195 0
173 197 0
173 196 0
173 197 0
174 197 0
170 195 0
173 196 0
175 198 0
171 194 0
174 197 0
171 195 0
173 197 0
173 196 0
174 197 0
174 197 0
173 196 0
174 198 0
172 196 0
174 197 0
175 198 0
173 196 0
174 197 0
172 196 0
174 197 0
173 197 0
171 194 0
176 198 0
174 198 0
172 196 0
173 197 0
171 195 0
173 196 0
171 195 0
174 197 0
172 195 0
172 194 0
174 197 0
170 194 0
172 197 0
174 197 0
171 193 0
172 195 0
174 197 0
172 195 18
169 192 47
163 187 62
155 179 84
151 175 97
138 163 113
133 158 124
116 143 142
96 126 159
68 103 178
65 101 179
62 99 181
61 99 180
61 99 181
62 99 181
62 99 181
61 99 180
62 99 181
62 99 181
62 99 181
62 99 181
62 99 181
61 99 181
62 99 181
61 98 181
61 98 181
61 99 181
61 98 181
62 99 180
61 99 181
62 99 181
62 99 181
62 99 181
62 99 181
61 99 181
61 99 181
62 99 181
62 99 181
61 98 180
61 99 181
61 99 180
61 99 180
61 99 181
62 99 181
61 99 181
62 99 181
62 99 181
62 99 181
62 99 180
61 97 178
61 98 178
60 98 178
64 101 178
69 104 176
77 109 169
98 127 160
111 138 150
122 147 138
124 150 131
138 164 113
151 175 95
159 183 72
165 189 54
166 190 37
171 195 31
171 194 0
173 197 0
172 195 0
173 197 0
171 195 0
173 196 0
172 195 0
176 199 0
174 197 0
171 194 0
169 193 0
172 195 0
174 197 0
173 196 0
173 196 0
171 195 0
168 191 0
173 197 0
173 195 0
175 197 0
173 196 0
172 195 0
172 195 0
173 197 0
170 194 0
172 195 11
173 194 19
167 188 19
169 190 22
165 185 21
169 186 28
163 180 36
163 179 39
159 169 56
158 169 51
158 167 60
148 156 51
142 146 63
157 163 68
146 145 76
152 152 74
138 137 69
137 134 74
146 142 75
151 145 83
147 143 81
142 137 81
149 144 87
142 138 85
157 152 97
142 139 87
145 141 89
146 142 89
158 153 95
153 149 95
156 152 98
159 154 100
152 148 95
155 151 97
155 152 99
149 146 94
151 148 97
147 144 94
161 157 103
159 156 104
145 143 95
156 153 102
150 148 99
161 156 103
151 149 98
151 148 99
164 161 108
163 159 103
161 158 104
158 155 103
161 158 105
159 157 105
164 160 106
158 155 104
156 154 104
162 159 106
165 162 109
165 162 108
161 159 108
173 168 112
167 164 110
167 164 109
169 167 111
167 165 110
165 162 109
162 160 107
164 161 108
164 162 108
169 166 111
169 166 110
162 160 108
165 163 109
169 166 111
166 163 109
168 165 110
170 167 111
163 162 108
169 167 112
168 165 110
168 165 110
173 170 113
169 166 110
168 165 110
167 165 110
171 169 113
166 163 109
171 168 112
167 164 109
165 162 108
167 164 109
168 165 110
167 164 109
170 167 110
173 170 113
168 166 109
169 166 110
167 165 110
172 168 110
169 165 110
168 166 111
166 162 108
169 165 109
169 166 110
166 163 108
162 159 106
169 165 108
165 162 107
167 164 109
167 162 107
168 164 108
170 166 109
168 164 108
164 161 106
166 162 107
166 162 106
165 160 105
163 160 104
164 160 104
167 163 106
163 159 102
166 161 104
162 158 103
154 150 98
167 164 106
165 160 100
160 156 98
162 157 102
160 155 99
160 156 99
166 161 102
161 156 99
160 156 97
160 155 100
167 161 100
157 152 95
164 159 100
153 148 93
151 146 88
158 152 95
143 137 84
143 138 80
153 148 93
152 147 90
149 143 87
148 142 79
147 141 82
148 142 85
149 145 79
144 141 73
153 152 77
146 147 66
142 146 65
146 152 58
169 177 64
165 178 52
165 179 48
167 185 39
166 183 32
168 187 25
175 195 28
172 192 19
173 196 11
174 196 0
175 197 0
173 196 0
174 197 0
174 196 0
173 197 0
174 197 0
175 198 0
173 197 0
174 197 0
174 197 0
174 197 0
175 198 0
174 197 0
173 197 0
172 195 0
174 198 0
173 197 0
174 197 0
174 197 0
175 198 0
174 198 0
174 197 0
174 197 0
174 198 0
169 192 0
174 197 0
172 196 0
174 198 0
173 197 0
173 197 0
176 199 0
173 197 0
174 197 0
171 195 0
172 196 0
173 197 0
172 196 0
172 196 0
175 198 0
174 197 0
173 197 0
172 195 0
174 197 0
173 196 0
174 197 0
174 197 0
175 198 0
174 198 0
174 197 0
171 194 0
174 197 0
173 196 0
174 198 0
175 198 0
174 198 0
171 196 0
174 197 0
172 196 0
174 197 0
172 196 0
175 198 0
175 198 0
172 196 0
174 197 0
174 197 0
173 197 0
172 197 0
174 197 0
172 196 0
173 197 0
173 197 0
173 197 0
172 195 0
173 196 0
173 197 0
173 197 0
173 197 0
174 197 0
175 198 0
173 197 0
175 198 0
173 195 0
174 197 0
174 197 0
173 197 0
172 196 0
173 196 0
171 195 0
173 196 0
172 196 0
172 196 0
172 196 0
174 197 0
175 198 0
173 195 0
174 197 0
174 197 0
173 196 0
173 197 0
174 197 0
173 197 0
175 197 0
171 195 0
176 199 0
173 196 0
172 195 0
171 195 0
175 198 0
172 196 0
174 197 0
175 197 0
174 197 0
174 197 0
174 197 0
173 197 0
171 195 0
172 196 0
173 197 0
172 195 0
173 197 0
171 194 0
172 195 0
175 198 0
172 196 0
176 198 0
172 195 0
173 196 0
175 198 0
174 197 0
172 195 0
172 195 0
174 198 0
172 195 0
170 194 0
171 195 0
172 196 0
173 196 0
173 196 0
171 194 0
173 196 0
173 196 0
173 197 0
173 196 0
171 194 0
170 194 18
170 193 18
162 186 65
156 180 86
146 171 102
134 158 126
111 139 144
104 132 150
90 120 164
74 108 173
64 100 179
62 99 181
61 99 181
62 99 180
62 99 181
62 99 181
62 99 181
61 99 181
61 98 181
61 99 181
61 99 181
62 99 181
62 99 181
62 99 181
61 98 181
61 99 181
62 99 181
62 99 181
62 99 181
62 99 181
61 99 181
62 99 181
62 99 181
61 98 181
62 99 181
62 99 181
61 98 181
62 99 181
62 99 181
62 99 181
61 98 180
61 98 181
62 99 181
61 99 181
62 98 179
62 99 181
62 99 181
62 99 181
61 99 181
61 98 179
62 99 180
61 99 181
62 99 181
61 99 181
61 99 181
61 98 180
62 99 180
61 98 177
61 98 178
66 102 175
75 108 171
87 117 160
95 125 161
115 142 144
128 154 125
140 165 105
148 172 96
161 184 70
163 187 62
170 192 31
173 196 18
173 196 0
173 196 0
172 195 0
174 197 0
173 197 0
170 193 0
171 196 0
174 197 0
172 196 0
173 196 0
172 195 0
171 194 0
173 195 0
173 196 0
171 194 0
172 196 0
171 195 0
172 195 0
171 195 0
174 197 0
171 195 0
174 196 0
172 194 16
173 194 11
168 189 11
167 187 25
161 180 25
166 183 36
167 183 44
158 174 34
158 168 53
154 167 45
149 159 52
145 157 42
150 153 61
135 135 71
149 148 71
147 144 73
144 142 72
146 143 81
140 135 79
143 138 83
150 145 87
138 134 83
149 143 88
148 143 89
145 141 87
153 147 93
144 139 87
146 143 91
153 149 96
152 148 94
150 147 92
146 142 91
151 148 92
151 147 95
155 151 95
152 149 99
147 145 95
150 147 98
155 151 96
155 152 100
150 146 95
155 151 101
154 151 100
159 155 102
160 156 103
157 155 104
159 156 104
156 153 101
155 152 103
155 153 102
165 161 106
167 163 109
159 156 103
166 163 109
156 153 101
163 160 107
161 159 106
160 157 104
161 158 107
161 159 106
167 164 110
165 161 107
170 166 110
165 161 107
166 163 108
157 155 105
170 167 111
167 164 110
173 168 111
157 156 105
169 166 111
168 165 110
164 162 109
165 163 110
164 162 109
166 163 109
167 164 110
168 166 111
170 166 111
167 164 110
166 163 109
165 163 108
171 168 112
169 166 110
167 165 110
171 168 113
167 163 108
171 168 112
172 169 112
167 165 110
171 168 110
169 166 111
170 168 112
170 166 110
170 166 110
167 165 110
167 165 110
171 167 111
169 165 109
171 167 111
164 161 107
172 168 111
166 163 108
167 165 109
167 163 108
169 166 109
171 167 110
168 165 109
171 168 110
169 164 107
167 163 106
163 159 103
160 157 104
164 160 104
162 158 103
171 167 109
169 165 108
159 154 99
169 164 108
161 157 101
156 151 98
162 159 103
163 158 103
163 160 104
158 153 99
160 155 97
161 157 101
163 158 102
158 152 95
167 161 101
158 154 96
158 153 98
165 160 102
158 153 97
155 149 95
157 151 92
155 149 94
154 149 94
160 154 95
150 145 90
149 144 90
157 151 91
156 149 88
143 136 80
147 141 82
148 142 85
149 145 82
138 133 76
148 144 84
145 141 78
144 144 70
143 145 69
150 155 66
153 163 49
159 167 61
161 175 42
164 176 49
164 181 42
167 185 34
168 188 22
165 187 0
171 195 0
173 196 11
171 195 0
174 197 0
174 197 0
173 196 0
175 198 0
173 197 0
172 196 0
174 197 0
174 198 0
174 197 0
174 197 0
173 197 0
171 195 0
174 197 0
173 197 0
172 195 0
172 196 0
174 197 0
172 196 0
175 198 0
171 195 0
174 197 0
176 199 0
174 198 0
174 197 0
172 196 0
174 197 0
173 196 0
175 198 0
177 199 0
172 196 0
174 197 0
175 198 0
171 196 0
173 197 0
173 197 0
172 197 0
173 196 0
173 196 0
174 197 0
173 197 0
175 198 0
172 194 0
173 197 0
174 197 0
172 196 0
172 196 0
174 197 0
173 197 0
175 198 0
174 197 0
174 197 0
173 197 0
173 197 0
172 196 0
171 194 0
174 197 0
172 197 0
175 198 0
174 197 0
172 196 0
171 195 0
175 198 0
173 197 0
172 196 0
172 195 0
173 197 0
174 197 0
172 196 0
173 197 0
171 195 0
171 194 0
173 197 0
174 198 0
172 195 0
175 198 0
176 198 0
175 198 0
172 196 0
173 197 0
172 195 0
171 195 0
174 197 0
174 198 0
173 196 0
175 198 0
173 196 0
172 196 0
169 193 0
172 195 0
174 197 0
172 196 0
169 193 0
173 197 0
173 196 0
173 197 0
171 194 0
173 197 0
173 197 0
174 197 0
172 197 0
172 196 0
170 194 0
174 198 0
171 195 0
174 197 0
173 196 0
175 198 0
174 197 0
173 197 0
172 196 0
171 194 0
174 197 0
174 197 0
172 196 0
173 196 0
174 197 0
173 197 0
172 195 0
173 197 0
172 196 0
173 196 0
174 198 0
171 195 0
172 195 0
173 197 0
172 195 0
173 197 0
171 195 0
173 196 0
172 195 0
173 197 0
174 198 0
170 193 0
175 198 0
173 196 0
173 197 0
173 197 0
171 194 0
173 197 0
173 197 0
171 194 0
172 195 0
163 186 70
166 190 51
159 182 78
147 171 100
119 146 136
103 131 153
80 112 167
80 112 171
62 99 180
62 99 180
61 99 181
62 99 180
62 99 181
61 98 179
62 99 181
62 99 181
62 99 181
61 99 181
61 99 181
62 99 180
61 99 181
61 99 181
62 99 181
62 99 181
62 99 181
61 98 181
61 99 181
62 99 181
62 99 181
62 99 181
61 99 181
62 99 181
61 98 181
61 98 181
62 99 181
61 98 181
61 99 181
62 99 181
61 99 181
62 99 181
62 99 181
62 99 181
61 99 181
61 99 181
62 99 181
62 99 180
61 98 180
61 98 181
62 99 181
60 98 179
61 98 181
61 99 181
62 99 180
62 99 181
62 99 181
61 98 178
62 99 180
62 99 181
62 99 181
61 98 179
61 98 177
61 99 181
61 97 177
62 99 179
72 106 174
91 121 165
94 123 159
113 140 145
135 160 121
142 167 101
158 181 80
165 188 54
162 186 60
170 193 25
175 197 0
170 193 0
169 192 0
171 193 0
173 197 0
170 194 0
172 195 0
172 194 0
172 195 0
174 197 0
170 194 0
171 194 0
172 196 0
172 195 0
175 198 0
171 194 0
173 197 0
173 196 0
171 194 0
169 193 0
174 195 22
168 189 16
160 178 19
160 178 25
163 183 19
160 176 34
157 173 37
161 178 39
157 169 48
148 157 47
146 155 51
157 163 68
149 155 57
144 146 66
147 148 74
138 138 68
136 133 72
132 128 72
144 139 84
139 135 84
150 144 88
146 141 88
149 144 87
143 139 86
157 152 92
148 143 89
143 140 89
153 148 94
146 142 92
154 150 97
151 147 95
147 144 94
152 148 98
149 146 96
143 140 90
161 157 102
153 150 100
151 147 97
150 147 98
152 149 99
152 149 100
163 159 105
158 155 104
152 149 98
155 153 103
160 157 106
152 149 100
161 157 104
156 154 102
159 157 105
160 158 107
160 158 106
155 153 102
160 157 105
158 155 103
167 163 108
161 158 106
164 162 109
162 160 108
158 156 105
160 157 105
163 161 108
163 160 108
168 164 109
166 163 109
164 161 108
165 163 108
166 163 109
167 164 109
170 167 111
168 165 110
169 166 111
169 166 111
165 164 110
169 166 111
170 166 110
164 162 109
171 168 113
168 165 110
171 168 112
169 165 109
170 168 112
169 165 110
169 166 111
169 167 111
168 165 110
167 165 110
168 166 111
172 168 111
171 168 112
167 164 109
171 168 112
170 167 111
171 168 112
168 166 110
170 167 110
169 166 109
172 168 112
171 167 110
171 168 111
168 166 110
172 168 111
172 169 112
172 168 111
174 170 112
169 166 110
166 162 106
164 161 106
164 161 108
163 160 104
171 167 109
168 165 109
167 162 106
170 165 107
169 165 108
159 156 103
162 159 104
163 158 103
172 167 107
166 161 104
167 163 105
162 158 103
167 161 103
159 154 97
173 168 107
158 153 97
161 157 101
166 161 103
161 156 96
161 156 99
158 154 99
162 157 100
155 150 95
163 158 96
165 160 100
160 155 99
160 154 94
160 154 92
154 148 93
154 148 84
153 148 93
150 145 86
149 144 87
160 154 91
145 140 84
142 136 83
146 141 84
140 135 79
141 136 75
146 144 72
146 145 71
145 147 65
150 155 64
149 156 58
159 168 56
158 168 51
161 174 49
168 185 28
168 185 34
167 187 25
174 195 22
171 193 11
173 196 0
173 197 0
174 196 0
175 198 0
175 198 0
173 197 0
174 197 0
176 199 0
174 197 0
174 197 0
174 198 0
174 198 0
175 198 0
172 196 0
175 198 0
174 197 0
175 198 0
173 197 0
174 198 0
172 196 0
172 196 0
176 198 0
174 197 0
175 198 0
173 197 0
175 198 0
174 197 0
176 199 0
174 198 0
171 195 0
174 198 0
175 198 0
173 196 0
171 195 0
174 197 0
174 198 0
174 197 0
172 195 0
174 198 0
173 197 0
173 197 0
173 196 0
171 195 0
175 197 0
173 196 0
175 198 0
174 197 0
173 196 0
174 197 0
174 198 0
175 198 0
173 197 0
173 196 0
173 196 0
174 197 0
173 196 0
174 197 0
171 194 0
172 196 0
171 195 0
173 196 0
174 197 0
172 195 0
174 196 0
176 198 0
174 198 0
174 198 0
174 196 0
171 195 0
172 196 0
174 197 0
172 196 0
173 196 0
173 196 0
173 197 0
172 195 0
173 197 0
173 196 0
173 196 0
172 196 0
172 196 0
172 195 0
173 197 0
173 197 0
171 195 0
173 196 0
173 196 0
174 196 0
174 197 0
175 197 0
172 196 0
174 197 0
174 197 0
174 197 0
174 197 0
169 194 0
172 196 0
174 196 0
172 196 0
172 196 0
173 197 0
171 195 0
172 195 0
172 196 0
174 197 0
171 195 0
174 198 0
172 196 0
171 194 0
174 197 0
172 196 0
174 197 0
174 196 0
174 196 0
174 197 0
173 196 0
170 195 0
176 198 0
173 197 0
171 194 0
170 193 0
171 193 0
173 197 0
174 197 0
173 196 0
173 197 0
174 197 0
172 196 0
171 195 0
172 196 0
175 197 0
172 196 0
171 195 0
173 196 0
173 196 0
172 196 0
172 196 0
170 194 0
173 196 0
172 196 0
173 196 0
169 193 40
168 191 44
163 186 65
150 174 95
130 156 124
123 150 133
99 128 156
79 112 171
64 101 180
61 99 181
62 99 181
62 99 181
61 99 180
62 99 181
61 99 180
61 99 179
62 99 181
62 99 181
62 99 181
62 99 180
61 99 180
61 99 181
61 99 181
62 99 181
61 99 181
61 99 181
62 99 181
61 99 181
61 99 181
61 99 181
61 99 181
61 99 181
62 99 181
61 98 181
61 99 181
61 99 181
61 99 181
61 98 181
61 99 181
62 99 181
61 99 181
62 99 181
61 99 181
61 99 181
62 99 181
61 99 181
61 99 181
62 99 181
61 99 181
61 98 181
62 99 181
62 99 181
61 99 181
62 99 180
62 99 180
62 99 181
61 99 180
62 99 179
61 98 180
62 99 180
62 99 180
62 99 181
62 99 180
61 98 178
61 98 177
61 98 180
62 99 179
61 98 179
62 99 179
68 103 174
73 107 172
82 114 170
112 139 144
131 156 121
148 171 101
157 180 78
160 184 63
168 192 41
172 194 0
172 195 0
172 195 0
173 195 0
173 197 0
172 195 0
174 197 0
172 195 0
174 197 0
173 197 0
170 193 0
173 196 0
171 195 0
174 197 0
172 195 0
174 197 0
172 195 0
175 198 0
172 195 0
171 195 0
167 189 22
169 189 22
167 186 26
167 184 25
160 176 41
159 175 38
153 167 42
160 169 53
151 159 54
150 154 63
145 151 54
143 148 60
149 149 68
144 144 72
150 145 81
143 141 78
143 138 78
145 140 85
147 142 86
137 134 83
143 138 88
149 144 87
150 145 89
141 138 84
152 146 91
155 150 90
149 144 92
153 149 97
152 148 95
151 146 96
156 152 99
154 150 97
149 147 97
149 147 98
157 153 102
153 150 100
147 145 98
161 158 105
147 143 94
158 154 100
149 147 98
151 148 100
156 153 101
156 153 101
162 159 107
159 156 105
158 155 104
158 156 104
156 153 102
157 154 102
156 154 104
165 162 107
158 156 104
155 153 103
164 161 107
163 159 106
165 162 108
157 155 104
164 161 108
164 161 108
166 164 110
163 161 108
166 163 109
167 164 110
170 166 110
170 167 110
166 164 110
165 162 108
167 165 110
171 168 111
171 167 111
169 166 110
170 167 112
170 166 109
171 167 110
170 167 111
169 166 111
168 165 110
170 167 111
169 166 112
171 168 112
171 169 113
172 169 112
167 165 110
169 166 110
167 164 108
168 165 110
170 168 112
167 164 109
171 169 113
168 165 109
171 167 111
172 168 111
169 166 110
169 167 110
170 166 109
171 167 111
172 168 112
167 164 109
174 170 113
169 166 110
168 164 108
169 165 109
167 163 108
165 162 108
165 162 107
168 165 109
170 166 109
169 166 109
172 168 110
164 161 105
170 166 109
165 161 106
175 171 112
168 164 105
171 167 110
167 164 107
171 167 109
170 165 109
171 165 108
168 164 106
166 163 107
164 158 100
167 161 103
168 164 105
166 161 103
161 156 100
170 165 106
167 162 103
163 158 100
162 157 96
168 161 103
158 153 96
159 155 97
161 156 97
158 154 95
156 151 95
161 156 99
146 141 87
162 156 95
149 144 86
159 153 92
156 150 90
156 150 89
145 140 83
157 150 87
149 144 79
146 139 75
151 148 80
149 147 81
145 142 75
150 156 61
156 162 61
150 158 52
161 171 57
161 174 45
161 176 42
169 188 25
166 184 32
171 191 25
170 192 16
172 194 11
176 198 0
173 196 0
173 196 0
175 198 0
173 196 0
172 196 0
173 196 0
174 197 0
174 198 0
175 198 0
174 197 0
174 197 0
171 194 0
175 198 0
175 198 0
174 197 0
173 196 0
175 198 0
175 198 0
173 196 0
174 198 0
173 196 0
174 196 0
174 197 0
174 197 0
173 197 0
174 197 0
174 198 0
175 198 0
174 197 0
174 197 0
174 198 0
172 196 0
174 197 0
174 197 0
174 197 0
173 196 0
176 199 0
174 197 0
172 196 0
172 196 0
172 196 0
174 197 0
174 198 0
173 197 0
174 198 0
173 196 0
171 195 0
172 196 0
171 195 0
174 198 0
174 198 0
174 198 0
172 196 0
173 196 0
174 197 0
172 196 0
174 197 0
173 197 0
173 197 0
173 196 0
173 196 0
171 194 0
171 195 0
174 197 0
174 197 0
173 197 0
174 198 0
174 198 0
172 196 0
173 196 0
173 197 0
175 198 0
171 195 0
172 195 0
175 198 0
174 197 0
173 197 0
174 196 0
173 197 0
174 197 0
173 197 0
172 195 0
170 194 0
173 196 0
171 194 0
172 196 0
173 197 0
174 197 0
174 197 0
171 195 0
174 196 0
173 196 0
173 196 0
173 196 0
175 198 0
172 195 0
173 197 0
174 197 0
172 195 0
173 197 0
173 197 0
173 195 0
171 195 0
174 197 0
175 198 0
174 198 0
174 198 0
171 195 0
173 196 0
172 196 0
172 196 0
173 195 0
172 195 0
175 198 0
173 196 0
174 197 0
172 195 0
172 195 0
172 196 0
172 195 0
172 197 0
174 197 0
173 196 0
172 196 0
173 197 0
172 195 0
172 196 0
171 195 0
171 193 0
173 197 0
170 192 0
170 194 0
173 196 0
173 197 0
172 195 0
174 197 0
171 194 18
174 197 25
167 191 51
159 183 74
141 167 110
127 153 128
114 141 143
85 116 166
65 102 178
62 99 179
62 99 180
62 99 180
62 99 181
62 99 179
62 99 181
62 99 179
62 99 180
61 99 181
62 99 181
61 99 181
62 99 181
62 99 181
61 99 181
62 99 181
62 99 181
62 99 181
62 99 181
62 99 181
62 99 181
61 99 181
61 99 181
61 99 181
61 99 181
61 99 181
61 99 181
62 99 181
61 99 181
61 98 181
61 99 181
62 99 181
62 99 181
61 99 181
61 99 181
62 99 181
62 99 181
61 99 181
61 99 181
61 99 181
61 99 181
62 99 181
61 99 181
61 99 181
61 98 181
61 99 181
62 99 181
62 99 181
62 99 181
61 99 181
62 99 181
62 99 180
61 98 179
61 98 179
62 99 181
62 99 180
62 99 181
62 99 181
61 98 180
61 98 177
61 99 180
62 99 180
61 97 178
62 99 179
62 99 180
61 98 179
61 98 175
63 99 176
75 108 172
104 132 151
126 152 132
127 152 126
153 177 90
163 186 63
166 189 44
174 196 0
170 193 0
172 195 0
174 197 0
173 196 0
172 195 0
173 196 0
170 192 0
172 195 0
173 197 0
172 196 0
169 193 0
173 195 0
171 194 0
173 196 0
170 192 11
167 189 0
168 189 22
165 187 11
163 183 22
162 177 41
162 181 28
160 172 49
156 167 44
155 165 51
152 161 51
144 150 55
137 141 56
148 153 60
150 150 75
142 141 72
143 141 77
135 133 75
137 133 76
145 140 82
146 140 85
141 137 80
133 130 80
154 148 92
152 147 86
151 145 89
147 142 85
155 150 94
149 145 89
153 148 92
146 143 93
155 150 98
146 143 94
146 142 92
145 143 97
151 148 97
151 147 96
150 146 96
149 145 94
156 154 100
156 153 103
155 152 101
151 149 100
155 152 101
161 157 104
158 156 104
154 152 101
149 148 101
153 151 101
154 153 102
155 153 103
159 156 104
166 162 108
162 159 106
165 162 107
160 157 106
165 162 108
162 159 105
166 163 108
166 162 108
165 162 109
162 159 107
171 169 113
163 161 108
159 158 105
166 163 110
165 163 109
162 160 107
166 163 108
164 162 108
163 160 107
168 164 109
169 166 111
168 166 111
166 164 110
167 164 109
169 166 111
167 164 110
166 163 109
168 165 110
168 165 110
168 165 110
169 166 110
170 166 111
169 166 111
172 168 112
171 168 111
171 167 111
168 165 110
171 168 111
168 165 110
171 167 111
169 166 111
171 168 111
172 169 112
172 169 112
166 163 108
175 170 112
173 169 112
172 168 110
171 167 110
168 165 109
173 169 111
170 167 109
169 166 109
171 167 109
170 166 109
170 167 110
167 164 109
174 170 112
166 163 107
173 168 109
169 165 107
166 163 105
169 165 107
167 163 105
167 162 105
168 165 108
168 164 106
169 165 107
172 167 109
166 162 104
170 164 105
166 161 103
167 162 103
161 157 100
167 163 104
162 158 102
167 162 104
158 154 99
168 164 105
162 157 99
156 152 93
165 160 100
161 156 97
164 158 100
150 146 87
159 153 97
153 147 91
163 157 98
161 157 98
159 153 93
155 150 93
150 145 84
154 148 90
144 139 81
143 138 85
148 143 84
150 143 84
153 147 86
146 141 86
143 140 80
147 145 77
152 148 80
150 152 68
145 150 61
152 160 59
154 167 44
163 175 48
154 168 37
166 180 51
162 179 36
165 184 30
168 189 19
174 196 11
173 195 0
176 198 0
174 197 0
175 197 0
174 197 0
175 198 0
173 197 0
174 197 0
174 197 0
174 197 0
175 198 0
173 197 0
174 197 0
173 197 0
171 195 0
175 198 0
174 197 0
173 197 0
173 196 0
174 197 0
174 197 0
173 196 0
173 197 0
175 198 0
173 196 0
173 196 0
176 198 0
174 198 0
176 198 0
173 197 0
173 197 0
172 196 0
171 194 0
173 197 0
174 198 0
174 197 0
174 197 0
174 198 0
174 198 0
172 195 0
175 198 0
173 197 0
173 197 0
172 196 0
174 197 0
174 197 0
175 197 0
172 195 0
173 197 0
174 198 0
171 195 0
175 197 0
174 197 0
173 197 0
175 198 0
174 197 0
174 197 0
175 197 0
173 196 0
172 196 0
174 197 0
171 195 0
173 196 0
173 197 0
173 196 0
173 196 0
171 194 0
171 195 0
172 196 0
173 196 0
172 196 0
171 195 0
173 196 0
173 196 0
172 196 0
171 194 0
173 197 0
169 193 0
173 197 0
171 194 0
175 198 0
174 198 0
173 195 0
175 198 0
174 197 0
172 196 0
174 197 0
171 194 0
173 197 0
174 197 0
171 195 0
174 197 0
174 197 0
173 196 0
174 197 0
174 197 0
174 197 0
173 196 0
175 198 0
173 197 0
173 196 0
174 197 0
173 196 0
174 198 0
175 198 0
172 196 0
173 196 0
170 194 0
174 196 0
174 197 0
174 197 0
172 196 0
173 196 0
173 197 0
174 198 0
173 196 0
172 196 0
173 196 0
172 196 0
173 197 0
173 197 0
175 198 0
172 195 0
173 197 0
172 197 0
172 196 0
172 195 0
174 197 0
174 197 0
172 195 0
172 196 0
173 197 0
171 194 0
174 198 0
172 196 0
174 196 18
170 193 36
167 190 47
157 180 80
149 173 95
126 151 128
95 125 158
80 113 167
64 101 179
62 99 181
62 99 181
62 99 179
62 99 180
61 99 178
62 99 181
62 99 180
62 99 180
61 99 181
61 99 181
61 99 181
62 99 180
62 99 181
62 99 179
61 99 181
61 99 181
62 99 181
62 99 181
61 99 181
62 99 181
62 99 181
61 98 181
61 99 181
61 99 181
62 99 181
62 99 181
62 99 181
62 99 181
61 99 181
61 98 181
61 99 181
61 99 181
61 99 181
61 99 181
61 99 181
62 99 181
61 99 181
61 99 181
61 98 180
61 99 181
62 99 181
62 99 181
62 99 181
61 98 181
62 99 181
61 99 181
61 99 181
62 99 181
61 98 181
62 99 181
62 99 180
61 98 181
62 99 181
61 99 181
61 99 181
61 98 180
61 98 178
62 99 181
62 99 181
61 98 180
62 99 179
62 99 180
61 98 180
62 99 180
61 99 180
61 98 178
62 98 179
61 99 180
62 98 177
61 98 177
63 99 175
78 110 170
96 125 158
124 150 129
139 162 104
146 170 101
152 176 84
163 187 60
172 195 25
172 195 0
170 193 0
173 196 0
172 196 0
172 194 0
173 196 0
174 197 0
173 196 0
170 193 0
173 197 0
173 196 0
171 194 0
173 194 11
171 193 11
170 191 11
168 189 22
171 189 36
167 185 28
164 182 25
154 171 34
160 172 45
150 162 41
154 161 63
153 160 55
144 148 62
153 156 72
151 153 72
129 127 66
147 144 78
140 137 78
140 135 81
137 132 78
139 135 82
132 128 79
146 142 85
140 136 84
147 142 82
151 147 90
152 148 92
147 143 91
139 135 85
145 141 92
133 131 85
156 151 98
145 142 91
159 155 100
150 146 97
141 137 90
157 153 100
150 147 98
156 152 99
140 138 93
144 142 94
157 154 102
150 146 98
155 152 100
142 140 94
154 151 102
157 155 105
156 154 104
151 148 97
158 155 103
159 157 105
155 152 101
161 158 104
158 156 105
165 162 108
162 158 106
162 159 107
160 158 106
159 156 105
165 162 108
165 161 107
164 161 108
161 159 107
162 161 108
161 158 106
163 161 108
164 161 107
169 166 110
166 164 109
165 161 107
168 165 110
168 166 111
166 164 110
166 164 110
166 162 108
171 168 112
169 166 111
169 166 110
170 168 112
166 163 109
168 165 109
170 166 111
171 168 112
169 166 110
171 167 111
168 165 110
169 166 110
168 165 110
172 168 112
170 166 110
172 168 112
169 166 111
170 167 111
169 167 110
173 169 112
168 164 109
171 167 110
171 167 110
169 165 110
171 168 110
169 165 109
169 166 110
169 165 108
167 164 106
172 168 110
168 164 109
171 167 109
169 165 108
170 166 109
168 165 108
169 165 107
170 166 108
164 161 106
171 167 110
167 163 107
162 159 103
166 163 108
168 163 106
171 166 108
172 167 108
165 161 104
172 167 109
164 160 103
168 163 105
163 158 102
165 159 101
166 161 103
169 164 106
156 151 96
167 162 102
163 159 100
165 159 99
160 156 98
159 154 98
163 157 99
160 154 97
166 160 100
164 159 97
150 145 87
152 148 93
163 157 97
142 137 81
159 152 96
155 150 88
156 149 90
154 149 84
154 148 90
152 146 87
149 143 86
144 140 80
142 136 79
150 146 85
140 135 75
145 145 69
144 144 67
151 153 69
154 161 64
152 159 56
156 170 47
160 172 51
166 181 44
163 180 37
170 190 28
170 192 19
170 193 11
173 196 11
173 197 0
173 196 0
174 197 0
173 195 0
173 196 0
174 197 0
174 197 0
174 197 0
173 197 0
174 197 0
172 196 0
174 197 0
175 198 0
173 197 0
172 195 0
173 196 0
172 195 0
173 197 0
175 197 0
173 197 0
174 198 0
172 196 0
174 197 0
174 197 0
173 196 0
174 197 0
175 198 0
174 197 0
175 198 0
172 196 0
175 198 0
173 196 0
172 195 0
171 194 0
174 198 0
174 196 0
172 196 0
171 195 0
175 197 0
175 198 0
174 198 0
173 196 0
174 198 0
174 197 0
170 195 0
171 195 0
172 196 0
173 197 0
170 194 0
174 198 0
175 198 0
173 197 0
173 196 0
168 193 0
172 196 0
174 198 0
173 197 0
175 198 0
174 197 0
173 196 0
174 198 0
173 197 0
173 197 0
173 197 0
175 197 0
174 197 0
175 198 0
172 196 0
173 196 0
172 195 0
173 197 0
174 197 0
173 197 0
174 197 0
174 197 0
172 196 0
174 198 0
174 198 0
173 196 0
174 197 0
174 197 0
171 194 0
175 198 0
175 198 0
174 197 0
173 197 0
173 196 0
172 196 0
172 196 0
173 197 0
173 196 0
173 196 0
171 195 0
174 197 0
173 197 0
172 195 0
174 197 0
172 195 0
172 195 0
172 196 0
174 196 0
171 195 0
175 198 0
174 197 0
172 195 0
172 195 0
171 195 0
174 196 0
173 196 0
174 197 0
171 195 0
173 197 0
171 194 0
173 197 0
172 196 0
172 195 0
174 197 0
173 196 0
171 195 0
171 194 0
174 197 0
171 195 0
172 195 0
172 196 0
173 197 0
171 193 0
173 196 0
174 196 0
170 194 0
174 197 0
171 194 0
171 195 0
172 195 0
168 191 25
161 185 54
153 177 84
143 168 103
121 147 136
102 131 153
79 111 168
68 103 176
61 98 180
61 98 179
62 99 180
62 99 179
62 99 180
62 99 181
62 99 179
61 99 181
62 99 181
61 99 181
62 99 181
62 99 181
62 99 180
62 99 181
62 99 181
62 99 181
62 99 181
62 99 181
62 99 181
61 99 181
61 99 181
62 99 181
62 99 181
61 99 181
62 99 181
62 99 181
61 99 181
61 99 181
61 98 181
61 98 181
61 98 181
61 99 181
61 99 181
61 98 181
62 99 181
61 99 181
61 99 181
61 98 181
61 98 181
61 98 180
62 99 181
61 99 181
61 99 181
61 99 181
61 99 181
61 98 181
62 99 181
61 98 181
62 99 181
62 99 181
61 99 181
61 99 181
61 98 181
62 99 181
61 98 180
61 99 180
61 98 181
61 98 179
62 99 180
62 99 181
61 98 181
62 99 181
61 99 180
61 98 180
61 98 179
62 99 180
61 98 176
61 99 181
61 98 180
62 99 179
62 99 178
61 98 178
62 98 178
62 98 178
64 100 177
65 101 176
94 123 163
120 147 137
133 159 121
150 174 87
160 184 71
167 191 40
171 193 31
170 194 0
172 196 0
173 196 0
175 197 0
171 194 0
171 195 0
172 196 0
172 194 0
172 194 0
172 195 0
170 193 11
167 189 19
171 193 19
169 189 28
162 180 30
163 181 32
159 177 28
156 170 37
156 165 53
161 168 57
150 160 51
147 152 61
148 149 71
143 147 65
143 144 68
149 147 75
146 142 83
134 130 79
140 135 80
146 141 80
143 139 82
134 131 81
150 146 92
136 133 84
138 134 80
145 141 90
149 144 89
151 147 92
139 136 87
148 144 92
148 144 93
140 138 87
152 147 96
148 145 96
145 142 93
150 146 97
153 148 94
143 140 92
156 153 100
138 136 90
160 155 102
153 150 99
153 151 101
155 153 101
144 142 94
153 150 101
156 154 103
152 149 100
157 155 105
152 149 101
151 149 102
159 156 105
158 156 105
160 157 105
161 158 107
157 155 106
166 162 108
167 164 109
162 160 107
167 163 108
165 162 109
166 164 109
161 159 106
167 163 109
170 167 111
168 165 110
163 161 108
166 163 108
169 166 110
165 163 109
171 167 111
167 164 109
165 162 109
169 165 110
172 168 112
167 165 110
171 168 112
171 168 112
171 168 111
170 167 112
167 164 109
170 167 111
170 167 110
173 169 111
171 167 112
169 166 110
172 169 112
173 169 112
171 168 112
171 168 112
174 170 112
172 169 112
173 170 112
169 166 110
172 168 111
170 166 110
170 167 110
167 164 109
168 164 108
169 166 110
169 166 111
170 166 110
168 164 109
171 166 108
171 167 110
170 166 108
168 164 108
167 163 106
167 163 106
171 166 109
171 167 109
169 165 108
165 161 105
164 160 104
166 161 104
170 166 106
169 164 107
165 162 106
170 166 108
167 162 105
167 163 107
171 167 108
164 160 102
166 163 104
162 158 103
168 164 107
168 163 101
157 152 94
165 160 102
164 159 103
163 158 99
169 164 103
167 161 99
162 157 100
159 155 97
161 155 96
162 156 97
162 157 97
157 151 95
156 150 94
156 151 94
157 152 93
158 152 92
155 149 91
153 147 88
148 142 84
147 141 88
155 149 89
148 142 87
149 142 82
149 142 82
148 141 79
136 131 73
147 145 74
145 143 73
151 151 73
160 163 70
157 164 58
160 168 56
154 165 51
159 176 39
166 183 37
174 193 32
169 188 34
169 190 22
174 196 0
174 196 0
174 197 0
173 197 0
176 199 0
174 198 0
173 197 0
171 195 0
172 196 0
174 197 0
173 197 0
174 197 0
174 197 0
174 197 0
175 198 0
172 195 0
171 195 0
174 197 0
175 198 0
173 196 0
172 196 0
172 196 0
175 198 0
174 197 0
174 197 0
171 195 0
173 197 0
174 198 0
172 195 0
173 197 0
174 197 0
175 198 0
173 197 0
173 197 0
175 197 0
173 196 0
174 197 0
173 197 0
175 198 0
174 197 0
175 198 0
174 198 0
174 197 0
173 196 0
172 196 0
172 196 0
173 197 0
174 197 0
173 197 0
172 196 0
175 198 0
175 198 0
175 198 0
175 198 0
174 198 0
174 197 0
174 197 0
172 197 0
172 196 0
174 197 0
174 197 0
174 197 0
173 197 0
175 198 0
172 196 0
173 196 0
174 197 0
174 197 0
173 196 0
171 195 0
174 197 0
175 198 0
173 197 0
173 197 0
172 195 0
175 198 0
174 197 0
172 196 0
173 196 0
175 197 0
172 195 0
170 192 0
174 197 0
175 198 0
174 197 0
173 197 0
175 198 0
174 198 0
173 196 0
172 196 0
173 197 0
171 195 0
172 196 0
173 196 0
173 196 0
173 197 0
174 197 0
173 196 0
174 197 0
174 197 0
171 195 0
174 197 0
172 195 0
171 194 0
172 195 0
175 198 0
175 198 0
172 196 0
171 195 0
173 196 0
173 197 0
173 196 0
174 197 0
170 194 0
171 195 0
176 198 0
172 195 0
175 198 0
174 197 0
173 196 0
174 197 0
172 195 0
170 194 0
173 197 0
171 194 0
172 196 0
172 195 0
172 196 0
173 196 0
173 196 0
172 196 0
172 195 0
172 195 0
170 194 25
160 184 70
148 172 97
127 152 129
96 125 158
77 110 168
62 99 177
62 99 180
62 99 180
62 99 180
62 99 178
62 99 179
62 99 180
61 99 180
62 99 180
62 99 181
62 99 181
62 99 181
62 99 181
61 99 181
62 99 181
61 99 181
62 99 181
62 99 181
61 98 180
61 99 181
62 99 181
62 99 181
62 99 181
61 99 181
62 99 181
61 99 181
62 99 181
61 98 181
61 98 181
61 99 181
62 99 181
62 99 181
61 99 181
62 99 181
62 99 181
61 98 181
61 99 181
61 99 181
62 99 181
61 98 181
61 99 181
61 99 181
61 98 181
62 99 181
62 99 181
61 98 181
61 99 181
62 99 181
61 98 181
62 99 181
62 99 181
61 98 181
62 99 181
62 99 181
61 98 180
61 99 181
61 99 181
62 99 181
61 99 181
62 99 181
61 98 179
62 99 181
62 99 181
62 99 181
62 99 181
61 99 181
62 99 180
62 99 179
62 99 181
61 99 180
61 97 176
61 97 177
62 99 179
62 99 181
62 98 177
62 98 179
61 98 178
61 98 177
62 99 180
66 101 174
79 111 168
96 125 154
112 139 140
140 164 108
150 173 96
159 183 70
169 192 36
172 195 0
172 195 0
173 197 0
172 196 0
173 194 0
173 195 0
171 193 0
174 197 0
170 193 11
168 190 0
166 189 11
172 192 28
164 182 30
159 178 29
155 171 37
160 172 45
152 165 47
156 164 56
151 161 47
142 152 52
148 155 51
140 146 51
149 149 72
137 137 71
145 143 72
134 131 73
141 137 80
144 139 78
141 137 86
151 145 88
141 136 79
136 132 81
132 128 76
150 144 93
150 146 88
149 145 94
142 139 91
149 144 93
139 136 87
143 141 93
146 143 93
150 145 94
138 137 91
155 151 99
143 140 93
142 140 95
155 152 98
148 145 95
150 148 97
152 149 98
149 147 98
153 150 99
149 147 98
152 149 100
150 147 98
154 152 102
155 152 101
155 153 103
151 149 102
162 158 105
159 157 106
156 153 103
151 149 101
154 152 103
162 159 105
163 159 107
163 161 108
163 160 108
159 157 106
162 160 108
164 161 108
160 157 105
165 162 108
164 162 109
159 157 107
163 161 108
163 161 109
168 165 110
168 165 110
164 161 107
166 163 109
168 165 110
169 165 109
171 168 111
167 164 110
169 166 111
174 170 112
167 164 109
175 171 113
172 168 112
165 162 107
174 170 112
173 169 112
168 165 110
173 169 112
172 167 111
169 165 109
171 168 111
171 168 112
170 167 110
173 170 112
168 165 110
172 168 112
168 165 109
169 166 109
172 168 111
169 166 109
175 170 112
168 165 108
170 166 110
170 167 109
171 167 110
171 166 109
169 166 108
173 168 109
170 166 109
167 163 107
172 168 110
173 168 108
167 163 107
169 164 107
171 167 109
167 162 107
169 165 109
166 161 104
168 165 108
169 164 107
165 161 104
168 164 106
167 163 104
167 162 104
165 161 105
168 164 106
163 159 103
170 165 108
161 156 99
162 157 100
168 163 103
167 162 104
162 157 98
164 160 102
168 162 103
156 151 95
154 150 96
159 153 96
168 162 101
164 158 97
150 145 90
159 154 96
159 154 95
156 150 88
155 149 93
160 154 90
161 155 94
157 151 88
155 150 88
155 150 90
153 148 84
161 154 88
147 140 82
139 133 75
149 143 80
152 149 74
149 145 80
137 138 66
148 152 65
159 169 56
160 169 63
157 168 49
160 175 45
157 172 41
168 186 30
161 179 30
170 192 0
171 193 0
173 196 0
173 196 0
171 195 0
171 195 0
174 197 0
173 196 0
173 197 0
173 196 0
175 198 0
173 196 0
172 196 0
175 198 0
175 198 0
175 198 0
172 196 0
172 195 0
172 195 0
173 196 0
173 196 0
174 198 0
174 198 0
174 197 0
173 197 0
173 196 0
174 197 0
174 197 0
173 196 0
174 197 0
173 197 0
175 198 0
173 197 0
171 194 0
173 196 0
173 196 0
173 197 0
172 196 0
172 196 0
174 196 0
173 196 0
174 197 0
174 197 0
175 198 0
173 196 0
171 193 0
173 196 0
174 197 0
173 197 0
173 196 0
173 196 0
175 198 0
173 197 0
173 197 0
173 196 0
174 197 0
175 198 0
172 196 0
172 195 0
172 195 0
172 196 0
174 197 0
174 197 0
173 197 0
174 197 0
175 198 0
173 196 0
171 194 0
175 198 0
172 196 0
174 197 0
174 197 0
174 197 0
174 197 0
174 197 0
175 198 0
172 195 0
172 196 0
175 198 0
176 199 0
172 196 0
172 195 0
172 196 0
170 195 0
175 198 0
172 196 0
172 195 0
173 196 0
172 196 0
173 195 0
172 196 0
172 195 0
173 196 0
174 197 0
172 196 0
174 197 0
174 197 0
170 194 0
174 197 0
173 196 0
175 198 0
174 197 0
172 196 0
175 198 0
175 198 0
169 192 0
173 197 0
173 196 0
173 196 0
174 197 0
174 198 0
172 195 0
174 197 0
171 194 0
173 195 0
172 195 0
171 195 0
172 195 0
173 197 0
172 195 0
173 196 0
173 197 0
174 197 0
174 196 0
173 196 0
175 198 0
170 193 0
171 195 0
172 194 0
172 196 0
173 196 0
172 194 0
171 196 25
159 183 67
153 177 90
126 151 129
109 137 148
79 111 167
61 98 176
62 99 180
62 99 180
62 99 181
62 99 181
61 98 178
61 99 179
62 99 181
62 99 180
61 99 181
62 99 180
61 99 181
62 99 181
62 99 181
62 99 181
61 99 181
62 99 181
62 99 181
62 99 181
61 99 181
62 99 181
62 99 181
61 98 181
61 99 181
62 99 181
62 99 181
62 99 181
62 99 181
62 99 181
61 99 181
61 99 181
62 99 181
61 99 181
61 99 181
61 99 181
62 99 181
61 98 181
62 99 181
61 99 181
61 99 181
61 98 181
61 99 181
61 98 181
62 99 181
61 98 181
61 99 181
61 99 181
61 99 181
61 99 180
61 99 181
61 99 181
62 99 181
61 99 181
61 98 181
62 99 181
61 99 181
61 99 181
61 99 181
62 99 181
61 99 181
61 98 181
61 99 181
62 99 180
62 99 181
62 99 180
62 99 181
61 99 181
62 99 179
62 99 180
62 99 181
61 98 178
62 99 180
61 98 178
62 99 181
62 99 178
61 98 178
62 99 180
61 98 180
62 98 176
62 99 179
61 98 177
61 99 180
61 99 179
61 98 176
80 113 170
103 131 149
127 152 128
130 154 119
159 182 66
164 187 57
169 192 32
171 194 0
171 193 0
171 195 0
172 194 0
173 196 0
172 194 0
171 194 0
169 191 11
169 189 22
165 186 19
160 177 32
160 176 30
164 180 36
156 169 42
160 171 52
148 158 44
151 160 53
148 152 59
151 156 62
148 153 61
154 154 78
140 139 71
139 136 70
131 127 70
135 130 75
143 138 80
146 142 87
141 137 82
140 136 84
136 132 82
150 145 90
144 140 88
145 142 92
144 141 88
144 141 88
135 133 87
148 145 92
146 142 90
150 147 92
141 139 93
140 138 92
142 140 93
144 141 92
155 151 99
142 140 94
151 149 98
151 148 99
151 148 97
150 147 98
156 154 101
153 151 101
158 155 103
144 142 95
149 148 100
152 149 101
158 156 105
152 150 102
150 148 100
158 155 105
160 158 106
157 155 105
156 154 104
154 152 103
162 159 106
163 161 108
160 158 107
166 162 109
167 165 110
164 161 106
163 160 106
165 162 108
168 164 109
159 156 105
162 159 107
166 163 108
167 164 110
165 162 108
163 161 108
169 165 109
167 164 111
166 163 109
170 167 111
172 169 113
169 165 110
168 165 109
168 165 109
173 169 112
169 166 110
170 167 111
173 169 112
168 166 111
171 167 110
167 165 110
173 170 113
169 166 109
171 167 110
169 165 110
172 168 111
172 168 111
175 171 112
170 166 110
174 170 113
170 166 109
171 168 110
172 169 112
168 165 109
167 164 108
173 169 112
166 162 106
170 166 110
173 168 109
172 169 110
170 166 109
174 170 112
172 168 109
169 166 109
173 169 112
166 162 108
169 165 108
169 165 108
170 165 108
173 168 110
166 162 105
171 166 108
166 162 103
172 166 106
170 165 106
168 163 106
168 164 105
171 167 107
162 159 103
163 160 102
169 164 103
164 159 102
164 160 100
166 161 101
165 159 100
169 163 104
164 158 97
168 162 102
164 159 101
161 156 99
160 155 95
162 157 97
157 152 92
158 153 96
159 154 94
164 158 99
159 152 93
159 152 93
145 140 89
149 143 87
157 151 91
154 148 87
161 155 95
149 143 87
148 143 82
152 146 86
135 129 76
150 144 80
141 139 68
157 153 82
148 146 73
141 144 60
155 161 59
152 161 51
156 166 53
158 169 47
161 174 45
160 176 36
165 182 37
168 190 16
172 194 11
171 193 0
174 197 0
174 197 0
174 197 0
174 197 0
173 197 0
174 198 0
175 198 0
174 197 0
174 197 0
174 197 0
173 197 0
175 198 0
174 197 0
171 195 0
175 198 0
173 197 0
174 197 0
175 198 0
174 197 0
171 194 0
174 197 0
175 197 0
173 197 0
174 198 0
173 197 0
173 196 0
173 196 0
171 194 0
174 197 0
173 196 0
172 195 0
172 196 0
172 196 0
172 195 0
173 196 0
173 197 0
172 196 0
174 197 0
172 196 0
174 197 0
172 196 0
175 198 0
173 196 0
173 196 0
173 196 0
174 197 0
171 195 0
173 196 0
175 198 0
175 198 0
173 196 0
174 197 0
173 197 0
171 195 0
176 199 0
172 196 0
174 197 0
174 197 0
172 196 0
174 197 0
172 196 0
172 196 0
173 196 0
173 196 0
172 195 0
172 196 0
173 196 0
172 196 0
173 196 0
172 196 0
174 197 0
173 196 0
173 196 0
173 196 0
171 195 0
172 195 0
171 195 0
173 196 0
171 195 0
172 196 0
173 196 0
171 195 0
174 197 0
173 197 0
172 195 0
174 198 0
173 196 0
174 197 0
171 195 0
173 196 0
172 195 0
172 196 0
172 196 0
173 195 0
173 197 0
173 196 0
173 197 0
171 194 0
174 198 0
174 197 0
174 197 0
173 197 0
174 197 0
172 196 0
174 197 0
171 195 0
172 196 0
172 195 0
173 197 0
174 197 0
173 197 0
175 197 0
173 197 0
174 197 0
172 195 0
174 197 0
171 195 0
172 195 0
172 195 0
173 196 0
175 197 0
175 197 0
173 196 0
171 195 0
173 196 0
172 195 0
173 196 0
172 195 18
168 192 44
154 178 86
136 161 117
114 141 143
87 117 165
64 100 178
61 99 179
62 99 176
62 99 180
62 99 181
62 100 181
62 99 179
62 99 180
62 99 179
61 98 181
63 100 181
62 99 181
62 99 181
61 98 180
62 99 179
61 99 181
62 99 181
62 99 181
62 99 181
62 99 181
62 99 181
62 99 180
62 99 181
62 99 180
62 99 181
62 99 181
61 99 180
62 99 181
62 99 181
61 99 181
62 99 181
62 99 181
61 98 181
61 99 181
61 99 181
62 99 181
61 99 181
61 98 181
61 98 181
61 99 181
61 99 181
61 99 181
61 98 181
62 99 181
61 99 181
61 98 181
62 99 181
62 99 181
61 99 181
62 99 181
61 98 181
61 99 181
61 98 181
61 99 181
61 99 181
61 99 181
61 99 181
61 99 181
61 99 181
61 99 181
62 99 181
61 98 180
61 99 181
62 99 181
61 98 180
61 99 181
62 99 181
61 98 181
61 98 180
62 99 179
62 99 179
62 99 181
62 99 180
62 99 180
62 99 179
61 98 180
61 98 179
62 99 180
62 99 179
61 98 179
62 98 179
62 99 179
61 98 177
62 99 178
62 98 175
61 98 179
62 98 177
65 100 174
78 110 169
107 135 147
126 151 117
147 171 97
158 182 68
161 185 54
172 195 25
173 196 0
170 193 0
172 194 0
171 193 11
174 195 11
170 191 19
165 186 24
167 187 25
158 176 22
160 177 28
157 172 42
158 169 50
153 166 39
153 165 49
153 160 61
156 162 59
148 153 61
136 136 67
154 154 72
141 138 72
140 138 75
140 136 79
142 136 83
142 138 79
137 132 79
136 134 83
138 134 84
143 138 87
140 135 82
142 138 86
147 143 90
139 136 84
139 136 86
155 151 96
146 142 91
151 148 95
152 148 97
149 145 94
153 149 98
143 141 93
143 139 92
144 142 93
146 143 95
150 148 100
145 143 96
150 147 98
146 142 93
148 146 95
148 146 98
157 154 103
154 152 102
151 148 100
152 149 100
159 155 103
156 153 104
155 153 103
154 152 102
156 154 104
160 157 104
161 157 106
164 161 108
161 158 106
161 159 107
165 162 109
162 159 105
168 164 108
163 160 108
160 158 107
166 163 109
163 160 106
166 163 108
174 170 112
167 164 108
162 160 107
166 163 107
163 161 108
167 164 108
168 166 111
171 166 110
165 162 108
165 162 105
169 166 110
169 166 110
169 165 109
172 169 111
172 169 112
170 167 110
167 164 109
171 168 110
170 166 110
171 168 110
174 171 113
173 170 113
172 169 112
172 168 112
172 167 110
169 166 110
174 170 111
172 168 110
168 165 110
170 166 110
173 169 112
174 170 112
175 171 113
173 169 110
172 167 110
174 170 112
171 168 110
172 168 110
171 168 110
166 163 106
168 165 108
172 168 110
168 164 106
171 167 109
167 162 106
171 167 110
172 168 109
170 167 108
172 168 107
171 166 104
168 163 106
168 164 105
168 164 106
163 159 102
168 164 108
172 166 108
166 161 103
166 162 103
166 162 105
168 162 100
166 161 101
168 162 101
164 158 101
155 150 95
167 162 103
164 159 100
164 159 100
161 156 99
162 156 96
164 159 96
160 155 95
156 150 90
159 154 98
163 157 97
166 160 98
163 157 98
157 151 93
165 158 95
153 147 90
154 147 90
158 152 91
153 147 90
148 144 86
150 144 86
140 134 76
142 136 76
150 144 75
147 142 78
139 137 66
146 147 72
158 158 73
154 156 66
157 165 56
162 174 47
152 165 41
160 178 30
165 183 30
168 188 28
170 190 25
173 194 16
172 193 16
173 196 0
174 198 0
176 199 0
175 198 0
173 196 0
175 197 0
174 197 0
173 197 0
171 196 0
174 198 0
174 197 0
172 196 0
174 198 0
173 197 0
173 196 0
173 197 0
174 197 0
174 198 0
174 197 0
174 197 0
172 196 0
174 198 0
175 198 0
173 196 0
173 196 0
174 198 0
173 197 0
173 197 0
173 196 0
172 196 0
174 197 0
171 195 0
173 197 0
172 196 0
174 198 0
173 196 0
173 197 0
173 197 0
173 196 0
173 197 0
174 197 0
174 196 0
173 197 0
174 197 0
173 196 0
172 195 0
173 197 0
171 195 0
174 197 0
174 197 0
173 196 0
175 198 0
173 196 0
173 197 0
174 197 0
174 197 0
172 196 0
175 197 0
175 198 0
175 198 0
170 194 0
174 197 0
170 194 0
172 195 0
174 197 0
171 195 0
170 194 0
172 196 0
172 195 0
173 197 0
172 196 0
173 196 0
173 197 0
174 197 0
174 197 0
172 195 0
173 196 0
173 196 0
172 195 0
172 195 0
174 197 0
171 195 0
172 195 0
175 198 0
172 196 0
172 196 0
171 194 0
172 196 0
171 194 0
172 195 0
174 197 0
171 195 0
171 195 0
170 194 0
172 196 0
172 196 0
168 192 0
171 196 0
174 197 0
172 196 0
173 196 0
172 195 0
170 194 0
171 196 0
173 196 0
173 196 0
173 197 0
172 196 0
174 197 0
174 196 0
172 196 0
172 196 0
172 196 0
173 196 0
172 195 0
172 196 0
174 197 0
174 196 0
171 195 0
170 193 0
175 198 0
172 195 0
173 196 0
174 196 0
169 192 0
174 196 0
168 191 36
156 180 76
140 165 114
117 144 140
78 111 164
71 105 175
62 99 179
62 99 179
61 99 178
62 99 180
62 99 181
62 99 180
62 99 180
62 99 179
62 99 178
62 99 180
61 99 181
62 99 179
62 99 180
61 98 180
61 99 181
61 99 181
61 98 180
62 99 181
62 99 181
62 99 181
61 99 181
61 99 181
61 99 181
62 99 181
62 99 181
61 99 181
61 99 181
62 99 181
61 99 181
61 98 181
61 98 181
61 99 181
62 99 181
61 99 181
61 99 181
61 99 181
61 98 181
62 99 181
61 98 181
62 99 181
61 99 181
61 99 181
61 99 181
61 98 181
61 99 181
61 98 181
62 99 181
61 98 181
61 98 181
62 99 181
62 99 181
61 99 181
61 99 181
62 99 181
61 98 181
61 99 181
61 99 181
62 99 181
61 99 181
62 99 181
61 99 181
62 99 181
61 99 181
62 99 181
62 99 181
62 99 181
61 98 181
62 99 181
62 99 181
61 98 181
61 98 179
61 99 180
62 99 180
62 99 179
62 99 180
61 98 179
61 98 178
61 98 180
61 98 176
62 99 180
61 98 175
61 98 176
62 99 180
61 99 179
61 97 176
62 99 178
61 98 177
62 99 180
61 98 176
61 98 176
65 100 171
99 128 152
100 129 152
136 160 108
151 174 89
165 187 60
170 194 31
170 193 0
173 196 0
171 194 0
172 195 11
170 188 30
169 188 29
166 184 25
164 181 34
161 180 35
152 167 37
158 171 44
159 170 50
151 159 51
149 157 55
150 151 69
147 152 65
140 141 65
148 146 73
144 142 76
143 140 74
138 134 78
141 136 77
136 132 80
149 145 88
142 138 83
139 135 84
140 136 87
146 141 89
150 146 87
140 136 90
144 142 92
137 134 89
150 146 93
136 133 89
152 148 96
148 144 95
150 146 94
153 149 96
140 139 93
148 146 98
140 138 92
144 142 95
143 140 93
146 144 98
155 152 101
148 147 99
153 150 98
152 149 101
150 148 100
151 148 100
142 141 96
148 147 99
152 150 102
158 155 103
151 149 102
155 153 103
152 151 102
159 157 105
155 153 103
157 154 103
157 154 103
163 160 108
160 157 105
160 158 106
161 159 107
159 156 104
161 158 106
164 161 107
163 160 107
165 162 108
167 164 109
170 166 110
166 163 108
170 166 110
164 162 107
156 154 105
169 166 110
168 165 110
168 165 109
169 166 111
167 164 108
173 170 113
174 170 111
173 170 112
165 162 108
168 165 109
170 167 112
173 170 113
168 165 109
171 168 112
170 167 110
171 168 111
170 167 111
172 168 111
173 169 111
169 165 109
169 166 110
167 164 109
173 168 110
173 170 112
171 167 110
174 170 112
171 167 109
173 169 110
171 168 111
172 169 111
171 166 107
172 167 110
173 168 109
171 167 110
175 171 112
169 165 107
175 170 112
167 163 105
166 162 106
168 164 106
167 163 106
174 170 111
168 163 106
169 165 106
169 165 105
171 166 106
170 165 107
173 168 109
167 163 105
165 161 103
169 164 105
163 159 102
168 162 104
167 162 105
165 160 103
165 160 101
167 163 103
164 159 101
164 159 97
164 159 97
164 158 97
162 157 97
166 160 99
159 155 95
165 159 96
158 153 96
168 162 102
158 153 94
165 158 95
158 153 95
153 148 87
148 144 88
157 152 95
164 159 97
156 150 84
157 152 90
147 142 85
152 146 87
154 148 90
145 140 79
145 139 82
147 141 77
141 137 69
146 144 72
143 143 63
149 152 64
150 155 59
161 166 66
155 165 49
156 168 44
164 181 37
162 179 32
167 186 25
169 191 11
171 192 16
174 197 11
173 197 0
174 197 0
173 196 0
173 197 0
173 197 0
173 196 0
175 197 0
175 198 0
173 196 0
170 194 0
173 197 0
173 197 0
175 198 0
173 197 0
174 197 0
174 197 0
173 196 0
173 196 0
173 197 0
174 198 0
174 198 0
172 195 0
174 197 0
175 198 0
174 197 0
176 198 0
171 195 0
174 198 0
174 197 0
174 196 0
175 198 0
174 197 0
173 197 0
173 196 0
172 196 0
171 195 0
173 196 0
172 197 0
175 198 0
172 196 0
175 198 0
174 197 0
173 197 0
174 197 0
172 196 0
174 197 0
172 196 0
173 196 0
172 196 0
175 198 0
173 196 0
173 197 0
172 196 0
169 193 0
173 197 0
174 196 0
174 197 0
175 198 0
172 194 0
176 198 0
175 198 0
173 197 0
174 196 0
174 197 0
173 197 0
174 197 0
174 197 0
174 197 0
173 197 0
174 198 0
175 198 0
173 196 0
174 197 0
174 197 0
173 197 0
173 196 0
172 195 0
173 196 0
173 196 0
172 195 0
172 195 0
174 197 0
169 193 0
173 197 0
172 195 0
173 196 0
173 196 0
167 191 0
173 197 0
175 198 0
175 198 0
171 193 0
173 197 0
172 196 0
171 194 0
172 195 0
174 197 0
173 195 0
172 196 0
172 195 0
172 196 0
171 195 0
171 195 0
173 196 0
173 196 0
174 197 0
172 196 0
171 194 0
172 195 0
171 195 0
173 196 0
172 196 0
172 196 0
172 195 0
170 193 0
171 195 0
172 196 0
169 192 0
171 194 0
172 195 0
173 196 0
171 196 0
173 196 0
170 192 31
164 188 54
152 177 82
132 158 121
112 139 144
66 102 175
62 99 178
62 99 178
62 99 177
62 99 180
61 98 178
62 99 180
62 99 181
62 99 180
62 99 180
62 99 180
62 99 181
61 98 179
62 99 178
61 99 180
62 99 180
61 99 181
61 99 180
62 99 180
61 99 180
62 99 179
62 99 181
62 99 181
61 99 181
62 99 181
62 99 181
62 99 181
61 99 181
62 99 181
61 99 181
62 99 181
62 99 181
61 99 181
61 99 181
62 99 181
61 98 181
62 99 181
61 99 181
61 98 181
61 99 181
62 99 181
61 99 181
61 99 181
61 99 181
61 99 181
61 99 181
62 99 181
61 99 181
61 99 181
61 99 181
61 98 181
61 99 181
62 99 181
62 99 181
61 99 181
62 99 181
62 99 181
62 99 181
62 99 181
62 99 181
62 99 181
61 99 181
61 98 181
62 99 181
62 99 181
62 99 181
62 99 181
61 99 181
62 99 181
61 99 181
61 98 180
61 99 181
62 99 181
61 98 181
62 99 181
61 99 180
62 99 180
61 99 181
61 98 180
62 99 180
62 99 180
62 99 179
62 99 179
62 99 178
61 99 181
61 98 178
62 99 177
62 99 180
61 97 176
62 99 178
61 98 179
62 99 177
61 98 175
61 97 176
63 99 175
74 107 165
95 124 159
112 138 141
147 170 87
153 176 84
165 188 44
171 194 0
171 193 11
167 188 11
166 187 16
166 187 25
167 185 32
161 177 37
160 174 39
162 173 48
158 169 48
147 157 45
143 153 48
150 154 66
139 143 58
144 148 67
144 142 74
137 136 65
143 138 79
135 132 74
132 127 75
141 136 83
144 139 84
130 127 76
135 132 83
143 139 86
145 140 86
138 136 85
145 141 86
140 137 82
147 144 92
134 132 85
136 133 83
150 146 95
151 147 95
136 134 87
143 140 93
140 137 89
141 138 92
152 149 99
142 141 95
142 141 95
148 147 99
145 143 96
149 147 98
145 142 95
148 145 99
150 147 98
140 138 95
151 149 100
148 146 98
153 151 101
156 154 105
153 151 103
157 154 105
150 149 101
157 154 104
159 156 106
155 153 104
156 153 102
164 163 110
157 155 104
161 159 107
163 160 107
163 160 107
159 155 104
159 156 105
162 159 107
165 163 109
160 159 107
164 161 107
166 163 108
168 165 110
169 165 109
166 162 108
164 162 108
169 166 110
168 164 109
169 167 112
169 166 111
168 164 109
167 164 109
171 168 112
166 163 109
173 169 111
171 167 110
172 169 110
173 170 112
174 170 113
170 167 109
172 168 111
170 167 110
172 168 111
166 162 106
173 170 112
173 168 109
174 170 112
172 168 110
170 166 110
176 171 112
175 171 112
171 167 110
167 164 107
169 166 109
169 165 106
174 170 111
171 167 110
173 169 110
169 164 107
176 171 112
172 167 109
172 167 108
171 167 109
175 170 111
172 168 108
172 168 109
173 168 109
167 164 106
169 165 106
173 168 111
169 165 102
171 166 108
171 166 108
158 156 99
172 167 109
163 159 99
171 165 105
167 162 102
168 164 104
164 160 101
160 156 99
171 166 106
169 163 103
169 164 102
160 155 97
171 164 101
160 155 94
159 155 94
167 161 100
159 154 93
156 152 93
158 152 89
160 155 97
159 153 93
164 158 101
154 149 90
160 154 92
152 148 85
158 152 90
155 149 92
153 147 87
149 144 80
155 149 87
138 132 76
144 140 78
149 142 81
154 148 87
140 135 72
139 135 71
144 141 74
151 152 68
149 150 70
141 146 58
146 152 57
154 166 42
163 173 53
167 181 41
167 184 32
166 183 32
168 190 0
172 195 0
173 196 0
173 196 0
173 196 0
171 195 0
175 198 0
172 195 0
173 197 0
173 196 0
175 198 0
172 196 0
175 198 0
172 195 0
174 198 0
173 196 0
171 195 0
174 197 0
175 198 0
172 196 0
173 197 0
173 197 0
173 197 0
174 197 0
176 198 0
173 196 0
173 197 0
172 195 0
171 195 0
170 193 0
173 197 0
173 195 0
175 198 0
174 198 0
172 196 0
174 197 0
173 196 0
173 196 0
174 197 0
174 198 0
173 197 0
173 196 0
174 198 0
173 196 0
173 197 0
173 196 0
173 196 0
175 197 0
174 198 0
172 195 0
176 198 0
171 195 0
173 197 0
173 196 0
174 197 0
175 198 0
175 198 0
172 195 0
174 197 0
171 195 0
172 195 0
173 197 0
173 197 0
173 197 0
173 197 0
173 196 0
174 197 0
174 197 0
173 196 0
172 195 0
174 198 0
172 196 0
174 197 0
173 196 0
172 195 0
175 198 0
174 197 0
173 196 0
172 196 0
174 197 0
175 198 0
173 197 0
174 197 0
175 198 0
172 196 0
174 198 0
172 196 0
172 195 0
174 197 0
173 196 0
174 197 0
173 196 0
172 195 0
172 195 0
171 195 0
172 195 0
175 198 0
174 196 0
174 197 0
172 196 0
171 195 0
173 196 0
174 196 0
175 197 0
173 197 0
171 194 0
172 195 0
173 196 0
173 197 0
172 196 0
174 197 0
174 198 0
173 196 0
174 197 0
172 195 0
173 196 0
174 196 0
173 197 0
173 196 0
172 196 0
173 196 0
173 196 0
173 197 0
174 197 0
174 197 0
168 191 40
165 189 62
142 167 110
115 142 141
90 120 159
64 101 178
62 99 177
62 99 173
62 99 180
61 99 180
62 99 180
63 99 177
62 99 180
62 99 179
63 100 181
62 99 179
62 99 179
62 99 181
63 100 181
62 99 181
62 99 179
61 99 181
61 99 179
62 99 179
62 99 181
62 99 181
61 99 181
61 99 180
61 99 180
62 99 181
62 99 181
61 98 180
62 99 181
61 99 181
62 99 181
62 99 181
62 99 181
62 99 181
61 98 181
62 99 181
61 99 181
61 99 181
61 99 181
61 98 181
61 98 181
61 99 181
61 99 181
62 99 181
62 99 181
61 99 181
61 99 181
61 99 181
61 99 181
61 99 181
62 99 181
61 99 181
62 99 181
62 99 181
61 99 181
61 98 181
61 99 180
61 99 181
61 99 181
62 99 181
61 99 180
62 99 181
62 99 181
62 99 181
62 99 181
61 99 181
62 99 181
62 99 180
61 99 181
62 98 178
61 98 181
62 99 179
62 99 179
62 99 180
62 99 181
62 99 181
61 99 181
62 99 179
62 99 181
62 99 181
61 98 179
62 99 181
62 99 180
62 99 181
62 98 176
62 99 180
62 99 178
62 99 181
62 99 180
62 99 179
62 99 179
61 97 175
62 99 179
62 99 177
63 99 177
62 99 179
61 97 173
62 99 176
61 97 173
83 114 163
105 133 147
138 162 110
149 172 86
160 183 60
170 192 35
169 190 16
166 188 0
167 186 22
166 185 28
165 181 38
158 171 42
160 174 39
151 164 43
154 164 49
149 159 49
156 163 57
147 150 65
132 133 56
145 144 73
141 138 72
145 142 76
143 140 79
137 133 78
139 135 81
145 140 85
132 128 76
135 132 85
140 136 86
135 130 84
136 132 81
141 138 88
133 130 88
151 146 93
148 144 93
129 127 82
142 140 89
135 132 84
138 136 89
141 139 91
148 146 97
142 140 95
143 141 93
147 145 98
153 149 99
152 150 99
138 136 93
148 147 101
141 140 95
162 160 107
154 152 103
147 144 97
145 143 98
154 151 102
150 147 99
148 146 99
155 153 102
154 151 101
148 147 99
157 155 104
165 162 108
154 152 102
155 154 104
153 150 101
155 153 104
161 159 107
164 161 108
155 154 104
155 154 104
159 157 106
159 157 106
159 157 105
166 163 109
160 158 107
164 162 109
168 165 111
166 163 108
167 164 108
168 165 110
172 168 109
166 164 109
170 166 111
167 164 109
172 168 111
171 167 109
167 164 108
171 167 109
173 169 112
171 168 111
170 166 110
168 163 107
171 168 110
175 170 113
175 171 113
171 167 110
168 165 108
167 164 108
173 169 111
174 170 112
171 167 110
174 170 110
171 167 110
173 169 113
172 168 108
171 168 110
172 167 108
175 171 112
174 170 110
172 168 109
171 166 108
173 169 110
174 169 109
176 171 111
171 167 109
166 163 106
173 168 109
173 168 110
171 167 109
169 164 106
173 169 110
170 166 106
165 162 104
167 162 104
171 166 108
170 166 105
167 163 106
164 160 104
168 164 107
169 165 107
169 163 104
162 159 102
162 158 99
164 159 103
164 159 101
166 161 104
167 163 103
164 159 101
167 161 103
169 163 103
165 160 99
164 159 99
163 157 99
156 151 95
166 159 99
169 163 101
165 160 102
165 160 99
169 162 99
166 160 98
147 142 85
156 150 95
160 154 97
145 141 87
150 145 86
151 145 87
148 142 81
156 149 90
151 144 82
153 148 82
148 142 81
148 142 84
150 144 81
153 149 79
148 145 69
139 142 63
147 151 62
149 154 60
156 169 47
157 169 44
159 175 39
161 177 36
167 185 32
165 185 22
172 194 11
173 195 16
174 197 0
174 196 0
174 197 0
175 198 0
172 196 0
172 196 0
170 194 0
174 196 0
174 197 0
174 198 0
174 197 0
174 197 0
175 198 0
174 197 0
170 194 0
174 197 0
174 197 0
175 197 0
172 196 0
169 193 0
173 196 0
174 197 0
170 194 0
173 197 0
172 196 0
175 198 0
173 197 0
173 197 0
172 195 0
174 197 0
174 198 0
175 198 0
170 193 0
174 198 0
173 196 0
173 197 0
173 197 0
175 197 0
172 196 0
173 197 0
172 196 0
174 198 0
173 197 0
174 197 0
170 194 0
173 196 0
174 197 0
174 198 0
173 196 0
172 195 0
173 196 0
174 197 0
173 196 0
173 197 0
173 195 0
173 197 0
173 197 0
174 197 0
173 196 0
171 195 0
170 194 0
173 197 0
171 196 0
173 196 0
172 196 0
173 196 0
174 197 0
175 198 0
172 196 0
173 197 0
173 196 0
171 195 0
172 195 0
174 197 0
174 198 0
174 197 0
174 197 0
172 196 0
171 194 0
173 196 0
173 196 0
172 196 0
173 196 0
174 197 0
173 196 0
174 197 0
172 195 0
174 197 0
173 197 0
172 195 0
173 197 0
171 194 0
173 197 0
172 195 0
174 197 0
169 192 0
171 194 0
171 194 0
173 196 0
172 195 0
173 196 0
173 197 0
172 195 0
170 194 0
173 196 0
173 197 0
173 196 0
174 197 0
174 197 0
171 195 0
173 196 0
173 197 0
173 197 0
171 195 0
173 196 0
175 197 0
172 195 0
169 193 0
173 197 0
173 196 0
171 195 0
165 187 51
154 178 86
141 165 111
104 131 153
79 111 167
62 99 177
62 99 178
62 99 180
62 99 178
62 99 180
61 99 179
62 99 179
62 99 179
62 99 176
62 99 180
62 99 180
62 99 180
62 99 180
62 99 180
62 99 179
61 99 180
62 99 180
62 99 181
62 99 181
62 99 181
61 99 181
62 99 181
62 99 181
61 99 181
62 99 181
62 99 180
62 99 181
62 99 181
61 98 181
61 99 181
61 98 180
61 99 181
62 99 181
61 99 181
61 98 181
61 99 181
62 99 181
61 98 181
61 99 181
62 99 181
61 99 181
61 99 181
62 99 181
62 99 181
61 99 181
62 99 181
61 98 180
61 99 181
61 98 181
61 99 181
62 99 181
61 99 181
61 98 181
61 98 181
61 99 181
62 99 181
61 98 181
61 99 181
62 99 181
61 99 181
61 99 181
62 99 181
61 99 181
61 98 181
62 99 181
61 99 181
62 99 181
61 98 180
61 98 181
62 99 181
61 98 180
62 99 179
62 100 181
62 99 181
62 99 181
62 99 181
61 99 181
62 99 181
62 99 181
62 99 180
61 99 180
61 98 179
61 98 179
62 99 180
62 99 180
62 99 180
62 99 179
62 99 180
61 98 178
62 99 179
61 98 179
62 98 176
61 98 177
62 99 179
61 97 175
61 98 176
61 98 177
61 98 177
61 97 174
61 96 172
74 107 167
98 126 144
123 148 128
148 170 91
161 184 66
160 182 51
168 190 0
165 184 28
169 186 36
164 180 41
161 177 37
151 164 38
158 170 50
149 156 56
146 156 47
149 155 62
140 145 58
143 145 65
125 129 55
138 134 68
130 127 76
137 131 77
139 135 78
140 136 84
134 130 80
137 134 84
146 141 88
130 127 78
143 140 88
135 132 83
140 137 88
133 130 85
143 140 90
133 131 84
140 137 87
144 140 93
137 134 88
143 140 93
127 126 87
135 134 88
138 137 92
142 140 95
146 144 96
147 144 97
140 139 96
144 142 94
142 140 95
152 150 101
149 147 98
150 147 99
142 142 96
143 142 98
147 145 99
158 156 105
152 150 102
148 145 98
148 146 99
148 147 100
156 153 101
159 157 106
149 147 101
160 158 106
161 158 106
162 160 107
158 155 105
157 154 103
163 161 108
166 162 109
158 156 105
165 161 107
163 161 108
161 158 107
164 162 108
163 160 107
163 160 106
163 160 107
167 163 108
166 163 109
165 163 108
167 163 107
164 161 106
169 166 110
165 162 106
170 167 111
167 163 108
167 164 108
165 162 107
169 165 109
170 166 110
172 168 108
171 167 110
174 170 112
173 170 112
175 170 110
170 167 108
170 167 109
172 169 112
175 171 112
169 166 109
170 167 111
171 168 109
175 170 110
172 168 109
173 170 111
169 166 108
172 168 109
174 169 110
174 169 109
174 169 110
174 170 109
170 166 109
170 166 108
172 168 108
169 165 104
167 163 106
172 167 108
171 167 108
170 165 108
176 172 113
173 168 107
170 166 107
172 168 109
170 164 106
173 168 108
169 164 104
158 153 99
163 159 99
168 164 104
169 164 104
171 167 106
168 163 104
172 166 107
170 164 106
162 157 101
166 161 101
166 161 100
162 157 97
169 163 101
157 154 96
163 158 93
160 156 97
169 162 101
159 153 92
161 156 98
163 157 97
167 161 97
156 150 90
161 154 91
153 149 88
160 153 90
161 154 93
159 153 91
149 144 84
149 144 84
152 145 87
150 144 80
156 150 87
151 145 79
159 153 86
144 138 77
146 140 79
147 144 76
146 145 68
150 148 70
144 149 53
149 156 57
159 169 54
155 166 49
163 177 47
167 183 34
167 186 34
165 186 19
166 185 19
172 195 11
175 198 0
174 197 0
173 197 0
172 196 0
175 198 0
173 197 0
173 197 0
173 196 0
175 198 0
174 197 0
173 196 0
173 196 0
172 195 0
174 197 0
174 197 0
172 196 0
174 197 0
174 198 0
174 197 0
173 196 0
174 197 0
174 197 0
174 197 0
175 198 0
174 197 0
173 197 0
174 197 0
173 196 0
173 197 0
175 198 0
173 197 0
174 197 0
175 198 0
173 197 0
174 197 0
175 198 0
173 196 0
173 196 0
174 198 0
175 198 0
175 197 0
173 197 0
174 197 0
173 196 0
176 198 0
171 195 0
171 195 0
175 197 0
173 197 0
172 196 0
173 196 0
173 197 0
174 197 0
172 196 0
173 197 0
171 194 0
174 197 0
172 195 0
172 197 0
175 198 0
172 196 0
172 196 0
174 197 0
174 197 0
175 198 0
170 193 0
171 195 0
173 196 0
171 194 0
174 197 0
173 197 0
170 193 0
175 197 0
172 196 0
174 197 0
174 198 0
169 192 0
173 196 0
176 198 0
173 196 0
174 197 0
172 195 0
173 196 0
171 194 0
170 194 0
172 195 0
170 193 0
172 196 0
175 198 0
173 196 0
171 195 0
175 198 0
173 196 0
171 195 0
169 192 0
172 196 0
172 196 0
173 196 0
173 197 0
172 196 0
172 195 0
174 197 0
171 195 0
172 195 0
171 194 0
173 197 0
170 194 0
174 197 0
169 192 0
170 195 0
173 195 0
172 196 0
171 195 0
169 192 0
171 193 0
171 195 0
172 195 0
171 195 0
172 196 0
171 194 0
163 186 65
154 178 84
127 152 131
100 129 155
64 100 174
62 99 177
62 99 174
62 99 174
61 98 177
62 99 180
62 99 180
62 99 178
62 99 180
62 99 179
62 99 181
62 99 181
62 99 179
61 99 179
62 99 180
62 99 181
62 99 179
62 99 179
62 99 181
62 99 181
62 99 180
62 99 181
61 99 180
61 99 180
62 99 181
62 99 179
62 99 181
62 99 181
61 99 181
62 99 181
62 99 181
61 99 181
62 99 181
61 99 181
62 99 181
61 98 180
61 99 181
61 98 180
61 99 181
61 99 181
62 99 181
61 99 181
62 99 181
61 99 181
61 98 181
61 99 181
62 99 181
61 99 181
62 99 181
62 99 181
61 99 181
62 99 181
61 99 181
62 99 181
61 98 181
61 99 181
61 99 181
62 99 181
62 99 181
62 99 181
61 99 181
61 99 181
61 98 180
62 99 181
62 99 181
62 99 181
62 99 181
62 99 181
61 98 181
62 99 181
61 99 181
62 99 181
61 98 180
62 99 181
61 99 181
62 99 181
61 99 181
61 99 180
62 99 179
61 99 179
62 99 179
62 99 180
61 99 181
62 99 179
62 99 180
62 99 180
62 99 180
62 99 181
61 98 177
62 99 179
62 99 181
61 98 180
61 98 176
61 98 176
61 98 176
61 98 176
61 98 178
61 98 176
61 98 176
61 98 178
62 99 176
62 98 174
62 98 174
68 101 165
87 117 160
115 142 134
140 161 102
149 169 86
159 178 58
162 182 40
162 179 32
159 176 25
162 176 39
158 170 45
158 167 57
147 156 47
147 153 59
147 152 62
145 148 64
132 132 64
136 135 69
133 131 70
128 125 71
135 131 71
141 136 78
139 135 79
139 134 82
128 125 75
124 122 77
141 138 86
137 134 82
130 127 79
147 143 91
132 130 85
133 130 84
140 137 89
147 144 95
139 136 86
133 130 86
141 138 91
135 133 88
131 131 90
141 140 95
151 147 97
138 137 93
151 147 98
144 142 94
136 135 92
143 141 94
153 151 102
144 142 96
146 144 99
148 146 99
149 146 100
154 152 101
153 150 100
143 142 96
159 156 104
152 150 101
158 156 105
153 150 101
153 151 103
159 157 106
160 158 106
149 148 100
162 159 106
148 146 100
157 156 106
155 154 104
158 156 104
161 157 105
163 160 107
159 155 104
167 164 109
165 162 108
166 162 107
163 160 107
172 168 111
167 163 108
167 164 108
165 162 109
166 164 109
170 166 110
167 164 109
168 165 108
170 166 110
164 161 108
170 167 110
173 169 111
173 169 110
171 167 110
173 169 111
173 169 111
174 169 110
173 169 111
175 171 112
171 167 110
171 167 110
174 170 110
172 168 110
173 169 109
172 169 110
175 171 112
173 169 109
174 170 111
171 167 109
170 166 108
176 171 110
175 169 109
174 170 112
171 167 110
174 170 110
172 168 108
166 163 107
173 169 109
170 165 106
169 164 108
169 166 106
173 169 107
172 169 112
167 163 106
171 166 108
173 169 109
168 164 106
171 167 107
173 168 106
172 167 106
169 164 104
170 164 102
168 164 105
172 167 108
167 161 101
161 157 99
173 167 106
165 160 100
171 166 105
163 157 99
166 161 101
165 159 98
169 164 101
167 162 99
163 158 100
173 167 104
171 164 104
169 163 101
156 151 95
166 160 102
155 150 92
163 158 94
158 153 94
164 158 99
157 151 89
153 147 86
155 149 90
151 146 86
157 152 89
154 148 86
158 152 89
153 147 85
144 138 77
144 139 74
139 134 71
146 140 80
144 140 75
148 144 75
148 148 65
149 152 66
150 152 66
157 165 51
160 173 42
156 168 41
163 181 25
165 182 34
168 187 22
173 194 30
167 189 0
172 195 11
174 196 0
175 198 0
171 195 0
171 195 0
173 197 0
172 196 0
173 196 0
174 198 0
175 198 0
172 196 0
173 196 0
174 197 0
174 197 0
175 197 0
175 198 0
173 197 0
171 194 0
174 197 0
174 198 0
175 198 0
173 196 0
174 198 0
173 196 0
172 195 0
171 195 0
173 196 0
172 196 0
172 196 0
173 196 0
175 198 0
173 196 0
173 197 0
173 196 0
175 197 0
175 198 0
173 196 0
173 196 0
173 196 0
174 197 0
174 197 0
173 197 0
174 197 0
172 196 0
173 196 0
173 197 0
172 195 0
172 195 0
173 197 0
171 195 0
174 198 0
175 197 0
175 198 0
175 198 0
174 197 0
173 196 0
173 196 0
172 196 0
174 197 0
174 197 0
174 197 0
174 196 0
172 195 0
172 196 0
172 195 0
170 193 0
171 195 0
174 197 0
173 196 0
172 197 0
174 198 0
173 196 0
173 196 0
173 196 0
173 195 0
172 195 0
173 195 0
172 196 0
172 195 0
173 196 0
174 198 0
172 196 0
174 197 0
172 196 0
175 198 0
171 195 0
173 197 0
173 197 0
172 195 0
172 195 0
168 192 0
172 195 0
173 196 0
171 195 0
173 197 0
170 193 0
173 196 0
173 197 0
173 196 0
173 196 0
171 195 0
173 196 0
171 195 0
172 195 0
172 196 0
172 196 0
171 194 0
173 196 0
173 196 0
173 196 0
170 194 0
171 196 0
170 193 0
171 194 0
172 195 0
174 197 0
171 195 0
173 196 0
170 193 31
160 184 60
141 166 105
120 147 137
91 121 164
62 99 176
61 98 178
62 99 176
61 98 174
62 99 178
62 99 181
62 99 177
61 99 178
61 98 177
62 99 180
62 99 176
62 99 181
62 99 181
62 99 181
62 99 178
61 98 181
62 99 180
61 99 181
62 99 181
62 99 179
62 99 181
61 99 181
62 99 181
62 99 181
62 99 181
61 99 181
61 99 179
62 99 181
62 99 181
61 99 180
62 99 181
61 99 181
62 99 181
62 99 181
62 99 180
62 99 181
62 99 181
62 99 181
61 99 181
62 99 181
62 99 181
62 99 181
61 98 181
61 99 181
61 98 181
62 99 181
61 98 181
62 99 181
62 99 181
61 99 181
61 99 181
62 99 181
62 99 181
62 99 181
62 99 181
61 99 181
62 99 181
61 99 181
62 99 181
61 99 181
61 98 181
62 99 181
62 99 181
62 99 181
62 99 181
62 99 181
61 99 181
62 99 181
61 99 181
62 99 181
62 99 181
62 99 181
61 99 181
61 99 181
62 99 181
62 99 180
61 98 180
61 99 180
61 99 180
62 99 181
62 99 180
62 99 180
62 99 181
61 99 180
61 98 177
61 98 178
62 99 180
61 99 180
62 99 177
61 98 179
61 98 175
62 99 181
61 98 179
61 98 176
62 99 179
61 98 176
62 99 180
61 98 177
61 98 177
61 98 177
62 99 175
61 97 175
61 97 174
61 98 175
61 97 174
63 99 174
80 110 166
101 126 143
116 140 125
141 161 100
152 169 68
163 182 41
160 173 42
164 177 47
155 167 38
156 166 58
151 162 47
141 148 56
148 147 68
134 137 57
134 133 72
141 140 72
147 143 80
125 122 66
136 132 82
125 122 74
136 133 78
134 131 79
138 133 83
137 133 86
140 137 85
132 129 81
145 141 91
125 123 81
137 134 84
129 127 82
144 141 89
130 129 86
136 135 89
135 133 88
140 140 96
133 131 86
141 140 93
147 143 93
137 135 91
135 135 92
144 141 95
147 145 98
138 137 92
147 145 99
144 141 95
139 138 95
144 143 97
148 145 98
151 148 99
149 147 99
145 143 96
144 143 99
144 143 98
154 152 102
154 152 103
155 152 103
152 149 99
158 155 104
158 156 105
157 155 103
158 155 104
164 160 106
162 159 107
157 155 103
165 162 109
157 155 105
160 157 105
164 161 108
163 161 108
165 162 109
163 160 107
171 167 110
168 165 110
167 164 107
165 162 107
169 165 108
164 162 106
173 169 112
175 170 112
168 165 110
168 165 109
173 169 110
164 161 105
169 166 111
172 168 109
169 166 107
172 168 110
170 167 110
173 169 111
171 168 110
174 169 111
172 168 110
176 172 113
173 169 110
172 168 109
179 173 112
172 168 111
175 171 112
171 167 108
172 168 109
169 166 106
173 170 110
175 170 109
171 167 108
169 166 108
172 167 109
171 166 108
169 165 106
172 168 107
172 169 110
171 167 107
170 166 108
174 170 110
175 170 108
171 166 107
175 170 110
169 164 105
176 169 108
169 164 106
167 163 103
171 168 107
167 163 104
165 162 103
171 166 106
169 165 106
163 158 99
165 160 97
169 164 104
165 160 100
170 164 102
162 157 97
171 166 101
155 150 96
164 159 101
166 160 98
167 162 99
171 165 104
160 156 97
160 156 95
162 156 95
156 151 91
158 152 95
167 161 100
164 158 97
153 148 87
159 153 87
165 159 92
156 151 88
154 149 87
164 157 93
158 152 89
156 150 85
151 145 80
156 149 85
148 141 84
155 148 83
153 146 84
150 144 79
147 143 75
156 155 75
153 150 71
157 157 71
155 162 60
156 163 56
154 164 49
159 173 36
161 177 37
169 184 44
167 187 16
171 192 16
169 192 11
173 196 0
172 195 0
173 197 0
173 197 0
172 196 0
173 197 0
170 194 0
173 196 0
172 196 0
174 198 0
174 197 0
174 197 0
171 195 0
173 197 0
173 196 0
172 195 0
174 197 0
173 196 0
175 198 0
173 196 0
174 197 0
174 197 0
173 197 0
174 198 0
174 198 0
173 197 0
175 198 0
174 197 0
173 196 0
171 194 0
171 195 0
175 198 0
171 194 0
172 195 0
173 197 0
173 196 0
172 195 0
174 197 0
174 197 0
173 197 0
174 197 0
175 198 0
173 196 0
173 197 0
170 193 0
174 197 0
171 195 0
172 196 0
174 197 0
174 197 0
172 196 0
170 193 0
173 196 0
172 195 0
175 198 0
173 196 0
173 196 0
174 198 0
173 196 0
173 196 0
174 197 0
175 198 0
172 197 0
173 196 0
171 195 0
171 195 0
172 196 0
175 198 0
173 196 0
171 194 0
172 196 0
175 198 0
171 195 0
172 196 0
171 194 0
173 196 0
172 196 0
171 195 0
171 195 0
175 197 0
173 196 0
172 195 0
171 194 0
174 197 0
172 195 0
173 197 0
174 197 0
174 197 0
174 197 0
173 196 0
173 197 0
174 196 0
174 197 0
172 195 0
170 194 0
173 196 0
169 192 0
172 195 0
170 193 0
174 196 0
171 194 0
173 197 0
175 198 0
173 196 0
169 193 0
174 197 0
169 192 0
171 195 0
173 197 0
172 196 0
173 195 0
171 194 0
173 196 0
172 195 0
174 196 0
173 196 0
172 195 0
169 192 25
159 181 70
135 160 120
93 123 158
73 107 172
62 99 174
62 99 177
61 98 177
62 99 178
62 99 180
62 99 176
62 99 177
62 99 175
61 98 179
62 99 177
62 99 178
62 99 180
61 98 177
62 99 180
62 99 179
62 99 180
62 99 181
62 99 180
62 99 181
62 99 181
62 99 180
62 99 180
61 99 181
62 99 181
61 99 180
62 99 180
62 99 181
62 99 180
62 99 180
62 99 181
62 99 181
62 99 181
62 99 180
62 99 180
61 99 181
61 99 181
61 99 181
61 99 181
61 98 180
61 99 181
62 99 181
61 99 181
61 99 181
61 99 181
61 98 181
61 98 181
61 99 181
62 99 181
62 99 181
62 99 181
61 99 181
61 99 181
61 98 181
62 99 181
61 99 181
61 99 181
61 99 181
62 99 181
62 99 181
62 99 181
61 98 181
62 99 181
62 99 181
62 99 181
62 99 181
62 99 181
62 99 181
61 98 180
62 99 181
62 99 181
62 99 181
61 99 181
62 99 181
61 99 181
62 99 181
61 98 180
61 99 181
61 99 181
62 99 181
61 99 180
62 99 180
62 99 180
62 99 180
62 99 180
62 99 178
61 98 179
62 99 180
62 99 181
61 98 178
62 98 177
62 98 178
62 99 178
62 98 178
62 99 179
62 99 176
62 99 180
62 99 177
62 98 177
62 99 177
61 98 177
62 99 179
61 98 177
62 98 178
61 99 179
61 97 173
61 98 176
61 97 174
61 96 169
75 107 163
93 120 153
113 135 131
138 157 94
138 154 74
154 170 42
162 177 38
152 160 51
151 164 41
138 143 53
149 157 55
140 144 60
133 135 57
145 143 70
141 138 71
141 137 77
137 134 82
148 143 85
132 128 73
128 124 75
129 126 73
137 134 85
138 134 84
140 135 86
135 132 82
138 135 89
141 137 87
138 135 88
144 140 89
135 132 87
147 144 91
142 140 89
139 138 93
148 145 94
128 128 89
139 137 91
138 136 90
132 131 87
136 136 91
135 134 92
137 136 93
145 143 96
134 133 91
141 140 94
152 149 100
145 143 98
150 148 101
148 146 100
152 150 102
143 141 98
145 145 100
150 147 100
152 151 103
150 149 102
154 152 103
153 151 102
157 155 105
157 154 103
157 155 103
164 159 106
162 159 106
160 158 107
158 155 104
165 161 107
156 154 105
161 159 105
156 155 105
155 153 103
161 159 105
161 158 106
166 163 108
165 161 108
162 159 105
163 161 108
167 164 108
167 163 108
171 168 110
170 167 109
168 165 109
172 168 110
172 169 110
172 168 111
173 169 109
173 169 111
172 170 112
173 169 109
168 165 107
172 168 110
169 165 108
171 167 110
174 170 110
170 168 111
174 169 109
170 166 107
175 170 110
169 165 108
171 167 110
175 170 112
170 166 107
170 167 106
172 168 109
174 169 109
173 168 108
175 170 111
171 167 109
172 168 110
177 172 112
168 164 104
172 166 107
169 166 106
171 166 104
172 167 106
172 168 107
174 168 109
173 168 108
171 165 105
171 166 106
174 169 109
168 164 104
169 164 105
171 166 104
172 167 108
165 160 97
165 160 102
169 164 106
166 161 103
173 167 105
164 160 101
169 164 104
168 163 104
166 161 102
169 164 103
168 163 103
171 165 104
164 159 99
169 163 98
165 159 98
159 153 93
163 157 98
163 157 99
169 163 99
166 160 93
164 158 93
163 158 94
162 155 91
161 155 93
162 156 95
159 153 87
159 152 90
156 150 83
160 154 90
159 153 87
149 144 82
152 146 89
147 141 83
150 144 81
142 136 76
148 142 75
144 141 75
146 144 75
140 140 62
144 150 56
146 153 47
150 158 53
164 177 49
160 177 30
163 179 39
170 188 25
165 183 19
172 194 11
173 196 16
172 195 0
173 197 0
175 197 0
176 198 0
173 197 0
173 197 0
173 196 0
173 197 0
171 194 0
174 197 0
172 196 0
172 196 0
175 198 0
173 196 0
173 197 0
174 197 0
176 198 0
172 196 0
174 198 0
172 195 0
173 196 0
173 196 0
171 195 0
173 196 0
173 196 0
172 196 0
173 197 0
172 196 0
173 197 0
171 195 0
173 197 0
172 195 0
172 196 0
175 198 0
175 198 0
173 196 0
173 196 0
171 195 0
172 195 0
171 195 0
173 196 0
170 194 0
173 197 0
172 196 0
171 195 0
173 196 0
173 197 0
172 196 0
174 197 0
171 194 0
172 195 0
172 195 0
175 198 0
173 196 0
174 197 0
174 197 0
173 195 0
174 198 0
171 195 0
174 198 0
173 197 0
173 197 0
173 197 0
174 198 0
172 196 0
173 196 0
174 198 0
172 195 0
175 197 0
173 195 0
172 195 0
175 197 0
173 197 0
175 198 0
171 195 0
172 196 0
172 195 0
173 196 0
173 196 0
170 193 0
172 195 0
170 194 0
174 197 0
172 195 0
173 196 0
170 194 0
173 196 0
171 194 0
173 196 0
175 198 0
173 196 0
171 194 0
172 196 0
171 194 0
174 197 0
173 195 0
172 196 0
171 195 0
172 195 0
173 196 0
173 196 0
172 196 0
172 195 0
171 195 0
173 196 0
172 196 0
172 195 0
174 197 0
172 194 0
173 196 0
173 196 0
174 197 0
173 196 0
173 196 0
171 194 18
164 187 51
151 176 86
130 156 126
86 117 162
64 100 171
62 99 177
61 98 176
63 99 176
63 99 179
62 99 177
62 99 175
62 99 176
62 99 180
63 100 178
61 99 180
62 99 177
62 99 180
62 99 179
62 99 180
61 99 180
61 98 179
62 99 180
62 99 180
62 99 179
62 99 181
62 99 180
62 99 180
62 99 181
61 99 180
62 100 181
62 99 181
62 99 181
62 99 181
62 99 181
62 99 180
62 99 181
62 99 181
62 99 181
62 99 181
61 99 181
61 99 180
62 99 181
62 99 181
62 99 181
61 99 181
61 99 181
62 99 181
62 99 181
61 99 181
62 99 181
62 99 180
62 99 181
61 99 181
61 99 181
62 99 181
62 99 181
61 99 181
62 99 181
61 98 181
62 99 181
61 99 181
62 99 181
62 99 181
62 99 181
62 99 181
62 99 181
62 99 181
62 99 181
61 99 181
61 99 181
62 99 181
62 99 181
62 99 181
62 99 181
62 99 180
62 99 181
62 99 181
62 99 180
62 99 181
62 99 180
62 99 180
61 98 180
61 98 181
62 99 180
61 99 181
61 99 179
62 99 179
62 99 181
61 99 181
61 99 181
62 99 180
61 98 176
61 99 181
62 99 177
62 99 181
62 99 180
61 99 180
61 98 179
62 98 178
61 98 178
62 99 178
62 99 179
61 99 179
62 99 180
62 99 178
61 98 175
61 97 174
62 99 179
62 99 180
62 98 179
62 99 178
62 98 176
61 98 174
61 96 174
61 98 175
66 99 166
85 111 156
111 132 124
119 137 117
143 156 79
148 162 58
155 165 47
145 152 52
143 150 57
148 150 67
140 142 60
141 143 62
138 136 70
135 131 76
124 122 68
122 118 73
130 126 72
126 123 75
135 130 78
136 134 83
133 130 83
132 129 81
138 135 87
134 132 80
136 134 85
129 127 79
133 129 84
140 138 89
139 137 88
131 128 82
137 135 90
125 124 83
131 130 89
137 136 90
137 135 90
138 136 91
144 142 97
132 131 89
143 141 95
133 132 92
133 134 92
135 134 91
144 143 98
136 134 93
144 142 97
143 141 96
153 150 101
144 142 98
151 149 101
153 150 101
144 143 99
151 150 102
151 150 103
153 152 103
163 160 106
157 154 103
161 158 106
157 156 105
152 149 101
161 158 106
159 156 104
155 153 104
164 161 106
161 159 106
162 159 108
162 159 106
161 159 105
169 164 109
165 162 108
155 153 101
161 158 103
163 161 109
162 160 105
163 159 106
166 163 108
168 165 109
168 164 105
173 169 110
170 166 108
172 168 110
168 165 109
170 166 109
173 168 109
171 167 108
174 169 111
172 168 110
169 166 110
172 168 110
174 170 111
172 168 111
169 165 106
173 169 110
177 172 113
176 171 111
173 169 111
174 169 109
173 170 112
176 171 111
174 169 108
173 169 111
175 170 110
172 169 110
174 170 110
175 170 110
175 170 111
174 170 110
172 168 106
173 168 108
172 168 106
174 169 109
172 167 105
175 170 110
170 165 106
173 168 108
169 164 103
168 163 102
168 163 105
170 165 105
167 162 104
168 163 103
171 167 108
168 163 104
168 163 101
171 166 104
171 166 104
171 165 103
165 159 103
167 162 102
166 160 97
170 164 103
170 164 105
167 162 99
169 164 101
167 160 99
167 161 101
166 160 96
166 160 98
170 165 101
167 161 100
158 152 91
161 155 93
160 155 93
158 151 87
170 163 99
162 157 92
152 146 87
159 154 91
154 149 86
156 150 92
152 146 82
151 145 82
158 152 87
146 139 76
153 147 84
148 141 82
153 146 87
146 140 75
137 134 68
146 142 72
146 148 63
146 151 54
153 160 57
152 162 49
161 173 51
157 173 30
163 179 36
161 179 28
165 184 28
169 190 11
174 196 0
173 196 0
172 196 0
173 196 0
173 197 0
174 197 0
174 198 0
174 198 0
173 197 0
173 197 0
173 197 0
173 197 0
174 197 0
172 196 0
171 195 0
175 198 0
172 194 0
174 197 0
175 198 0
172 196 0
174 197 0
175 198 0
174 197 0
174 197 0
172 195 0
174 197 0
174 197 0
174 197 0
176 199 0
169 192 0
173 196 0
172 195 0
172 195 0
174 197 0
172 196 0
171 194 0
174 196 0
174 197 0
171 195 0
172 196 0
171 195 0
174 197 0
173 196 0
175 198 0
174 197 0
173 196 0
171 195 0
173 196 0
174 197 0
174 197 0
170 194 0
173 197 0
175 198 0
172 196 0
172 195 0
173 196 0
173 196 0
173 196 0
170 195 0
172 196 0
173 196 0
173 197 0
173 197 0
171 195 0
171 195 0
172 195 0
170 193 0
173 197 0
172 196 0
172 195 0
171 195 0
172 196 0
173 196 0
173 196 0
172 196 0
172 195 0
173 196 0
172 195 0
174 197 0
171 195 0
174 197 0
174 197 0
173 196 0
172 195 0
173 196 0
172 196 0
171 195 0
171 195 0
175 198 0
171 195 0
173 197 0
173 196 0
175 198 0
170 194 0
171 195 0
174 197 0
171 194 0
173 196 0
171 195 0
172 195 0
174 196 0
171 195 0
173 196 0
174 197 0
173 197 0
170 193 0
170 193 0
173 195 0
171 194 0
173 196 0
172 195 0
171 195 0
170 192 0
172 196 0
174 197 0
170 193 36
145 169 99
126 151 129
82 114 163
68 103 173
62 99 176
62 98 172
62 99 177
62 99 177
61 98 176
62 98 174
62 99 180
62 99 178
62 99 178
62 99 178
62 99 178
62 99 178
62 99 179
61 98 178
62 99 178
61 98 181
62 99 178
62 99 179
62 99 180
62 99 181
61 98 179
62 99 180
61 99 181
61 99 181
62 99 181
61 99 180
62 99 181
62 99 181
62 99 181
62 99 180
62 99 181
62 99 181
62 99 181
61 99 180
62 99 181
62 99 181
61 99 181
61 99 181
62 99 181
61 99 181
61 99 181
62 99 181
61 99 181
61 99 181
61 99 180
62 99 181
61 99 180
62 99 181
62 99 181
62 99 181
61 99 181
62 99 181
61 98 181
61 99 181
62 99 179
62 99 180
61 99 180
61 99 181
62 99 181
62 99 180
62 99 181
62 99 181
62 99 181
62 99 181
62 99 181
61 98 180
62 99 180
62 99 181
62 99 181
61 99 181
61 99 181
62 99 181
61 99 181
61 98 181
62 99 181
62 99 181
61 98 180
61 99 181
62 99 179
62 99 181
62 99 180
62 99 181
61 98 177
61 98 180
61 98 179
62 99 181
62 99 179
62 99 181
62 99 181
62 99 178
62 99 181
61 98 176
62 99 181
61 98 174
62 99 181
61 98 175
62 99 179
62 99 180
60 97 173
62 99 177
62 99 176
61 98 174
62 98 178
61 98 175
62 99 176
61 97 174
62 99 178
61 98 174
61 97 174
61 97 174
61 98 176
61 98 176
64 98 171
70 100 162
99 123 139
131 146 103
145 156 87
140 152 67
145 149 58
144 151 53
140 143 57
136 135 64
137 139 64
140 140 62
144 141 78
131 128 69
141 137 77
126 122 70
129 125 73
131 128 76
128 126 78
132 128 78
139 135 82
132 130 83
129 127 81
138 135 86
136 133 80
135 131 89
134 131 86
133 129 83
135 133 88
129 128 87
136 135 90
140 138 92
139 138 93
130 130 89
128 129 88
140 139 92
136 134 89
132 131 88
149 147 98
148 146 98
140 139 96
142 140 95
136 135 92
140 139 94
149 147 100
143 141 98
147 145 99
147 145 95
151 149 100
150 148 101
158 155 103
155 153 104
153 150 101
154 152 103
151 150 101
152 151 102
161 158 105
167 163 108
161 158 104
154 152 102
158 156 105
161 158 104
159 157 105
158 157 106
155 154 104
161 159 107
165 162 107
168 165 109
167 164 108
163 161 107
163 161 108
167 164 107
165 163 106
168 165 109
170 166 109
170 167 110
173 167 107
166 163 106
173 168 109
167 164 108
170 166 111
172 168 110
171 167 111
169 166 109
172 168 110
175 170 113
174 170 111
170 167 110
174 169 110
174 169 110
173 170 110
170 166 108
171 168 109
175 171 111
176 171 111
175 170 111
173 169 110
178 172 112
174 170 111
174 170 110
172 168 106
174 169 109
172 168 108
171 167 107
176 170 109
175 170 108
176 170 109
174 170 110
172 167 107
172 167 106
168 164 104
173 169 109
174 168 107
171 167 106
175 169 109
168 163 104
171 165 105
172 167 106
176 169 109
168 164 104
172 166 105
172 166 103
168 163 105
173 167 103
172 166 106
168 163 103
169 162 101
165 160 98
171 166 107
169 163 101
169 163 100
162 157 96
165 159 95
166 162 102
163 158 100
163 157 93
164 159 98
172 166 99
158 153 93
165 158 99
157 151 90
161 156 95
163 157 93
158 152 93
154 149 89
156 150 88
162 156 90
156 151 87
155 149 88
154 148 85
155 149 84
154 147 84
156 149 85
147 142 81
148 143 81
140 135 72
130 127 60
146 143 71
151 149 72
148 154 54
157 162 60
154 161 51
158 171 51
159 170 44
164 182 34
162 180 30
163 182 28
170 192 0
171 193 11
173 195 11
170 194 0
173 197 0
171 195 0
173 197 0
173 197 0
175 198 0
174 197 0
173 197 0
174 198 0
174 197 0
174 197 0
175 198 0
175 197 0
175 197 0
174 197 0
176 198 0
174 197 0
174 198 0
174 197 0
174 197 0
173 197 0
174 197 0
174 197 0
173 196 0
176 198 0
173 197 0
172 196 0
170 194 0
172 196 0
172 196 0
170 194 0
172 195 0
173 197 0
171 194 0
173 196 0
173 196 0
172 194 0
173 197 0
174 197 0
174 197 0
172 195 0
170 193 0
173 196 0
174 197 0
172 195 0
174 196 0
173 197 0
173 197 0
173 197 0
175 198 0
174 197 0
173 196 0
170 194 0
175 198 0
172 195 0
174 198 0
173 196 0
173 197 0
174 197 0
173 197 0
174 197 0
171 195 0
173 197 0
172 195 0
172 196 0
172 195 0
172 196 0
172 195 0
172 195 0
174 197 0
171 195 0
173 197 0
174 197 0
171 195 0
173 197 0
173 195 0
170 193 0
172 197 0
170 195 0
173 196 0
174 197 0
174 197 0
172 195 0
174 197 0
172 195 0
175 198 0
171 194 0
172 195 0
173 197 0
173 196 0
173 197 0
172 195 0
171 195 0
172 195 0
173 197 0
173 196 0
173 197 0
170 194 0
172 196 0
172 195 0
171 194 0
173 197 0
174 197 0
171 195 0
171 195 0
173 196 0
171 195 0
170 194 0
171 195 0
170 194 0
172 195 0
170 193 0
169 193 44
149 173 94
123 150 126
85 116 162
62 99 174
63 99 174
62 99 176
62 99 176
62 99 176
62 99 176
62 99 179
61 99 178
61 98 177
62 99 177
62 99 179
62 99 179
61 98 179
62 99 180
62 99 178
62 99 180
62 99 179
63 100 181
62 99 179
62 99 181
62 99 180
62 99 181
61 99 179
61 98 180
61 99 180
62 99 180
62 99 181
62 99 181
62 99 179
62 99 180
61 99 181
62 99 181
62 99 181
61 98 181
62 99 181
62 99 181
61 99 181
61 99 181
62 99 181
62 99 181
62 99 181
62 99 181
61 99 181
62 99 180
62 99 181
61 99 181
61 99 181
62 99 181
62 99 181
61 99 181
62 99 181
61 99 181
61 99 181
61 99 181
62 99 181
62 99 180
61 98 181
62 99 181
62 99 181
62 99 181
62 99 181
62 99 181
62 99 181
61 99 180
62 99 181
62 99 180
61 98 180
61 98 181
62 99 180
62 99 181
61 99 181
62 99 181
62 99 181
61 99 181
61 99 181
61 98 180
62 99 181
62 99 180
62 99 181
61 99 181
62 99 180
62 99 180
62 99 180
62 99 181
62 99 181
61 99 181
62 99 180
62 99 181
61 98 176
62 99 180
61 98 177
62 99 180
62 99 179
62 99 178
61 99 180
62 99 181
62 98 175
62 99 179
62 99 179
61 99 179
62 98 176
62 99 177
62 99 178
62 98 176
61 98 177
61 97 175
61 97 174
62 99 176
62 98 176
62 98 175
61 97 172
61 97 174
62 98 175
61 98 176
62 98 173
60 96 170
73 103 162
96 117 137
117 133 121
120 130 96
148 157 65
139 145 53
145 148 61
131 131 61
127 130 65
130 129 68
133 132 68
125 122 71
126 124 73
133 129 74
137 133 79
121 120 71
130 128 75
122 120 75
126 123 73
135 132 84
139 135 83
134 131 84
131 129 84
135 133 86
129 128 84
133 131 84
135 133 87
133 132 87
130 129 85
138 136 91
117 117 80
138 137 92
134 133 90
131 131 89
132 132 91
144 141 94
137 136 94
144 142 98
135 135 93
142 140 96
146 145 98
146 144 97
145 143 96
141 139 94
150 147 99
153 151 102
149 147 99
153 151 101
150 149 102
151 149 101
154 151 100
157 155 104
155 154 104
155 153 102
155 153 101
155 153 103
158 156 104
154 151 102
154 152 101
161 158 106
162 159 104
163 161 107
163 160 106
165 162 108
163 161 108
164 161 107
162 160 106
162 159 104
167 164 109
166 162 107
171 166 110
171 167 109
172 168 111
170 167 110
167 163 108
168 165 108
173 169 109
168 165 108
167 163 106
171 167 108
173 169 111
172 168 109
173 169 110
171 168 108
174 169 111
173 169 109
173 169 108
170 166 108
172 169 108
175 170 108
172 168 110
176 171 112
171 166 110
175 170 109
172 168 108
175 170 112
174 169 107
176 171 109
176 170 109
172 167 107
174 169 106
173 169 108
173 168 108
174 169 108
173 169 110
175 171 110
170 165 106
174 168 108
168 164 104
171 165 103
171 167 107
178 172 110
170 164 106
173 167 106
174 168 107
168 164 104
167 162 103
168 162 101
168 163 101
172 166 105
168 163 105
172 166 103
167 162 95
168 163 102
174 168 106
170 164 103
165 160 97
169 164 101
163 158 96
168 162 99
167 161 100
165 159 96
170 164 97
169 162 100
163 157 94
163 157 95
162 157 97
164 158 97
163 156 95
162 156 90
162 156 94
164 158 93
159 154 91
152 147 82
152 147 87
154 149 86
146 142 81
160 154 90
152 146 82
154 148 84
161 154 92
135 130 72
141 135 77
134 129 73
152 147 75
143 139 71
150 146 74
150 153 61
153 158 58
153 161 54
152 161 47
149 162 39
156 173 42
163 181 28
168 188 22
169 190 0
174 195 25
172 194 0
173 197 0
174 197 0
175 198 0
174 197 0
175 198 0
172 195 0
175 198 0
173 196 0
173 197 0
174 197 0
173 196 0
174 197 0
172 195 0
175 198 0
174 198 0
175 197 0
174 197 0
174 197 0
173 196 0
172 196 0
172 196 0
176 198 0
173 197 0
174 198 0
171 195 0
173 197 0
175 198 0
174 197 0
171 195 0
174 197 0
172 196 0
170 194 0
170 194 0
173 197 0
170 193 0
168 191 0
173 196 0
174 196 0
172 195 0
172 195 0
173 196 0
171 194 0
173 196 0
173 197 0
173 196 0
171 194 0
172 195 0
172 196 0
172 196 0
171 195 0
174 197 0
174 198 0
173 196 0
171 195 0
172 195 0
174 197 0
172 196 0
175 198 0
174 197 0
171 195 0
173 197 0
173 196 0
174 197 0
173 197 0
173 195 0
173 197 0
172 196 0
172 195 0
174 198 0
172 195 0
174 198 0
171 194 0
173 197 0
171 195 0
174 197 0
171 194 0
173 195 0
172 196 0
172 195 0
174 198 0
173 197 0
171 194 0
173 196 0
172 195 0
170 194 0
168 192 0
172 195 0
173 196 0
171 195 0
174 197 0
173 196 0
170 193 0
171 195 0
173 196 0
174 197 0
173 197 0
170 193 0
172 195 0
172 195 0
174 197 0
172 196 0
169 193 0
171 194 0
170 192 0
172 196 0
173 196 0
172 195 0
174 197 0
171 194 0
169 194 0
173 196 25
168 191 44
146 171 99
119 146 130
78 110 168
63 99 176
62 99 175
62 99 176
62 99 174
62 99 180
61 98 174
62 99 179
62 99 175
62 99 179
62 99 179
62 99 180
62 99 179
62 99 179
62 99 179
61 99 178
62 99 181
62 99 178
62 99 181
62 99 180
62 99 180
62 99 180
62 99 181
62 99 180
61 99 181
61 99 181
62 99 180
61 99 179
62 99 181
61 99 181
62 99 180
62 99 181
62 99 181
61 99 181
62 99 181
62 99 181
62 99 181
62 99 179
61 99 181
62 99 181
62 99 181
62 99 180
62 99 181
61 99 180
62 99 181
61 99 181
61 98 181
61 99 181
61 99 180
62 99 181
61 99 180
62 99 180
61 99 180
61 99 181
61 99 181
61 99 180
62 99 181
61 99 181
61 99 181
61 98 180
61 99 181
62 99 181
62 99 181
61 99 181
61 99 181
61 99 181
62 99 181
62 99 180
61 99 181
61 99 180
62 99 180
62 99 181
61 98 180
61 99 181
62 99 181
62 99 181
62 99 181
61 99 180
62 99 181
62 99 181
62 99 181
61 99 180
62 99 180
62 99 181
61 98 179
62 99 180
62 99 181
61 99 180
61 99 180
62 99 179
62 99 181
62 99 177
62 99 180
62 99 179
61 98 179
62 99 178
61 99 178
61 98 176
62 99 179
62 99 178
62 99 178
62 99 179
62 99 177
61 98 179
62 99 179
62 99 177
62 99 176
61 98 178
62 98 177
62 99 181
62 99 178
61 97 173
61 98 175
62 99 177
61 96 169
61 97 171
61 97 172
61 97 175
61 96 171
73 103 165
87 112 149
106 122 121
136 146 89
140 142 64
151 154 65
151 152 67
142 141 73
136 135 69
127 125 71
118 116 69
126 123 71
134 130 81
130 126 77
135 132 80
129 126 77
135 132 82
124 121 72
125 123 81
131 129 82
126 123 80
128 127 85
128 127 83
135 132 85
128 128 86
120 119 81
130 129 88
132 131 90
115 115 78
136 135 93
127 126 85
125 124 85
125 126 87
131 130 88
130 130 90
141 140 95
141 139 96
138 136 91
137 137 93
149 146 99
131 130 88
133 134 95
137 136 93
140 139 97
146 144 97
148 147 99
160 157 105
157 155 105
153 152 102
144 143 96
155 152 103
155 153 104
161 157 106
165 161 107
152 151 103
160 158 106
149 148 102
159 155 104
148 146 99
163 161 105
159 156 104
161 159 107
164 160 105
166 164 107
164 161 107
163 160 106
169 165 108
168 165 108
168 164 108
160 158 105
166 163 106
169 165 108
168 165 109
166 164 109
169 165 108
170 166 108
167 164 108
169 165 106
174 169 109
168 165 107
176 170 111
173 169 108
170 167 108
170 166 111
174 170 108
175 171 110
170 166 107
174 170 110
172 168 111
175 170 111
175 170 109
172 168 109
175 170 108
175 170 110
175 170 109
172 168 107
173 169 106
174 169 109
173 168 109
175 170 107
173 167 105
172 167 106
172 168 106
174 170 112
172 167 108
172 168 108
173 168 109
171 166 106
173 168 105
171 166 106
175 170 109
173 167 106
175 170 109
171 167 108
172 165 103
168 163 103
172 167 108
170 165 102
170 164 103
167 162 101
172 165 103
166 160 99
172 166 104
165 160 101
169 164 103
164 160 101
161 156 97
168 163 100
165 159 98
163 157 97
169 164 101
164 159 99
168 162 96
160 155 90
158 153 90
158 152 94
162 156 97
162 155 93
159 152 89
164 158 91
158 153 91
166 159 97
163 157 94
151 145 84
156 150 88
154 148 82
157 151 85
154 148 84
144 137 75
146 140 81
145 139 78
151 145 80
160 153 89
150 146 73
147 144 73
142 141 62
151 153 65
150 157 54
161 169 56
158 167 53
157 168 47
158 172 41
161 177 34
169 186 34
169 190 11
168 190 0
171 193 0
175 198 0
171 194 0
172 195 0
174 197 0
174 197 0
173 197 0
173 197 0
174 197 0
173 196 0
173 196 0
174 197 0
172 195 0
172 196 0
173 196 0
175 198 0
171 195 0
174 197 0
173 197 0
172 196 0
172 196 0
173 197 0
172 196 0
170 193 0
173 197 0
173 196 0
176 198 0
175 197 0
174 198 0
173 196 0
170 194 0
175 198 0
175 198 0
174 197 0
169 193 0
175 198 0
173 197 0
171 194 0
172 196 0
172 195 0
173 197 0
172 195 0
174 198 0
171 195 0
176 199 0
174 197 0
174 197 0
176 198 0
173 197 0
171 195 0
172 196 0
175 197 0
174 198 0
173 197 0
172 196 0
172 195 0
172 196 0
174 197 0
173 196 0
174 197 0
172 196 0
171 194 0
172 195 0
172 194 0
173 196 0
172 196 0
171 195 0
171 195 0
171 195 0
170 194 0
172 195 0
171 194 0
173 196 0
173 196 0
173 196 0
172 195 0
173 196 0
173 196 0
172 196 0
168 191 0
173 197 0
172 195 0
173 196 0
172 195 0
170 194 0
172 195 0
174 197 0
173 197 0
171 194 0
172 196 0
171 194 0
170 194 0
172 195 0
174 197 0
172 194 0
174 197 0
174 197 0
172 196 0
174 197 0
170 193 0
174 197 0
171 195 0
172 195 0
170 194 0
172 195 0
171 195 0
172 196 0
172 195 0
174 197 0
170 194 0
168 191 18
168 191 31
148 172 95
126 152 126
77 110 166
62 99 177
62 99 173
62 99 174
61 98 175
62 99 176
62 99 174
62 99 178
63 100 180
62 99 176
62 99 178
62 99 179
62 99 179
61 99 176
61 98 178
63 100 181
62 99 181
62 99 179
62 99 180
63 99 179
62 99 179
62 99 178
62 99 179
62 99 180
63 99 180
61 99 180
62 99 179
62 99 181
62 99 181
61 99 179
61 99 181
62 99 180
62 99 180
61 99 181
62 99 181
62 99 181
62 99 181
62 99 180
62 99 181
61 98 181
62 99 181
61 99 179
62 99 180
62 99 181
62 99 181
62 99 179
62 99 181
61 99 181
62 99 181
62 99 181
62 99 181
62 99 180
62 99 181
61 99 181
62 99 181
62 99 181
62 99 180
61 99 181
61 99 179
62 99 181
61 98 181
62 99 181
62 99 181
61 99 181
61 99 179
62 99 181
61 99 181
61 99 181
62 99 181
61 98 181
62 99 181
62 99 181
61 99 181
62 99 181
62 99 180
61 99 181
62 99 181
61 99 181
62 99 181
61 98 180
61 99 180
62 99 181
62 99 181
61 99 181
62 99 180
61 99 181
62 99 180
62 99 181
62 99 180
62 99 180
62 99 179
61 98 177
61 98 179
62 99 179
62 98 177
62 99 180
61 99 179
61 98 175
62 99 179
62 99 179
62 99 181
62 99 176
61 98 173
62 99 178
62 99 177
62 98 176
61 99 180
62 99 177
61 98 174
62 98 176
63 99 180
62 98 176
61 98 174
62 99 175
62 99 177
60 96 170
62 99 176
61 97 172
61 97 173
61 97 173
61 97 174
65 98 165
84 108 155
107 121 128
128 137 92
143 144 84
132 131 59
143 140 74
141 138 80
127 123 66
135 131 78
136 132 80
121 119 74
139 135 76
125 122 74
126 123 80
125 121 73
124 123 80
125 123 78
137 135 90
125 123 78
133 131 82
134 131 87
132 130 87
140 138 88
142 139 93
131 131 90
128 127 86
120 121 82
128 128 87
128 128 88
129 130 91
114 116 82
136 135 94
121 123 85
142 140 96
146 144 98
143 142 97
139 138 96
135 135 94
142 141 97
141 141 97
137 137 94
145 143 97
143 142 97
144 143 98
142 140 96
147 144 95
149 148 101
145 145 100
145 143 95
149 148 99
157 154 103
156 154 103
165 161 108
160 157 106
159 156 105
161 158 106
155 154 104
162 159 105
162 159 106
156 155 104
159 156 104
163 159 105
166 163 106
165 162 107
161 159 106
164 161 107
162 159 106
170 166 108
161 157 105
165 161 106
172 167 109
168 164 107
169 166 108
171 167 110
172 167 106
171 167 108
176 171 111
171 167 109
173 168 108
175 170 111
176 171 111
173 168 110
176 171 111
170 166 108
174 170 110
174 170 110
175 170 109
174 169 107
171 168 108
170 166 108
175 170 110
177 172 112
176 171 110
171 168 109
174 170 110
173 169 109
174 169 109
174 169 106
169 166 104
167 163 103
176 169 106
175 169 107
169 164 105
173 168 106
172 168 108
174 169 108
170 166 106
168 163 101
171 166 104
174 167 103
167 161 100
174 168 103
175 170 107
171 166 102
171 165 102
171 165 103
172 166 106
173 167 108
172 167 104
173 167 105
168 162 103
162 157 96
165 161 93
169 163 99
167 162 101
168 163 99
167 162 100
165 160 96
162 156 94
163 157 95
157 152 91
163 157 95
166 160 97
161 156 88
168 162 99
161 156 94
168 160 97
160 155 93
164 158 93
161 155 92
151 146 79
156 151 84
160 153 90
160 154 90
159 152 88
149 143 81
154 149 84
154 148 89
150 144 79
143 137 74
148 142 79
140 136 71
148 145 73
143 143 64
147 150 57
149 154 58
150 154 63
141 150 39
155 168 47
168 184 36
162 177 36
160 180 25
170 191 16
169 189 16
173 196 0
175 198 0
173 197 0
174 198 0
174 197 0
173 196 0
172 196 0
171 195 0
172 196 0
175 198 0
174 197 0
175 197 0
173 197 0
174 196 0
173 196 0
172 196 0
176 199 0
171 195 0
174 198 0
174 197 0
172 195 0
173 197 0
174 198 0
171 195 0
172 195 0
175 198 0
173 197 0
174 197 0
174 197 0
173 196 0
174 198 0
175 198 0
173 197 0
174 197 0
172 196 0
174 197 0
172 195 0
172 196 0
173 197 0
174 197 0
175 197 0
172 196 0
174 197 0
172 196 0
171 195 0
172 195 0
173 196 0
174 197 0
172 195 0
173 196 0
172 196 0
175 198 0
172 196 0
173 196 0
173 196 0
172 196 0
175 197 0
173 196 0
172 196 0
173 196 0
172 195 0
174 197 0
172 196 0
172 195 0
174 196 0
174 197 0
172 196 0
173 196 0
176 198 0
173 196 0
170 194 0
171 194 0
172 196 0
173 196 0
173 196 0
171 195 0
172 195 0
172 196 0
172 196 0
174 197 0
173 197 0
173 196 0
171 194 0
171 194 0
173 196 0
173 197 0
170 193 0
171 195 0
171 195 0
172 196 0
172 195 0
173 196 0
173 196 0
173 196 0
172 195 0
172 196 0
169 193 0
172 194 0
173 196 0
170 194 0
173 196 0
172 195 0
172 195 0
173 196 0
174 197 0
175 198 0
172 196 0
171 195 0
170 193 0
170 193 18
165 188 54
147 171 95
117 144 134
72 107 167
63 99 175
62 99 171
61 98 173
62 99 176
63 99 178
62 98 174
62 99 177
63 99 178
62 99 177
61 98 175
62 99 175
62 99 177
62 99 179
62 99 178
62 99 178
62 99 179
62 99 180
62 99 179
62 99 180
62 99 181
62 99 181
62 99 180
62 99 180
62 99 180
62 99 181
62 99 179
62 99 179
61 99 179
61 99 181
62 99 178
62 99 181
62 99 181
62 99 180
61 99 179
62 99 180
62 99 181
61 99 180
62 99 181
61 99 181
62 99 180
62 99 180
61 99 181
62 99 181
62 99 180
62 99 181
61 98 180
61 99 181
61 99 180
62 99 180
61 98 181
61 99 181
62 99 181
62 99 181
62 99 181
62 99 181
63 100 181
62 99 181
62 99 181
61 98 181
62 99 181
62 99 181
62 99 180
62 99 181
62 99 181
61 99 181
62 99 181
61 99 181
61 98 181
61 98 179
62 99 181
61 99 180
62 99 181
61 99 181
62 99 180
62 99 181
62 99 180
62 99 181
62 99 181
61 98 180
62 99 181
62 99 181
62 99 179
61 99 180
62 99 180
62 99 179
62 99 181
62 99 181
62 99 179
62 99 181
62 99 181
62 99 177
62 99 180
61 98 177
62 99 180
62 99 179
62 99 177
61 99 181
62 99 180
61 98 176
61 98 178
62 98 176
63 99 177
61 98 177
62 99 176
62 99 178
62 98 174
61 97 173
61 98 177
63 99 180
62 99 176
62 98 175
62 99 177
62 98 175
62 99 178
62 99 175
62 98 176
62 98 175
61 98 177
62 98 176
61 97 172
61 97 171
61 98 174
68 99 165
94 111 139
109 118 123
125 130 100
122 125 75
137 138 73
134 131 73
127 124 71
134 130 76
131 128 74
127 124 72
128 125 73
118 118 76
124 121 77
130 127 77
132 129 78
125 123 76
117 115 72
122 121 77
135 134 87
118 118 74
130 128 83
133 133 86
127 127 86
125 126 87
130 129 86
141 139 90
127 127 85
135 133 89
137 137 94
124 124 84
134 133 92
131 131 91
136 134 91
136 135 91
141 139 92
132 132 90
130 130 91
143 142 97
146 144 98
149 147 100
141 140 95
132 132 92
147 146 99
152 149 101
149 147 98
148 146 100
146 145 98
146 145 98
146 145 99
149 147 100
154 151 101
153 151 100
154 153 102
154 152 101
159 157 105
155 152 100
160 157 105
162 160 106
164 161 106
168 165 107
155 153 101
158 156 103
166 163 107
166 161 105
170 166 110
161 159 104
170 165 106
160 158 104
164 161 106
168 164 106
167 164 108
169 166 108
169 166 109
172 168 109
170 167 109
173 169 111
171 168 110
170 165 107
171 167 109
171 166 109
170 167 105
174 168 107
173 169 108
177 171 112
174 169 110
175 170 106
175 170 108
176 171 109
173 168 106
177 171 110
172 168 109
172 167 106
174 169 108
177 171 108
175 169 109
173 169 108
175 171 107
171 166 107
172 167 107
173 168 104
175 169 108
173 168 106
175 170 108
167 162 103
176 170 109
177 171 108
172 165 105
173 167 104
172 166 104
170 164 101
171 167 102
171 166 104
167 163 104
171 166 106
170 164 104
168 163 103
168 163 103
173 168 105
169 163 103
167 162 104
166 160 97
168 163 101
162 158 98
172 165 102
164 159 94
164 158 93
167 161 100
165 158 97
163 157 95
166 161 97
162 156 97
163 157 95
166 159 97
164 158 95
157 152 84
152 147 87
158 153 88
160 154 91
158 152 90
149 144 82
159 152 88
149 145 80
154 148 84
156 149 88
159 152 92
157 151 90
147 142 84
147 141 75
144 138 77
149 143 75
155 148 82
143 138 77
147 146 66
149 148 60
149 153 60
145 149 54
155 163 44
159 172 36
164 179 42
156 174 22
164 181 30
171 190 25
171 192 16
173 195 11
174 198 0
174 196 0
173 196 0
173 197 0
174 197 0
172 195 0
173 197 0
174 197 0
176 198 0
173 196 0
172 195 0
173 196 0
175 198 0
174 197 0
171 195 0
174 197 0
174 197 0
175 198 0
172 196 0
175 197 0
173 196 0
175 198 0
174 198 0
173 196 0
174 198 0
172 195 0
173 196 0
174 197 0
175 198 0
172 196 0
173 195 0
173 197 0
172 196 0
173 196 0
173 196 0
174 198 0
173 197 0
173 196 0
173 196 0
173 197 0
170 194 0
171 194 0
172 196 0
174 197 0
172 196 0
172 196 0
169 193 0
172 195 0
173 196 0
171 195 0
172 195 0
173 197 0
171 194 0
172 196 0
176 198 0
171 194 0
173 196 0
171 194 0
172 195 0
175 198 0
173 196 0
176 199 0
174 198 0
172 195 0
176 198 0
173 196 0
173 196 0
172 195 0
172 195 0
172 195 0
172 195 0
171 195 0
171 195 0
173 196 0
173 196 0
173 196 0
171 194 0
170 194 0
173 196 0
173 196 0
173 196 0
169 193 0
173 197 0
171 194 0
171 194 0
172 194 0
174 196 0
173 196 0
171 195 0
172 195 0
173 196 0
172 195 0
171 194 0
174 196 0
173 197 0
174 197 0
171 195 0
172 195 0
172 196 0
172 195 0
172 195 0
171 194 0
171 195 0
173 196 0
171 195 0
174 197 0
171 195 0
172 195 0
162 186 54
133 158 107
107 135 142
78 110 165
62 99 174
62 99 174
62 99 176
62 99 176
61 98 177
62 99 176
63 100 180
62 99 179
62 99 178
61 98 174
62 99 178
62 99 177
62 99 175
62 99 178
61 98 174
62 99 181
63 100 178
62 99 179
62 99 177
62 99 181
62 99 180
62 99 179
61 99 180
62 99 180
61 99 179
62 99 181
62 99 181
62 99 181
62 99 181
61 99 181
62 99 178
62 99 180
62 99 181
62 99 179
62 99 181
62 99 181
62 99 181
61 99 181
62 99 181
62 99 181
61 99 181
61 99 180
62 99 181
62 99 181
62 99 180
61 99 180
62 99 181
62 99 181
62 99 180
61 99 181
61 99 181
61 99 181
62 99 180
61 99 181
61 98 181
62 99 180
61 99 181
62 99 181
62 99 181
61 99 181
62 99 181
61 98 179
62 99 181
61 98 180
61 99 181
63 100 181
62 99 181
62 99 180
62 99 181
62 99 181
62 99 181
62 99 181
61 99 181
62 99 181
62 99 181
61 99 181
61 99 181
61 99 179
61 99 181
62 99 181
62 99 181
62 99 179
61 98 179
62 99 179
62 99 181
62 99 180
62 99 180
62 99 181
62 99 181
62 99 180
62 99 181
61 98 179
61 98 177
62 99 179
62 98 175
62 99 177
62 99 178
62 99 178
62 99 180
61 98 180
61 98 179
62 99 179
61 98 176
62 99 178
60 97 176
62 99 177
62 98 176
63 99 176
62 98 177
61 98 178
62 99 177
62 99 174
61 98 174
62 98 173
63 99 175
61 96 171
61 97 170
61 97 172
61 97 171
62 98 173
62 98 174
60 95 167
61 97 173
60 95 167
68 98 161
75 99 142
104 117 124
120 126 100
123 123 85
123 121 61
131 128 72
124 121 69
137 133 75
127 125 75
119 118 71
130 127 77
120 118 71
123 121 74
124 122 78
118 117 71
125 123 75
124 123 83
127 126 82
120 120 80
125 125 84
137 135 85
127 126 85
126 125 84
117 117 83
130 129 89
131 131 89
130 130 87
129 128 86
126 126 87
139 137 94
128 126 87
134 133 90
144 142 96
134 135 94
131 131 92
139 139 96
150 148 101
150 147 100
137 136 93
140 139 94
135 134 92
146 145 99
149 147 98
147 145 99
143 142 96
150 148 101
155 152 101
150 149 101
153 150 102
154 152 102
152 149 100
154 152 101
149 147 99
157 154 104
151 149 100
158 156 103
161 157 105
168 164 105
160 158 105
158 156 102
161 159 103
164 160 106
164 161 106
169 165 106
167 164 108
164 162 106
167 165 108
167 163 108
170 166 108
169 164 104
172 167 107
168 164 106
168 164 109
173 169 109
171 167 110
168 165 107
171 166 108
169 165 106
170 166 106
176 171 111
175 169 109
175 170 108
173 168 105
174 168 108
174 170 107
173 169 109
174 168 106
175 170 108
176 170 105
176 171 108
176 172 111
175 169 108
175 170 110
170 166 104
175 170 107
175 170 110
172 168 107
175 170 106
176 170 108
169 165 103
174 169 106
172 168 105
173 168 106
171 165 106
173 168 106
173 167 104
171 167 104
172 167 104
174 168 107
172 166 102
170 166 105
170 164 106
169 164 103
168 162 102
171 165 100
165 160 97
165 160 99
170 164 101
170 165 103
165 161 96
170 165 102
170 164 101
168 163 101
166 161 97
167 160 97
165 158 97
166 160 98
164 159 92
165 159 90
164 160 98
164 158 98
160 155 91
158 153 90
168 162 99
156 151 88
158 154 86
156 150 89
162 155 88
161 155 90
165 158 93
158 152 90
156 149 84
152 147 80
151 145 80
151 146 84
152 147 81
153 145 80
150 143 77
141 135 71
141 135 71
141 139 68
137 134 68
142 144 59
146 150 56
148 154 56
161 168 59
162 172 52
161 175 41
159 173 37
163 182 32
170 188 32
173 195 11
172 195 0
172 196 0
173 197 0
171 195 0
169 193 0
172 196 0
172 196 0
174 198 0
173 197 0
174 198 0
174 197 0
171 196 0
172 196 0
172 196 0
173 196 0
173 196 0
172 195 0
172 196 0
172 196 0
168 193 0
173 197 0
174 197 0
173 197 0
173 197 0
171 194 0
172 195 0
174 197 0
174 197 0
172 196 0
175 198 0
173 197 0
173 196 0
174 198 0
174 198 0
174 197 0
173 196 0
173 196 0
173 196 0
172 195 0
175 198 0
174 197 0
171 195 0
174 197 0
173 196 0
172 196 0
174 197 0
173 196 0
171 194 0
173 196 0
175 198 0
170 194 0
174 197 0
172 195 0
173 197 0
174 197 0
174 197 0
174 197 0
171 195 0
171 195 0
172 195 0
173 197 0
170 194 0
174 197 0
171 194 0
172 195 0
170 194 0
172 195 0
169 194 0
171 194 0
174 197 0
171 195 0
173 196 0
171 194 0
172 196 0
174 197 0
173 196 0
170 194 0
171 194 0
173 196 0
175 198 0
173 196 0
173 196 0
172 195 0
170 194 0
170 194 0
175 198 0
172 196 0
172 196 0
173 196 0
173 196 0
171 195 0
173 196 0
174 197 0
174 197 0
173 197 0
170 193 0
170 194 0
174 197 0
171 194 0
171 194 0
173 197 0
171 195 0
169 193 0
173 197 0
174 196 0
174 197 0
172 195 0
170 192 25
160 184 67
149 173 94
118 144 135
68 103 173
62 99 175
62 99 178
62 99 177
62 98 175
62 99 176
62 99 172
62 99 171
62 99 177
62 99 176
62 99 176
62 99 179
62 99 178
62 99 178
62 99 177
63 99 178
63 99 179
63 99 178
62 99 177
62 99 178
62 99 179
61 99 178
62 99 178
62 99 179
62 99 181
62 99 178
62 99 179
61 99 181
62 99 180
62 99 180
63 100 181
62 99 181
62 99 181
62 99 180
62 99 180
62 99 180
62 99 180
62 99 181
61 99 181
62 99 180
62 99 181
62 99 181
61 99 181
61 98 181
61 99 181
62 99 181
61 98 181
62 99 181
62 99 181
61 99 180
62 99 181
62 99 181
62 99 181
61 99 181
62 99 181
62 99 181
62 99 181
62 99 181
62 99 181
62 99 180
61 99 181
62 99 181
62 99 181
61 99 180
62 99 181
61 99 179
62 99 181
62 99 181
62 99 181
62 99 181
62 99 181
62 99 179
62 99 181
62 99 181
61 98 181
62 99 180
62 99 180
62 99 178
62 99 180
61 99 181
62 99 179
61 98 177
62 99 180
61 98 179
62 99 180
62 99 180
61 99 178
61 98 178
61 98 180
62 99 180
62 99 179
62 99 178
62 99 181
61 98 177
62 99 179
62 99 179
62 99 179
62 99 181
62 99 179
62 99 177
62 99 180
61 99 178
62 99 176
62 99 178
62 99 180
62 99 180
62 99 175
62 99 178
62 99 179
62 99 181
62 98 174
60 97 176
60 97 175
61 98 176
63 100 177
61 98 176
62 98 176
61 97 173
62 99 175
62 98 175
61 97 174
61 97 170
61 97 172
61 97 173
61 96 171
61 98 172
61 96 167
65 98 165
87 105 144
98 110 123
107 111 90
125 123 82
129 125 66
138 132 82
108 106 66
120 119 74
127 123 69
122 119 76
130 127 79
116 115 73
116 114 71
129 126 81
124 123 81
117 115 74
120 119 81
134 132 85
125 124 82
115 114 79
118 117 77
129 127 84
114 115 78
126 125 85
131 130 89
115 116 83
130 130 87
117 118 85
126 126 88
125 125 88
136 135 94
140 137 94
125 126 89
142 140 96
136 135 91
141 140 95
146 144 97
140 139 93
136 136 94
144 143 97
138 138 96
145 144 96
153 151 102
152 150 101
148 146 98
152 151 102
149 148 99
154 152 103
160 157 104
158 155 104
154 152 101
153 151 102
157 154 101
150 149 100
159 156 103
153 151 100
157 156 104
166 162 105
158 156 104
159 156 105
165 162 106
163 160 107
162 160 103
161 158 103
164 162 107
167 163 106
165 162 106
164 161 105
164 161 106
171 167 106
173 169 108
168 165 106
168 165 108
167 163 104
171 167 108
173 168 109
170 166 105
171 167 106
173 168 109
171 166 108
170 167 106
175 171 109
175 169 105
172 167 106
174 170 108
176 171 109
170 167 106
175 170 108
175 170 106
174 169 105
172 167 104
172 168 107
173 169 109
171 167 106
175 170 108
177 171 108
173 169 109
172 167 106
175 169 106
177 170 107
170 166 106
172 167 103
176 171 108
170 166 106
172 168 104
170 165 102
170 166 104
166 162 95
173 167 104
174 168 106
171 165 100
170 165 103
168 164 101
167 161 98
171 166 104
173 168 105
164 158 95
165 160 96
167 162 100
165 158 95
166 161 101
167 162 99
169 164 97
169 163 99
165 159 93
158 152 90
168 161 89
169 163 97
171 165 98
164 158 95
163 157 95
169 162 97
157 151 87
163 158 91
162 156 93
161 155 89
160 155 88
155 150 83
154 148 81
161 154 89
156 151 86
162 155 90
155 149 82
148 143 74
154 147 86
150 144 80
148 142 81
144 138 71
147 142 75
140 135 65
150 147 72
145 145 63
154 157 64
146 152 56
157 164 56
150 163 37
162 174 41
159 177 34
168 185 28
168 186 30
172 193 0
170 191 0
173 197 0
172 196 0
173 196 0
172 196 0
173 197 0
173 196 0
174 198 0
173 197 0
172 196 0
173 197 0
175 198 0
174 197 0
173 197 0
172 196 0
172 196 0
172 196 0
174 197 0
173 197 0
174 198 0
174 197 0
172 196 0
172 196 0
171 195 0
173 196 0
174 198 0
173 197 0
174 196 0
174 196 0
171 195 0
174 198 0
173 196 0
173 197 0
174 197 0
172 195 0
174 197 0
172 195 0
172 197 0
173 196 0
169 193 0
173 197 0
176 198 0
172 196 0
171 194 0
174 196 0
173 197 0
174 197 0
174 197 0
171 195 0
171 195 0
173 196 0
173 197 0
173 196 0
175 198 0
174 197 0
171 195 0
171 195 0
172 195 0
172 196 0
172 196 0
172 196 0
173 196 0
173 197 0
173 196 0
171 195 0
172 195 0
173 197 0
170 194 0
175 198 0
172 196 0
171 194 0
172 195 0
174 197 0
172 196 0
174 197 0
171 195 0
169 193 0
174 197 0
172 196 0
171 195 0
173 195 0
170 194 0
171 195 0
172 195 0
173 196 0
172 196 0
174 196 0
171 195 0
173 196 0
174 197 0
173 195 0
174 197 0
172 194 0
167 192 0
171 194 0
174 197 0
173 195 0
172 195 0
168 192 0
171 195 0
172 196 0
173 196 0
169 193 0
171 194 0
171 194 0
172 196 0
170 194 18
163 187 51
152 176 92
112 139 141
74 107 168
62 99 177
61 98 171
62 99 172
62 99 176
62 99 180
62 99 176
62 99 177
62 99 176
62 99 174
62 99 176
62 99 177
62 99 175
62 99 179
62 99 179
61 99 179
62 99 179
62 99 178
62 99 179
62 99 179
62 99 180
62 99 180
62 99 180
63 100 180
62 99 180
62 99 181
62 99 179
62 99 179
62 99 180
62 99 179
62 99 181
62 99 177
62 99 180
62 99 181
61 99 180
62 99 178
62 99 180
62 99 181
61 99 181
61 99 181
62 99 181
62 99 181
62 99 180
61 99 181
62 99 180
62 99 181
62 99 181
62 99 181
61 99 180
62 99 181
62 99 181
61 99 180
62 99 181
62 99 181
61 99 181
61 99 181
61 99 181
62 99 181
61 99 181
62 99 179
62 99 181
62 99 181
61 98 181
61 99 178
61 99 181
61 99 180
61 98 179
62 100 181
62 99 180
61 98 180
62 99 181
61 98 180
62 99 181
62 99 181
61 99 181
61 99 181
61 99 181
62 99 180
61 99 180
61 99 181
61 99 180
62 99 180
62 99 181
62 99 181
62 99 181
62 99 181
61 99 180
62 99 180
62 99 180
62 99 180
62 99 181
61 99 180
62 99 179
61 98 177
62 99 180
62 99 179
62 99 181
62 99 179
61 99 180
62 99 180
61 99 176
61 98 176
62 99 177
62 99 177
62 98 179
62 99 178
61 98 177
62 99 179
61 99 179
62 99 180
61 98 175
61 98 177
62 99 176
61 98 174
62 99 178
62 99 177
61 98 175
62 99 173
62 99 177
61 98 174
61 98 174
61 97 174
60 97 171
61 97 169
62 98 176
61 97 171
61 96 168
61 96 167
61 97 172
70 100 165
89 107 147
105 114 125
105 110 97
134 130 83
132 128 73
124 120 73
129 126 75
128 125 77
121 120 73
124 123 80
119 118 73
109 110 71
119 119 82
106 107 67
124 123 79
123 120 77
128 127 85
134 131 86
121 120 82
122 121 83
121 122 84
116 117 80
120 120 82
126 126 87
134 133 93
129 129 89
122 121 83
121 120 82
131 130 89
132 132 90
140 140 94
133 132 91
131 132 92
134 133 91
132 133 94
138 137 93
146 143 95
135 134 93
139 139 94
130 130 91
141 141 97
139 138 95
146 145 99
153 151 100
143 142 97
148 146 97
145 144 96
156 154 103
157 155 103
148 148 101
153 151 99
154 152 103
156 154 103
153 152 101
164 160 105
161 159 103
160 156 103
157 154 100
156 154 103
168 164 106
156 154 100
166 163 108
165 162 107
170 166 110
163 160 104
171 167 108
168 164 110
171 167 109
172 167 106
167 163 104
169 165 104
171 166 108
164 161 103
171 166 105
170 166 108
171 167 108
169 165 104
172 167 109
173 169 108
173 168 109
171 167 106
174 169 109
174 170 109
170 166 106
174 169 106
176 170 108
178 172 109
171 167 106
173 168 104
172 168 104
176 171 110
176 170 106
176 170 108
177 171 107
173 169 106
174 169 104
175 170 104
172 167 107
172 167 103
176 170 108
175 170 108
175 169 104
172 166 103
174 168 106
170 166 102
170 164 102
176 169 104
174 169 104
170 165 102
174 168 103
172 166 103
169 164 101
171 166 104
172 166 99
167 162 99
168 163 98
166 161 100
168 162 97
166 160 95
173 167 106
168 163 99
163 157 92
168 162 94
169 162 95
164 157 95
162 157 93
165 161 97
172 166 101
160 155 94
165 159 95
164 158 93
166 160 93
163 158 92
158 152 87
153 147 84
159 154 92
155 149 85
159 153 89
161 155 93
147 141 81
158 151 85
149 143 79
155 149 84
149 143 76
156 149 80
147 142 80
147 141 75
148 143 75
141 136 66
155 151 72
141 141 61
154 156 63
148 151 60
156 162 57
158 166 54
158 170 41
163 178 36
164 182 28
165 185 19
168 190 11
172 195 11
171 195 0
173 197 0
172 196 0
175 198 0
173 197 0
174 197 0
173 196 0
174 197 0
173 196 0
173 197 0
173 197 0
172 196 0
173 197 0
174 197 0
172 196 0
173 196 0
173 197 0
171 195 0
172 196 0
174 198 0
176 199 0
173 197 0
173 196 0
173 196 0
176 198 0
172 196 0
171 195 0
173 196 0
171 194 0
173 196 0
173 196 0
174 196 0
174 198 0
174 197 0
173 197 0
172 196 0
172 196 0
173 197 0
172 196 0
172 195 0
174 198 0
175 198 0
171 195 0
173 195 0
173 197 0
173 196 0
174 197 0
174 198 0
174 196 0
172 196 0
173 196 0
172 194 0
172 194 0
172 195 0
173 196 0
173 196 0
173 197 0
174 198 0
171 195 0
174 197 0
174 197 0
172 195 0
170 192 0
171 195 0
172 195 0
173 196 0
172 195 0
172 194 0
171 194 0
170 194 0
174 197 0
172 195 0
174 196 0
173 196 0
171 195 0
173 197 0
174 197 0
173 196 0
171 194 0
172 195 0
171 194 0
172 194 0
173 197 0
175 197 0
172 196 0
171 194 0
175 198 0
173 196 0
171 194 0
172 196 0
170 194 0
172 196 0
173 197 0
172 195 0
171 195 0
168 191 0
172 195 0
172 194 0
170 194 0
172 195 0
171 195 0
171 195 0
170 194 0
173 195 0
172 196 0
166 190 36
154 178 82
119 145 135
74 108 168
62 99 170
62 99 172
62 99 176
62 99 177
62 98 175
62 99 179
62 99 176
62 99 178
63 100 178
63 100 179
62 99 177
62 99 175
62 99 177
62 99 178
62 99 175
62 99 179
61 99 181
62 99 176
62 99 179
62 99 177
61 98 177
62 99 178
62 99 181
61 98 179
62 99 180
62 99 178
62 99 181
62 99 181
62 99 179
62 99 179
62 99 180
62 99 177
61 99 180
62 99 179
62 99 180
62 99 180
62 99 180
62 99 181
61 98 178
62 99 179
62 99 181
62 99 180
61 99 181
62 99 181
62 99 180
62 99 181
61 98 180
61 99 181
61 98 180
61 98 180
61 99 180
62 99 181
62 99 181
62 99 181
62 99 178
62 99 181
62 99 181
62 99 181
62 99 180
61 99 180
61 99 180
62 99 181
62 99 180
62 99 181
62 99 181
62 99 181
61 98 181
62 99 181
61 99 181
61 98 180
61 98 178
61 99 179
62 99 180
61 99 181
62 99 179
62 99 181
62 99 181
62 99 181
62 99 180
62 99 181
62 99 181
62 99 181
62 99 180
62 99 180
61 98 180
62 99 177
62 99 180
62 99 180
62 99 179
62 99 180
62 99 180
62 99 178
61 99 179
62 99 181
62 99 181
62 99 179
62 99 180
61 98 178
62 99 181
61 98 177
61 98 176
62 99 178
62 99 179
61 99 179
62 99 178
62 99 178
61 98 177
62 99 177
61 98 178
62 99 177
61 98 176
62 99 177
62 98 176
62 99 179
62 99 175
62 99 179
62 99 177
61 98 175
61 98 175
62 98 175
62 98 177
62 99 174
61 97 175
62 98 174
61 98 176
61 97 170
62 97 170
62 98 171
61 96 169
61 96 168
66 96 157
89 109 153
107 116 121
114 116 99
129 126 83
140 136 81
124 122 76
121 119 72
119 116 71
124 122 73
124 121 76
120 118 74
117 115 73
117 115 74
124 123 81
122 119 75
112 112 76
128 126 80
117 118 78
127 126 84
115 114 79
132 131 87
122 123 84
120 122 86
137 135 92
122 122 84
132 131 89
125 125 88
118 119 84
133 131 89
131 130 89
126 126 89
131 130 90
128 128 90
134 134 93
138 137 93
147 145 100
137 136 94
136 135 94
136 136 92
145 144 98
136 136 94
146 145 99
151 149 100
147 146 99
142 140 96
154 152 100
158 156 103
159 156 102
151 149 100
155 152 100
149 148 98
157 154 100
156 154 101
154 153 101
160 157 103
159 157 106
154 152 101
159 156 103
160 157 103
161 158 105
165 162 105
168 164 107
168 164 107
160 158 102
165 162 104
166 163 103
167 164 107
164 160 103
167 163 107
170 166 106
171 166 108
173 169 110
170 166 106
172 167 108
169 166 106
166 162 102
176 171 110
169 165 103
172 167 103
174 169 108
178 172 110
174 169 107
176 172 110
175 170 107
175 170 108
175 169 106
177 171 110
174 169 106
178 172 108
176 170 108
178 172 107
174 169 103
173 168 108
175 170 105
175 170 108
176 169 106
176 171 108
175 170 107
173 168 105
171 166 103
170 166 107
175 169 108
170 165 104
170 165 101
171 167 103
174 168 105
174 167 104
171 166 102
173 167 104
173 168 105
169 163 102
170 164 101
170 165 101
174 168 104
169 164 101
174 168 103
170 164 101
168 163 99
167 161 97
159 154 90
168 163 99
167 161 97
161 156 90
165 159 95
165 159 94
154 148 86
163 158 96
164 158 95
165 160 94
163 158 93
165 158 93
166 159 96
156 150 85
156 150 92
157 150 82
153 147 81
164 158 92
153 147 88
152 146 79
147 142 76
154 148 80
162 155 89
152 146 78
149 143 80
147 142 76
147 141 74
150 143 78
154 146 80
147 142 78
140 141 57
152 152 63
153 157 66
153 160 57
149 160 45
156 167 48
163 175 49
162 178 34
167 185 28
165 184 16
167 188 19
171 196 0
174 198 0
173 196 0
175 197 0
173 197 0
171 195 0
172 196 0
174 197 0
172 196 0
172 195 0
172 195 0
174 198 0
174 197 0
173 197 0
172 195 0
173 196 0
176 199 0
172 195 0
171 195 0
172 196 0
173 196 0
173 197 0
173 197 0
173 197 0
174 198 0
173 197 0
174 198 0
174 196 0
172 195 0
174 197 0
173 196 0
174 197 0
173 196 0
173 196 0
173 197 0
172 195 0
174 197 0
172 195 0
170 194 0
174 197 0
172 195 0
172 195 0
173 196 0
170 194 0
170 195 0
174 196 0
174 197 0
173 196 0
173 197 0
169 193 0
171 195 0
174 197 0
173 195 0
173 196 0
174 197 0
173 196 0
172 196 0
174 197 0
173 196 0
172 196 0
172 196 0
171 195 0
173 196 0
174 197 0
174 196 0
173 196 0
173 196 0
173 196 0
171 195 0
171 194 0
171 195 0
172 195 0
172 195 0
171 194 0
171 194 0
171 195 0
170 194 0
173 196 0
171 195 0
172 195 0
167 190 0
174 197 0
169 193 0
170 193 0
171 194 0
171 194 0
173 196 0
174 198 0
174 198 0
173 196 0
173 196 0
173 196 0
170 193 0
171 195 0
173 196 0
171 194 0
171 193 0
172 195 0
173 197 0
171 194 0
175 197 0
173 196 0
170 194 0
170 194 18
165 189 44
162 186 62
115 142 139
86 117 160
62 98 169
62 99 176
62 99 174
63 99 178
62 99 174
62 99 176
61 98 174
62 99 179
62 99 178
62 98 174
63 100 181
62 99 180
62 99 177
63 100 178
62 99 177
62 99 176
62 99 177
62 99 177
62 99 181
62 99 179
62 99 179
62 99 179
62 99 178
62 99 179
62 99 179
62 99 180
62 99 178
62 99 180
61 99 180
62 99 180
63 100 181
62 99 179
61 99 180
61 99 181
61 99 180
62 99 181
62 99 179
62 99 181
62 99 179
61 99 180
62 99 179
61 99 179
62 99 180
61 99 181
61 99 181
62 99 180
62 99 178
62 99 181
61 98 180
62 99 181
61 99 180
62 99 180
62 99 181
61 99 181
62 99 181
61 98 180
61 98 181
62 99 180
62 99 180
62 99 180
62 99 181
62 99 180
62 99 181
63 100 181
62 99 180
61 99 181
62 99 181
62 99 181
61 99 180
62 99 179
62 99 180
62 99 181
61 99 180
62 99 180
62 99 179
61 98 180
62 99 178
62 99 181
62 99 179
62 99 181
62 99 180
62 99 181
62 99 179
62 99 181
62 99 180
62 99 181
62 99 181
62 99 181
62 99 180
62 99 178
62 99 181
61 99 181
62 99 180
62 99 179
62 99 180
62 99 178
62 99 178
62 99 181
62 99 179
61 99 180
61 98 174
62 99 180
63 99 177
62 99 177
62 99 178
63 100 180
62 99 179
61 99 179
62 99 177
62 99 179
62 99 174
62 99 177
62 99 179
62 99 177
61 98 177
61 99 178
61 98 174
61 98 173
61 97 170
62 98 174
61 98 175
61 98 174
62 98 174
61 98 174
61 98 175
62 98 171
61 97 171
62 98 176
61 97 173
61 97 171
61 96 171
63 97 169
72 100 160
86 104 144
95 103 110
111 114 94
124 122 78
113 110 67
123 121 71
121 119 73
110 108 67
113 112 73
107 108 71
112 112 74
116 116 78
113 114 78
105 105 71
119 118 78
118 118 75
111 111 77
122 121 81
112 112 78
118 118 81
125 125 88
128 127 86
123 123 84
121 121 85
134 134 91
133 132 90
113 116 84
118 118 83
119 120 84
127 126 88
128 128 87
131 130 90
127 128 88
127 129 90
128 127 88
134 133 91
132 133 91
141 140 95
145 145 99
148 146 99
152 149 100
139 138 94
144 143 95
148 147 100
148 147 100
147 146 99
148 146 98
143 142 97
154 152 101
154 151 100
153 151 101
156 154 102
153 151 102
157 155 105
161 158 102
161 157 104
159 155 102
162 158 105
164 160 104
164 160 105
160 157 101
162 159 100
172 167 105
163 161 107
166 162 104
169 165 107
169 166 107
165 161 102
172 167 108
171 167 109
170 166 105
172 166 106
171 166 107
173 168 106
168 163 103
170 166 105
175 170 107
173 168 105
168 164 104
171 167 108
172 168 103
173 168 105
173 168 104
174 170 107
174 169 108
172 168 106
172 168 108
173 169 109
173 169 105
168 164 103
173 169 106
176 171 109
173 168 105
173 167 104
174 168 103
178 172 108
174 169 105
176 169 103
175 169 106
173 168 106
174 169 104
177 171 107
174 168 103
174 168 103
172 167 103
173 167 104
176 170 105
172 166 99
172 167 102
171 165 102
169 164 101
169 163 100
177 170 104
168 162 95
171 166 99
167 161 99
172 166 101
171 166 101
167 161 99
163 158 88
169 163 97
163 158 93
170 164 101
170 164 98
164 159 95
166 160 91
165 158 97
160 155 89
166 159 93
152 145 86
159 153 91
170 164 97
161 155 94
153 148 78
162 156 90
161 154 87
160 154 87
161 155 87
155 149 81
148 143 73
149 142 81
151 145 80
148 142 75
154 148 80
148 142 78
143 138 71
146 141 78
152 145 75
144 141 69
142 140 63
140 146 48
148 154 51
150 161 39
167 178 48
160 173 32
165 182 36
164 183 19
168 189 22
172 194 11
172 195 0
173 196 0
171 194 0
174 197 0
172 196 0
173 195 0
172 196 0
173 196 0
173 196 0
172 196 0
173 196 0
173 196 0
173 196 0
173 196 0
173 196 0
173 197 0
169 192 0
173 196 0
172 195 0
171 194 0
175 198 0
171 196 0
170 193 0
172 196 0
172 195 0
172 196 0
173 196 0
174 197 0
174 197 0
173 197 0
170 194 0
171 195 0
173 196 0
172 196 0
172 195 0
172 196 0
172 195 0
173 197 0
172 196 0
173 196 0
172 195 0
171 195 0
173 197 0
174 197 0
172 195 0
173 196 0
173 196 0
172 195 0
173 195 0
172 196 0
171 195 0
170 193 0
172 196 0
171 194 0
170 194 0
174 198 0
174 197 0
173 196 0
172 195 0
172 196 0
171 195 0
172 195 0
171 195 0
171 195 0
172 195 0
172 195 0
171 194 0
173 196 0
172 196 0
174 197 0
171 195 0
173 196 0
173 196 0
172 195 0
172 195 0
171 194 0
173 196 0
172 194 0
173 195 0
172 196 0
171 195 0
173 197 0
172 195 0
171 194 0
172 195 0
172 195 0
172 195 0
174 197 0
172 195 0
172 196 0
172 196 0
172 196 0
171 195 0
171 194 0
171 194 0
172 195 0
172 196 0
172 196 0
171 195 0
174 196 0
171 195 0
173 197 0
175 197 0
165 189 44
148 172 84
132 158 118
82 114 165
62 98 173
63 99 171
62 99 170
62 99 173
62 99 173
62 99 170
62 99 177
62 99 179
62 99 175
62 99 180
62 99 178
62 99 178
62 99 174
62 99 177
62 99 180
61 99 180
62 99 178
62 99 178
63 100 179
62 99 180
61 99 180
63 100 179
62 99 179
62 99 180
62 99 180
62 99 180
61 99 181
62 99 180
61 98 179
61 98 179
61 99 180
62 99 179
62 99 180
62 99 179
62 99 180
62 99 179
62 99 180
62 99 180
62 99 181
61 98 179
62 99 181
61 99 180
62 99 179
62 99 180
62 99 180
62 99 181
62 99 181
61 99 181
61 98 180
62 99 181
62 99 180
61 99 180
62 99 179
62 99 181
61 98 179
61 99 181
62 99 181
62 99 179
61 99 181
62 99 180
62 99 181
62 99 181
62 99 180
62 99 181
61 99 179
63 100 180
62 99 180
62 99 181
62 99 180
62 99 181
62 99 180
62 99 180
62 99 181
62 99 180
62 99 181
62 99 180
62 99 181
62 99 181
62 99 179
62 99 177
62 99 180
62 99 180
62 99 180
62 99 179
63 100 181
62 99 179
62 99 181
62 99 179
61 99 180
62 99 180
62 99 180
62 99 178
62 99 177
62 99 180
62 99 177
62 99 180
62 99 179
62 99 181
62 99 180
62 99 178
63 100 180
63 100 178
62 98 177
62 99 180
63 99 179
62 99 179
61 99 179
62 99 180
62 99 179
62 98 176
62 99 178
63 100 179
61 98 175
61 98 178
62 99 174
62 98 175
63 99 179
62 99 178
62 99 178
62 99 176
62 98 175
62 98 176
62 99 176
61 97 172
61 98 178
62 98 174
61 98 176
61 97 174
60 96 169
61 97 170
61 96 169
61 97 170
61 96 168
60 95 168
75 100 150
80 97 133
113 119 115
126 124 82
110 110 69
114 113 66
122 120 76
124 122 74
122 120 74
123 121 79
124 123 79
113 113 71
111 110 72
115 115 78
120 120 79
129 127 86
113 112 76
118 118 81
122 123 84
119 119 80
126 126 87
119 120 83
112 114 81
117 119 84
127 127 86
124 124 88
124 123 84
121 123 86
117 118 83
124 124 87
118 120 85
127 127 87
134 134 92
122 123 85
127 128 91
134 134 92
143 141 96
133 134 93
142 142 97
142 141 96
145 143 97
147 145 97
147 145 96
155 152 101
149 148 98
155 153 102
155 153 102
147 146 98
151 149 102
144 143 97
161 156 102
156 154 102
155 152 100
150 149 96
164 161 103
157 154 98
161 158 104
158 155 102
161 158 101
160 157 105
162 159 100
163 159 102
164 160 104
166 162 104
170 166 108
167 164 103
166 163 104
166 163 105
167 163 103
170 166 106
167 164 107
171 167 106
170 166 105
172 167 107
175 170 110
171 167 107
174 168 107
171 166 104
171 167 107
172 167 104
171 167 104
176 170 107
176 171 110
173 168 105
171 166 104
174 169 105
174 170 108
171 167 105
170 165 102
173 168 105
172 167 106
171 166 102
177 171 106
174 169 107
174 169 104
177 170 104
168 164 103
176 169 103
173 168 106
174 169 106
174 169 104
172 166 103
172 167 104
171 165 104
173 167 103
174 169 103
177 171 105
175 168 104
168 163 98
175 170 105
172 167 103
167 163 98
172 166 100
171 165 99
167 161 97
171 164 99
169 162 97
169 163 99
169 163 98
171 165 100
172 165 100
171 165 100
161 156 91
164 158 96
165 159 95
160 153 93
168 161 93
158 152 84
162 156 87
157 152 85
158 152 87
154 149 83
159 154 89
155 150 82
159 153 83
155 149 87
160 153 80
144 139 80
162 155 88
155 147 82
155 150 83
153 146 80
144 139 77
143 138 70
148 142 75
144 138 72
139 132 77
133 130 61
144 142 65
148 148 67
145 152 51
148 155 47
156 167 44
155 166 41
160 176 32
166 186 25
158 174 32
172 192 28
171 192 11
173 196 0
173 197 0
173 197 0
173 197 0
175 198 0
174 197 0
170 194 0
174 197 0
171 195 0
172 195 0
173 196 0
172 196 0
174 196 0
171 195 0
171 195 0
174 197 0
174 198 0
173 195 0
173 196 0
176 198 0
172 195 0
173 196 0
173 197 0
173 197 0
174 198 0
173 196 0
174 197 0
172 196 0
172 196 0
172 196 0
172 196 0
171 195 0
173 196 0
173 197 0
169 192 0
174 197 0
173 196 0
173 196 0
173 197 0
172 195 0
170 194 0
171 194 0
173 196 0
173 197 0
173 196 0
173 196 0
172 196 0
171 195 0
174 197 0
172 196 0
170 193 0
171 195 0
175 197 0
172 196 0
172 195 0
174 197 0
172 196 0
173 197 0
172 196 0
172 195 0
170 193 0
173 196 0
174 197 0
173 197 0
172 195 0
170 193 0
172 195 0
171 196 0
173 197 0
173 195 0
172 195 0
174 197 0
173 196 0
170 193 0
173 196 0
173 196 0
173 197 0
169 193 0
170 193 0
172 195 0
171 196 0
174 197 0
170 194 0
169 194 0
172 196 0
173 197 0
176 198 0
171 193 0
170 193 0
169 193 0
171 194 0
171 195 0
171 195 0
169 194 0
172 195 0
172 195 0
172 195 0
170 194 0
170 193 0
173 196 0
172 195 0
171 195 0
169 193 25
159 183 65
127 153 118
86 117 163
62 99 171
62 98 172
62 99 172
62 98 168
62 99 177
62 98 171
61 98 173
62 99 177
62 99 179
61 98 175
62 99 175
63 100 180
63 99 177
62 99 174
62 99 179
62 99 177
62 99 177
62 99 180
62 99 179
62 99 178
62 99 176
62 99 180
62 99 179
62 99 178
62 99 179
62 99 180
62 99 179
61 99 178
62 99 178
62 99 181
62 99 179
62 99 181
62 99 178
63 100 180
61 99 180
62 99 180
62 99 181
62 99 180
62 99 179
62 99 180
62 99 180
62 99 181
62 99 179
61 99 181
61 98 178
62 99 181
62 99 180
62 99 180
61 99 179
62 99 180
62 99 181
62 99 181
62 99 181
62 99 179
62 99 181
62 99 181
62 99 181
62 99 181
62 99 181
62 99 181
63 100 181
62 99 180
62 99 180
62 99 180
62 99 181
62 99 179
62 99 180
62 99 180
62 99 179
62 99 181
62 99 180
62 99 179
61 99 181
62 99 180
62 99 181
62 99 180
62 99 180
62 99 180
62 99 181
61 99 179
62 99 179
62 99 178
62 99 177
62 99 178
63 100 180
62 99 181
62 99 181
61 99 179
62 99 179
62 99 180
62 99 180
62 99 179
62 99 178
62 99 180
61 98 178
62 99 180
61 99 180
61 98 175
62 99 178
61 98 177
62 99 181
62 99 178
63 99 179
62 99 180
61 98 178
62 99 177
62 99 179
62 99 180
62 99 175
61 98 179
62 99 178
62 98 177
62 99 176
62 99 178
62 99 177
62 99 177
62 98 176
62 98 173
62 99 178
61 98 176
63 99 180
62 99 179
62 98 175
61 97 170
61 98 172
62 98 174
61 97 171
61 97 171
62 99 173
61 98 170
62 98 175
62 98 176
61 97 170
61 96 163
62 97 169
61 95 164
82 104 151
95 109 136
96 107 117
111 112 83
128 124 74
108 107 69
116 114 74
117 116 75
117 117 77
112 111 69
118 117 79
122 121 80
106 106 70
103 104 73
101 104 71
111 111 76
110 109 70
115 115 79
109 110 78
120 121 86
105 108 77
109 110 77
102 104 75
121 121 85
118 118 83
123 122 84
125 126 86
124 125 88
124 124 86
141 139 94
131 132 92
137 136 92
127 128 90
125 126 89
133 133 91
134 133 90
138 138 95
127 128 90
137 137 94
142 140 95
143 142 96
139 139 96
142 141 93
151 149 101
147 146 99
147 146 99
153 151 101
154 152 100
148 146 96
159 156 103
157 155 102
164 160 104
161 158 105
161 158 102
156 154 102
162 158 101
161 158 103
161 158 102
167 163 105
160 157 103
159 157 101
163 159 103
169 164 108
165 161 105
167 163 102
171 166 107
160 157 101
171 167 105
164 162 105
166 163 104
171 166 104
167 163 103
173 168 106
175 170 108
172 168 107
169 165 107
177 171 108
178 172 109
169 166 101
173 168 107
172 168 107
175 170 107
176 171 108
174 169 107
174 168 106
175 169 104
177 172 111
174 168 103
173 168 103
175 169 105
173 168 106
173 167 103
176 170 107
175 169 104
177 171 106
176 170 104
172 166 104
173 168 106
173 167 102
169 165 98
171 166 103
170 163 99
171 165 101
172 167 99
172 167 104
174 167 102
170 164 102
174 168 104
170 164 102
169 164 99
170 165 100
173 167 105
167 161 97
170 165 101
167 162 97
167 162 98
163 158 96
171 164 99
166 160 93
165 160 93
165 159 91
164 158 91
163 157 89
160 154 91
164 159 95
163 158 90
157 151 89
160 154 90
157 152 85
160 154 89
158 152 86
152 146 84
163 157 87
152 146 83
162 155 87
161 155 87
151 145 81
155 149 82
157 152 87
161 154 89
148 141 79
152 146 83
143 137 75
152 146 78
152 145 76
143 138 71
139 135 66
151 148 72
152 155 53
149 157 48
157 164 60
157 169 44
152 165 41
158 173 37
162 181 25
165 184 30
171 190 22
168 190 16
172 196 0
174 197 0
171 195 0
174 198 0
172 196 0
171 194 0
176 198 0
173 197 0
173 197 0
173 197 0
170 194 0
174 197 0
173 196 0
172 196 0
174 197 0
172 195 0
173 197 0
172 196 0
172 196 0
173 197 0
176 199 0
170 194 0
175 198 0
172 195 0
170 193 0
173 196 0
171 195 0
171 195 0
171 194 0
174 197 0
172 196 0
174 197 0
173 196 0
171 194 0
174 197 0
171 195 0
171 195 0
173 196 0
167 191 0
174 197 0
172 196 0
174 198 0
174 197 0
172 196 0
173 196 0
172 195 0
172 196 0
172 195 0
170 192 0
170 193 0
169 193 0
173 196 0
173 196 0
172 195 0
172 195 0
172 196 0
171 194 0
173 196 0
171 195 0
173 196 0
172 196 0
174 197 0
171 195 0
170 193 0
172 195 0
172 195 0
171 195 0
169 193 0
171 194 0
171 195 0
170 193 0
170 193 0
174 196 0
172 194 0
170 193 0
172 195 0
172 196 0
171 194 0
171 195 0
172 196 0
174 197 0
169 194 0
172 195 0
172 196 0
172 195 0
168 192 0
172 196 0
172 195 0
168 191 0
173 196 0
168 191 0
172 196 0
174 196 0
172 195 0
173 196 0
172 196 0
172 196 0
169 192 0
169 193 0
173 196 0
172 195 0
173 196 0
157 181 65
142 166 102
97 126 151
70 105 175
62 98 167
62 99 172
62 98 169
62 99 169
62 99 175
61 99 177
62 99 174
61 98 173
61 98 171
62 99 180
62 99 176
62 99 177
63 100 179
63 100 178
62 99 180
62 99 176
62 99 179
62 99 179
62 99 181
62 99 179
62 99 175
62 99 179
62 99 177
62 99 178
62 99 179
62 99 180
61 99 177
62 99 177
61 99 179
62 99 179
62 99 180
62 99 181
62 99 181
61 98 179
62 99 180
62 99 179
62 99 180
61 98 180
62 99 180
62 99 179
62 99 180
62 99 181
62 99 180
62 99 181
61 99 181
62 99 181
62 99 180
62 99 180
63 99 180
62 99 181
62 99 180
62 99 181
62 99 180
62 99 181
62 99 181
62 99 179
62 99 180
62 99 181
61 99 181
62 99 180
62 99 180
61 98 178
61 98 181
61 99 180
62 99 181
62 99 180
61 99 179
62 99 180
61 98 178
61 99 178
61 99 179
62 99 178
62 99 180
62 99 181
62 99 180
62 99 181
63 100 181
62 99 180
62 99 179
62 99 180
62 99 179
62 99 180
62 99 179
61 99 180
62 99 178
62 99 181
62 99 177
62 99 180
61 98 178
61 99 179
62 99 181
62 99 180
61 98 174
61 99 181
62 99 179
61 98 177
62 99 177
62 99 175
62 99 179
62 99 178
62 99 178
62 98 175
62 99 179
62 99 179
61 98 176
62 99 180
61 98 175
62 99 179
62 99 181
62 99 178
62 98 174
62 99 177
61 98 176
62 98 173
61 98 174
62 99 180
61 98 177
62 99 176
62 98 172
62 99 172
62 99 180
62 99 175
62 99 175
61 97 172
62 99 177
63 99 176
61 98 171
62 98 171
62 98 171
62 99 176
61 98 172
61 96 168
62 98 172
61 97 170
60 95 167
60 94 165
59 95 168
83 105 155
84 100 135
107 112 105
110 112 94
111 110 67
115 114 70
105 104 61
110 109 71
111 111 72
102 103 69
112 112 72
109 109 73
104 106 72
119 118 81
110 110 73
108 109 76
116 115 78
113 113 78
112 113 79
127 127 88
123 122 83
120 120 82
117 117 84
117 117 80
121 121 85
122 122 85
130 130 91
125 125 86
121 122 85
124 125 87
119 121 84
124 125 86
130 130 91
131 130 86
137 136 91
125 126 88
131 131 88
139 138 92
140 138 92
146 145 96
150 148 97
135 135 92
149 147 99
161 157 103
156 153 102
142 142 93
149 147 98
149 147 96
144 143 97
149 147 97
154 150 97
152 150 98
163 159 105
156 153 99
165 161 103
162 158 100
163 159 104
164 160 105
157 155 98
157 154 101
167 162 105
160 157 100
169 164 105
169 165 107
170 165 105
168 164 101
175 169 110
169 164 104
169 164 103
172 168 108
178 171 109
171 166 105
168 164 106
172 168 105
172 166 106
169 165 104
175 170 108
175 169 105
174 170 106
176 171 110
174 169 104
175 168 106
173 168 102
171 167 104
174 169 103
173 167 102
173 168 103
175 169 105
174 168 104
178 172 107
176 170 108
172 167 101
175 169 103
176 169 106
174 169 104
174 168 98
174 167 104
173 167 98
173 167 102
172 167 104
173 167 103
172 166 105
170 165 101
174 167 102
171 165 101
173 167 102
170 164 100
175 168 103
172 166 101
172 166 97
177 170 103
165 160 93
171 163 98
166 160 95
168 162 98
175 167 100
170 163 97
166 160 96
171 165 101
162 156 94
171 164 98
162 156 93
166 160 95
164 158 93
165 159 93
161 156 82
159 153 90
159 153 90
163 156 96
157 151 85
163 157 92
157 152 82
158 152 87
155 149 82
153 148 79
151 144 83
153 147 83
156 150 81
165 157 91
157 151 83
157 151 82
139 134 67
148 143 78
141 135 72
139 133 62
144 139 67
141 138 65
144 147 54
143 148 60
152 158 49
155 163 52
161 172 41
164 180 42
156 172 30
166 184 28
168 188 22
172 192 22
172 195 0
171 195 0
171 195 0
172 195 0
172 195 0
174 196 0
174 197 0
173 196 0
174 197 0
174 197 0
173 196 0
174 197 0
172 196 0
173 197 0
172 195 0
172 195 0
171 195 0
170 194 0
172 195 0
170 194 0
172 196 0
171 195 0
173 197 0
173 197 0
172 197 0
172 195 0
171 195 0
173 197 0
175 198 0
174 197 0
174 196 0
173 196 0
169 192 0
172 196 0
172 196 0
173 197 0
173 197 0
172 196 0
172 196 0
173 197 0
173 197 0
173 196 0
173 197 0
172 195 0
172 195 0
170 194 0
173 196 0
174 197 0
172 194 0
174 197 0
174 197 0
170 194 0
171 195 0
171 195 0
172 195 0
172 195 0
172 195 0
171 195 0
173 196 0
173 196 0
170 194 0
172 196 0
174 197 0
173 196 0
173 196 0
172 196 0
172 196 0
173 196 0
173 196 0
170 195 0
172 195 0
171 194 0
171 195 0
171 195 0
170 194 0
173 195 0
171 195 0
172 196 0
170 193 0
173 196 0
167 191 0
173 196 0
171 194 0
172 195 0
172 195 0
172 196 0
171 194 0
170 193 0
169 193 0
175 198 0
175 198 0
172 196 0
172 196 0
171 194 0
169 193 0
172 195 0
171 195 0
173 196 0
170 194 0
174 198 0
173 197 0
164 187 65
142 167 97
110 138 137
69 104 168
61 98 169
62 99 174
62 99 170
62 99 174
62 99 173
62 98 174
62 99 174
62 99 175
61 99 178
62 99 177
62 98 171
61 98 175
62 99 175
63 99 179
62 99 177
61 99 178
63 100 177
62 99 178
62 99 175
62 99 180
62 99 181
63 100 180
63 100 179
62 99 179
62 99 177
62 99 180
61 99 180
62 99 179
62 99 179
62 99 181
62 99 180
62 99 176
63 99 180
62 99 181
62 99 179
62 99 177
61 99 180
63 100 181
62 99 181
62 99 178
62 99 180
62 99 180
61 99 180
62 99 180
62 99 179
62 99 180
62 99 180
62 99 180
62 99 180
61 99 181
61 99 180
63 100 181
62 99 180
62 99 180
63 100 180
62 99 181
62 99 181
61 98 180
61 99 181
62 99 181
62 99 180
61 99 178
62 99 179
62 99 179
62 99 179
62 99 179
62 99 179
62 99 180
62 99 181
62 99 180
63 100 180
62 99 178
62 99 181
62 99 180
62 99 181
62 99 180
62 99 181
61 99 179
62 99 177
62 99 178
62 99 179
61 99 179
62 99 180
61 99 178
62 99 179
62 99 180
61 99 180
62 99 179
62 99 181
63 100 178
62 99 180
61 98 178
62 99 181
62 99 181
62 99 179
62 99 179
62 99 178
62 99 179
62 99 178
61 98 177
62 99 179
62 99 179
61 99 180
62 99 177
63 100 180
62 99 177
62 99 181
62 99 176
62 99 178
61 99 176
62 99 176
62 99 178
62 99 179
61 98 173
61 98 177
62 99 174
62 99 176
62 99 172
61 99 179
63 99 178
62 98 175
62 99 178
62 98 176
62 99 177
62 98 173
61 98 170
63 99 175
61 98 174
62 98 175
61 98 173
61 97 169
63 99 175
61 97 170
61 97 167
61 97 173
60 96 170
61 96 167
62 97 168
63 95 159
66 95 155
103 113 130
101 106 98
97 99 73
117 116 73
111 110 70
117 115 74
118 117 74
105 106 72
112 111 74
121 120 79
106 107 73
105 105 72
113 114 78
110 111 74
110 112 78
118 118 81
117 118 82
112 113 82
108 109 75
116 116 79
102 103 72
120 121 86
116 117 82
118 118 82
124 124 85
126 126 86
119 120 86
128 129 90
118 120 84
111 114 84
130 130 89
139 138 92
133 133 91
137 137 94
144 143 96
134 134 90
139 137 91
141 141 96
146 145 96
140 139 89
131 131 88
147 145 97
152 149 97
153 151 99
145 143 96
151 150 99
158 154 100
156 153 101
151 149 99
163 159 106
156 153 99
158 155 101
161 157 101
165 161 105
163 160 103
160 157 100
165 160 104
154 152 98
163 161 105
165 162 103
164 160 103
162 160 104
161 157 100
164 161 102
168 164 105
167 163 104
170 166 106
169 165 105
165 161 101
165 161 102
171 166 104
171 166 106
173 168 104
169 165 100
172 166 103
173 168 105
175 170 108
174 168 104
174 169 107
175 169 106
173 169 101
173 167 101
176 170 104
175 169 104
172 168 106
173 168 103
176 170 106
174 168 102
173 168 104
178 171 107
172 167 99
176 171 104
173 167 104
170 164 104
174 168 104
170 164 99
176 169 102
174 168 103
173 168 104
171 165 104
169 163 97
172 166 104
173 167 103
171 166 98
172 166 103
171 165 97
169 163 102
167 162 97
170 165 98
169 163 94
173 168 101
170 164 97
167 161 96
166 160 92
163 158 90
169 162 93
164 158 93
161 157 95
164 158 93
161 156 96
167 159 94
167 161 91
164 158 88
165 159 97
163 157 90
157 152 87
163 157 89
158 152 85
153 148 79
153 147 83
157 151 87
158 151 84
159 153 82
153 146 79
155 147 80
157 151 85
144 139 74
150 145 77
146 141 75
149 144 71
143 138 76
155 149 75
141 135 72
146 142 69
143 143 60
131 131 51
153 156 60
146 151 54
154 163 45
156 166 48
162 177 36
161 177 28
161 178 22
169 187 25
171 193 0
174 197 0
173 196 0
171 195 0
174 197 0
173 196 0
173 196 0
174 197 0
175 198 0
173 197 0
172 195 0
174 197 0
171 195 0
172 195 0
173 196 0
172 195 0
169 191 0
174 197 0
173 197 0
173 197 0
171 195 0
172 196 0
175 198 0
171 194 0
174 197 0
172 196 0
173 196 0
173 196 0
174 197 0
173 196 0
171 195 0
175 198 0
174 197 0
173 197 0
173 196 0
174 197 0
175 198 0
173 196 0
172 195 0
172 195 0
173 195 0
170 194 0
174 197 0
173 197 0
173 196 0
172 194 0
170 193 0
170 194 0
174 197 0
173 196 0
171 194 0
172 196 0
173 196 0
173 197 0
173 197 0
173 196 0
169 192 0
172 195 0
172 196 0
171 195 0
173 196 0
172 195 0
175 198 0
172 196 0
172 194 0
171 195 0
172 194 0
173 196 0
170 194 0
172 196 0
172 195 0
172 195 0
174 196 0
173 197 0
170 193 0
169 193 0
170 194 0
172 195 0
173 196 0
172 195 0
171 194 0
173 196 0
172 195 0
173 197 0
172 194 0
172 195 0
172 195 0
170 193 0
170 193 0
173 195 0
173 196 0
173 196 0
171 195 0
171 195 0
173 196 0
171 195 0
172 196 0
172 194 0
169 192 0
172 195 0
171 195 0
167 191 25
152 175 92
119 145 135
73 107 166
63 99 172
62 99 173
62 99 171
63 99 175
62 99 175
63 100 176
62 98 172
63 99 173
62 99 178
62 99 174
61 98 176
62 98 171
62 99 177
63 100 179
62 98 175
62 99 177
62 99 179
62 99 179
62 99 176
61 98 175
62 99 180
62 99 179
63 100 180
61 99 177
62 99 179
62 99 178
62 99 179
62 99 180
62 99 177
62 99 180
63 100 180
62 99 178
62 99 181
62 99 179
62 99 179
62 99 178
62 99 177
62 99 181
62 99 179
62 99 178
61 99 179
61 99 181
62 99 180
62 100 181
62 99 180
62 99 181
61 98 178
62 99 181
62 99 180
62 99 181
62 99 179
62 99 178
62 99 180
62 99 181
61 98 179
62 99 180
62 99 181
62 99 180
62 99 180
62 99 179
62 99 181
62 99 180
62 99 179
62 99 179
62 99 180
62 99 179
61 99 181
62 99 179
62 99 177
61 99 180
62 99 179
62 99 181
62 99 179
62 99 179
61 99 179
61 98 178
63 100 180
62 99 180
62 99 180
62 99 180
62 99 181
62 99 181
62 99 180
62 99 178
62 99 177
62 99 180
62 99 181
62 99 179
62 99 178
62 99 177
62 99 177
62 99 179
61 98 174
62 99 178
62 99 177
61 98 175
62 99 177
62 99 179
61 98 180
62 99 178
62 99 175
62 99 176
61 98 176
62 99 181
62 99 180
62 99 181
62 99 180
62 99 179
63 100 178
62 99 177
62 99 177
61 98 177
61 98 177
62 99 177
63 99 178
62 98 172
62 98 172
62 99 177
62 99 178
62 99 174
61 98 174
61 98 174
62 98 174
62 99 173
62 98 174
62 99 175
61 97 169
62 99 176
62 99 176
62 98 169
61 98 173
61 97 170
62 98 174
62 97 168
61 97 170
61 97 171
61 97 170
62 98 169
60 95 166
60 95 163
65 95 159
76 97 139
104 111 116
100 105 97
103 105 77
123 120 74
112 111 72
112 110 73
108 108 66
111 111 75
118 117 79
118 119 84
106 107 73
99 102 73
106 108 76
112 112 76
116 117 83
110 112 83
118 118 81
99 100 70
111 112 78
115 116 82
105 108 78
121 122 87
113 114 78
127 127 87
124 123 84
136 135 92
123 123 84
125 124 86
123 124 87
129 129 88
124 125 86
140 140 95
135 135 91
129 129 88
133 133 90
135 135 89
143 141 95
139 138 91
138 137 93
130 131 90
150 148 99
140 140 92
152 150 99
152 151 100
153 151 95
149 147 96
157 154 102
156 153 102
157 154 98
156 153 101
157 154 101
162 158 103
160 156 101
159 156 100
157 154 102
166 162 103
157 154 100
156 153 100
165 161 103
159 156 100
169 164 108
166 162 102
167 163 102
168 164 103
174 169 107
168 164 104
172 166 106
170 166 103
171 167 107
171 166 104
171 166 106
176 170 105
174 169 103
169 165 100
175 169 105
177 170 104
176 170 107
173 167 102
172 167 106
173 168 107
173 168 100
171 167 102
175 170 103
176 171 106
177 170 104
173 168 105
173 168 103
172 167 104
176 170 107
172 167 99
175 169 103
176 169 104
171 166 99
174 168 103
174 168 102
172 166 97
175 169 105
176 169 104
173 166 97
175 168 101
168 164 98
172 165 102
173 167 95
173 166 100
167 162 96
169 163 99
168 163 100
171 164 98
173 166 98
169 164 97
174 168 101
168 162 97
168 162 97
171 165 99
172 165 99
161 156 93
175 169 104
166 160 95
160 154 87
166 161 95
162 157 93
161 155 88
160 154 90
164 158 95
160 154 90
148 143 78
157 152 87
159 154 87
152 146 85
157 151 84
159 152 87
156 149 84
155 149 79
161 155 83
150 144 80
149 143 84
148 142 81
149 142 79
143 137 74
145 138 78
142 135 74
134 129 66
136 132 67
150 148 60
152 153 67
147 150 57
152 161 48
157 168 44
149 161 39
160 173 37
159 176 22
164 181 32
163 182 22
168 189 0
171 194 0
174 197 0
172 195 0
174 197 0
174 197 0
174 197 0
172 196 0
173 196 0
175 198 0
173 196 0
171 195 0
171 195 0
173 197 0
173 196 0
172 196 0
175 198 0
174 197 0
173 197 0
172 196 0
171 194 0
174 198 0
173 196 0
172 194 0
174 197 0
174 196 0
172 195 0
173 196 0
174 198 0
172 196 0
174 198 0
172 195 0
170 193 0
171 195 0
173 197 0
171 195 0
173 197 0
171 194 0
170 194 0
174 197 0
172 196 0
170 194 0
174 198 0
174 196 0
171 195 0
172 195 0
172 196 0
172 195 0
174 197 0
172 195 0
172 195 0
174 197 0
172 196 0
171 195 0
173 196 0
170 194 0
172 195 0
173 196 0
175 198 0
173 196 0
172 194 0
174 197 0
172 196 0
172 195 0
170 193 0
171 195 0
172 195 0
172 196 0
172 196 0
169 193 0
172 196 0
170 194 0
172 195 0
172 195 0
172 195 0
170 193 0
173 195 0
172 194 0
173 197 0
172 195 0
172 195 0
171 194 0
174 198 0
171 194 0
167 191 0
170 193 0
172 195 0
173 195 0
172 195 0
171 195 0
174 197 0
169 192 0
170 194 0
172 196 0
172 195 0
171 194 0
173 197 0
170 193 0
170 193 0
170 194 0
167 191 18
164 187 51
134 158 110
88 118 159
62 98 170
62 99 169
62 98 170
62 99 171
63 99 172
62 99 172
62 99 176
62 99 174
61 98 172
62 99 175
62 99 174
62 99 178
62 99 176
62 99 179
62 99 176
62 99 177
61 98 173
61 98 175
63 99 178
62 99 176
62 99 178
62 99 176
62 99 177
62 99 179
62 99 177
62 99 177
63 100 180
62 99 177
63 100 179
62 99 179
62 99 179
62 99 180
62 99 178
62 99 180
62 99 179
62 99 178
62 99 179
62 99 179
62 99 180
62 99 177
62 99 180
62 99 177
62 99 178
62 99 180
62 99 179
61 98 179
62 99 180
62 99 180
61 99 181
62 99 181
61 98 180
62 99 179
62 99 180
62 99 180
62 99 181
62 99 181
61 99 180
63 100 181
62 99 181
61 98 179
62 99 180
61 99 181
62 99 179
62 99 180
62 99 181
62 99 181
62 99 180
62 99 181
62 99 179
62 99 181
62 99 179
62 99 181
62 99 181
62 99 177
62 99 180
62 99 181
61 99 180
62 99 179
62 99 180
61 99 179
62 99 179
62 99 180
62 99 181
62 99 177
62 99 180
62 99 178
62 99 177
62 99 179
62 99 179
62 99 176
62 99 179
62 99 181
62 99 181
62 99 179
62 99 181
62 99 181
63 100 179
61 99 177
62 99 177
62 99 177
62 99 179
61 98 179
62 99 179
62 99 176
62 99 178
63 99 177
62 99 179
62 99 178
62 99 180
62 99 175
62 99 179
61 98 176
62 98 176
62 99 179
62 99 173
62 99 179
62 99 175
62 99 174
62 99 177
61 98 175
62 98 172
62 99 178
62 99 175
63 99 180
62 99 174
62 98 172
62 99 175
62 99 172
62 99 174
62 98 175
61 97 169
61 97 174
62 98 171
62 98 173
62 97 172
61 96 166
61 96 170
62 98 173
60 96 168
62 98 173
61 96 168
60 95 162
64 94 151
89 105 139
96 105 116
101 104 84
102 102 64
105 106 70
100 101 70
94 96 64
105 105 72
105 103 69
99 101 69
96 99 69
101 104 74
102 105 75
103 105 72
115 115 78
111 112 79
114 115 81
112 114 81
112 114 80
118 120 83
114 115 82
111 112 80
116 117 82
123 124 87
131 131 91
125 125 86
127 126 86
135 134 92
129 128 88
133 133 89
130 130 91
126 126 83
135 134 90
137 136 90
147 144 97
143 142 95
143 141 93
138 137 90
136 135 91
147 144 92
143 141 90
154 151 98
136 135 89
149 147 97
148 147 98
144 142 95
157 154 99
156 153 96
152 151 99
157 153 100
155 153 99
162 159 101
157 154 98
160 156 100
166 161 106
160 157 99
159 156 99
162 159 99
168 163 103
171 166 103
167 163 105
171 166 106
167 163 103
166 162 101
172 167 103
165 162 104
169 164 103
169 165 105
174 168 105
171 165 104
171 167 107
172 167 104
172 166 103
174 169 108
173 168 106
174 168 103
173 167 101
171 166 101
171 167 102
171 167 103
173 168 103
177 171 105
176 170 105
175 170 105
177 169 104
172 167 104
175 170 108
174 169 105
171 166 100
174 168 103
178 171 106
178 171 103
177 171 105
175 169 103
169 164 96
166 161 97
171 166 101
169 163 99
172 166 99
170 164 97
169 162 97
174 168 101
166 161 88
169 164 98
178 170 104
166 160 93
172 166 102
171 165 99
170 164 95
168 161 96
172 166 97
164 159 95
162 157 91
169 163 97
161 155 90
168 162 97
155 150 87
167 161 93
164 158 94
172 166 97
164 157 89
161 155 87
168 160 88
162 157 88
165 158 90
158 152 88
163 157 90
160 154 87
153 148 82
157 151 85
155 150 83
155 149 84
158 152 84
155 148 83
158 152 80
151 145 75
149 143 77
142 136 72
149 143 78
146 140 69
139 133 65
139 134 67
146 141 72
146 147 60
149 152 57
152 154 58
154 158 56
154 166 41
156 168 45
158 170 36
165 181 32
164 181 32
169 190 11
169 192 11
173 196 0
174 196 0
171 195 0
172 196 0
172 196 0
173 197 0
173 196 0
173 196 0
174 197 0
173 197 0
173 196 0
172 196 0
174 197 0
172 195 0
175 198 0
173 196 0
174 197 0
173 196 0
175 198 0
173 196 0
173 197 0
169 194 0
172 196 0
172 195 0
173 196 0
171 194 0
170 193 0
173 196 0
173 197 0
173 196 0
168 191 0
172 196 0
172 196 0
170 193 0
173 196 0
171 195 0
171 194 0
173 196 0
171 195 0
170 193 0
172 195 0
172 196 0
174 198 0
173 196 0
172 196 0
173 196 0
174 197 0
173 197 0
170 193 0
172 196 0
172 195 0
172 196 0
174 197 0
172 195 0
174 197 0
171 194 0
174 197 0
171 194 0
171 194 0
172 195 0
170 193 0
171 195 0
170 193 0
170 194 0
175 198 0
172 196 0
172 195 0
174 197 0
173 197 0
171 195 0
172 196 0
174 197 0
172 195 0
173 196 0
171 195 0
173 196 0
174 197 0
173 197 0
174 197 0
173 197 0
171 194 0
172 195 0
172 195 0
174 197 0
172 195 0
171 194 0
172 195 0
169 192 0
172 196 0
172 195 0
171 194 0
171 194 0
170 193 0
171 194 0
170 194 0
170 192 0
170 193 0
170 192 0
170 194 18
160 183 62
148 172 94
106 133 139
64 100 172
61 98 168
63 99 173
62 99 175
62 99 176
62 99 170
62 99 174
62 99 176
61 98 173
61 98 171
62 99 176
62 99 177
62 99 176
62 99 177
62 98 173
62 99 177
62 99 175
62 99 170
62 99 175
62 99 176
62 99 179
62 99 177
62 99 175
62 99 176
61 98 178
62 99 179
62 99 178
62 99 177
61 98 178
62 99 176
62 99 180
62 99 179
62 99 177
62 99 180
61 99 180
62 99 177
62 99 176
62 99 179
62 99 179
62 99 179
62 99 179
62 99 181
63 99 177
61 99 177
62 99 180
62 99 180
61 98 177
62 99 180
62 99 181
61 98 180
62 99 179
62 99 178
62 99 178
62 99 179
62 99 180
62 99 179
61 99 181
62 99 180
62 99 179
62 99 178
61 98 180
62 99 180
62 99 180
62 99 180
61 98 176
62 99 177
62 99 179
62 99 180
62 99 180
61 98 180
62 99 179
62 99 181
62 99 176
62 99 179
62 99 180
62 99 181
62 99 180
62 99 180
62 99 179
61 98 179
62 99 179
61 98 178
62 99 181
62 99 180
62 99 180
62 99 179
62 99 180
62 99 178
62 99 179
62 99 180
63 100 181
62 99 179
62 99 178
61 98 175
62 99 176
62 99 179
62 99 174
62 99 178
62 99 176
62 99 179
62 99 177
62 99 178
62 99 177
62 99 181
61 98 177
61 98 176
62 98 173
61 98 172
62 99 178
62 99 180
62 99 180
62 99 178
62 99 173
62 99 179
62 99 177
62 99 179
61 98 175
62 99 177
63 100 179
62 99 177
62 99 174
62 99 178
62 99 173
61 98 172
63 99 173
62 99 174
62 99 174
61 98 174
62 99 177
61 98 174
62 98 176
62 99 174
62 98 173
62 98 174
61 97 173
61 97 168
62 98 172
61 97 172
62 99 174
62 98 173
60 95 168
61 96 168
62 97 169
60 94 159
69 96 145
79 97 127
93 101 100
98 100 80
105 104 65
95 97 65
108 108 74
111 111 75
93 96 67
112 113 77
106 106 70
106 106 72
81 86 64
95 98 69
107 107 74
97 99 71
100 102 73
116 116 80
93 96 70
119 120 85
122 122 84
113 114 80
113 114 80
119 119 82
125 125 87
121 122 85
119 121 88
123 123 86
122 123 85
122 124 86
118 120 85
123 123 83
135 134 89
133 133 89
135 134 91
144 144 97
138 137 91
146 144 93
131 131 89
145 143 94
145 143 94
140 139 93
149 147 94
148 146 94
150 148 95
149 147 95
149 148 97
152 150 96
150 149 96
150 149 98
156 153 97
158 155 97
158 155 95
161 157 100
154 152 97
160 157 101
162 159 103
165 160 102
167 163 103
167 163 103
167 163 106
166 162 100
172 168 105
165 162 102
167 164 101
164 161 103
170 165 102
168 164 100
169 165 103
168 164 100
174 169 107
168 164 102
169 164 101
173 167 106
167 163 105
169 164 100
174 169 106
170 164 102
173 168 102
174 169 103
173 168 101
173 168 104
173 167 100
177 171 105
174 169 104
173 168 104
174 168 103
174 168 98
176 170 106
176 169 103
173 168 101
174 168 102
173 168 99
169 165 98
169 165 100
169 164 99
170 164 98
175 169 103
172 166 99
175 169 104
173 167 99
169 164 97
168 162 97
172 166 99
171 165 101
168 162 97
167 161 97
172 166 98
170 163 97
169 162 98
166 160 91
173 166 99
166 162 95
167 161 90
165 159 95
167 161 92
158 153 90
168 161 95
167 161 97
164 158 89
164 157 94
161 154 88
167 161 94
159 153 85
161 154 90
164 157 90
157 151 85
158 152 85
157 151 80
160 153 86
157 151 83
155 148 84
150 144 80
154 148 80
157 150 82
152 146 75
138 133 70
148 141 79
144 138 69
152 147 71
145 139 72
146 140 75
138 135 66
143 141 65
155 157 61
142 147 49
154 160 52
152 161 51
158 166 44
165 179 44
158 174 34
167 187 19
168 189 19
171 194 0
172 196 0
171 196 0
173 196 0
174 197 0
172 195 0
173 196 0
172 194 0
171 194 0
175 198 0
173 196 0
172 196 0
172 196 0
173 196 0
172 195 0
172 196 0
172 197 0
174 197 0
172 195 0
172 196 0
173 196 0
174 197 0
173 197 0
175 198 0
174 197 0
173 196 0
172 196 0
174 197 0
174 197 0
172 195 0
172 196 0
175 197 0
174 197 0
170 194 0
173 197 0
173 197 0
174 197 0
174 197 0
171 194 0
172 195 0
170 194 0
172 195 0
172 196 0
172 195 0
173 196 0
172 196 0
169 192 0
172 196 0
173 196 0
173 197 0
171 195 0
175 198 0
172 195 0
171 195 0
172 196 0
172 196 0
171 195 0
171 195 0
171 194 0
173 197 0
173 196 0
168 192 0
172 195 0
172 196 0
174 197 0
170 194 0
171 195 0
170 194 0
172 195 0
171 195 0
172 196 0
170 194 0
173 196 0
171 194 0
171 194 0
172 196 0
171 195 0
172 195 0
171 194 0
172 196 0
170 194 0
173 196 0
170 193 0
173 197 0
169 192 0
173 195 0
172 195 0
171 195 0
172 196 0
170 193 0
173 196 0
171 194 0
168 191 0
173 196 0
170 192 0
170 194 0
171 194 0
167 191 0
170 193 0
167 190 40
149 173 86
113 139 135
70 104 167
62 98 166
63 99 173
63 99 173
63 99 173
61 98 170
62 98 171
62 99 176
62 99 177
62 99 173
62 99 174
62 99 173
62 99 174
62 98 171
63 99 177
62 99 178
62 99 177
62 99 178
61 98 175
63 100 178
62 98 176
61 98 175
62 99 177
62 99 178
62 99 177
62 99 179
62 99 179
62 99 178
62 99 177
62 99 180
62 99 179
62 99 180
62 99 177
63 100 178
61 99 179
62 99 181
62 99 181
61 99 177
62 99 180
62 99 181
63 99 179
62 99 181
63 100 179
62 99 180
62 99 179
62 99 181
62 99 179
61 99 179
62 99 181
61 99 179
61 98 175
63 100 180
62 99 181
62 99 177
62 99 179
62 99 180
62 99 181
62 99 181
62 99 179
63 100 179
62 99 181
62 99 179
61 99 179
62 99 180
62 99 181
62 99 180
63 100 181
62 99 178
62 99 180
62 99 181
62 99 179
62 99 181
62 99 181
62 99 178
61 99 181
62 99 176
62 99 179
62 99 181
62 99 179
62 99 180
63 100 180
62 99 178
61 98 180
63 100 180
62 99 179
62 99 181
62 99 180
62 99 180
62 99 178
62 99 177
62 99 176
62 99 181
62 99 179
62 99 181
62 99 178
62 99 177
61 98 176
61 99 177
62 99 179
61 98 176
62 99 177
62 99 178
62 99 175
62 99 178
62 99 179
62 99 179
61 99 178
62 99 179
62 99 180
62 99 177
62 99 179
62 99 178
61 99 177
61 98 173
62 99 178
62 99 178
62 99 177
62 99 174
60 97 173
62 99 179
62 99 177
62 99 176
62 98 175
62 99 177
62 99 176
62 99 172
62 99 176
61 98 173
62 99 176
62 99 174
61 97 170
63 99 174
61 97 174
62 98 172
62 99 174
62 98 173
62 98 172
61 97 169
61 97 168
62 97 169
61 97 171
61 97 170
61 96 168
59 94 154
60 94 163
64 94 151
71 94 142
96 104 105
100 105 97
89 93 72
94 95 63
86 90 63
95 97 67
99 101 71
101 104 74
94 95 64
102 104 73
97 99 70
102 105 75
96 99 72
102 104 73
105 105 75
106 108 77
111 112 78
107 109 77
109 110 75
110 112 80
113 114 81
106 108 76
101 103 72
108 110 76
131 131 90
133 132 90
120 121 86
135 134 90
118 119 83
130 130 90
132 133 90
143 142 94
142 141 94
139 138 93
140 138 90
134 133 88
149 146 96
148 147 95
145 143 95
151 149 97
146 144 93
152 149 97
149 147 95
152 150 97
145 144 95
150 148 95
152 150 98
153 150 98
158 155 101
160 157 101
162 159 103
156 154 99
160 157 101
162 159 99
163 159 99
163 159 101
166 161 102
171 166 107
159 156 98
171 166 107
170 165 104
170 166 104
164 161 101
166 162 101
171 166 103
169 164 100
171 166 104
172 167 100
169 164 98
172 167 103
171 167 102
171 166 102
175 169 107
173 168 105
170 165 101
176 170 105
175 169 101
176 170 105
172 166 103
175 170 104
173 168 102
175 169 104
174 169 104
168 164 98
174 169 106
170 165 100
173 168 104
173 168 100
175 169 101
175 169 103
175 169 104
173 167 100
171 166 98
169 163 97
173 167 99
169 164 99
172 167 103
171 165 99
169 164 98
172 166 103
170 165 97
170 165 97
165 159 97
171 165 99
168 163 94
171 165 96
167 161 95
172 165 95
170 164 95
167 162 93
159 155 92
166 161 90
162 156 87
168 162 95
166 159 88
168 161 95
158 153 93
162 156 91
161 154 87
162 156 90
165 158 91
158 152 84
158 151 87
159 153 84
160 153 88
161 154 86
155 149 81
155 148 84
152 146 77
158 151 85
156 150 84
154 148 78
153 147 74
144 139 75
156 150 76
146 141 79
146 139 72
150 144 72
147 141 73
144 139 70
139 134 62
142 140 60
145 146 57
149 152 61
149 154 49
148 158 37
159 170 37
159 174 34
167 183 37
165 182 30
166 186 19
171 194 0
173 197 0
171 195 0
170 194 0
171 195 0
172 196 0
173 197 0
174 198 0
174 198 0
169 193 0
173 196 0
172 195 0
171 195 0
173 197 0
173 196 0
171 195 0
171 195 0
171 195 0
173 196 0
173 195 0
172 195 0
174 197 0
172 196 0
173 197 0
171 194 0
171 194 0
169 192 0
174 197 0
173 197 0
173 197 0
170 194 0
171 195 0
172 195 0
173 197 0
172 196 0
172 195 0
173 197 0
170 195 0
171 195 0
168 193 0
171 194 0
172 196 0
174 197 0
173 197 0
171 195 0
171 194 0
173 196 0
173 196 0
173 196 0
174 197 0
172 195 0
173 196 0
172 195 0
172 196 0
173 196 0
173 197 0
171 194 0
173 197 0
173 196 0
172 196 0
174 197 0
172 195 0
171 194 0
173 195 0
172 197 0
171 195 0
171 195 0
172 195 0
169 193 0
173 196 0
170 193 0
174 197 0
172 196 0
172 196 0
173 196 0
172 196 0
171 195 0
172 196 0
173 196 0
169 192 0
171 195 0
172 196 0
170 193 0
171 194 0
170 194 0
172 195 0
173 195 0
173 196 0
172 196 0
172 195 0
169 193 0
170 193 0
171 193 0
172 195 0
172 196 0
172 195 0
172 195 0
173 197 0
170 192 18
145 170 90
130 156 107
82 113 160
62 99 167
63 99 171
62 99 174
63 99 170
62 99 174
62 99 176
62 98 175
61 98 169
62 99 173
61 98 171
62 99 179
62 99 177
62 99 176
62 99 175
62 99 172
62 99 174
63 99 177
61 99 180
61 98 176
62 99 175
62 99 176
62 99 175
63 99 178
61 98 175
62 99 179
62 99 179
63 100 179
62 99 179
62 99 178
62 99 179
62 99 180
63 99 179
62 99 178
62 99 180
62 99 180
62 99 177
62 99 179
62 99 179
62 99 178
62 99 177
62 99 181
61 99 180
61 99 179
62 99 180
61 99 179
62 99 181
62 99 180
63 99 180
62 99 181
62 99 179
62 99 179
62 99 179
62 99 180
62 99 179
62 99 178
61 99 179
62 99 179
63 100 180
63 100 178
62 99 181
61 99 180
62 99 179
63 100 180
62 99 178
61 99 179
62 99 179
62 99 180
62 99 179
62 99 180
62 99 179
62 99 180
62 99 179
62 99 178
62 99 179
62 99 178
63 99 180
62 99 180
62 99 178
62 99 181
62 99 177
62 99 179
62 99 179
62 99 179
62 99 178
62 99 178
62 99 181
61 98 177
62 99 181
62 99 181
62 99 178
62 99 180
62 99 179
63 100 180
62 99 177
61 98 178
61 98 177
62 99 180
62 99 176
61 98 176
62 99 176
62 99 180
62 99 179
62 99 178
62 99 176
62 99 175
62 99 178
62 99 177
62 99 178
62 99 177
62 99 177
63 100 181
61 98 173
61 98 174
61 98 177
62 99 176
61 98 173
61 98 173
62 99 180
62 99 175
62 99 174
62 98 172
62 99 176
62 99 176
62 98 175
62 99 175
62 99 173
61 98 173
62 98 172
62 99 175
61 98 173
62 98 173
62 98 172
62 98 171
63 99 174
62 99 175
62 99 171
62 99 174
62 98 171
61 96 166
62 98 172
62 98 172
61 97 166
62 98 172
61 97 167
61 96 168
64 97 162
63 95 158
78 99 134
83 94 115
84 90 78
101 102 71
98 98 67
97 100 70
90 92 65
84 86 61
94 96 68
101 102 71
93 95 68
97 99 69
109 110 75
100 101 71
92 95 69
103 105 74
102 104 73
105 108 77
108 111 81
109 111 77
110 112 77
120 120 83
118 119 84
117 119 85
120 121 81
116 117 81
116 118 81
127 127 86
126 126 84
127 127 88
141 140 89
129 130 89
130 130 90
141 140 94
129 129 85
144 143 94
144 143 94
138 137 89
146 145 95
138 137 89
141 140 91
144 143 93
153 150 98
150 149 98
157 154 101
158 154 100
153 149 93
152 150 97
155 152 99
152 149 96
151 149 95
155 153 98
160 156 95
162 158 101
165 160 102
166 162 103
164 160 98
165 160 102
164 159 100
163 160 99
166 161 100
170 165 103
168 164 98
174 168 104
167 163 98
169 164 101
171 166 106
172 167 103
171 166 101
175 169 105
169 165 101
170 165 103
170 166 103
173 167 100
176 169 104
172 167 101
174 168 102
174 169 101
173 168 100
176 170 107
171 166 98
172 166 97
174 168 103
174 169 103
168 163 95
175 168 97
179 172 103
175 169 99
172 167 102
175 170 105
174 168 101
172 167 98
175 169 106
175 168 100
172 166 97
170 164 95
172 167 101
173 166 101
172 166 100
174 168 103
171 165 97
171 164 95
170 164 97
173 166 98
169 163 99
167 162 95
166 159 92
168 162 97
168 162 93
168 162 93
167 161 96
166 160 90
169 163 93
168 161 95
164 157 90
164 159 91
163 156 93
162 155 82
162 156 88
166 160 92
165 159 92
157 151 82
156 150 85
169 161 94
165 159 87
158 152 84
158 152 80
157 151 82
155 149 79
158 152 87
152 147 69
150 144 74
156 149 78
145 139 74
153 147 79
153 147 75
154 147 79
141 136 69
147 142 70
135 131 60
142 139 63
136 137 57
150 150 64
142 144 51
144 150 51
155 163 54
161 175 36
166 181 34
159 177 11
170 188 39
166 187 16
168 188 16
173 196 0
170 194 0
173 196 0
172 196 0
174 198 0
173 196 0
171 195 0
173 195 0
171 194 0
172 195 0
175 198 0
174 196 0
173 197 0
173 197 0
172 196 0
170 194 0
173 196 0
174 197 0
174 197 0
174 197 0
171 194 0
171 194 0
172 196 0
173 197 0
173 196 0
174 197 0
173 195 0
173 197 0
173 196 0
174 197 0
173 196 0
171 195 0
172 195 0
170 194 0
171 195 0
173 197 0
173 196 0
172 196 0
172 196 0
172 195 0
173 196 0
172 196 0
173 196 0
170 194 0
171 195 0
169 192 0
172 196 0
168 192 0
173 196 0
171 193 0
172 196 0
174 197 0
171 194 0
173 197 0
171 193 0
171 194 0
172 195 0
173 196 0
171 194 0
169 192 0
169 192 0
173 197 0
173 196 0
171 194 0
169 193 0
172 196 0
171 195 0
169 193 0
169 193 0
174 197 0
169 192 0
170 194 0
171 195 0
174 197 0
171 195 0
173 196 0
170 193 0
173 196 0
174 197 0
173 196 0
172 196 0
174 197 0
172 194 0
170 194 0
172 196 0
173 196 0
171 193 0
173 197 0
171 194 0
174 198 0
172 196 0
170 193 0
170 193 0
171 195 0
172 195 0
170 193 0
172 195 0
155 178 57
135 160 97
99 127 141
62 98 164
62 98 162
61 98 167
62 99 170
63 100 172
62 99 175
62 99 173
62 99 175
62 99 174
62 99 175
63 99 176
62 98 172
62 98 172
62 99 175
63 99 177
62 99 178
61 98 175
63 99 176
62 99 174
62 99 177
62 99 179
62 99 175
62 99 178
62 99 174
62 100 181
62 99 177
62 99 177
62 99 179
61 98 176
62 99 177
62 99 181
62 99 179
62 99 178
62 99 178
62 99 180
62 99 180
62 99 179
62 99 180
61 99 177
62 99 180
62 99 178
63 99 178
62 99 180
63 100 181
62 99 179
62 99 180
62 99 180
62 99 180
62 99 181
62 99 181
62 99 179
62 99 180
62 99 178
62 99 178
62 99 179
62 99 180
62 99 179
62 99 178
62 99 181
62 99 178
62 99 181
61 98 179
62 99 180
62 99 181
62 99 179
62 99 180
62 99 179
63 100 181
62 99 179
62 99 181
62 99 179
62 99 178
62 99 178
62 99 175
62 99 177
62 99 180
61 99 179
62 99 180
61 98 178
62 99 181
62 99 181
61 98 176
61 99 178
62 99 180
62 99 181
62 100 181
62 99 179
62 99 179
63 99 177
62 99 180
62 99 179
62 99 179
62 99 174
63 100 181
62 99 179
62 99 178
62 99 176
63 99 178
61 98 178
61 99 178
62 99 178
62 99 179
62 99 176
62 99 178
62 99 178
62 99 179
62 99 176
62 99 179
62 98 174
62 99 175
62 99 177
63 100 178
63 100 179
62 99 180
62 99 176
62 99 175
61 99 179
61 98 171
62 99 176
62 98 174
62 99 177
61 97 173
62 99 176
62 99 176
62 99 177
62 99 170
62 98 171
62 98 175
62 98 170
63 100 179
62 98 170
62 98 171
62 98 172
62 99 175
61 97 170
60 96 164
61 98 174
62 98 173
61 97 166
62 98 171
62 99 170
61 96 164
61 97 170
61 97 169
61 96 165
60 94 163
60 93 158
61 96 167
66 96 153
76 94 126
86 95 97
98 101 81
84 87 60
95 96 64
90 91 62
90 92 62
94 95 63
88 91 66
90 93 66
95 98 72
87 90 64
99 102 74
94 98 70
111 112 77
102 104 72
104 106 76
99 102 75
114 116 80
121 122 86
108 110 77
104 107 75
119 121 83
108 110 79
128 128 88
119 121 87
114 115 77
127 127 88
129 128 86
122 123 85
132 131 88
131 132 91
128 129 90
144 143 95
132 133 88
139 138 93
135 135 91
141 140 90
155 152 99
154 151 96
152 149 100
141 140 88
149 147 91
145 143 94
155 152 97
142 141 91
150 149 96
157 154 101
160 157 101
166 161 101
159 155 95
166 161 101
159 156 100
160 156 101
163 159 93
163 160 101
163 158 99
161 157 95
160 156 98
163 159 98
165 161 101
168 164 98
167 162 99
166 162 101
169 165 98
162 158 96
169 164 102
167 163 98
169 164 101
172 167 103
170 166 102
171 167 104
175 169 103
169 164 96
175 170 106
166 162 97
171 166 93
174 168 99
172 166 102
170 165 104
170 165 98
175 168 101
174 169 103
172 167 97
172 167 98
172 167 97
174 168 101
172 167 99
171 166 97
174 168 100
172 167 99
174 169 106
170 165 97
174 169 100
170 165 99
169 164 95
171 166 99
170 164 94
171 165 95
173 167 100
165 159 93
170 163 95
167 161 95
169 163 91
170 164 96
167 161 92
170 163 96
165 159 94
167 161 93
175 167 101
167 161 90
164 157 89
161 156 90
160 153 89
167 161 94
164 157 90
153 149 78
158 153 82
157 150 84
164 157 90
156 149 85
160 153 85
157 150 80
158 151 84
154 148 85
158 153 80
159 153 81
158 152 82
151 146 77
154 148 77
160 154 81
158 151 85
148 142 70
146 141 75
153 147 76
148 143 69
146 139 67
154 147 78
132 127 65
149 145 67
148 147 66
148 147 58
143 145 51
148 156 48
153 165 37
153 164 41
161 177 36
159 174 34
160 179 25
167 187 19
169 189 16
172 196 0
173 196 0
172 195 0
173 197 0
172 196 0
171 195 0
172 196 0
173 197 0
171 195 0
172 196 0
172 197 0
172 196 0
169 192 0
170 194 0
172 196 0
176 198 0
174 197 0
172 195 0
170 194 0
173 197 0
172 196 0
170 194 0
175 197 0
175 197 0
171 194 0
171 194 0
174 198 0
175 198 0
175 197 0
168 192 0
173 196 0
172 195 0
172 196 0
174 197 0
171 195 0
174 197 0
175 196 0
175 198 0
172 195 0
171 194 0
171 194 0
171 195 0
173 197 0
172 196 0
174 198 0
172 195 0
171 194 0
172 196 0
173 197 0
172 196 0
170 194 0
174 197 0
170 194 0
171 194 0
171 195 0
174 196 0
173 196 0
169 192 0
170 193 0
168 191 0
169 193 0
171 195 0
173 197 0
170 193 0
169 192 0
173 196 0
173 196 0
171 195 0
172 196 0
171 194 0
174 198 0
173 195 0
171 193 0
169 192 0
171 195 0
172 195 0
170 194 0
175 198 0
172 195 0
173 196 0
170 194 0
168 192 0
170 193 0
173 197 0
171 194 0
170 194 0
173 197 0
172 195 0
169 193 0
172 196 0
173 196 0
171 194 0
174 197 0
169 191 0
171 194 0
172 195 0
172 195 0
149 174 90
103 131 137
66 101 164
62 99 166
62 98 165
63 99 171
62 98 169
62 98 168
63 99 175
63 100 175
63 99 176
62 99 172
63 99 175
62 99 174
62 99 172
62 99 174
63 100 179
63 100 176
62 99 173
62 99 177
62 99 175
62 98 172
62 99 178
62 99 176
62 99 176
61 98 174
62 99 179
62 98 172
63 100 178
62 99 178
62 99 178
62 99 177
62 99 179
62 99 179
62 99 179
62 99 176
62 99 181
62 99 179
63 99 178
62 99 180
62 99 178
61 99 178
62 99 178
62 99 180
62 99 177
62 99 180
62 99 178
62 99 180
61 98 178
62 99 178
62 99 179
62 99 180
62 99 180
62 99 179
62 99 180
62 99 178
63 100 180
62 99 179
61 99 179
61 98 180
62 99 180
62 99 180
62 99 181
62 99 178
62 99 181
62 99 181
62 99 180
62 99 180
62 99 179
62 99 180
62 99 179
62 99 177
61 99 181
62 99 177
62 99 181
62 99 180
62 99 178
62 99 180
62 99 180
62 99 181
61 99 180
62 99 174
62 99 179
62 99 179
62 99 181
62 99 179
63 100 181
62 99 180
61 98 176
62 99 177
62 99 181
63 99 177
62 99 176
61 98 175
62 99 178
61 98 175
62 99 176
62 99 178
63 99 179
62 99 176
62 99 180
62 99 176
62 99 178
62 99 179
62 99 178
62 99 177
61 98 173
62 99 177
62 99 176
62 99 178
62 99 177
62 99 177
61 98 178
61 99 177
62 98 174
62 99 178
62 99 176
62 99 176
62 99 176
61 98 175
62 99 178
62 99 177
62 99 178
62 99 173
62 99 178
62 99 177
62 99 179
63 100 179
62 99 176
62 99 175
62 98 172
62 99 176
61 97 173
62 99 174
62 98 173
62 99 176
62 99 175
62 99 171
62 99 173
61 97 170
62 98 171
61 97 173
63 99 170
61 97 169
62 98 171
62 97 170
61 98 171
60 95 165
62 97 168
61 95 166
61 96 159
60 93 158
76 97 138
58 79 112
98 104 102
93 96 74
87 90 62
90 92 64
98 99 66
104 104 68
96 99 69
90 93 67
82 86 62
96 98 69
94 97 67
100 102 73
98 100 69
95 99 73
110 112 79
108 110 77
120 120 83
122 122 85
109 110 77
110 112 78
108 111 80
115 116 79
114 116 80
119 120 84
116 118 81
123 123 81
116 117 81
134 132 88
126 127 89
140 139 92
136 135 92
139 138 95
138 137 91
144 142 92
142 141 95
147 144 94
138 138 90
146 143 97
141 139 91
150 147 95
147 145 90
148 145 94
157 154 97
156 153 98
157 154 98
148 146 92
159 156 98
150 148 94
156 154 98
160 156 99
157 154 99
155 153 95
165 161 101
160 156 97
161 158 98
165 161 98
169 164 104
164 159 98
162 159 101
169 165 102
165 161 99
166 161 99
171 165 102
172 166 103
173 167 100
166 162 100
168 163 99
172 167 102
175 169 102
167 163 102
175 170 103
168 164 100
172 167 102
171 166 98
172 167 98
175 169 105
172 166 99
174 168 102
177 170 104
170 164 98
176 170 108
173 167 97
176 170 103
179 172 106
173 167 104
171 165 99
176 169 100
171 166 98
175 169 100
175 168 98
173 167 97
171 165 95
177 170 103
173 165 96
167 162 95
173 167 98
171 165 98
174 167 103
172 166 97
169 163 95
171 164 98
160 155 85
166 160 92
167 161 97
172 165 97
168 161 97
173 166 102
165 159 90
169 163 95
165 159 92
170 163 99
166 159 90
168 162 89
163 157 86
162 155 90
162 156 87
164 158 90
165 158 88
165 158 88
158 152 79
157 151 86
157 151 84
166 159 91
162 156 86
153 148 79
152 146 82
159 152 84
156 149 81
150 144 76
149 144 75
156 150 82
150 144 79
142 138 70
143 138 65
149 143 75
139 133 64
147 140 69
147 141 71
148 147 60
137 137 57
157 164 53
153 160 49
154 165 39
147 158 39
165 180 39
162 180 25
164 182 19
167 188 22
170 191 11
173 197 0
174 197 0
174 197 0
174 197 0
173 196 0
169 192 0
172 195 0
174 197 0
173 197 0
174 197 0
171 195 0
173 196 0
174 197 0
172 196 0
174 197 0
171 195 0
172 195 0
172 194 0
172 195 0
172 195 0
170 193 0
172 195 0
171 195 0
174 197 0
171 195 0
172 195 0
171 195 0
175 198 0
170 193 0
170 194 0
172 196 0
172 195 0
169 192 0
173 197 0
174 197 0
174 197 0
170 194 0
172 196 0
169 192 0
172 196 0
172 196 0
171 195 0
171 195 0
174 196 0
172 195 0
171 195 0
172 196 0
171 195 0
172 195 0
173 196 0
173 197 0
171 194 0
173 196 0
174 196 0
171 194 0
174 197 0
172 194 0
171 195 0
172 196 0
169 192 0
172 196 0
172 196 0
169 192 0
171 194 0
171 195 0
172 195 0
171 194 0
173 196 0
174 196 0
171 194 0
174 196 0
173 196 0
171 195 0
172 196 0
174 197 0
172 195 0
174 197 0
173 197 0
172 195 0
171 195 0
170 193 0
172 194 0
173 197 0
172 196 0
171 195 0
170 192 0
168 192 0
173 195 0
172 195 0
172 195 0
171 194 0
171 194 0
173 196 0
171 194 0
173 196 0
170 192 18
152 176 74
130 155 113
82 114 166
63 100 174
62 99 172
62 99 166
62 99 170
62 99 169
62 99 176
62 99 171
62 98 173
62 99 173
63 99 174
62 99 174
62 99 173
63 99 177
62 99 174
62 99 176
62 99 175
63 99 176
63 100 177
63 99 177
62 99 175
61 98 176
62 99 172
62 99 178
62 99 174
62 99 176
62 99 175
62 99 175
62 99 176
62 99 177
62 99 178
62 99 179
62 99 180
62 99 177
62 99 179
62 99 178
62 99 179
62 99 180
62 99 178
62 99 180
61 99 178
62 99 180
62 99 178
63 100 179
62 99 179
62 99 181
61 99 179
62 99 179
61 98 179
62 99 179
62 99 177
62 99 181
61 98 178
62 99 178
61 99 178
62 99 178
62 99 180
62 98 175
62 99 179
62 99 180
62 99 179
62 99 180
61 99 178
62 99 181
62 99 179
62 99 180
62 99 180
62 99 178
62 99 181
62 99 180
62 99 179
62 98 176
62 99 179
63 100 179
62 99 179
62 99 178
62 99 181
62 99 178
62 99 179
62 99 180
63 100 181
62 99 178
62 99 179
62 99 178
62 99 178
61 99 178
62 99 178
62 99 180
62 99 179
62 99 178
62 99 179
61 98 177
62 99 176
63 100 178
62 99 178
62 99 179
62 99 177
62 99 179
62 99 181
62 99 178
62 98 174
62 99 173
63 99 179
62 99 179
62 99 177
62 99 175
62 99 178
63 99 179
62 99 177
62 99 176
61 98 174
62 99 177
61 98 176
62 99 176
62 98 175
62 99 180
62 99 178
62 99 176
61 98 172
62 99 174
62 98 172
62 99 177
62 99 175
62 99 176
62 98 173
62 99 175
61 98 176
62 99 178
62 98 168
62 98 172
62 98 170
61 98 172
62 98 171
63 99 171
62 98 173
62 98 172
62 99 172
61 98 175
61 97 167
60 96 168
62 98 169
62 98 174
62 97 168
61 97 170
61 97 165
61 96 165
60 96 166
61 97 169
61 96 167
60 95 159
61 96 168
66 96 154
82 99 135
78 89 102
87 91 77
84 87 61
93 94 65
80 85 62
83 86 62
96 98 69
82 85 62
94 95 66
85 88 63
79 82 57
96 100 74
99 102 74
97 99 71
90 93 69
102 106 76
111 113 78
106 108 76
109 112 79
116 117 82
116 117 80
119 120 81
109 111 79
110 112 77
120 121 85
116 118 84
133 132 89
129 130 90
133 133 92
126 127 87
126 126 84
130 129 86
136 135 90
143 142 94
131 131 86
152 149 96
147 145 95
137 137 88
144 143 93
141 140 87
152 149 97
142 141 88
157 153 95
145 143 94
147 146 96
153 150 93
163 159 99
150 149 94
154 151 95
158 155 97
158 155 94
156 154 98
159 155 93
161 157 100
160 157 102
165 161 97
167 163 98
170 165 103
162 158 91
163 159 97
170 165 103
168 163 98
169 164 102
164 160 101
168 163 97
170 165 102
172 166 99
171 166 100
174 168 98
171 165 102
174 169 101
172 167 101
173 168 100
175 169 102
174 168 102
173 166 98
173 167 101
173 167 101
172 166 100
174 168 99
173 168 100
174 167 99
172 166 99
174 167 99
177 170 102
175 168 100
175 168 101
176 170 102
171 165 99
170 164 97
172 166 96
173 166 98
172 167 99
171 165 99
172 166 97
170 164 98
176 170 103
177 169 101
173 166 97
173 167 103
172 166 98
170 164 96
164 158 90
170 164 93
165 159 90
173 166 98
170 164 92
161 155 87
165 159 90
164 157 89
164 158 90
161 155 85
162 157 87
169 162 97
167 161 89
163 157 85
162 156 84
166 159 90
162 155 84
153 147 80
159 153 87
161 155 83
163 157 85
158 151 84
156 149 81
154 148 81
152 146 77
157 151 81
151 146 70
163 156 85
149 143 72
154 147 74
158 151 76
147 141 74
141 136 68
143 137 69
144 138 69
148 144 67
149 148 61
134 135 54
152 157 54
144 151 51
154 162 49
155 165 45
160 175 34
162 179 32
159 174 25
169 187 11
169 190 0
175 198 0
172 196 0
174 197 0
172 195 0
171 195 0
174 197 0
174 197 0
175 198 0
173 196 0
173 196 0
172 195 0
172 195 0
171 194 0
172 196 0
173 197 0
173 196 0
173 195 0
173 197 0
171 195 0
174 197 0
172 195 0
171 195 0
174 197 0
173 197 0
171 194 0
173 196 0
171 195 0
173 197 0
175 198 0
171 195 0
172 195 0
172 195 0
171 195 0
173 196 0
170 194 0
176 198 0
174 197 0
172 196 0
173 196 0
175 198 0
173 196 0
172 196 0
170 194 0
172 195 0
172 195 0
172 195 0
173 196 0
172 195 0
173 196 0
173 196 0
173 195 0
172 196 0
173 196 0
173 196 0
170 194 0
173 197 0
174 197 0
173 197 0
175 198 0
169 192 0
172 196 0
174 198 0
172 194 0
171 194 0
173 196 0
174 197 0
171 194 0
174 196 0
171 194 0
171 194 0
174 196 0
173 196 0
172 195 0
174 198 0
170 194 0
171 194 0
169 193 0
173 195 0
172 195 0
169 192 0
171 194 0
173 197 0
171 194 0
173 197 0
170 194 0
173 196 0
172 195 0
174 197 0
172 194 0
172 195 0
173 197 0
173 196 0
170 193 0
170 193 0
171 194 0
165 189 40
139 163 105
110 137 135
63 99 162
62 98 167
62 99 173
62 98 169
62 99 173
62 98 173
62 99 175
61 98 170
62 98 172
62 98 166
62 99 172
62 99 176
62 99 171
63 99 175
62 99 173
62 99 176
62 99 179
62 98 171
62 99 174
61 98 173
62 99 179
62 99 178
62 99 176
61 98 174
63 99 177
62 99 178
62 99 172
62 99 179
62 99 176
62 99 180
62 99 176
62 99 178
62 99 179
62 99 178
62 99 181
62 99 180
62 99 176
63 100 180
62 99 178
62 99 178
61 99 179
62 99 177
61 99 181
62 99 178
62 99 176
62 99 180
62 99 177
62 99 180
62 99 179
63 100 176
62 99 180
62 99 180
62 99 180
62 99 178
62 99 179
62 99 181
62 99 180
63 99 177
63 100 181
62 99 180
62 99 179
62 99 177
62 99 179
62 99 180
62 99 180
62 99 178
62 99 181
62 99 179
62 99 175
62 99 179
62 99 176
62 99 181
62 99 178
61 99 179
63 100 180
62 99 180
63 99 180
62 99 180
61 98 177
62 99 179
63 100 181
62 99 179
62 99 178
62 99 177
62 99 178
62 99 176
62 99 178
62 99 179
62 99 180
62 99 179
61 99 179
62 99 178
61 99 180
62 99 180
62 99 181
62 99 179
62 99 180
62 99 177
61 99 178
62 99 177
62 99 180
62 99 176
62 99 178
62 99 176
62 99 178
62 99 179
62 99 176
62 99 178
61 98 174
62 99 176
62 99 178
62 99 174
61 98 177
63 100 181
62 99 175
62 99 176
63 99 174
62 99 177
62 99 179
62 99 176
63 99 176
63 99 176
62 99 177
62 99 176
62 99 178
61 98 171
61 97 171
62 98 174
62 99 174
61 98 176
62 99 175
62 98 174
62 99 171
62 99 177
62 98 172
62 99 173
62 98 170
62 99 172
61 97 172
62 98 173
61 97 166
61 97 167
61 97 170
60 95 159
61 96 162
61 97 167
60 95 166
61 96 166
61 98 172
59 94 158
61 96 166
63 96 160
60 90 145
81 97 128
84 91 91
85 88 68
89 90 60
89 92 64
79 81 54
95 97 68
71 76 56
69 75 56
89 93 68
107 108 76
86 90 64
93 96 70
98 101 74
88 91 65
103 105 73
105 107 77
100 103 74
104 108 77
107 110 77
110 112 78
112 114 76
112 114 79
112 112 76
125 125 85
112 114 79
129 129 85
120 121 82
124 124 80
140 138 87
124 126 84
145 143 92
128 128 88
137 136 89
133 132 85
141 140 93
132 132 83
144 142 92
148 146 97
149 147 92
142 140 90
147 145 92
143 141 93
148 146 94
147 145 91
156 153 98
156 152 96
151 148 92
159 155 95
161 157 96
161 157 97
160 157 98
157 153 96
161 156 95
163 158 97
162 158 93
161 157 102
160 156 94
158 155 88
162 158 99
166 162 101
170 165 105
172 167 106
168 163 102
170 164 99
167 162 97
166 162 98
169 164 99
167 163 97
172 166 99
173 167 101
173 167 101
171 166 96
176 169 101
168 164 93
170 165 94
173 167 100
174 167 98
171 166 98
173 167 99
170 165 99
174 168 98
173 167 98
171 165 101
173 167 99
174 167 99
172 166 100
166 162 94
174 168 98
169 163 99
173 167 101
168 162 97
171 165 98
172 166 97
169 164 95
171 166 98
176 168 103
172 166 93
174 167 99
168 162 97
169 164 99
171 165 92
168 161 95
167 162 90
167 161 89
172 166 97
165 159 95
168 161 91
167 160 89
161 156 90
166 159 88
160 155 81
164 158 90
164 157 90
166 160 87
157 151 84
165 159 93
160 154 87
160 153 83
152 147 77
160 154 84
160 154 82
162 155 84
156 150 82
153 148 80
157 151 79
145 139 72
159 153 76
156 150 78
157 151 81
152 145 78
151 144 78
143 138 68
153 147 74
153 147 74
149 142 74
137 132 63
148 146 57
149 146 68
143 145 57
147 150 59
151 158 54
150 162 37
157 167 45
155 170 34
163 178 36
161 178 32
165 185 11
167 190 0
170 194 0
175 198 0
172 196 0
174 197 0
171 195 0
171 194 0
174 197 0
170 194 0
173 197 0
173 196 0
174 197 0
170 193 0
173 195 0
174 197 0
174 197 0
174 197 0
171 195 0
173 196 0
174 197 0
170 194 0
173 196 0
171 194 0
170 194 0
172 195 0
173 196 0
172 195 0
171 194 0
171 195 0
173 196 0
173 197 0
172 196 0
171 194 0
173 196 0
172 195 0
174 197 0
175 198 0
172 195 0
173 196 0
171 195 0
171 194 0
171 195 0
173 196 0
172 196 0
167 191 0
172 196 0
174 197 0
171 195 0
169 193 0
173 197 0
170 194 0
173 196 0
171 195 0
174 198 0
168 192 0
171 193 0
169 193 0
170 193 0
168 192 0
172 196 0
170 193 0
174 197 0
170 193 0
172 195 0
173 196 0
172 196 0
173 196 0
171 195 0
171 194 0
172 195 0
169 194 0
171 194 0
169 192 0
169 193 0
170 193 0
175 198 0
174 197 0
171 195 0
173 196 0
171 195 0
169 193 0
170 194 0
172 194 0
170 194 0
171 195 0
169 192 0
172 195 0
169 193 0
170 193 0
170 193 0
171 194 0
169 192 0
171 195 0
173 196 0
171 195 0
166 190 40
153 176 76
127 153 128
78 110 162
63 99 166
62 99 167
62 98 169
63 99 169
62 98 168
62 99 174
62 98 170
62 99 171
62 98 170
62 99 175
62 99 170
62 99 176
62 99 175
62 99 176
63 99 175
62 99 176
62 99 172
62 99 174
62 99 176
62 99 176
62 99 178
62 99 178
62 99 175
62 99 177
62 99 176
62 98 176
63 100 180
62 99 173
63 100 178
63 100 178
62 99 176
62 98 174
62 99 179
62 99 179
62 99 177
62 99 178
62 99 178
62 99 180
62 99 178
62 99 178
62 99 176
62 99 177
63 100 178
62 99 180
63 100 179
62 99 179
62 99 177
62 99 177
62 99 179
62 99 180
62 99 179
61 99 180
63 100 179
62 99 178
62 99 177
62 99 179
63 100 181
62 99 179
62 99 178
63 99 178
62 99 179
62 99 179
62 99 179
63 99 179
61 99 178
62 99 180
62 99 179
62 99 176
63 100 180
62 99 180
62 99 180
62 99 179
62 99 176
62 99 179
63 100 181
62 99 178
62 99 180
61 98 177
62 99 177
61 98 178
62 99 178
62 99 179
63 100 180
62 99 176
62 99 179
62 99 178
62 99 177
62 99 180
62 99 179
61 98 176
62 99 180
62 99 175
62 99 177
61 99 177
62 99 177
62 99 180
62 99 177
62 99 178
62 99 178
62 99 179
63 100 178
62 99 177
62 99 176
61 99 177
62 99 178
63 100 177
62 99 179
62 99 177
62 99 178
62 99 178
63 100 177
61 98 173
62 99 175
62 99 173
62 99 176
62 99 175
62 99 177
62 99 178
61 98 172
62 98 171
62 98 171
61 98 173
62 99 176
63 99 174
62 99 175
62 99 176
62 99 175
61 98 173
61 97 170
63 99 179
63 99 173
62 98 172
62 98 169
61 97 172
62 99 175
62 99 174
61 98 170
62 99 176
61 97 172
61 97 168
61 97 167
62 98 169
63 98 170
62 98 170
62 98 176
62 98 173
60 96 165
60 96 163
61 97 165
61 97 166
61 97 168
61 95 159
65 97 165
66 91 138
67 83 107
92 97 81
84 86 62
89 90 62
88 91 63
83 86 61
89 91 64
87 90 64
84 88 62
96 98 69
91 93 65
91 94 67
87 91 64
89 94 71
89 93 67
88 93 69
102 105 70
95 99 72
103 106 73
116 118 82
117 118 79
119 120 85
111 113 74
126 127 86
127 126 84
128 128 84
127 128 85
123 124 84
126 126 84
135 134 85
134 132 87
133 132 90
132 132 88
133 132 85
135 134 87
132 131 84
135 134 82
143 141 89
144 142 85
139 138 85
151 148 94
152 149 97
150 148 94
152 149 87
158 154 99
147 146 92
155 152 94
153 150 95
158 155 96
162 157 94
161 155 93
159 155 92
168 163 100
156 153 94
160 156 97
157 153 91
165 160 97
165 160 95
167 162 98
171 165 98
165 162 95
167 162 95
173 167 102
166 162 98
167 163 94
170 164 95
173 167 100
168 163 93
170 165 101
173 167 98
171 166 100
173 167 97
176 169 104
172 166 101
175 170 106
174 168 99
172 166 96
174 168 98
176 169 103
170 165 97
175 169 100
169 163 96
173 167 96
174 167 101
175 168 101
172 166 97
171 165 95
168 162 94
173 167 97
174 167 100
173 167 97
172 166 97
174 167 100
171 163 93
174 166 96
171 165 92
175 167 95
169 163 92
170 163 100
170 164 96
167 160 93
174 167 98
167 161 96
165 159 91
159 153 85
166 160 95
160 154 84
167 160 90
165 158 87
161 155 88
165 159 88
166 160 91
165 159 88
169 161 88
163 156 82
159 153 82
164 157 89
161 155 84
157 152 82
157 151 82
160 153 83
153 148 76
155 149 81
155 150 76
154 147 80
157 151 80
153 147 75
153 147 78
150 143 74
152 145 75
144 140 66
141 136 68
149 143 72
144 138 67
150 142 81
140 135 63
142 138 57
152 152 61
157 160 65
147 151 49
159 169 51
152 159 48
160 170 47
161 178 30
158 173 28
167 185 25
168 188 22
164 184 0
174 197 0
172 196 0
172 196 0
171 195 0
171 195 0
174 197 0
175 198 0
172 194 0
171 194 0
173 196 0
171 195 0
173 197 0
171 196 0
172 196 0
175 198 0
177 199 0
170 194 0
171 194 0
172 196 0
172 195 0
173 196 0
174 196 0
171 195 0
172 196 0
171 195 0
169 194 0
173 196 0
170 194 0
171 194 0
172 196 0
172 195 0
171 195 0
173 196 0
169 193 0
171 194 0
172 195 0
174 197 0
170 193 0
168 191 0
173 196 0
168 192 0
173 196 0
172 196 0
173 197 0
171 194 0
173 196 0
172 195 0
170 194 0
171 194 0
172 195 0
174 197 0
170 193 0
172 195 0
172 195 0
170 193 0
172 196 0
173 197 0
173 196 0
173 196 0
173 196 0
171 194 0
170 194 0
171 194 0
166 190 0
169 192 0
170 193 0
169 193 0
171 194 0
170 193 0
172 195 0
170 193 0
171 194 0
173 196 0
172 195 0
170 194 0
173 197 0
172 195 0
169 193 0
172 196 0
170 194 0
172 195 0
172 195 0
173 197 0
172 195 0
170 192 0
170 193 0
168 192 0
172 196 0
169 192 0
172 196 0
172 195 0
170 194 0
171 195 0
172 195 0
159 182 60
139 164 107
90 120 151
63 99 164
62 98 165
62 98 167
62 99 174
61 98 164
62 99 173
62 98 173
62 99 170
62 99 174
62 99 172
63 99 172
62 98 166
62 99 172
62 98 170
62 99 175
63 99 174
62 99 175
62 98 171
62 99 175
62 99 171
62 99 174
62 99 176
62 99 176
62 99 175
62 99 171
62 99 179
62 99 175
62 99 172
62 99 176
62 99 175
62 99 178
62 99 177
62 99 177
62 99 175
62 99 178
61 98 171
62 99 176
63 100 178
63 100 179
62 99 181
61 99 179
62 99 178
62 99 177
62 99 177
62 99 178
63 100 179
62 99 178
62 99 178
63 100 180
63 100 179
62 99 178
62 99 179
62 98 177
62 99 179
62 99 179
62 99 179
62 99 180
62 99 178
62 99 178
62 99 179
62 99 177
61 99 181
62 99 179
62 99 179
63 100 181
61 98 179
62 99 179
62 99 179
62 99 178
62 99 180
62 99 180
62 99 177
62 99 180
62 99 180
62 99 178
62 99 179
63 100 179
61 99 178
62 99 179
61 99 179
62 99 179
62 99 180
62 99 180
63 99 179
63 100 181
62 99 178
62 99 179
62 99 178
62 99 177
62 99 176
62 99 181
63 100 180
62 99 177
62 99 176
62 99 178
62 99 177
62 99 177
62 99 177
61 98 176
61 99 179
62 99 176
62 99 175
62 99 174
62 99 178
62 99 174
62 99 178
62 99 179
62 99 179
62 99 178
62 99 176
62 99 181
62 99 180
61 98 175
62 99 175
62 99 173
62 99 174
62 99 178
61 98 176
63 99 176
61 98 169
61 98 171
62 99 175
62 99 174
62 98 172
62 99 178
62 99 176
63 99 177
62 99 177
62 98 172
62 99 176
61 98 169
62 99 176
62 99 175
62 99 175
61 97 172
62 99 171
62 99 175
62 99 174
62 99 173
62 98 171
62 98 172
61 98 171
61 97 163
62 98 174
62 98 169
61 97 165
61 97 170
61 97 167
61 97 164
61 96 163
62 98 167
61 96 165
60 95 159
59 93 157
67 94 145
64 83 115
78 87 96
81 87 79
85 87 67
74 77 55
87 90 65
87 89 61
84 89 64
80 84 60
86 90 62
94 96 68
87 91 66
90 93 64
98 100 69
101 103 72
91 94 65
99 102 71
104 106 73
107 110 79
107 110 77
105 106 73
118 119 82
109 111 76
114 115 79
123 123 80
110 112 75
113 114 76
118 119 81
125 127 85
135 134 84
127 126 82
141 139 89
143 141 90
140 138 88
142 140 88
144 142 91
145 143 93
142 140 90
143 142 91
140 138 90
143 141 90
146 143 89
137 137 88
144 142 89
154 152 95
155 152 97
156 153 97
163 159 98
156 153 95
158 154 93
163 160 101
157 154 94
162 158 96
161 156 97
166 161 100
160 156 94
165 160 96
162 157 93
168 163 99
170 164 96
167 162 98
172 167 99
168 164 96
172 165 100
169 164 102
172 166 96
168 163 99
171 165 97
172 166 101
169 164 97
168 162 91
175 169 102
172 166 98
170 165 97
175 168 101
170 164 97
173 167 100
171 164 95
172 166 95
172 166 97
172 166 98
170 164 94
172 166 101
173 167 98
175 168 98
172 165 96
169 164 96
173 166 95
177 170 101
172 166 97
173 166 98
173 166 95
173 167 95
170 163 98
174 168 97
173 166 102
166 160 91
172 165 95
169 164 92
175 168 99
163 157 92
169 162 93
172 165 98
169 163 91
169 162 95
170 163 89
170 162 92
164 159 89
160 153 89
171 164 96
160 154 83
163 157 87
161 156 88
163 157 90
160 154 85
164 158 84
159 153 85
159 153 80
167 159 87
157 151 81
164 156 88
156 149 83
161 155 87
156 150 80
148 143 69
160 153 82
150 144 80
160 153 82
155 149 78
148 141 72
142 135 69
149 143 75
152 145 75
139 133 68
142 136 67
146 140 65
139 137 61
148 149 53
147 149 59
154 161 54
150 156 51
161 173 39
161 174 42
161 176 32
167 183 34
166 184 25
172 191 19
168 189 0
173 197 0
172 196 0
172 195 0
174 198 0
173 196 0
173 197 0
172 196 0
173 196 0
173 197 0
174 198 0
174 197 0
174 197 0
172 195 0
172 196 0
172 196 0
173 197 0
173 196 0
172 196 0
171 195 0
172 196 0
173 196 0
171 195 0
173 196 0
172 195 0
174 197 0
172 196 0
173 197 0
175 198 0
172 195 0
172 195 0
171 194 0
172 196 0
172 195 0
172 196 0
172 195 0
169 193 0
173 197 0
174 198 0
173 196 0
173 197 0
173 197 0
174 197 0
171 195 0
175 198 0
171 195 0
171 194 0
169 193 0
171 194 0
170 194 0
175 198 0
170 194 0
171 194 0
170 193 0
174 197 0
170 195 0
173 196 0
171 194 0
172 195 0
173 196 0
170 194 0
169 192 0
170 193 0
170 193 0
168 192 0
172 195 0
173 196 0
172 195 0
173 195 0
172 196 0
172 196 0
170 193 0
172 195 0
173 196 0
170 193 0
172 196 0
171 194 0
171 195 0
173 196 0
172 194 0
172 196 0
172 195 0
173 196 0
172 195 0
170 193 0
171 195 0
174 197 0
172 196 0
172 195 0
169 192 0
171 194 0
168 191 0
173 195 0
172 195 0
171 193 0
148 172 86
111 139 131
62 98 168
62 99 166
63 99 173
63 99 169
62 99 170
61 98 167
62 99 175
62 99 171
62 98 170
62 99 171
62 99 175
61 98 170
62 99 173
62 99 173
62 99 170
61 98 173
62 99 177
62 99 177
62 99 172
61 98 173
63 100 178
62 99 179
62 99 176
62 99 179
62 99 178
62 99 176
62 99 174
62 99 175
62 99 178
62 99 175
62 99 176
62 99 179
62 99 179
62 99 177
61 98 175
62 99 177
63 99 177
62 99 175
62 99 178
62 99 180
62 99 176
62 99 176
62 99 179
62 99 179
62 99 178
62 99 180
62 99 180
62 99 177
62 99 179
62 99 178
62 99 181
63 99 176
62 99 180
62 99 177
62 99 181
63 99 179
61 99 181
62 99 179
62 99 176
62 99 180
62 99 178
62 99 178
63 100 179
62 99 180
62 99 176
62 99 180
62 99 179
63 100 180
62 99 180
62 99 179
62 99 180
62 99 178
61 99 178
62 99 178
62 99 177
63 99 179
62 99 178
62 99 175
62 99 178
62 99 178
63 100 180
62 99 179
62 99 178
62 99 177
62 99 173
62 99 178
62 99 176
62 99 178
62 99 176
62 99 178
61 98 174
62 99 180
63 100 181
62 99 178
63 100 178
62 99 180
62 99 179
62 99 174
63 99 179
62 99 179
62 99 174
62 99 176
62 99 176
61 98 172
62 99 176
62 99 178
62 99 174
61 98 179
61 98 175
62 99 172
62 99 179
62 99 174
63 100 178
62 99 177
62 99 176
62 99 179
62 99 178
63 100 178
62 99 175
63 100 177
62 99 176
62 98 172
62 99 177
62 99 175
62 99 175
63 100 178
62 98 172
62 99 173
62 98 172
62 99 172
62 98 174
63 99 179
61 98 174
62 99 173
61 98 171
62 99 174
61 97 168
61 98 167
61 98 171
62 98 170
62 98 171
62 98 173
62 98 172
62 98 172
62 98 171
62 98 170
61 97 170
62 98 169
61 97 167
61 97 163
61 97 163
60 95 162
60 95 161
60 95 161
62 96 157
63 97 159
60 87 136
77 94 123
80 88 93
86 90 72
81 85 59
78 82 59
77 81 57
78 83 62
82 86 62
67 75 58
96 99 72
84 89 64
92 95 69
83 85 58
90 95 69
92 96 69
107 109 75
101 105 72
97 100 72
103 105 73
112 114 79
129 129 87
114 115 79
118 118 79
107 108 74
123 123 83
120 121 82
111 114 75
133 133 86
125 126 85
133 133 86
124 125 82
141 140 90
135 134 90
140 140 90
137 137 85
134 133 85
132 131 82
140 139 89
138 138 88
147 144 90
145 143 88
151 148 91
152 149 95
153 150 89
158 154 95
153 151 96
153 149 88
154 151 96
156 153 96
152 149 90
161 156 99
158 154 94
163 159 95
157 153 96
161 157 96
168 163 100
162 158 92
159 155 92
160 157 94
167 163 98
168 163 100
171 165 97
169 164 98
170 165 101
169 163 97
170 165 98
175 168 101
165 160 96
166 162 93
170 164 99
171 165 96
173 167 99
169 163 94
172 166 96
177 169 99
175 168 99
169 163 88
169 164 96
176 169 101
173 167 100
176 169 97
172 166 93
172 166 94
177 170 101
174 167 95
174 167 97
173 166 95
176 169 97
170 165 95
171 165 91
173 167 95
168 163 92
168 162 95
168 161 90
175 169 99
173 167 97
175 168 97
168 162 93
164 158 90
174 167 95
166 161 90
166 160 90
170 164 95
167 161 89
161 155 86
165 160 90
164 158 87
169 163 93
161 156 86
169 161 93
160 155 88
164 158 87
166 159 87
160 155 85
162 155 89
155 150 83
168 161 90
160 154 85
154 150 76
161 155 82
162 156 81
155 148 79
158 152 85
152 146 78
156 149 75
147 141 72
148 144 76
148 142 63
152 146 75
155 148 76
149 142 72
143 137 61
148 141 70
140 135 63
147 142 74
145 143 60
140 140 59
148 152 49
152 159 53
154 161 54
159 172 44
159 173 34
156 171 22
158 175 25
170 190 19
169 188 22
170 189 16
173 196 0
172 196 0
172 196 0
172 195 0
174 197 0
170 193 0
171 195 0
173 196 0
169 192 0
173 196 0
172 195 0
173 196 0
172 195 0
175 197 0
171 195 0
171 195 0
171 194 0
174 197 0
170 193 0
172 195 0
173 195 0
174 197 0
173 196 0
170 193 0
175 198 0
175 198 0
171 195 0
171 195 0
173 196 0
171 195 0
174 198 0
171 195 0
168 192 0
172 196 0
174 197 0
172 195 0
175 198 0
172 196 0
174 196 0
172 196 0
171 194 0
170 194 0
172 196 0
173 196 0
172 196 0
172 195 0
170 192 0
171 194 0
172 196 0
174 197 0
169 192 0
174 197 0
167 191 0
172 195 0
170 194 0
172 195 0
172 196 0
170 193 0
167 191 0
174 197 0
174 197 0
171 194 0
169 192 0
172 196 0
174 197 0
171 194 0
169 192 0
173 196 0
173 196 0
172 194 0
168 191 0
171 194 0
170 194 0
170 193 0
172 194 0
171 195 0
167 190 0
171 194 0
170 193 0
171 195 0
170 194 0
173 196 0
170 193 0
174 197 0
169 192 0
173 196 0
173 196 0
168 191 0
170 193 0
169 192 0
169 192 0
169 192 0
171 195 0
163 186 65
129 154 117
92 121 141
63 99 166
61 98 165
62 99 166
61 97 162
62 99 169
64 100 176
63 99 169
63 99 176
61 98 170
62 99 178
62 98 171
63 99 174
63 99 173
62 99 171
62 99 173
62 99 173
62 99 175
62 99 172
62 99 174
62 99 176
62 99 173
62 99 176
62 99 174
63 99 175
62 99 175
62 99 175
62 99 176
62 99 177
62 99 175
63 100 178
62 99 177
62 99 176
62 99 177
62 99 175
61 98 177
63 100 180
62 98 174
62 98 172
63 99 178
62 99 179
62 99 176
61 98 179
62 99 175
62 99 178
62 99 177
62 99 177
62 99 179
63 99 179
62 99 177
62 99 179
62 99 179
63 100 180
62 99 178
62 99 181
63 100 178
63 99 179
62 99 179
62 99 175
62 99 181
62 99 178
63 99 176
62 99 180
63 100 179
62 99 179
62 99 178
62 99 178
62 99 178
63 100 179
62 99 180
62 99 179
62 99 179
62 99 175
63 100 180
62 99 180
62 99 180
62 99 175
62 99 180
62 99 180
62 99 179
62 98 173
62 99 180
62 99 178
61 98 177
62 98 174
62 99 178
62 99 175
62 99 176
62 99 177
62 99 180
62 99 178
62 99 177
62 99 177
63 100 178
62 99 178
62 99 176
62 99 179
62 99 176
62 99 178
62 99 177
61 98 175
62 99 181
62 99 179
62 99 178
62 99 178
62 99 178
62 99 179
62 99 174
62 99 177
62 99 179
62 99 173
62 99 175
62 99 179
62 99 175
62 99 175
62 99 177
61 98 172
62 99 179
63 99 178
63 99 176
62 99 173
62 99 178
63 100 175
63 99 174
62 99 171
61 98 174
62 99 174
61 98 173
62 99 176
62 98 169
62 99 175
62 98 173
61 98 167
62 98 172
62 99 174
62 99 174
62 99 175
62 98 174
62 99 171
62 99 173
62 98 172
63 99 171
63 99 174
61 98 168
60 96 160
61 98 169
61 97 167
61 97 166
60 96 165
62 98 172
61 97 168
60 94 159
61 96 167
60 95 161
61 96 163
60 95 158
59 93 161
65 95 153
74 93 123
72 85 105
66 74 66
78 81 60
76 80 57
81 85 62
86 89 66
72 78 58
68 73 55
67 73 55
84 89 65
87 91 66
80 84 61
96 98 69
100 102 73
86 90 65
98 101 69
93 97 65
104 106 70
91 94 59
105 107 69
114 115 78
113 116 79
105 107 74
114 116 79
126 126 86
114 116 75
120 120 80
126 127 82
121 122 78
125 126 84
133 132 89
139 138 90
136 134 86
138 138 89
142 141 94
139 137 88
144 142 89
147 145 89
140 139 90
154 151 96
143 141 87
145 143 86
148 146 94
150 148 90
151 149 95
156 152 97
159 154 93
153 150 91
163 159 97
160 156 93
161 158 98
165 160 96
162 159 97
164 160 92
166 161 96
163 158 96
163 159 95
167 162 97
166 161 94
168 163 97
171 165 98
170 164 98
165 160 94
167 162 90
174 167 97
169 163 95
166 161 92
173 167 98
173 167 99
176 169 101
168 162 92
172 166 98
175 169 98
171 165 97
172 166 97
169 165 94
175 169 97
174 167 101
174 168 95
168 162 94
172 167 95
172 165 99
170 164 98
170 164 95
171 164 92
173 167 97
172 166 97
167 162 88
173 166 97
171 164 91
173 167 95
167 161 87
171 165 90
169 164 91
169 162 92
173 166 97
170 165 92
159 154 83
172 165 95
170 164 93
168 162 91
169 163 93
162 156 81
161 155 88
167 160 87
164 158 87
164 157 87
160 155 84
164 158 86
164 158 89
162 156 86
155 149 80
159 153 78
158 151 82
164 158 81
157 151 84
155 148 80
160 154 81
161 155 84
157 150 79
161 155 81
156 150 79
155 148 79
151 145 74
158 152 81
151 146 77
143 137 69
162 155 82
148 142 68
143 137 67
146 140 70
140 134 62
140 134 63
137 133 62
145 143 67
152 151 69
150 154 52
153 158 56
161 170 47
145 155 34
155 168 42
161 177 30
163 180 30
165 182 16
168 188 0
172 193 0
174 197 0
173 197 0
173 197 0
174 198 0
173 196 0
172 195 0
172 195 0
172 194 0
172 196 0
174 197 0
172 195 0
174 197 0
172 196 0
173 196 0
171 195 0
172 196 0
174 198 0
172 196 0
170 193 0
171 195 0
172 196 0
171 196 0
173 197 0
172 195 0
173 196 0
171 194 0
174 197 0
171 195 0
171 195 0
171 194 0
172 196 0
172 196 0
175 197 0
173 196 0
172 196 0
173 197 0
172 195 0
172 196 0
174 197 0
170 193 0
171 194 0
171 195 0
170 193 0
171 195 0
172 196 0
172 195 0
172 196 0
170 194 0
171 194 0
174 197 0
173 196 0
174 196 0
172 195 0
173 196 0
171 195 0
171 194 0
171 194 0
168 191 0
172 195 0
171 194 0
172 195 0
173 197 0
171 195 0
174 196 0
169 192 0
171 194 0
171 194 0
174 197 0
169 192 0
174 197 0
172 195 0
168 192 0
170 194 0
173 196 0
172 196 0
170 194 0
173 196 0
171 194 0
170 193 0
172 195 0
171 194 0
171 195 0
169 192 0
170 193 0
168 191 0
170 193 0
170 194 0
167 189 0
171 194 0
171 195 0
170 194 0
172 194 0
172 195 18
153 177 78
115 140 124
64 99 162
62 98 169
62 98 166
62 98 169
62 99 171
62 98 171
61 98 171
62 99 171
62 99 173
62 98 168
62 98 173
62 99 171
62 99 171
62 99 174
62 99 175
62 99 175
62 99 180
62 98 171
62 99 177
62 99 174
62 99 176
62 99 173
61 98 175
62 99 175
62 99 175
63 99 173
62 99 173
62 99 179
62 99 172
62 99 178
62 99 173
62 99 176
62 99 175
62 99 178
61 98 176
62 99 177
62 99 179
62 99 180
62 99 177
62 99 178
62 99 178
63 100 180
62 99 178
63 100 181
62 99 180
62 99 177
62 99 179
63 100 181
61 98 180
62 99 178
63 99 178
63 100 179
63 100 178
62 99 177
62 99 178
62 99 180
62 99 180
62 99 179
63 99 179
62 99 179
62 99 177
63 100 181
62 99 174
62 99 175
62 99 178
62 99 178
63 99 178
63 100 180
62 99 178
62 99 177
62 99 179
62 99 179
62 99 175
62 99 178
62 99 179
61 98 176
63 100 178
62 99 177
62 99 179
62 99 178
62 99 177
62 99 179
62 99 177
62 99 178
62 99 176
62 99 178
62 99 178
62 99 180
62 99 179
62 99 176
63 100 179
62 99 176
63 100 178
62 99 177
62 99 179
61 98 175
62 99 177
62 99 175
62 99 177
62 99 176
63 100 180
62 99 175
62 99 177
62 99 176
62 99 176
62 99 177
62 99 176
62 99 176
62 99 180
62 99 176
62 99 176
62 99 178
63 100 178
62 99 177
62 99 176
62 99 178
62 99 172
62 98 172
62 99 177
62 99 177
62 99 177
61 98 168
62 99 177
62 99 174
62 99 171
62 99 177
61 98 171
62 99 175
62 99 174
62 99 173
62 99 173
62 99 174
62 99 175
62 99 176
62 98 170
62 98 172
62 99 170
62 99 173
62 98 170
62 98 170
63 99 174
62 98 171
62 99 174
61 98 171
62 98 170
62 98 167
62 98 171
62 98 170
61 98 170
61 97 164
61 97 168
60 95 162
61 96 164
60 95 162
62 98 167
61 96 165
60 94 157
64 95 155
68 92 136
69 84 107
75 85 92
68 73 65
70 73 51
78 81 58
85 86 58
78 81 59
88 91 67
85 88 62
92 94 66
88 91 65
87 90 63
90 94 68
84 88 65
94 97 68
100 103 71
101 103 72
101 103 70
103 105 67
100 102 68
107 109 75
104 107 71
106 109 73
102 106 73
130 129 84
122 122 81
125 125 80
124 123 81
121 121 80
134 133 85
136 135 89
127 127 79
135 134 88
130 130 84
136 134 89
140 138 90
131 131 81
143 141 87
149 146 92
143 140 89
157 153 94
144 144 94
143 141 86
149 146 89
150 148 95
155 150 90
154 151 91
160 156 96
151 148 89
155 152 90
159 156 89
154 150 92
163 158 93
165 160 97
162 157 95
168 163 100
166 161 94
168 163 98
161 157 97
165 160 96
166 162 97
163 158 90
168 163 96
174 168 102
170 165 95
174 167 97
168 163 98
173 166 96
173 167 99
166 162 92
169 164 93
168 163 94
172 166 96
172 166 97
169 164 91
177 169 97
171 165 93
176 169 104
173 168 96
167 162 93
173 167 97
171 166 96
170 164 91
170 163 91
174 168 95
174 168 97
172 166 95
169 163 93
169 164 94
171 164 93
175 168 99
172 166 96
169 163 94
171 164 87
168 163 90
170 164 95
165 158 86
173 166 95
170 164 91
171 165 95
167 161 88
168 162 92
166 158 91
166 159 97
168 161 86
168 161 86
163 157 87
163 157 84
157 151 77
162 156 88
164 159 92
155 150 80
162 155 87
165 159 88
158 153 84
162 156 87
159 153 80
163 157 87
158 152 78
153 148 75
159 153 85
160 155 83
142 137 72
150 142 76
153 148 75
155 148 71
152 146 75
156 149 77
141 136 69
151 144 75
148 142 71
145 139 68
134 130 54
139 135 62
142 138 60
145 146 54
147 150 60
150 158 48
150 160 42
163 175 45
161 172 44
159 173 30
161 177 25
167 184 22
168 189 11
169 190 11
173 197 0
174 197 0
170 193 0
171 195 0
171 195 0
173 196 0
172 196 0
172 196 0
171 195 0
174 197 0
171 194 0
171 194 0
173 196 0
173 195 0
171 195 0
172 196 0
172 195 0
173 196 0
172 195 0
172 196 0
171 195 0
171 195 0
173 196 0
173 196 0
172 195 0
172 195 0
173 197 0
169 193 0
171 195 0
173 196 0
173 196 0
173 197 0
170 194 0
170 194 0
168 192 0
171 194 0
171 194 0
171 195 0
172 196 0
172 195 0
171 195 0
172 195 0
173 197 0
172 195 0
171 195 0
172 195 0
171 195 0
171 194 0
173 195 0
173 196 0
175 198 0
173 196 0
173 196 0
169 194 0
173 195 0
172 195 0
170 194 0
170 194 0
168 192 0
171 193 0
173 196 0
173 196 0
170 194 0
172 194 0
172 195 0
172 195 0
174 196 0
170 193 0
171 194 0
172 195 0
169 193 0
170 193 0
170 193 0
168 192 0
169 193 0
171 195 0
169 192 0
171 194 0
171 195 0
170 193 0
174 197 0
168 191 0
169 193 0
171 195 0
172 195 0
171 194 0
169 192 0
175 197 0
176 198 0
168 192 0
169 193 0
169 192 0
156 181 60
132 157 100
85 117 161
62 98 164
62 98 166
62 99 171
61 97 159
62 99 175
61 98 167
63 99 172
62 98 169
63 99 173
62 99 173
62 99 173
62 99 174
61 98 172
62 99 174
62 98 172
62 99 174
61 98 170
62 99 175
62 98 172
62 99 176
62 99 176
62 99 180
62 99 175
62 99 174
62 99 176
63 99 175
62 99 177
62 99 177
62 99 176
62 98 173
62 98 174
62 99 177
62 99 177
62 99 176
62 99 175
62 99 177
61 99 177
62 99 177
62 98 174
62 99 177
61 99 178
62 99 178
62 99 176
62 99 177
62 99 178
62 99 174
62 99 177
62 99 174
62 98 173
62 99 176
62 99 179
62 99 180
62 99 180
63 99 178
62 99 177
62 99 180
62 99 178
63 100 180
62 99 175
62 99 180
62 99 178
63 100 179
62 99 175
62 99 180
62 99 175
62 99 179
62 99 178
62 99 179
62 99 177
62 99 181
62 99 177
63 99 177
62 99 179
62 99 178
62 99 179
62 99 177
62 99 179
61 98 175
62 99 180
61 99 177
62 99 179
61 99 179
62 99 178
62 99 180
62 99 176
62 99 178
61 98 173
62 99 175
62 99 179
62 99 176
62 99 178
62 99 178
62 99 176
62 99 176
62 99 178
61 98 174
62 99 178
61 98 173
62 99 178
61 98 174
61 98 172
62 99 179
62 99 178
62 99 175
62 99 176
61 98 176
62 99 176
62 99 176
62 99 174
62 99 175
62 99 176
62 99 176
62 98 169
62 99 177
62 99 174
62 99 174
63 99 176
63 99 176
62 99 173
62 99 179
63 100 179
62 98 172
61 98 175
63 99 176
62 99 178
62 99 172
62 99 175
62 99 178
62 99 177
61 98 174
62 98 172
62 99 176
62 99 175
63 99 171
62 99 175
62 98 171
62 98 171
62 98 175
62 98 172
62 98 172
62 99 174
62 99 177
62 99 174
63 99 174
61 97 166
62 98 165
62 98 170
61 97 162
62 98 167
62 99 171
62 98 167
61 97 166
61 96 165
60 96 160
62 97 166
61 96 166
61 96 162
59 93 153
58 91 153
58 81 119
67 79 93
75 80 65
73 77 56
72 77 59
75 79 54
79 82 59
55 63 49
91 93 63
80 84 61
87 92 66
94 97 68
107 108 76
88 92 67
86 90 64
100 103 73
87 91 67
102 105 72
110 112 75
99 102 69
107 108 72
97 100 68
114 116 79
102 105 68
113 114 73
116 116 78
119 120 80
128 127 80
125 127 84
129 129 87
125 125 79
136 134 87
136 135 84
137 136 83
139 138 90
147 144 88
131 131 79
140 139 84
139 137 86
148 145 89
131 131 77
149 146 89
145 143 88
147 145 91
148 146 90
147 145 86
152 149 92
157 153 92
153 150 88
159 156 94
157 153 95
158 155 94
162 157 93
164 160 99
157 154 89
158 155 89
165 160 94
160 156 93
155 152 86
166 161 95
163 158 94
166 161 92
170 165 94
166 161 88
168 162 96
170 164 97
177 170 102
169 164 98
167 161 92
167 161 95
171 165 94
168 162 88
166 162 91
167 162 91
174 167 96
173 167 94
174 167 99
171 165 94
171 165 97
171 165 94
173 167 97
175 168 96
167 162 90
170 164 88
175 168 93
172 165 94
170 164 90
170 163 94
168 162 94
173 166 95
176 169 100
167 161 89
172 165 96
170 164 89
171 163 92
168 161 92
167 161 90
171 164 94
169 163 89
167 160 91
168 162 94
167 161 89
163 156 85
163 157 85
161 155 87
164 157 89
167 160 90
164 158 84
162 156 84
165 159 93
165 158 87
162 156 81
159 153 85
162 156 84
157 151 84
153 148 79
162 155 83
156 149 81
157 150 79
159 152 78
142 138 66
154 147 81
152 145 73
160 153 80
155 148 73
152 145 75
149 143 69
157 150 76
144 139 63
143 137 67
146 139 67
152 146 70
137 132 62
150 144 71
147 144 63
141 144 48
138 144 41
152 155 57
147 157 36
159 171 28
162 177 25
161 176 28
164 183 19
169 187 28
166 186 0
171 193 11
173 196 0
174 196 0
171 194 0
172 196 0
174 197 0
173 195 0
171 195 0
169 193 0
172 195 0
173 196 0
173 197 0
173 196 0
171 195 0
174 197 0
173 197 0
173 197 0
172 196 0
173 196 0
172 196 0
170 193 0
172 195 0
173 197 0
172 196 0
173 197 0
171 195 0
171 194 0
174 198 0
173 197 0
172 195 0
173 197 0
169 191 0
172 195 0
171 194 0
173 196 0
174 197 0
174 197 0
169 192 0
173 196 0
173 196 0
171 194 0
172 196 0
172 195 0
167 192 0
172 195 0
172 196 0
172 195 0
172 195 0
167 191 0
172 195 0
173 197 0
172 195 0
167 192 0
170 195 0
172 195 0
173 196 0
170 194 0
173 197 0
171 195 0
172 195 0
173 196 0
172 196 0
172 196 0
174 197 0
172 195 0
172 195 0
170 194 0
169 192 0
171 195 0
168 191 0
171 195 0
170 194 0
170 193 0
170 194 0
171 195 0
170 194 0
170 193 0
173 196 0
173 196 0
170 194 0
165 189 0
169 193 0
167 191 0
169 192 0
172 196 0
172 195 0
169 193 0
172 196 0
170 193 0
168 193 0
169 192 0
167 190 0
169 192 18
152 176 86
124 150 118
66 100 156
62 99 169
61 98 163
61 98 165
62 98 164
61 98 162
62 98 167
62 99 170
63 99 170
61 98 166
63 99 174
63 99 169
62 99 175
62 99 172
61 98 172
62 99 174
62 99 176
62 99 175
62 99 173
62 99 179
63 99 175
63 100 179
61 98 172
63 99 177
62 99 178
62 99 177
62 99 178
62 99 178
63 99 177
62 99 175
63 100 179
63 100 179
61 98 174
62 99 177
62 98 170
62 99 178
62 99 179
62 99 177
62 99 180
63 100 179
63 100 177
62 99 181
62 99 178
61 98 174
62 99 175
62 99 179
62 99 179
62 99 174
63 99 178
62 99 176
62 99 179
62 99 175
62 99 176
61 98 177
62 99 176
61 99 178
62 99 177
62 99 178
62 99 176
62 99 177
62 99 178
62 99 180
62 99 175
62 99 178
62 99 178
62 99 179
61 98 172
62 99 177
62 99 176
61 98 173
62 99 179
62 99 178
62 99 178
62 99 179
62 99 177
62 99 179
61 98 177
62 99 180
62 99 179
62 99 178
62 99 178
62 99 177
62 99 178
62 99 176
62 99 178
62 99 177
63 100 178
62 99 175
62 99 177
62 99 181
63 99 178
62 99 180
61 98 175
62 99 179
62 99 176
62 99 176
63 100 176
63 99 178
61 98 173
63 99 178
62 99 177
61 98 174
62 99 173
62 99 175
62 99 174
62 99 176
62 99 172
62 99 175
62 99 177
63 100 177
62 99 177
62 99 178
62 99 175
62 99 176
61 98 174
62 99 176
62 99 169
61 98 172
62 99 176
62 99 176
62 99 175
62 99 177
62 99 175
62 99 173
62 99 177
62 99 174
63 99 175
62 99 178
62 99 174
62 98 169
63 99 177
62 98 175
63 99 172
62 99 174
62 99 172
62 99 172
62 98 172
62 98 174
62 98 168
62 99 175
62 98 170
62 98 166
63 99 173
62 99 174
63 99 171
61 97 169
62 97 165
62 98 168
62 99 173
61 97 168
62 98 167
63 99 173
61 97 163
62 98 170
60 95 161
61 97 164
61 97 165
60 95 166
60 94 162
60 94 160
64 92 146
57 75 105
64 73 74
66 71 54
64 69 50
62 67 51
82 85 58
59 66 50
72 77 57
72 78 61
84 89 63
76 80 56
81 84 58
86 90 63
98 99 68
84 87 60
103 105 74
94 97 69
96 98 66
93 97 68
116 117 79
98 102 69
101 104 71
112 113 75
110 111 75
128 127 82
118 120 75
126 126 77
120 119 72
131 131 84
124 124 79
122 123 78
139 138 89
136 134 87
132 131 82
131 131 78
147 144 91
150 147 90
149 146 90
147 145 90
150 147 95
151 147 84
153 149 95
146 144 88
146 144 84
146 143 84
154 150 93
154 150 93
159 156 93
159 155 96
155 151 89
154 151 92
162 156 92
160 156 90
168 163 97
163 158 90
163 158 93
161 156 94
166 161 95
170 165 98
167 161 98
170 164 93
165 160 95
168 163 95
165 160 92
169 163 96
167 161 93
167 162 92
164 160 88
165 161 89
175 169 101
168 162 91
166 161 91
171 165 93
175 168 95
171 165 95
173 167 96
165 160 91
170 165 93
172 165 98
166 161 85
172 166 96
174 168 95
173 167 99
176 169 98
173 165 92
171 165 92
171 165 94
168 162 90
171 165 91
167 161 85
171 164 93
169 163 90
170 164 91
168 162 92
167 161 91
172 164 88
165 159 84
172 166 91
167 161 92
169 162 92
170 164 95
165 159 83
160 153 82
162 156 86
159 154 80
161 155 84
159 153 75
163 156 84
164 158 88
162 156 84
163 156 84
166 159 84
162 155 81
159 153 80
155 149 80
161 154 84
158 152 79
155 149 75
158 152 79
151 146 67
147 141 71
155 148 76
148 142 73
153 147 75
154 148 74
153 147 73
137 132 61
148 140 73
142 136 69
144 137 63
138 132 61
146 140 62
148 145 62
136 134 58
142 145 51
145 150 45
144 149 48
157 168 42
160 171 42
153 166 25
159 174 28
162 180 25
165 184 22
165 187 11
170 191 0
173 197 0
174 197 0
172 196 0
174 197 0
171 194 0
173 197 0
172 196 0
172 195 0
171 195 0
176 198 0
173 197 0
173 196 0
172 194 0
172 195 0
170 194 0
172 195 0
171 195 0
171 194 0
174 197 0
172 195 0
170 194 0
173 196 0
175 198 0
174 197 0
175 198 0
173 197 0
173 196 0
173 196 0
166 189 0
170 193 0
173 196 0
170 194 0
174 198 0
173 197 0
171 194 0
172 196 0
173 196 0
171 194 0
169 194 0
171 194 0
171 194 0
170 194 0
171 194 0
171 195 0
173 197 0
172 196 0
174 197 0
171 194 0
167 190 0
170 194 0
172 196 0
169 193 0
172 195 0
170 194 0
168 192 0
170 194 0
173 196 0
172 196 0
173 196 0
172 195 0
172 195 0
171 194 0
172 194 0
172 195 0
173 196 0
172 196 0
171 194 0
169 192 0
170 193 0
172 196 0
172 195 0
169 192 0
175 198 0
170 194 0
172 195 0
168 191 0
172 195 0
171 194 0
170 194 0
169 193 0
166 188 0
168 191 0
168 191 0
175 198 0
167 191 0
170 194 0
170 193 0
170 194 0
168 191 0
168 191 0
167 191 18
163 186 44
127 152 110
88 118 148
61 97 159
62 98 164
62 99 167
62 98 167
62 99 171
62 99 170
62 98 166
62 98 162
63 99 175
63 99 172
63 100 177
61 98 168
62 99 175
62 99 171
63 99 172
62 99 178
62 99 171
62 98 173
62 99 174
62 99 177
63 99 175
63 99 173
63 99 172
62 99 173
62 99 176
63 99 175
63 99 174
61 98 173
62 99 179
62 99 176
62 99 175
62 99 177
62 99 177
62 99 176
62 99 175
62 99 175
62 99 175
62 99 175
62 99 175
61 98 177
62 99 179
62 99 178
62 99 177
61 98 175
63 100 181
62 99 178
62 99 180
62 99 179
63 100 181
61 98 177
61 98 174
62 99 179
62 99 178
63 100 181
62 99 177
61 98 175
62 99 178
62 99 177
62 99 179
62 99 178
61 99 178
62 99 181
62 99 178
62 99 179
62 99 176
62 99 180
63 99 175
62 99 179
62 99 175
62 99 181
62 99 180
62 99 179
63 99 177
62 99 179
62 99 176
62 99 176
62 99 178
62 99 178
62 98 174
62 99 176
62 99 177
61 98 175
63 100 181
63 100 179
62 99 175
62 99 175
61 99 178
62 99 177
61 98 175
62 99 177
62 98 174
62 99 174
62 99 177
62 99 175
62 99 175
62 99 177
62 99 174
62 99 177
62 98 173
63 99 176
62 99 177
62 99 176
62 99 174
63 99 179
62 99 176
62 99 174
62 99 176
63 100 177
62 99 175
63 99 177
63 100 175
62 99 175
62 99 179
62 99 178
61 98 173
62 99 175
62 99 177
62 99 176
63 99 177
62 99 178
62 99 175
62 99 175
62 99 177
62 99 173
62 98 171
62 99 177
62 99 173
61 97 169
62 99 174
61 98 176
63 99 172
62 98 172
62 98 170
62 98 170
62 99 172
62 99 177
62 99 174
62 98 171
61 97 167
62 98 171
62 98 171
62 98 163
61 97 169
62 98 170
62 98 171
62 99 170
63 99 172
63 98 172
63 99 175
61 97 165
62 98 170
62 98 166
61 97 167
61 96 162
62 97 166
61 97 165
61 96 160
61 96 161
61 96 164
59 93 152
61 92 147
62 86 127
57 69 80
75 80 71
62 66 43
77 82 63
72 77 56
78 82 58
70 75 54
77 81 59
77 82 59
86 89 61
75 81 60
79 84 61
96 99 69
86 89 63
80 85 60
105 106 71
89 93 64
104 107 73
81 87 65
106 108 70
105 107 73
121 121 78
106 107 70
116 116 77
125 125 81
125 126 82
133 131 84
123 124 79
132 131 81
127 126 79
141 138 89
140 137 87
139 137 87
136 135 88
126 126 81
136 135 82
141 139 86
140 138 83
159 154 93
148 146 89
148 145 83
154 150 92
156 152 92
152 149 88
148 145 87
152 149 89
161 157 97
155 151 91
159 155 94
156 152 90
159 155 90
165 161 91
157 153 90
165 161 94
167 162 90
159 155 88
168 161 96
164 159 94
165 161 93
167 162 96
168 162 98
166 160 93
170 164 96
165 160 94
166 162 91
166 160 87
168 162 92
169 163 97
167 162 94
166 161 93
172 165 93
171 165 94
172 165 93
167 162 88
174 167 97
172 166 94
172 166 99
172 165 91
170 163 93
169 163 90
173 166 92
171 164 94
170 164 88
176 168 95
170 164 91
171 164 95
172 165 91
168 162 93
170 164 93
170 163 93
171 165 96
170 163 93
168 161 90
171 163 93
171 164 92
165 159 87
167 161 92
164 158 81
167 161 90
167 161 86
164 159 87
167 160 92
166 159 83
166 159 87
159 154 82
164 158 83
160 154 79
159 153 79
158 153 85
153 148 75
158 152 77
166 159 82
157 151 75
158 152 80
161 155 80
156 148 79
155 150 78
158 152 80
150 144 74
161 154 78
156 149 75
161 153 77
156 149 80
145 140 71
142 137 63
152 146 69
143 138 66
137 132 64
148 142 68
140 133 61
145 140 65
135 133 53
148 153 53
148 148 59
156 162 56
156 164 41
164 174 53
152 163 41
160 175 34
157 176 16
167 187 30
166 185 19
171 193 0
173 194 16
172 196 0
174 197 0
170 194 0
172 196 0
173 196 0
174 198 0
172 195 0
173 196 0
174 197 0
173 197 0
171 194 0
170 195 0
175 197 0
173 197 0
173 196 0
171 195 0
171 195 0
174 197 0
172 195 0
171 195 0
172 195 0
175 197 0
169 192 0
171 194 0
172 194 0
171 194 0
172 195 0
170 193 0
172 195 0
172 196 0
173 196 0
174 197 0
172 195 0
171 194 0
175 198 0
172 195 0
172 196 0
171 194 0
169 192 0
174 197 0
175 197 0
172 194 0
172 196 0
171 194 0
170 194 0
172 196 0
171 195 0
166 188 0
171 195 0
171 194 0
170 195 0
174 197 0
172 196 0
173 196 0
170 194 0
173 196 0
171 195 0
169 193 0
173 196 0
173 196 0
174 196 0
170 193 0
169 192 0
170 193 0
170 194 0
173 195 0
174 197 0
172 195 0
169 193 0
171 194 0
168 192 0
174 197 0
171 195 0
170 193 0
174 197 0
169 191 0
173 196 0
171 195 0
171 194 0
169 192 0
169 192 0
171 194 0
170 193 0
171 194 0
170 194 0
172 196 0
170 193 0
170 193 0
172 195 0
171 193 0
163 187 25
151 174 84
115 141 135
72 105 157
62 98 164
62 98 162
63 99 165
62 98 168
61 98 162
62 99 169
62 99 169
62 99 172
62 99 170
62 99 170
62 99 170
63 99 178
62 98 167
61 98 171
61 98 171
62 99 173
61 98 175
62 99 172
62 99 175
62 99 171
62 98 169
62 99 173
62 99 177
61 98 175
62 99 177
62 99 173
63 99 174
62 98 174
63 99 175
62 99 177
62 99 177
63 99 177
62 99 173
62 99 178
63 99 180
62 99 178
62 99 178
62 99 172
62 99 176
61 98 173
62 99 174
62 99 175
62 99 175
62 99 173
62 99 180
62 99 176
62 99 175
62 99 177
62 99 180
62 99 178
62 99 173
61 98 177
62 99 177
62 99 175
62 99 179
62 99 180
62 99 177
61 99 178
62 99 180
62 99 177
62 99 178
62 99 178
62 99 177
63 99 177
62 99 178
62 99 177
62 99 178
62 99 177
62 99 178
62 99 177
62 99 181
61 99 179
62 99 177
61 98 175
63 100 180
62 99 179
62 99 179
62 99 177
62 98 175
62 99 179
62 99 178
62 99 176
62 99 176
62 99 180
63 100 180
62 99 177
62 99 175
62 99 177
62 99 177
62 99 178
62 99 178
62 98 175
61 98 177
62 99 177
62 99 179
62 99 179
62 99 179
62 99 174
63 99 178
62 99 176
62 99 173
62 99 176
62 99 181
62 99 179
62 99 177
62 99 172
62 99 177
62 99 174
62 99 172
63 99 177
63 100 177
62 99 178
62 99 173
62 99 177
62 99 175
62 99 174
62 99 174
63 99 175
62 99 173
63 99 176
61 98 170
62 99 172
62 99 172
62 98 170
63 99 175
62 98 172
63 100 177
63 99 172
62 99 173
61 98 173
62 98 170
62 98 172
62 99 172
62 99 171
62 99 174
62 98 170
62 99 171
62 99 171
61 98 173
63 99 174
62 98 167
62 98 167
63 99 176
62 98 169
62 98 168
61 97 166
62 98 167
62 98 170
61 97 170
61 97 166
62 97 168
63 99 174
62 97 161
61 96 167
61 97 162
62 97 163
62 97 163
61 96 159
62 96 162
58 93 157
61 94 156
69 92 130
66 80 99
64 74 78
63 68 51
64 69 49
77 79 53
76 80 57
70 75 50
64 69 53
74 79 55
75 81 57
91 93 66
72 78 55
76 81 55
84 88 63
92 95 62
77 80 57
90 93 65
92 94 61
95 98 63
104 107 70
113 114 76
106 109 74
103 105 71
118 119 73
122 122 80
121 121 79
118 120 79
127 126 82
119 119 75
131 129 81
129 130 81
135 133 80
144 142 85
132 132 81
136 134 86
147 145 88
144 142 89
152 149 91
144 142 87
150 146 91
156 151 93
148 146 84
150 147 88
148 145 87
152 148 90
158 153 95
160 156 89
157 152 92
157 153 93
156 153 91
162 157 92
161 156 90
158 154 91
159 155 91
162 158 91
164 159 88
163 158 90
160 156 90
166 161 91
164 159 90
168 162 93
168 162 91
171 165 96
167 162 93
163 158 87
172 165 91
168 163 92
170 164 93
171 164 94
173 166 96
170 164 95
170 164 95
172 165 91
172 165 92
168 162 89
171 165 92
170 164 90
170 165 95
173 167 92
169 163 86
173 167 97
172 166 95
169 163 91
171 165 90
171 165 90
170 164 91
172 165 93
169 163 93
167 161 87
170 162 93
172 164 92
171 165 92
167 162 90
164 159 85
168 162 87
168 162 90
172 165 90
172 166 93
172 165 95
162 156 87
166 160 87
157 151 79
154 148 74
168 161 87
165 160 85
164 158 82
167 161 90
160 153 84
160 154 83
162 156 87
163 156 80
160 154 84
159 152 84
157 152 78
164 157 84
155 148 79
156 151 80
157 151 75
151 144 74
150 144 68
157 150 75
154 148 72
148 142 70
150 144 72
146 140 62
136 131 60
149 143 70
141 135 66
141 135 66
144 138 65
139 133 64
152 148 65
139 138 53
142 147 47
157 163 56
159 169 51
154 165 36
154 166 44
155 170 36
167 184 22
166 183 30
163 183 0
169 189 16
172 193 16
173 197 0
174 197 0
172 195 0
173 197 0
173 196 0
173 196 0
173 196 0
173 196 0
173 197 0
171 195 0
170 195 0
173 197 0
173 195 0
171 195 0
173 196 0
174 196 0
171 195 0
174 197 0
174 198 0
171 195 0
170 194 0
172 196 0
168 192 0
170 194 0
168 191 0
168 191 0
173 196 0
171 194 0
171 195 0
172 195 0
173 196 0
173 196 0
170 194 0
173 197 0
174 197 0
173 197 0
169 193 0
173 196 0
173 196 0
169 194 0
173 196 0
172 195 0
171 194 0
173 197 0
171 195 0
173 197 0
172 195 0
172 196 0
173 196 0
176 198 0
170 194 0
172 196 0
171 195 0
173 196 0
171 194 0
171 194 0
172 195 0
172 196 0
171 195 0
170 192 0
173 197 0
169 193 0
171 195 0
170 193 0
170 194 0
172 195 0
169 193 0
172 195 0
170 193 0
171 194 0
169 192 0
171 195 0
171 194 0
168 191 0
170 193 0
169 193 0
172 195 0
169 192 0
170 194 0
173 197 0
172 194 0
169 191 0
171 193 0
173 196 0
172 196 0
171 194 0
168 191 0
173 196 0
169 192 0
173 196 0
162 185 51
135 161 103
91 121 139
62 98 167
61 98 159
63 100 177
62 98 166
62 99 170
62 98 166
62 98 168
63 100 173
62 98 169
62 98 172
63 99 172
62 98 171
63 99 176
62 98 168
62 99 171
62 99 175
62 99 170
62 99 175
62 99 177
62 99 174
63 99 173
63 100 177
62 98 173
62 99 173
62 99 179
63 99 175
62 99 177
62 99 177
63 99 173
62 99 175
62 99 175
62 99 177
62 99 177
62 99 174
62 99 176
62 99 177
62 99 176
62 99 174
62 99 175
62 99 177
62 99 177
62 99 173
62 98 172
62 99 176
62 99 175
62 99 175
61 98 174
63 100 178
62 99 177
62 99 179
62 99 177
62 99 178
62 99 179
62 99 176
62 99 176
61 99 178
62 99 180
63 99 178
62 99 176
62 99 176
62 99 174
62 99 174
62 99 179
62 99 178
62 99 180
62 99 177
62 99 175
62 99 178
62 99 176
62 99 177
61 98 174
63 100 178
62 99 179
62 99 176
62 99 176
62 99 176
62 99 179
62 99 178
62 99 173
62 99 177
62 99 178
62 99 176
62 99 177
62 99 180
63 100 175
63 100 180
62 99 177
62 99 176
62 99 178
62 99 177
62 99 177
62 99 180
63 99 178
62 99 174
63 100 177
62 99 177
63 100 181
62 99 180
62 99 177
62 99 173
62 98 171
62 99 174
62 99 176
62 99 178
62 99 175
62 99 175
62 99 178
62 99 173
62 99 177
62 99 178
62 99 177
62 99 175
61 98 173
62 99 173
62 99 176
61 98 176
62 99 176
62 99 175
62 98 173
62 99 173
62 99 176
62 99 177
62 99 171
63 99 174
62 98 172
62 99 173
62 99 176
63 100 176
62 99 176
62 99 174
61 97 164
63 99 175
62 99 176
61 97 167
62 99 173
61 98 172
62 99 170
62 99 174
62 99 174
62 99 172
62 98 172
62 98 170
61 97 167
61 98 172
61 98 166
62 98 167
61 98 171
61 98 174
61 97 167
62 98 167
62 98 170
61 98 167
62 99 171
62 99 172
61 96 161
61 96 166
60 95 158
61 96 161
60 95 156
60 96 158
62 97 166
60 95 153
59 89 144
68 85 111
59 71 81
57 66 62
60 65 49
57 63 46
53 60 46
68 71 50
75 80 55
63 69 45
78 81 57
71 77 57
93 96 64
78 84 60
92 95 64
86 91 64
93 96 67
81 86 59
109 110 67
98 100 65
97 100 63
103 106 72
124 123 74
113 116 72
106 109 72
127 126 80
116 117 75
129 128 83
119 120 78
117 117 77
129 128 82
130 130 82
132 131 79
126 127 80
135 133 84
142 141 82
142 140 86
140 137 79
141 139 83
131 130 76
150 146 89
152 149 89
148 145 87
146 144 86
150 147 88
147 144 83
146 144 84
152 148 88
154 151 88
147 144 83
154 150 85
155 151 87
155 151 91
166 160 97
154 150 90
164 159 95
163 159 91
167 161 91
166 161 96
164 159 93
164 158 87
168 163 91
168 162 96
167 162 97
170 164 95
166 161 93
168 163 88
164 159 88
167 162 93
167 161 95
165 159 90
164 158 87
169 163 90
170 163 94
168 163 88
171 164 91
167 162 85
170 163 90
171 165 93
167 161 87
170 164 87
171 164 91
171 165 93
173 165 94
175 168 93
170 164 90
171 164 94
165 159 85
167 162 91
171 164 89
171 165 93
167 161 87
169 162 92
164 157 86
166 161 85
167 160 85
168 162 84
168 160 87
166 160 84
165 159 84
169 162 90
164 158 84
164 158 87
165 159 82
161 156 78
155 149 76
159 153 80
162 155 78
165 158 86
163 157 85
157 152 76
157 151 74
162 155 86
163 156 77
157 151 80
151 146 77
156 150 78
153 147 73
155 149 75
157 152 72
148 142 71
154 148 76
153 147 75
152 145 73
155 149 72
148 142 64
156 149 76
142 137 59
133 127 58
139 133 66
145 140 60
137 133 58
142 142 52
150 148 67
147 150 57
149 157 45
144 153 37
150 162 39
158 170 41
159 175 25
165 182 25
169 189 28
167 186 19
171 192 0
172 193 0
174 197 0
174 197 0
172 195 0
173 197 0
173 197 0
172 196 0
174 196 0
174 197 0
173 196 0
174 196 0
171 195 0
171 195 0
172 196 0
172 195 0
173 196 0
175 198 0
171 195 0
173 196 0
173 196 0
171 195 0
172 195 0
170 194 0
170 193 0
171 195 0
172 195 0
172 196 0
171 194 0
171 194 0
172 195 0
168 192 0
172 195 0
171 194 0
173 196 0
173 195 0
172 195 0
172 195 0
175 198 0
171 195 0
170 193 0
171 194 0
173 196 0
171 194 0
174 198 0
173 196 0
174 197 0
171 194 0
171 194 0
174 197 0
173 196 0
173 197 0
171 194 0
172 196 0
173 197 0
170 193 0
171 195 0
173 196 0
172 195 0
171 194 0
175 197 0
171 195 0
168 191 0
173 195 0
170 193 0
173 197 0
171 195 0
169 192 0
170 194 0
172 195 0
169 193 0
171 195 0
173 195 0
170 193 0
172 196 0
174 198 0
167 192 0
168 192 0
171 194 0
171 194 0
170 193 0
170 193 0
170 194 0
168 192 0
173 196 0
167 190 0
170 194 0
172 195 0
169 192 0
167 190 0
173 196 0
168 193 18
153 177 82
124 149 111
68 102 154
63 99 165
62 98 167
62 98 162
61 97 157
62 98 167
62 99 168
61 98 163
62 99 174
63 100 169
62 98 167
62 99 174
62 99 170
63 99 175
63 100 175
62 99 173
62 99 173
62 98 168
62 99 174
62 99 170
62 99 173
63 100 174
63 99 175
62 99 175
62 99 172
62 99 174
62 99 173
62 99 178
62 98 173
62 99 173
62 99 176
63 99 176
61 99 177
62 99 176
63 100 176
62 99 176
62 99 176
62 99 177
62 98 174
62 99 178
62 99 174
62 98 176
62 99 177
61 98 175
62 99 178
62 99 177
62 99 179
63 99 178
62 99 176
62 99 177
62 99 176
63 99 177
62 99 175
61 98 177
62 99 176
62 99 176
62 99 176
62 99 177
62 99 174
62 99 178
62 99 177
62 99 177
62 99 175
62 98 175
61 98 175
62 99 179
62 99 176
62 99 177
61 98 173
62 99 176
62 99 180
62 99 175
62 99 177
62 99 179
62 99 180
63 100 181
62 99 174
62 99 176
62 99 179
63 99 176
62 99 180
62 99 174
62 98 175
62 99 178
62 99 177
62 99 177
62 99 177
62 99 178
61 98 176
62 99 176
62 99 180
62 99 173
62 99 178
62 99 176
62 98 175
63 99 176
61 98 175
62 99 177
62 99 174
62 99 178
62 99 177
62 99 176
63 99 176
62 99 177
62 99 179
62 99 176
63 100 177
62 99 174
62 99 173
62 99 176
63 100 175
62 99 177
62 99 179
62 99 171
62 99 173
62 99 176
61 98 170
62 99 175
62 99 176
63 99 175
62 99 178
62 99 173
62 99 174
62 98 173
62 99 170
61 98 174
62 99 174
62 99 174
62 99 173
63 99 174
62 99 173
62 99 174
61 97 171
63 99 172
61 98 172
62 99 173
62 99 173
63 99 173
62 99 173
62 98 167
62 98 170
62 99 174
61 98 171
62 98 174
62 98 173
61 98 167
62 99 170
63 99 171
61 97 164
61 96 164
62 97 164
62 98 170
62 98 168
62 98 171
62 98 171
61 96 159
61 96 160
62 98 166
61 96 160
61 96 160
61 96 164
61 96 162
60 93 154
58 89 149
57 82 125
62 78 102
52 65 75
56 63 55
62 66 45
76 80 55
59 65 48
71 76 53
79 83 57
67 74 53
81 84 58
88 93 63
80 84 61
81 87 60
88 91 60
95 96 61
98 100 65
91 93 60
105 108 71
114 114 73
98 101 70
109 111 74
106 108 71
108 111 74
109 111 75
113 113 70
120 119 72
124 124 75
126 126 76
129 128 81
126 127 76
122 122 73
135 133 78
124 124 78
139 136 85
138 137 79
148 145 89
142 140 84
145 142 83
143 140 85
148 146 89
145 143 89
153 149 88
150 146 91
150 146 85
146 144 78
153 150 83
159 156 89
157 153 89
159 155 92
155 151 83
161 155 85
157 152 88
167 161 96
167 161 93
160 156 90
168 162 91
163 158 89
158 153 90
156 152 87
169 163 92
170 164 97
164 159 91
168 162 89
166 160 90
168 162 91
166 161 88
168 163 94
171 163 93
163 159 86
169 164 91
167 161 84
172 166 94
173 167 90
166 161 91
169 162 90
170 165 90
169 163 93
172 165 95
169 163 91
172 165 90
173 166 92
172 165 94
170 163 89
170 164 95
171 165 91
167 160 87
164 158 86
171 165 91
171 164 87
168 162 87
165 159 87
164 158 87
164 158 87
170 164 86
164 159 87
169 162 88
161 155 78
164 158 80
163 157 81
163 157 83
163 156 84
160 155 82
162 156 84
159 152 79
159 153 81
163 156 87
156 150 76
151 145 76
159 154 77
168 160 87
157 151 78
155 149 75
163 157 83
156 150 75
156 150 76
149 144 67
153 147 73
149 143 67
149 142 66
159 152 80
144 139 68
145 140 69
150 144 68
149 143 69
144 139 67
147 140 66
139 134 56
139 133 61
142 137 63
142 140 57
138 137 56
138 139 49
152 156 53
148 153 52
153 165 39
157 168 42
155 167 39
155 169 34
162 179 22
163 182 25
171 190 22
170 192 0
172 196 0
172 196 0
171 195 0
173 196 0
171 194 0
172 196 0
173 196 0
174 198 0
172 195 0
172 196 0
173 197 0
175 198 0
170 194 0
171 195 0
173 196 0
172 195 0
172 196 0
170 193 0
173 197 0
173 196 0
171 195 0
167 191 0
174 197 0
173 195 0
173 197 0
170 193 0
169 193 0
172 195 0
171 194 0
172 196 0
169 192 0
173 197 0
170 193 0
171 195 0
173 196 0
175 198 0
170 193 0
169 193 0
170 194 0
170 193 0
171 195 0
174 198 0
174 197 0
171 195 0
170 194 0
172 195 0
172 195 0
174 198 0
174 197 0
171 194 0
172 196 0
173 196 0
171 195 0
172 196 0
169 194 0
172 195 0
173 196 0
169 192 0
170 194 0
171 194 0
172 196 0
174 196 0
171 195 0
170 194 0
170 193 0
170 193 0
170 193 0
171 194 0
172 195 0
171 194 0
172 195 0
170 192 0
169 193 0
171 193 0
172 196 0
171 194 0
171 195 0
174 197 0
170 192 0
172 195 0
168 192 0
171 194 0
170 194 0
168 191 0
168 192 0
172 195 0
174 196 0
165 188 0
170 192 0
171 194 0
164 187 40
138 162 94
103 131 136
62 99 164
62 98 161
62 99 167
62 98 160
62 98 163
62 99 167
62 98 169
62 99 168
62 99 169
63 99 175
63 99 171
62 98 170
63 99 172
62 99 171
62 99 170
63 99 171
62 99 174
62 99 173
62 99 171
62 99 172
63 100 175
61 98 170
62 99 174
62 98 173
61 98 170
61 98 170
62 99 171
62 99 176
62 99 176
62 99 174
62 99 178
62 99 177
62 99 177
62 99 177
63 100 179
63 99 177
63 100 178
62 99 174
62 99 173
62 99 174
63 100 179
62 99 178
63 99 178
62 99 173
62 99 176
62 99 177
62 99 176
62 99 177
62 98 174
62 98 173
62 99 175
62 99 175
62 99 179
62 99 177
62 99 172
62 99 179
62 99 178
62 99 181
62 99 180
62 99 177
62 99 178
62 98 174
62 99 178
62 99 176
62 99 174
62 99 180
62 98 175
62 99 177
62 98 172
61 98 179
62 99 176
63 100 178
62 99 175
62 99 178
62 99 177
62 99 173
62 99 174
61 98 175
62 99 179
62 99 179
61 98 170
63 99 177
63 100 180
62 99 175
63 100 178
62 99 178
61 98 175
62 99 180
61 99 177
62 99 178
62 99 174
62 99 177
62 99 177
62 99 173
62 99 176
61 98 176
62 99 176
62 99 176
62 99 171
62 99 174
63 99 176
62 99 174
62 99 174
62 99 177
62 98 173
62 98 172
62 99 176
62 99 173
62 99 174
62 99 174
62 99 175
62 99 174
61 98 168
62 99 176
62 99 174
62 99 174
62 98 171
62 99 174
63 99 174
62 98 169
63 99 175
63 99 174
62 99 175
61 98 168
62 99 172
62 98 171
62 99 171
62 98 169
62 99 174
62 99 176
62 99 172
63 99 173
63 99 174
62 99 174
62 99 171
62 99 174
62 99 173
62 98 170
62 99 170
63 99 171
63 99 171
62 98 174
62 99 172
62 98 170
62 98 173
62 98 167
61 98 169
62 99 169
62 98 169
62 97 163
62 98 172
62 98 168
61 97 166
62 98 168
60 96 161
62 99 171
61 96 161
61 97 168
62 97 165
61 97 165
61 95 160
61 97 160
61 95 161
60 94 150
54 84 139
55 78 114
53 66 83
49 57 44
50 56 42
65 69 49
62 68 50
62 67 49
60 67 47
73 77 50
65 70 51
75 79 52
76 81 58
83 88 60
87 91 62
98 100 66
98 101 65
96 98 70
92 96 61
107 108 71
98 101 66
106 107 65
120 120 76
106 108 64
114 114 72
111 114 71
121 123 81
124 125 75
134 132 81
123 123 76
128 127 78
132 130 81
123 124 76
126 127 79
124 122 72
138 135 82
145 142 81
139 137 86
139 138 82
143 140 82
152 148 90
138 138 78
153 150 88
156 150 91
155 150 88
157 153 90
148 146 87
151 147 88
152 149 82
156 152 89
165 159 91
149 146 89
157 153 86
160 155 90
162 157 87
159 154 86
163 157 93
162 157 87
166 160 91
162 157 87
165 160 94
165 159 91
167 161 90
168 163 91
167 162 92
164 159 86
161 155 85
164 159 89
165 160 88
172 165 96
172 165 91
170 164 90
170 163 90
172 166 92
172 166 93
169 163 93
167 161 87
169 163 91
168 162 92
166 160 87
170 165 91
172 165 93
168 162 93
172 165 89
168 162 86
170 165 89
167 161 87
162 157 83
169 163 88
169 163 86
169 162 91
163 158 87
165 158 87
167 161 84
170 163 94
173 167 95
166 159 80
167 160 84
166 160 81
157 152 82
162 156 79
164 157 82
166 160 81
165 158 86
164 157 79
158 152 77
161 156 81
163 156 78
165 158 80
157 150 73
158 151 75
161 155 81
157 152 75
154 147 73
152 146 71
154 148 76
159 153 75
158 152 80
144 138 67
152 146 73
155 149 69
152 145 72
156 150 74
148 143 68
147 141 68
148 141 69
138 133 59
149 143 69
143 137 62
140 135 56
140 138 58
140 139 52
136 138 37
148 152 49
145 151 45
156 164 47
150 162 34
162 178 25
163 179 28
158 175 25
163 182 22
166 184 16
171 194 0
171 193 0
171 195 0
174 196 0
168 193 0
171 195 0
170 193 0
172 195 0
174 197 0
170 193 0
169 193 0
174 197 0
173 195 0
173 196 0
172 196 0
175 198 0
171 196 0
170 194 0
173 197 0
171 194 0
174 198 0
172 196 0
172 194 0
167 191 0
173 196 0
170 193 0
171 194 0
173 196 0
172 194 0
172 195 0
172 195 0
173 197 0
175 198 0
171 195 0
166 190 0
171 194 0
170 193 0
175 198 0
172 195 0
173 195 0
171 195 0
170 194 0
172 196 0
171 194 0
172 196 0
173 196 0
172 195 0
171 194 0
171 194 0
175 197 0
171 195 0
170 193 0
171 194 0
172 195 0
172 195 0
172 195 0
171 194 0
167 191 0
172 196 0
171 195 0
169 192 0
170 194 0
169 192 0
170 193 0
173 196 0
169 192 0
173 196 0
168 191 0
173 196 0
171 194 0
172 195 0
171 194 0
171 195 0
171 194 0
171 194 0
171 194 0
170 193 0
173 196 0
169 193 0
174 197 0
170 193 0
170 193 0
174 197 0
171 195 0
171 195 0
166 189 0
169 191 0
173 196 0
172 196 0
168 192 0
170 193 18
163 187 40
136 160 110
80 111 155
62 98 164
62 98 161
62 98 168
62 98 164
63 99 170
62 98 168
62 99 169
62 99 166
62 98 164
63 100 175
63 100 172
63 99 174
62 99 170
62 99 174
62 99 168
62 98 168
61 97 166
62 99 172
62 99 171
62 99 176
61 98 167
62 99 173
62 99 171
62 99 176
62 99 175
62 99 177
62 99 176
61 98 171
62 99 176
62 99 174
62 99 174
62 98 172
61 98 170
62 99 177
62 99 177
63 100 178
62 99 173
62 99 176
62 99 176
62 99 177
62 99 177
63 100 177
62 99 174
62 99 179
62 99 175
62 99 178
62 99 177
62 99 180
62 99 178
62 99 175
62 99 177
62 99 176
63 99 176
62 99 177
62 99 178
61 98 177
62 99 181
62 99 174
62 99 175
62 99 174
62 99 176
63 100 179
62 99 178
61 98 178
61 98 176
61 98 175
62 99 173
63 100 180
62 99 178
62 99 178
62 99 175
63 100 180
63 100 181
63 99 177
63 100 178
62 99 178
61 98 176
61 98 175
62 99 178
62 99 172
62 99 175
61 98 174
62 99 173
62 99 177
62 99 178
62 99 177
62 99 180
62 99 172
62 99 174
62 99 178
62 99 175
62 99 175
62 99 177
63 99 179
61 98 169
62 99 177
62 98 172
62 99 176
62 99 179
62 99 177
62 99 170
63 99 176
62 99 170
63 100 177
62 99 172
62 99 173
62 99 177
62 98 168
62 99 177
62 99 175
62 99 180
63 99 177
62 99 173
63 100 176
62 99 173
61 98 174
62 98 169
63 99 176
62 99 175
62 99 173
63 100 178
62 99 169
62 99 176
62 99 174
62 99 176
62 99 173
62 99 179
62 99 175
62 99 175
62 99 178
62 98 170
63 99 176
62 98 174
62 99 170
62 99 174
62 99 171
62 99 173
62 99 172
62 99 170
61 98 164
63 99 169
61 97 167
63 99 171
61 98 164
62 99 174
61 97 167
62 99 170
62 98 167
62 98 167
62 97 164
63 99 170
61 97 168
62 98 170
62 97 164
61 97 167
63 98 166
62 97 160
61 97 163
61 96 163
61 96 159
61 97 161
59 93 151
59 92 150
61 96 157
58 91 151
53 82 129
58 73 94
49 60 66
62 65 45
46 53 36
60 67 49
57 64 48
66 70 48
77 80 56
62 69 51
82 85 52
69 75 53
80 83 60
78 83 57
86 88 54
88 93 65
90 94 57
100 103 67
99 102 69
108 109 65
109 111 75
109 109 67
105 106 67
121 120 75
111 112 71
119 118 74
125 124 78
121 120 79
125 124 78
131 130 78
128 128 78
131 129 73
130 129 75
136 135 80
142 139 80
133 131 80
141 140 84
149 146 86
139 136 84
142 140 84
143 140 83
151 147 86
146 144 83
144 143 81
159 154 86
145 143 83
159 155 90
157 152 86
147 145 86
158 154 88
161 156 93
149 147 87
160 155 87
160 155 86
163 157 85
157 152 81
161 157 90
163 158 84
165 160 92
168 162 93
166 160 90
163 157 82
166 159 92
167 161 91
168 162 92
167 162 91
168 162 88
165 161 90
167 162 92
167 161 86
172 165 94
167 161 89
167 160 85
170 163 91
171 165 93
171 164 93
173 167 96
167 162 89
172 164 90
168 161 88
170 164 96
171 164 93
170 163 86
164 158 87
168 163 90
165 158 77
169 162 89
169 162 91
168 162 87
169 162 83
165 159 80
166 160 84
167 161 87
166 160 87
169 162 89
159 153 80
164 157 85
164 157 87
160 154 87
161 155 75
161 155 82
156 150 77
159 152 80
164 157 82
165 158 84
164 157 86
160 153 79
159 152 80
166 159 85
154 148 68
164 157 80
153 147 71
148 142 69
158 152 75
155 148 70
159 152 77
153 147 74
148 141 68
152 146 74
149 143 71
156 148 76
146 140 70
149 143 69
146 140 61
150 144 66
141 136 58
143 137 57
146 139 61
139 134 68
138 135 59
141 140 49
131 135 44
155 161 49
149 159 37
153 162 47
158 170 37
162 176 30
160 176 22
167 185 16
167 186 19
165 185 11
171 191 11
172 195 0
172 195 0
174 198 0
171 195 0
173 196 0
170 193 0
173 196 0
171 194 0
174 197 0
173 197 0
173 197 0
174 197 0
173 196 0
173 196 0
171 195 0
172 195 0
174 197 0
172 195 0
172 195 0
171 194 0
173 196 0
172 196 0
173 196 0
170 193 0
172 196 0
171 194 0
168 192 0
171 195 0
169 193 0
171 195 0
172 195 0
173 196 0
169 193 0
171 194 0
173 196 0
172 196 0
171 195 0
172 195 0
172 195 0
172 195 0
173 196 0
169 192 0
173 195 0
171 195 0
173 196 0
170 194 0
172 196 0
171 194 0
172 196 0
169 192 0
168 191 0
170 193 0
171 194 0
170 194 0
169 192 0
170 194 0
171 194 0
169 192 0
169 193 0
171 194 0
171 195 0
171 194 0
172 196 0
170 192 0
171 194 0
170 194 0
168 191 0
170 193 0
173 196 0
170 194 0
171 194 0
170 193 0
170 193 0
170 193 0
172 195 0
167 190 0
171 195 0
170 194 0
171 195 0
168 192 0
169 192 0
170 194 0
172 196 0
168 191 0
171 196 0
170 193 0
172 194 0
168 191 0
172 195 0
163 186 18
149 172 80
113 140 131
67 102 167
61 98 162
62 98 162
63 99 166
62 98 166
62 99 164
63 99 173
61 97 161
63 99 176
62 98 166
63 99 175
61 97 162
62 99 169
62 99 169
62 99 172
62 98 168
62 99 175
62 98 167
62 99 177
61 98 170
61 98 163
62 99 172
62 99 173
62 98 172
62 99 172
62 99 179
63 100 179
62 99 175
62 99 173
62 99 172
62 99 175
62 99 174
62 99 176
62 99 173
62 99 175
62 99 173
62 99 175
62 99 174
62 99 177
63 99 175
62 99 175
63 100 178
62 99 174
63 99 175
62 99 175
63 99 176
61 98 175
62 98 176
62 99 176
62 99 176
63 99 175
62 99 176
63 99 178
63 100 175
62 99 178
62 99 179
63 100 177
62 99 176
62 99 176
62 99 176
63 100 178
62 98 175
62 98 170
62 99 175
63 100 179
62 99 177
62 99 175
62 99 179
62 98 171
62 99 175
61 98 177
62 99 177
62 99 179
62 99 177
62 99 177
61 98 173
62 99 179
62 99 179
62 99 179
62 99 176
62 99 175
62 99 179
62 99 177
62 99 177
61 98 174
62 99 176
62 98 174
62 99 175
62 99 176
61 98 175
61 98 174
62 99 175
62 99 173
62 99 177
62 99 174
61 98 174
62 99 179
62 99 177
61 98 171
62 99 178
61 98 175
62 99 172
62 99 176
62 99 173
62 99 174
62 99 177
62 98 172
62 99 174
62 99 172
62 99 174
63 100 178
62 98 172
62 99 173
63 99 175
62 99 172
62 99 175
63 99 169
62 99 173
62 99 175
63 99 176
62 99 173
62 99 171
62 99 175
63 99 176
62 98 171
62 99 172
62 98 170
62 99 171
63 99 172
62 99 176
62 98 171
62 99 174
62 99 175
62 99 173
62 99 171
62 99 172
62 99 174
62 98 169
62 98 168
63 99 174
62 98 170
63 98 172
62 99 167
62 99 173
62 98 170
62 99 171
62 98 170
62 99 172
62 98 168
62 99 170
62 98 164
62 98 167
61 96 155
60 95 156
62 97 168
61 97 170
61 97 169
62 97 164
61 96 158
62 97 161
60 96 163
61 97 162
60 95 158
61 96 159
60 95 158
59 92 148
54 85 137
49 70 101
66 73 70
65 72 51
66 72 54
60 67 53
63 68 48
62 68 42
72 76 50
67 72 47
80 84 56
72 77 50
83 86 60
70 77 54
97 100 61
84 89 58
90 94 60
89 93 60
88 93 62
97 99 62
108 110 71
111 111 71
102 104 62
110 110 67
109 110 70
117 118 72
117 117 72
105 106 68
133 131 82
125 124 75
137 135 82
127 127 75
122 121 70
132 132 82
145 141 81
138 137 80
138 136 77
131 130 79
129 128 79
149 146 90
145 143 80
146 144 84
152 148 83
152 148 87
152 148 88
147 144 86
151 147 84
148 145 80
152 149 79
154 150 80
157 153 86
162 156 84
156 152 92
161 156 88
160 155 85
157 153 86
158 153 83
164 158 91
164 159 89
158 154 83
159 154 83
166 159 87
161 157 80
165 159 85
168 162 89
166 160 91
171 165 95
160 155 80
169 163 93
164 158 88
166 161 86
170 164 90
170 164 91
172 166 92
170 163 90
172 166 94
168 162 91
168 162 90
165 159 82
169 163 89
166 159 86
172 165 86
168 161 83
169 163 86
166 161 85
172 166 90
166 159 84
169 162 87
167 161 83
165 158 85
167 160 83
170 163 87
164 158 85
164 158 81
167 160 84
162 156 84
164 157 86
165 159 84
166 159 86
164 159 80
160 154 81
159 154 75
162 155 83
155 150 73
156 151 79
158 153 74
152 146 77
154 148 73
156 150 72
157 151 79
153 147 80
160 153 75
163 156 76
156 149 73
158 151 76
150 145 71
144 138 67
150 143 71
146 139 68
155 149 72
150 143 75
152 146 64
140 134 63
148 142 65
143 138 62
137 133 49
141 135 60
145 139 59
150 148 62
135 133 52
139 141 41
147 151 47
142 150 39
154 159 48
153 162 37
156 169 39
161 176 28
168 183 32
163 183 16
166 185 25
170 192 0
170 192 0
171 195 0
170 194 0
174 196 0
173 196 0
173 197 0
172 196 0
170 194 0
171 194 0
171 195 0
174 197 0
171 194 0
172 196 0
173 196 0
173 197 0
174 197 0
171 194 0
172 196 0
171 195 0
169 194 0
170 194 0
173 197 0
171 195 0
171 194 0
169 193 0
173 196 0
166 189 0
174 198 0
172 196 0
173 196 0
171 195 0
172 196 0
171 194 0
173 196 0
173 197 0
171 195 0
173 197 0
172 196 0
170 193 0
174 197 0
171 195 0
172 196 0
170 193 0
172 195 0
170 193 0
170 193 0
173 196 0
168 191 0
170 194 0
169 192 0
170 194 0
171 195 0
170 194 0
171 195 0
172 196 0
173 197 0
173 196 0
173 196 0
172 195 0
170 193 0
168 191 0
171 195 0
172 196 0
170 195 0
173 197 0
169 193 0
170 193 0
169 193 0
169 192 0
173 196 0
172 196 0
172 196 0
171 195 0
170 193 0
166 190 0
172 195 0
169 193 0
172 196 0
170 193 0
167 190 0
168 191 0
169 192 0
172 195 0
171 194 0
172 194 0
170 193 0
172 195 0
172 194 0
170 192 0
167 191 0
158 182 51
143 169 99
94 123 143
61 97 156
62 98 167
62 99 167
62 98 166
62 99 169
62 98 168
62 98 162
62 99 171
62 98 167
62 99 171
62 98 163
64 100 174
63 99 172
62 99 173
62 98 169
61 98 166
62 98 168
63 99 176
63 100 178
62 98 172
62 99 176
62 99 173
62 99 167
62 99 174
62 99 173
62 99 174
62 99 175
62 99 172
62 99 172
62 98 172
62 99 172
62 99 175
62 99 177
62 99 174
62 99 175
62 99 175
62 99 173
62 99 172
63 99 178
62 99 175
62 98 172
63 100 177
62 99 178
62 99 176
62 99 177
62 99 176
62 99 175
62 99 180
62 99 178
62 99 175
62 99 175
61 98 174
63 100 179
63 100 177
63 100 177
62 99 178
62 99 176
62 99 176
63 99 176
62 99 178
62 99 176
61 98 173
62 99 174
62 99 176
61 98 172
62 99 177
62 98 171
62 99 178
61 98 178
63 99 172
62 99 177
62 99 175
62 99 177
62 99 177
62 99 175
63 99 174
62 98 170
62 99 176
62 99 177
62 99 173
62 99 178
63 99 176
62 98 175
63 99 177
62 99 174
62 99 174
62 99 174
61 98 175
63 99 176
62 99 176
62 99 175
62 98 172
62 99 175
62 99 174
62 99 176
62 99 174
63 99 176
62 99 172
61 98 169
62 99 175
62 99 176
63 100 177
62 99 172
63 100 176
62 99 173
62 99 176
62 99 173
62 99 176
62 99 175
62 99 174
63 99 177
62 99 177
62 99 173
61 98 167
62 99 174
62 99 176
62 99 174
62 99 170
62 98 170
62 98 168
63 99 174
62 99 173
62 99 174
62 99 175
62 99 174
63 100 175
61 98 167
63 99 171
62 99 174
62 98 170
62 98 171
62 99 172
62 98 169
62 98 168
62 98 171
62 99 175
62 98 173
63 99 171
62 99 171
62 98 168
62 98 168
62 98 164
62 98 169
61 97 166
62 98 168
62 99 173
61 98 168
62 98 166
61 98 169
61 97 168
61 98 170
61 97 167
61 97 165
61 97 161
62 98 168
62 97 164
62 98 164
61 97 160
60 96 163
61 96 167
60 96 160
61 97 166
60 94 159
61 95 160
59 93 156
60 95 160
59 91 152
52 76 110
58 69 76
50 58 46
62 66 45
55 62 42
65 68 45
67 72 47
71 76 52
60 67 51
72 78 52
74 79 55
81 84 52
75 80 54
89 93 64
97 98 63
90 93 62
96 99 66
97 100 65
100 101 60
94 95 60
114 114 71
103 105 67
117 117 67
111 113 69
123 123 76
108 111 67
120 119 71
125 124 72
114 116 75
123 121 70
127 126 71
129 128 78
129 128 75
141 138 82
137 135 79
139 137 78
143 140 81
128 128 75
141 138 73
145 142 84
142 139 81
160 155 88
148 144 82
149 146 77
159 154 91
148 145 80
151 147 79
160 155 86
157 152 84
154 150 84
158 153 87
160 155 85
159 155 87
162 157 89
163 158 81
163 158 86
166 160 89
166 160 90
163 158 86
168 162 94
165 160 84
165 159 88
162 156 90
161 156 81
167 161 89
167 161 89
166 160 90
164 159 84
168 162 87
171 164 91
167 161 90
171 164 95
165 160 80
167 161 87
165 160 80
169 163 85
171 165 92
165 159 86
168 162 84
168 161 86
170 163 85
163 157 80
170 164 88
170 163 84
170 163 88
159 155 75
168 161 88
171 163 90
166 159 83
168 160 90
172 163 93
170 163 89
161 155 77
161 155 78
167 161 88
168 162 80
163 156 85
165 158 84
161 155 81
160 153 76
167 160 88
166 159 84
160 153 85
160 154 80
160 154 75
164 158 84
164 158 82
160 154 76
149 144 68
159 152 75
155 149 73
149 143 67
158 152 70
150 144 74
153 146 77
152 146 75
149 142 72
150 144 66
150 144 70
156 150 68
143 137 63
144 138 63
140 134 61
137 132 61
144 139 62
138 132 62
143 137 59
138 136 52
142 141 56
151 153 59
152 154 56
158 167 49
151 160 39
158 170 34
153 164 37
160 177 25
165 184 19
165 182 28
163 182 19
170 192 11
170 191 0
171 193 0
172 195 0
171 194 0
172 195 0
173 195 0
174 197 0
171 195 0
171 195 0
170 193 0
169 193 0
172 195 0
172 195 0
171 194 0
172 196 0
171 194 0
175 198 0
170 194 0
174 198 0
171 194 0
171 195 0
171 194 0
172 196 0
172 195 0
174 197 0
172 195 0
171 194 0
173 196 0
171 194 0
171 195 0
169 192 0
172 195 0
170 194 0
174 196 0
170 194 0
172 195 0
169 192 0
174 197 0
171 195 0
165 190 0
170 194 0
172 195 0
169 192 0
170 194 0
173 197 0
166 190 0
171 194 0
170 193 0
169 193 0
172 196 0
166 190 0
173 196 0
173 196 0
172 196 0
170 193 0
172 194 0
173 196 0
173 196 0
169 192 0
171 194 0
171 195 0
172 195 0
170 194 0
173 197 0
169 193 0
173 196 0
174 197 0
173 196 0
169 192 0
171 195 0
170 194 0
169 193 0
169 192 0
167 191 0
170 194 0
168 192 0
171 194 0
170 193 0
171 195 0
170 194 0
170 194 0
171 194 0
169 193 0
169 193 0
171 194 0
168 191 0
167 191 0
171 194 0
171 194 0
168 191 18
157 180 62
122 148 118
71 105 163
62 99 165
62 98 161
62 98 166
61 97 169
62 99 165
62 98 164
62 98 167
62 99 167
62 98 165
63 100 176
62 99 170
61 98 168
62 98 167
62 99 168
62 99 168
63 99 171
62 99 171
62 99 175
62 99 175
61 98 172
62 98 170
63 99 175
62 99 176
61 98 170
62 99 178
61 98 173
62 99 173
62 99 176
62 99 175
63 99 173
62 99 175
62 98 169
62 98 169
62 99 173
63 99 177
62 99 175
62 99 176
62 99 180
62 99 171
61 98 172
62 99 175
62 99 175
62 99 173
62 99 176
62 99 177
62 99 176
62 99 178
62 99 177
62 98 172
62 99 176
62 99 179
63 100 177
62 98 174
62 99 173
63 99 179
62 99 178
62 99 178
62 99 174
63 99 176
62 99 174
62 99 173
63 100 180
62 99 174
63 100 178
62 99 174
62 99 177
62 99 174
62 99 175
62 99 176
62 99 175
62 99 176
63 99 175
62 99 176
62 99 176
62 99 173
62 99 170
62 99 179
62 99 175
62 99 173
62 99 175
62 99 176
62 99 177
62 99 173
62 99 178
62 99 173
62 99 174
62 99 178
62 99 173
62 99 179
62 99 178
62 99 177
62 99 175
62 99 177
62 99 172
63 100 177
62 99 173
62 99 173
63 100 181
62 99 174
62 99 174
62 99 172
62 99 176
62 98 167
62 99 175
62 99 177
62 98 169
62 99 177
63 100 177
62 99 171
62 98 173
61 98 170
63 99 169
61 98 171
61 98 176
62 99 172
62 99 174
62 99 172
62 98 171
64 100 176
63 99 173
61 98 173
62 99 172
62 99 173
61 98 174
63 99 176
62 98 169
62 99 170
62 98 173
63 99 175
62 98 165
63 99 174
62 99 178
62 99 173
63 100 177
63 99 173
62 99 170
62 98 167
62 99 173
62 98 169
62 99 169
62 98 168
62 98 168
60 97 163
62 99 172
62 99 172
62 99 171
62 98 166
62 98 165
62 98 170
62 98 165
62 98 165
61 97 161
62 97 166
63 99 169
62 98 169
61 97 162
61 97 161
61 97 161
61 96 162
61 97 165
62 97 161
61 96 160
61 97 159
60 95 159
61 96 162
61 95 156
57 90 141
61 85 126
47 67 89
50 62 71
58 63 41
64 68 45
59 65 46
67 72 50
72 75 44
75 77 45
74 78 49
72 77 54
57 63 45
79 82 51
83 85 51
78 83 52
92 94 57
99 100 60
104 106 67
109 108 64
93 97 62
102 104 66
109 109 64
104 106 68
111 111 68
117 117 74
112 112 69
115 115 67
124 124 73
120 119 64
117 117 68
123 122 73
130 130 78
146 143 84
140 137 75
131 129 70
133 132 79
140 137 74
144 141 82
149 146 85
144 142 81
149 146 85
144 141 83
146 142 84
151 147 82
146 144 75
149 146 81
156 151 84
151 147 83
160 155 90
155 150 86
161 155 87
161 156 90
164 158 93
162 157 87
156 151 78
168 162 93
163 157 92
164 158 90
167 161 89
150 147 75
166 160 86
167 161 90
168 163 92
167 161 91
169 162 89
170 164 92
165 159 91
165 159 84
171 165 91
166 160 87
165 159 81
168 162 87
166 160 82
164 158 83
166 160 89
168 162 88
170 164 91
167 161 82
165 160 86
167 162 81
175 167 95
165 159 82
167 162 81
167 160 89
164 158 79
166 159 88
170 164 83
163 156 81
165 159 82
168 161 86
165 159 84
166 160 83
168 162 82
169 162 90
167 161 83
163 157 80
160 154 76
164 157 80
163 156 82
164 158 79
159 153 72
160 154 78
157 152 70
162 155 80
159 153 82
161 154 84
161 156 72
153 147 67
155 149 75
159 153 75
151 144 70
167 159 84
159 152 77
147 141 71
157 151 76
152 147 67
154 148 70
157 151 70
149 142 67
145 139 63
141 135 57
148 142 69
145 139 64
136 132 52
153 147 69
139 134 60
130 125 52
140 137 58
144 145 47
147 148 54
137 143 36
152 158 53
144 154 32
155 166 37
155 167 39
161 176 22
157 173 22
162 181 16
166 186 16
165 186 0
169 191 0
168 188 0
171 194 0
173 196 0
170 194 0
170 194 0
173 197 0
170 194 0
172 196 0
173 196 0
173 197 0
171 194 0
171 194 0
172 196 0
169 193 0
171 194 0
171 193 0
170 194 0
169 193 0
172 195 0
169 193 0
171 194 0
169 191 0
174 197 0
173 197 0
171 194 0
170 194 0
173 197 0
174 197 0
171 194 0
169 192 0
169 192 0
174 197 0
171 194 0
174 197 0
172 195 0
172 195 0
173 197 0
171 195 0
171 194 0
170 194 0
172 196 0
172 195 0
173 196 0
171 194 0
166 189 0
174 197 0
172 195 0
172 196 0
172 196 0
171 195 0
170 193 0
175 198 0
169 192 0
170 193 0
172 195 0
170 194 0
172 195 0
169 192 0
169 193 0
171 195 0
171 194 0
170 193 0
171 194 0
169 193 0
170 193 0
170 193 0
171 195 0
170 193 0
171 194 0
170 194 0
171 193 0
171 194 0
169 193 0
166 190 0
172 196 0
168 192 0
166 190 0
169 192 0
168 192 0
171 194 0
167 190 0
171 194 0
171 194 0
169 192 0
168 192 0
168 191 0
170 194 0
169 192 0
165 189 47
143 167 99
99 128 145
61 98 164
61 97 157
61 97 163
62 98 166
62 98 162
62 98 163
61 97 166
62 98 168
61 98 162
62 98 163
61 98 171
62 98 166
63 99 169
62 98 166
63 99 171
62 99 173
62 98 171
62 99 173
62 99 172
62 98 170
62 99 171
62 99 171
63 100 178
62 99 172
62 99 176
61 98 174
62 98 169
62 98 171
62 99 172
61 98 169
63 99 174
62 99 176
61 98 175
63 99 173
62 98 169
62 99 177
62 99 174
62 99 178
63 99 175
62 98 171
63 100 177
63 99 174
62 99 175
62 99 176
62 99 175
62 98 171
63 99 178
63 100 180
62 99 173
62 99 173
62 99 177
62 99 176
62 99 181
62 99 177
62 98 174
63 100 178
63 100 180
62 99 173
62 99 175
62 99 177
62 99 173
62 99 174
62 99 174
62 99 174
63 99 179
62 99 177
62 99 177
62 99 175
63 99 173
62 99 177
63 99 177
63 99 175
62 99 175
61 98 175
62 99 176
62 99 175
62 99 178
62 99 175
62 99 173
63 99 174
62 99 174
62 98 173
62 99 177
61 98 173
62 99 178
62 99 173
63 99 173
62 99 175
63 100 178
62 99 175
62 98 175
62 99 174
63 99 174
62 99 178
62 99 176
62 99 178
62 98 173
62 98 172
62 99 177
61 98 171
62 99 172
62 99 177
62 99 176
61 98 172
62 99 172
63 99 176
62 98 171
62 99 177
62 99 174
62 99 171
62 99 172
62 99 178
63 99 171
61 98 174
62 99 174
63 100 175
62 99 173
63 100 177
63 99 174
62 98 169
62 99 175
62 99 176
62 99 170
62 99 177
61 98 173
62 99 176
62 99 171
61 98 169
62 99 175
62 99 170
62 99 169
63 99 175
62 99 173
62 99 172
62 98 163
62 98 168
63 99 172
62 98 169
62 99 172
62 98 172
61 98 164
62 98 167
62 98 165
62 98 167
62 98 165
62 98 169
61 97 164
62 98 170
62 98 171
61 97 160
61 98 170
62 99 170
61 96 162
63 99 174
62 98 170
60 96 161
61 98 165
62 98 162
61 96 164
62 97 163
61 96 159
62 97 161
62 98 170
61 96 157
62 97 163
60 94 154
59 93 148
59 91 147
62 89 134
54 73 100
59 69 77
56 61 41
53 58 40
57 63 46
54 63 46
66 72 47
66 71 47
57 66 42
86 89 57
76 80 48
81 84 50
68 74 48
78 84 59
82 86 52
97 101 61
100 102 60
101 104 71
105 107 69
104 105 64
107 108 66
106 108 68
121 121 74
114 115 73
117 117 66
124 124 77
116 117 70
113 113 66
129 128 74
115 115 72
130 129 78
132 131 74
137 136 80
127 126 73
141 139 79
141 139 79
138 135 77
142 139 76
138 137 76
144 142 77
147 145 83
149 146 85
147 145 81
150 147 88
148 145 80
152 148 81
146 143 78
154 150 77
155 150 86
157 153 85
160 155 86
158 154 82
163 158 89
155 151 81
155 151 78
160 155 85
159 154 87
164 157 86
158 153 82
164 157 85
162 158 84
159 154 86
158 154 83
166 160 89
168 162 85
163 157 84
167 161 86
162 157 79
168 161 88
163 157 85
170 164 94
169 163 86
169 164 93
168 162 89
166 160 86
164 159 85
163 158 84
163 157 78
166 160 90
167 161 84
163 158 80
167 160 83
169 161 84
170 163 88
166 160 83
164 158 79
169 162 87
168 161 85
163 158 83
166 160 81
161 155 76
164 157 81
160 154 75
167 161 84
162 155 78
162 155 84
157 152 80
164 158 81
168 160 80
156 150 76
162 155 76
160 153 80
156 149 79
155 149 73
163 156 75
164 158 80
159 153 80
163 156 75
153 146 66
156 149 79
150 144 69
152 146 71
156 150 76
157 151 76
158 151 72
155 149 80
149 142 67
148 143 62
154 147 75
143 137 57
149 143 64
147 142 59
139 134 59
135 129 53
138 133 63
140 136 58
138 136 57
135 136 48
144 145 53
139 142 42
146 152 37
154 160 51
157 172 25
151 165 16
156 172 25
163 179 22
165 184 16
168 188 16
170 190 0
171 193 0
172 193 0
171 194 0
171 195 0
175 198 0
173 196 0
173 196 0
172 195 0
171 194 0
174 197 0
174 197 0
174 197 0
171 194 0
171 194 0
173 197 0
171 195 0
172 196 0
169 193 0
172 196 0
172 195 0
170 194 0
172 194 0
170 194 0
171 194 0
172 195 0
173 196 0
171 194 0
174 197 0
168 191 0
171 196 0
172 196 0
170 194 0
173 196 0
172 195 0
173 196 0
171 194 0
171 195 0
171 194 0
171 194 0
171 194 0
172 196 0
172 195 0
170 194 0
170 193 0
173 197 0
172 195 0
170 193 0
172 194 0
172 196 0
171 194 0
172 196 0
166 190 0
172 195 0
173 196 0
168 191 0
170 193 0
169 192 0
171 194 0
172 196 0
173 196 0
172 195 0
171 194 0
168 192 0
169 192 0
171 196 0
170 193 0
174 196 0
172 195 0
169 192 0
170 194 0
173 196 0
170 194 0
169 194 0
170 193 0
171 193 0
170 193 0
169 192 0
172 195 0
168 192 0
169 192 0
170 194 0
169 192 0
168 192 0
168 191 0
171 195 0
171 193 0
172 195 0
173 195 0
168 191 0
164 187 40
136 161 102
90 120 143
63 99 162
62 98 164
62 98 165
62 98 164
62 98 166
61 97 164
62 98 166
60 96 160
61 98 165
62 98 165
63 99 169
62 98 168
62 98 169
62 98 171
62 99 169
61 98 163
61 98 168
62 99 171
62 99 170
62 99 171
62 99 175
62 99 175
62 99 174
62 98 173
62 99 169
62 99 177
62 98 169
63 99 174
62 99 174
62 99 171
62 99 175
62 99 171
62 99 172
63 99 178
61 98 173
62 99 178
62 99 173
62 98 171
61 98 173
62 99 177
62 99 170
62 99 174
62 99 174
62 99 174
62 99 173
62 99 177
62 99 174
61 98 172
62 99 176
62 99 176
62 99 174
62 99 177
62 99 174
62 99 175
62 98 172
62 99 172
62 99 177
62 98 172
62 99 172
62 99 174
62 99 177
62 99 173
62 99 176
62 99 177
62 98 173
62 99 178
62 99 173
62 99 177
63 99 175
63 99 174
62 99 179
63 99 175
63 99 176
62 99 180
62 99 171
62 99 175
62 99 175
62 99 174
62 99 177
62 99 179
62 99 177
62 99 175
62 99 176
63 100 177
62 99 174
62 99 177
62 98 173
62 99 177
63 99 171
62 99 177
62 99 173
62 99 175
62 99 176
62 99 176
62 99 176
62 99 175
62 98 171
62 98 172
62 99 176
62 99 174
61 98 176
63 100 173
62 99 178
62 98 172
61 98 173
62 98 176
62 98 173
62 98 171
63 99 175
62 99 175
63 100 175
62 99 176
62 98 171
62 99 173
62 99 175
62 99 172
62 99 172
62 99 177
63 99 173
61 98 172
62 98 168
63 100 174
63 100 175
61 98 171
62 98 165
62 99 175
62 98 166
62 98 170
62 99 171
61 98 169
62 99 172
63 99 173
62 98 171
61 98 167
62 99 176
62 98 165
62 99 174
61 97 168
62 99 170
62 99 172
62 98 168
62 99 171
62 99 173
62 98 170
61 98 167
63 99 171
62 99 173
61 97 164
61 97 163
62 98 163
63 99 169
61 97 165
62 98 165
62 98 164
61 96 161
62 98 170
61 96 161
61 97 160
62 97 163
62 97 161
62 98 168
61 97 169
61 96 163
61 96 160
61 96 157
61 96 159
60 95 155
60 94 152
62 90 140
59 83 123
52 66 81
38 51 61
44 53 37
64 69 51
61 67 44
70 74 47
70 75 48
76 80 51
59 65 46
77 81 49
77 81 46
82 86 49
80 83 54
77 81 51
98 100 55
100 102 57
92 95 56
105 107 66
99 101 62
101 103 56
103 105 61
117 118 65
114 114 68
117 116 68
120 120 72
121 121 72
121 121 72
130 127 73
131 129 70
128 127 75
138 135 77
144 141 86
129 128 67
135 133 76
125 124 72
137 135 77
136 134 74
137 135 73
130 129 71
139 136 73
146 144 81
139 138 78
149 146 85
156 152 83
154 150 84
152 148 84
153 148 80
156 151 84
158 154 76
158 153 85
156 152 83
152 149 76
158 153 82
159 155 81
157 153 86
163 157 88
161 156 87
162 156 81
166 160 88
166 159 88
164 158 86
168 162 86
167 161 91
164 158 83
169 162 87
163 158 88
167 160 89
163 157 80
163 157 83
170 164 85
170 164 93
165 158 88
164 158 82
163 157 83
166 160 86
166 160 85
165 160 78
163 158 72
166 160 82
164 158 77
165 159 84
169 162 78
165 158 85
173 165 93
173 165 93
164 158 80
166 159 80
165 158 81
161 154 82
165 160 82
161 155 80
168 160 87
157 151 78
167 160 83
166 158 88
161 154 80
155 150 72
163 157 80
163 155 85
160 154 76
160 154 79
161 153 76
157 151 69
154 147 72
155 149 75
157 151 73
160 154 72
154 148 69
158 152 74
156 150 76
158 151 76
151 145 69
156 149 76
155 148 71
145 140 62
149 141 68
154 147 68
142 137 61
149 143 67
142 136 60
137 132 63
138 133 53
152 146 70
137 133 60
144 140 60
138 135 54
148 147 59
140 143 37
147 153 44
149 156 39
160 170 44
164 180 32
158 176 19
154 168 19
161 176 22
166 186 11
169 189 11
167 187 0
171 192 0
168 189 0
174 196 0
173 196 0
172 196 0
173 196 0
169 193 0
172 196 0
172 195 0
172 196 0
171 195 0
170 194 0
169 192 0
174 197 0
169 192 0
169 193 0
170 193 0
172 196 0
172 194 0
173 196 0
169 193 0
171 194 0
169 193 0
170 193 0
173 196 0
172 194 0
172 196 0
173 196 0
171 194 0
172 196 0
169 193 0
171 194 0
173 195 0
167 191 0
170 193 0
170 194 0
171 194 0
171 195 0
172 196 0
171 194 0
173 196 0
172 196 0
170 193 0
173 196 0
172 195 0
172 195 0
173 197 0
171 194 0
173 196 0
173 196 0
170 194 0
168 192 0
172 196 0
173 196 0
174 196 0
172 194 0
173 196 0
171 194 0
171 195 0
169 192 0
169 193 0
169 192 0
172 196 0
168 192 0
170 193 0
170 194 0
169 193 0
169 192 0
169 191 0
172 195 0
170 193 0
173 196 0
171 194 0
173 195 0
171 194 0
168 191 0
170 193 0
172 195 0
172 195 0
170 193 0
168 192 0
172 196 0
171 194 0
170 193 0
169 192 0
168 191 0
169 192 0
170 194 0
168 191 18
156 180 65
121 147 121
85 116 148
63 99 165
61 97 157
62 98 161
62 98 162
61 98 163
62 98 168
62 98 166
61 97 164
62 99 170
62 98 168
63 99 172
62 98 168
62 98 164
62 98 164
62 99 173
62 99 170
62 98 166
61 97 165
62 99 174
63 99 173
62 98 170
62 99 169
62 98 167
62 99 172
62 98 172
61 98 170
62 99 176
62 99 168
62 99 171
62 99 172
63 99 175
62 99 175
62 99 171
62 99 172
62 99 174
61 98 175
62 99 176
62 99 173
62 99 177
62 99 172
62 99 176
62 99 172
63 100 180
61 98 174
62 99 177
62 99 173
62 99 175
62 99 175
61 98 171
62 99 178
62 99 175
62 99 175
62 99 179
62 98 169
63 99 172
62 98 172
62 99 177
62 99 178
62 99 176
62 99 175
62 99 172
62 99 176
62 99 178
61 98 169
63 99 178
62 99 177
62 99 174
62 99 177
62 99 173
62 98 174
62 99 176
62 99 177
62 99 180
61 98 175
62 98 174
62 99 173
62 99 176
62 99 175
62 99 175
61 98 171
62 99 175
62 99 177
62 99 174
62 99 174
62 99 175
62 99 177
62 99 176
62 99 175
62 99 174
62 99 175
62 99 175
62 99 174
63 99 174
62 99 173
62 99 177
63 99 177
63 99 175
61 98 173
62 99 176
63 99 172
62 99 176
62 99 177
62 99 177
62 99 175
62 99 176
62 99 177
62 99 174
62 99 173
62 99 173
62 99 173
61 98 167
62 99 175
63 100 175
62 98 172
62 99 171
62 99 173
62 98 171
62 99 174
62 98 167
62 99 175
62 98 170
62 99 172
62 99 176
63 99 176
62 98 172
63 99 174
62 99 173
62 99 173
62 99 174
63 99 177
62 98 165
63 99 170
62 99 175
63 99 170
62 99 175
62 99 173
62 99 172
62 98 166
62 99 171
63 99 173
62 99 172
63 99 170
62 98 166
63 99 170
61 98 171
62 98 166
61 98 164
62 98 169
61 97 162
62 98 166
62 98 168
62 99 169
63 99 171
62 97 162
62 98 166
61 97 164
61 97 162
61 97 165
61 97 161
62 97 164
62 98 169
60 96 158
61 96 160
61 97 167
60 95 154
62 96 157
61 96 155
61 95 151
59 91 148
61 87 128
59 73 82
46 55 49
49 55 34
59 65 43
60 63 39
56 63 40
72 76 47
76 80 51
73 77 40
68 72 44
75 79 52
72 77 47
77 82 49
80 84 51
95 98 59
89 92 58
99 101 56
99 100 53
100 101 60
106 108 64
109 110 66
101 103 64
114 114 65
113 114 68
116 117 69
122 122 72
128 127 61
122 121 71
128 126 74
128 126 74
128 127 70
128 128 76
133 132 73
127 127 70
138 136 76
135 133 73
135 133 71
138 136 76
144 141 81
145 142 81
137 136 69
152 147 81
157 152 84
144 142 83
152 148 77
151 147 81
154 150 84
159 154 87
157 153 84
157 152 83
161 156 84
161 155 79
162 157 84
162 157 88
160 155 83
150 146 78
162 156 85
157 153 82
160 156 85
164 158 84
163 158 81
163 159 85
165 159 91
160 155 82
161 157 86
170 163 89
164 158 87
165 159 85
166 159 80
169 161 83
169 163 85
165 159 84
168 161 82
166 160 78
165 159 81
168 161 89
165 158 77
169 162 86
166 160 79
170 163 91
166 160 84
166 160 87
164 157 83
164 158 78
162 157 80
171 164 88
168 161 85
166 160 85
169 161 84
168 161 85
161 155 75
167 160 87
167 161 82
159 154 78
163 156 85
160 153 76
161 154 83
158 152 82
163 157 80
163 156 80
153 147 72
156 151 75
166 160 80
159 153 74
156 149 75
153 148 72
163 156 77
161 155 76
155 147 76
152 146 70
151 144 67
157 150 74
144 138 64
149 142 68
153 147 68
141 137 61
149 143 69
146 141 62
147 141 62
152 145 69
140 135 60
147 141 59
139 134 57
136 132 42
130 129 53
140 141 49
156 157 56
142 145 48
143 150 39
152 161 39
156 169 30
154 165 39
162 176 32
155 172 0
162 181 16
165 184 19
169 189 11
171 193 0
171 192 0
169 190 0
175 198 0
171 194 0
171 194 0
172 195 0
171 195 0
172 194 0
172 196 0
174 197 0
172 195 0
170 193 0
172 196 0
172 196 0
174 197 0
171 194 0
173 196 0
173 196 0
171 194 0
169 193 0
172 196 0
173 196 0
171 195 0
169 193 0
171 195 0
173 196 0
173 196 0
173 197 0
169 192 0
170 194 0
172 196 0
171 194 0
172 195 0
167 191 0
173 196 0
171 195 0
172 196 0
171 194 0
170 193 0
168 192 0
171 195 0
172 195 0
174 197 0
173 196 0
171 195 0
170 194 0
171 194 0
172 195 0
171 194 0
172 196 0
170 192 0
169 192 0
173 195 0
169 192 0
172 194 0
165 189 0
170 194 0
172 196 0
168 191 0
170 194 0
168 192 0
170 194 0
170 193 0
172 195 0
169 192 0
163 187 0
171 195 0
169 192 0
168 191 0
170 192 0
168 191 0
173 196 0
169 192 0
172 195 0
169 192 0
171 193 0
171 195 0
170 194 0
169 193 0
170 193 0
169 192 0
169 192 0
172 195 0
166 189 0
170 194 0
168 191 0
169 193 0
167 191 0
166 190 31
145 169 92
107 134 129
64 100 156
62 98 162
62 98 158
62 98 161
62 99 168
62 99 165
61 98 164
62 98 162
62 98 167
63 100 173
62 98 169
62 99 173
61 97 165
62 99 173
62 99 166
62 99 171
61 97 168
61 98 168
62 98 170
62 98 167
62 98 165
63 99 171
62 98 169
62 99 172
63 99 172
62 98 173
62 98 171
62 99 172
61 98 172
62 99 171
61 98 168
62 98 170
62 99 178
62 98 165
63 99 174
62 98 170
62 99 174
63 100 178
62 99 169
62 99 177
63 99 176
62 99 176
63 100 179
62 99 174
62 99 176
62 99 176
62 99 176
62 99 177
63 100 176
62 99 171
62 98 174
62 99 175
62 99 177
62 99 178
62 99 175
62 99 172
62 99 173
62 99 175
62 99 171
62 99 177
62 98 175
62 98 175
62 99 175
62 99 174
61 98 174
62 99 174
63 100 178
62 98 171
62 99 169
61 98 169
62 99 175
62 99 177
62 99 176
63 100 177
62 99 175
62 99 178
62 99 175
63 99 172
62 99 175
63 100 175
63 99 173
62 98 174
62 99 174
62 99 174
63 100 177
61 98 175
62 99 175
62 98 171
63 99 175
62 99 177
62 99 176
62 99 174
62 99 175
63 100 179
61 98 173
63 99 174
62 99 173
62 98 168
63 100 176
62 99 170
62 99 173
62 99 168
62 99 172
62 99 176
62 99 172
62 99 176
63 99 175
62 99 173
62 99 174
62 99 175
61 98 171
62 99 173
62 99 174
61 98 170
62 99 171
61 98 170
62 99 173
62 98 169
62 99 174
62 99 173
62 99 176
62 98 169
62 98 173
62 99 176
62 99 172
62 98 167
62 98 169
62 99 173
62 99 171
62 99 170
62 99 173
62 98 165
63 100 177
62 98 169
63 99 172
63 99 174
62 98 167
63 99 172
61 98 165
63 99 169
62 99 169
63 100 174
63 99 168
63 99 171
62 98 170
62 98 164
61 98 169
63 99 170
62 99 169
61 98 169
62 98 170
62 98 165
62 98 166
62 98 163
61 98 165
61 97 171
62 98 169
63 99 170
62 97 164
61 96 153
62 97 161
61 96 154
61 96 155
61 96 161
61 97 161
61 96 155
60 94 156
61 95 154
61 95 155
59 92 146
58 88 140
55 78 106
58 67 58
52 57 36
63 68 40
61 65 40
50 57 33
49 56 40
70 74 49
72 74 44
68 73 47
87 90 52
91 92 57
83 87 53
83 86 53
109 109 61
92 95 60
96 99 62
110 109 63
97 100 57
94 95 55
106 108 65
115 115 64
104 106 64
108 109 64
118 117 70
115 117 69
118 118 60
128 126 70
116 116 70
134 132 79
123 123 72
126 125 68
127 126 66
133 131 72
142 139 81
137 136 73
132 130 69
138 136 82
134 132 75
149 145 77
153 149 79
143 140 76
144 141 73
141 139 80
147 144 76
154 149 78
152 148 83
159 153 81
156 151 81
151 147 78
146 144 78
151 148 76
157 153 81
158 153 80
160 155 77
160 154 86
159 154 79
161 155 84
166 160 83
163 157 84
164 158 86
161 156 83
171 164 89
167 161 87
168 162 85
169 163 91
165 159 77
165 159 85
167 161 89
167 161 81
167 161 83
168 161 82
170 163 88
169 162 84
162 157 78
173 165 83
159 153 74
163 157 81
169 163 85
166 160 85
165 158 88
164 157 82
162 156 75
169 162 85
167 161 85
170 162 80
165 159 80
164 157 84
162 156 80
171 165 87
164 158 80
165 158 83
160 155 76
166 159 83
165 158 82
156 151 78
167 160 78
163 157 87
157 151 76
150 144 71
163 157 73
162 155 72
158 152 74
159 152 74
155 149 74
157 151 73
150 144 66
154 148 73
159 152 77
152 146 63
157 151 77
146 140 71
150 145 59
150 144 71
155 149 75
151 145 68
150 145 65
142 138 65
148 142 67
142 136 61
139 133 57
144 138 65
145 139 59
136 133 47
140 137 59
135 136 44
152 154 59
145 150 48
150 155 44
152 161 37
152 163 32
160 174 34
161 179 22
164 182 19
165 185 22
168 190 11
171 192 0
167 188 0
169 190 0
171 193 0
171 195 0
171 195 0
172 195 0
173 197 0
172 196 0
172 196 0
174 197 0
170 194 0
169 192 0
172 194 0
172 195 0
170 193 0
170 194 0
174 197 0
170 194 0
172 195 0
174 197 0
172 195 0
171 195 0
173 195 0
172 195 0
173 196 0
172 194 0
172 195 0
172 196 0
171 195 0
171 195 0
171 194 0
170 194 0
173 196 0
171 194 0
172 194 0
174 197 0
171 195 0
173 196 0
171 195 0
171 195 0
170 194 0
174 197 0
174 196 0
171 195 0
173 196 0
169 192 0
170 193 0
170 193 0
170 192 0
168 192 0
172 195 0
172 195 0
172 196 0
167 191 0
172 196 0
169 192 0
169 192 0
169 192 0
169 193 0
171 194 0
172 196 0
169 192 0
172 195 0
170 192 0
172 195 0
172 195 0
170 193 0
168 192 0
169 192 0
170 193 0
167 191 0
173 195 0
170 193 0
173 195 0
168 191 0
168 192 0
171 195 0
170 193 0
165 189 0
172 195 0
168 191 0
167 190 0
172 196 0
169 192 0
169 192 0
166 189 0
166 189 0
169 192 0
171 194 0
164 188 47
142 167 94
91 120 144
62 98 154
62 98 159
62 98 162
62 99 166
62 98 158
63 99 168
62 98 163
62 99 166
62 98 163
62 98 165
61 97 160
62 98 168
62 99 171
63 99 174
62 99 173
62 99 173
62 98 169
62 99 167
63 99 173
61 98 169
62 98 170
63 99 173
62 99 170
62 99 174
62 99 174
62 99 175
62 99 170
63 100 176
62 99 171
62 99 172
61 98 173
62 99 173
62 99 175
62 99 177
62 98 171
62 98 173
62 99 172
61 98 172
62 99 172
62 99 176
62 99 176
62 98 170
63 100 176
62 99 172
62 99 176
62 99 176
62 99 171
62 99 176
62 99 172
62 99 174
63 100 177
62 99 177
62 99 173
62 99 174
62 98 174
62 99 176
62 99 175
61 98 170
63 100 178
63 100 179
62 99 179
62 99 175
62 99 176
62 99 173
63 100 179
62 99 175
62 98 175
62 98 173
63 99 177
62 99 176
61 98 170
62 99 173
63 99 176
62 99 175
63 100 177
62 98 170
62 99 177
62 99 175
62 99 173
62 99 176
62 99 178
62 99 175
62 98 172
62 99 175
61 98 169
62 99 171
62 99 174
62 99 173
63 100 176
62 98 172
62 99 171
62 99 176
62 99 173
62 99 176
62 99 170
63 100 175
63 100 176
62 99 175
63 99 174
61 98 171
63 100 177
62 99 171
63 99 175
62 99 172
62 98 173
62 99 171
62 99 173
61 98 171
62 99 173
61 98 171
63 99 176
62 98 165
62 99 174
62 98 170
62 99 173
63 100 173
62 99 172
62 99 176
62 99 170
62 99 172
62 99 172
63 99 171
62 99 172
63 99 172
63 99 173
62 99 169
63 99 174
62 99 168
62 99 175
62 99 174
62 99 169
62 98 168
62 98 169
61 98 172
61 97 164
62 98 168
62 99 173
62 99 171
62 98 168
62 98 168
62 98 167
62 98 163
62 99 171
62 98 171
62 98 169
62 99 169
61 98 166
62 98 169
62 99 170
62 98 167
62 98 166
62 98 168
62 98 168
62 98 172
62 98 165
61 97 162
62 97 163
62 99 169
62 98 165
60 95 153
61 96 159
62 97 163
62 97 165
61 97 164
60 95 154
62 98 170
61 97 160
60 95 154
60 94 151
59 93 149
57 89 143
61 81 111
52 66 83
54 62 47
61 65 33
50 55 31
63 67 39
69 73 42
69 74 39
69 74 44
75 79 47
75 78 45
82 85 56
95 97 55
86 90 56
83 86 46
89 92 56
85 90 60
96 98 60
104 103 52
106 107 65
95 98 55
105 107 61
115 115 72
110 110 64
125 124 71
119 120 68
124 123 68
118 119 61
123 122 69
134 131 76
131 129 70
141 138 78
136 134 78
127 126 71
137 135 77
138 135 72
139 137 73
145 142 79
142 138 77
144 140 74
141 137 72
143 139 72
147 144 79
147 144 78
153 148 77
147 142 72
149 145 71
156 151 80
157 152 80
155 150 81
157 151 79
158 152 83
162 156 92
159 154 86
157 153 74
158 152 75
157 152 80
163 158 78
162 156 81
162 157 84
161 156 84
165 159 86
152 148 73
170 164 89
167 160 84
169 163 92
164 158 83
166 160 83
165 158 83
165 159 87
167 160 80
164 159 79
168 161 89
164 158 78
169 163 85
163 156 77
167 161 81
171 164 83
166 160 80
172 165 88
165 158 80
172 164 85
164 159 79
161 155 78
161 156 74
166 158 81
165 158 83
164 157 80
161 155 78
159 153 74
161 155 80
160 154 79
160 153 80
160 154 75
157 151 70
160 155 79
162 156 76
161 156 74
163 156 78
154 148 67
160 154 74
162 155 78
157 150 72
157 150 76
160 153 74
157 150 77
154 148 63
161 155 73
154 147 68
147 141 63
153 146 71
151 144 66
156 150 72
149 143 61
154 147 75
150 144 68
147 141 67
147 141 61
147 141 65
143 137 67
130 125 48
143 137 58
131 126 51
139 134 62
144 142 53
138 139 47
138 141 44
142 146 48
159 170 47
154 164 45
156 169 32
155 169 19
158 177 11
164 181 16
168 188 22
168 188 0
168 189 0
171 193 0
172 194 0
170 190 0
173 196 0
174 197 0
170 193 0
173 196 0
173 196 0
171 195 0
171 194 0
170 194 0
172 195 0
174 197 0
171 195 0
169 193 0
173 195 0
172 195 0
170 193 0
169 193 0
173 197 0
170 193 0
172 196 0
173 195 0
169 193 0
172 195 0
170 194 0
170 194 0
172 195 0
169 193 0
170 194 0
175 198 0
167 190 0
170 193 0
171 194 0
170 193 0
174 196 0
171 194 0
169 192 0
171 195 0
173 197 0
170 194 0
171 194 0
173 196 0
175 198 0
171 195 0
169 193 0
172 195 0
173 196 0
172 195 0
170 193 0
170 193 0
170 194 0
172 194 0
170 193 0
173 196 0
171 193 0
173 196 0
167 191 0
169 192 0
172 195 0
170 194 0
166 190 0
171 194 0
172 195 0
169 192 0
171 194 0
171 195 0
171 194 0
169 193 0
172 196 0
171 194 0
169 193 0
169 192 0
170 193 0
168 192 0
167 190 0
169 192 0
171 194 0
169 192 0
170 193 0
170 193 0
170 193 0
169 192 0
171 193 0
167 191 0
169 191 0
170 193 0
165 189 0
167 190 0
156 180 47
123 149 115
80 111 148
62 98 161
63 99 166
62 98 159
62 98 164
62 98 160
62 98 170
62 98 162
61 98 165
61 98 158
63 100 174
63 100 174
63 99 169
62 98 166
62 98 167
61 98 166
61 98 164
63 99 174
62 99 168
62 99 172
62 99 171
62 99 175
63 100 180
62 99 177
62 98 169
61 98 170
61 98 170
62 99 175
62 99 173
62 99 176
62 99 173
62 99 172
61 98 171
62 99 177
63 99 177
62 99 173
62 99 174
63 99 177
63 99 176
61 98 173
62 99 175
63 99 176
62 99 175
62 98 169
62 99 171
62 99 177
62 99 175
61 98 171
63 99 176
62 99 173
62 98 175
62 99 177
62 99 176
62 99 176
62 99 180
62 99 176
62 99 173
62 99 177
62 99 177
62 99 176
62 98 171
62 99 177
62 99 173
62 99 178
61 98 173
62 99 177
62 99 174
62 99 173
62 99 177
62 99 173
63 99 176
62 99 176
62 99 177
62 99 177
62 98 167
62 99 175
62 99 174
63 100 177
62 98 176
61 98 172
62 99 175
62 99 176
62 99 172
62 99 173
62 99 174
62 99 174
62 99 173
62 99 178
62 99 175
62 98 171
61 98 171
62 99 179
62 99 174
62 99 178
62 99 175
63 99 175
62 99 171
61 98 170
62 99 170
61 98 176
62 99 169
63 100 176
62 99 173
62 98 168
61 98 165
62 99 172
63 99 174
63 99 174
62 99 176
62 98 172
62 99 171
62 99 173
62 99 174
62 99 172
62 99 173
63 100 175
62 98 173
62 99 175
62 99 169
62 99 172
62 99 175
63 99 175
62 99 175
62 99 174
61 98 170
62 98 171
62 99 173
62 99 173
62 99 169
62 99 175
62 99 172
63 99 174
62 98 169
62 98 172
62 98 162
62 99 174
62 98 170
62 99 171
62 99 170
62 98 167
63 99 171
62 99 170
62 98 169
62 99 174
63 99 172
62 98 165
62 98 166
62 98 165
63 99 170
62 98 166
61 97 160
61 97 165
62 99 171
62 99 170
62 98 167
62 98 164
62 97 162
61 98 167
62 98 168
61 96 158
62 97 162
62 97 162
62 97 158
61 96 159
61 97 159
60 95 155
60 95 151
60 95 154
58 92 146
60 94 152
59 93 149
57 89 130
57 80 115
54 68 77
59 68 67
53 59 36
60 64 34
49 56 36
73 75 40
60 65 36
72 75 42
66 70 45
71 75 48
83 86 45
81 85 52
85 87 51
85 89 50
100 100 49
99 101 59
98 99 54
109 110 57
104 104 59
114 113 65
99 99 58
104 105 63
114 114 65
108 109 63
121 120 67
125 123 71
134 131 69
131 129 76
120 120 69
126 125 70
128 127 73
130 128 78
132 130 66
142 140 79
134 132 73
142 138 77
136 134 73
151 147 81
130 128 71
148 145 81
152 148 79
148 144 74
154 149 82
144 141 74
151 148 80
155 150 84
155 150 83
151 146 78
160 154 89
156 152 78
150 146 74
165 159 83
149 145 80
158 153 82
156 150 77
156 151 75
159 153 81
156 151 76
162 155 78
166 160 81
166 160 81
159 154 84
161 156 71
161 156 76
162 156 78
165 158 86
167 161 80
167 161 86
166 160 80
166 159 87
163 158 81
166 159 84
162 155 80
164 157 80
165 158 84
168 161 80
164 158 78
157 151 75
171 163 86
167 159 85
169 162 87
166 159 84
162 156 79
157 152 77
164 158 79
160 153 76
162 155 79
163 156 80
167 159 83
161 155 73
168 161 84
160 152 80
167 159 84
155 149 71
153 147 73
162 155 81
161 154 73
158 153 76
153 147 63
159 152 78
164 156 80
155 150 71
155 149 64
156 150 69
150 144 64
146 140 64
147 142 64
149 144 66
149 143 69
153 146 74
148 141 67
150 144 68
151 145 69
148 143 64
146 140 64
143 138 58
144 139 60
148 141 62
143 137 58
137 131 58
133 127 56
132 126 56
140 136 49
141 141 52
142 146 47
141 146 39
141 146 39
157 167 39
157 168 36
160 174 30
155 169 32
154 172 16
167 185 22
158 178 11
170 191 11
170 190 0
171 193 0
174 195 0
169 190 0
172 195 0
175 198 0
171 195 0
172 195 0
172 196 0
171 194 0
169 193 0
170 194 0
168 191 0
173 197 0
171 194 0
172 196 0
174 196 0
170 193 0
172 195 0
173 196 0
169 193 0
170 194 0
174 197 0
171 193 0
172 195 0
172 195 0
172 196 0
171 193 0
173 197 0
170 193 0
170 194 0
169 193 0
174 196 0
170 193 0
172 195 0
169 192 0
170 194 0
171 193 0
170 193 0
169 193 0
170 194 0
170 193 0
170 194 0
172 195 0
169 193 0
171 195 0
171 195 0
171 195 0
173 196 0
166 189 0
173 196 0
171 194 0
168 192 0
171 195 0
172 195 0
170 192 0
171 194 0
172 195 0
168 192 0
170 193 0
167 190 0
169 193 0
172 194 0
168 192 0
172 196 0
170 194 0
171 194 0
171 194 0
171 194 0
174 197 0
171 194 0
168 191 0
173 196 0
168 191 0
170 194 0
166 189 0
171 195 0
168 191 0
170 193 0
171 195 0
171 194 0
171 194 0
169 193 0
169 192 0
170 193 0
167 190 0
166 190 0
170 194 0
164 186 0
169 193 18
152 175 65
116 142 122
64 100 162
62 98 162
62 98 158
63 99 164
63 99 164
61 97 167
62 98 162
63 99 170
62 99 167
62 98 165
62 98 168
62 98 169
62 99 168
63 99 172
62 99 171
62 99 174
62 99 171
62 99 172
62 99 170
62 98 165
61 97 162
62 98 168
62 99 171
62 99 173
62 98 172
61 98 172
63 100 177
61 98 171
62 98 168
62 99 173
63 99 172
62 99 173
62 99 173
61 98 171
62 99 173
61 98 171
61 98 167
62 98 172
62 99 177
62 99 174
62 98 172
62 99 173
62 99 179
63 100 176
63 99 175
62 99 175
62 99 173
62 99 178
62 99 176
62 98 171
62 98 168
62 99 173
62 99 175
62 99 173
62 99 173
62 99 175
62 99 175
62 98 170
62 99 172
62 99 176
63 100 179
62 98 172
62 99 174
62 99 175
62 99 174
61 98 169
62 99 172
62 99 174
62 99 172
62 99 174
62 99 173
63 99 176
62 99 172
62 99 172
63 99 177
63 99 177
63 100 179
62 99 173
62 99 177
62 99 175
61 98 171
62 98 172
63 99 174
62 99 174
62 98 173
62 99 174
62 99 176
61 98 164
61 98 174
62 99 172
62 99 175
62 99 173
63 100 178
63 99 174
62 99 174
62 99 172
62 99 172
62 99 169
62 99 177
62 99 171
62 99 175
61 98 172
62 99 176
61 98 167
62 99 172
62 98 168
61 98 174
62 99 173
62 99 174
62 99 175
62 99 174
62 98 171
62 99 169
63 99 174
63 99 175
62 98 171
62 98 168
61 98 171
63 100 176
63 100 173
63 99 172
62 98 171
61 98 170
62 99 175
62 99 173
62 99 171
63 99 174
62 99 177
62 99 171
63 100 174
62 98 162
62 98 169
62 99 170
62 99 170
62 99 174
61 97 166
62 98 164
61 97 166
63 99 171
63 99 167
62 98 166
61 98 168
63 99 171
62 99 173
62 98 172
62 98 164
62 98 165
61 98 166
62 98 166
62 98 167
62 98 164
61 97 161
61 98 168
62 98 163
62 99 169
62 98 166
61 97 161
61 97 160
62 97 166
63 99 171
61 96 154
61 97 165
60 96 156
62 98 164
61 96 156
61 96 162
60 96 156
61 96 162
61 96 152
60 94 157
59 92 145
59 92 143
54 81 122
54 75 108
52 64 66
54 59 39
51 57 34
63 66 39
56 61 26
74 77 43
64 69 46
71 76 45
83 86 51
85 87 46
76 81 50
79 82 53
80 84 48
86 89 51
93 95 54
82 86 52
94 97 60
103 103 49
110 109 60
111 113 59
111 112 63
103 104 53
113 112 60
125 124 65
113 114 58
118 118 63
136 133 75
132 130 74
126 125 71
132 129 65
122 122 60
142 138 75
127 126 66
138 135 67
134 131 69
147 144 80
140 137 72
145 140 74
143 140 74
153 149 79
140 137 73
151 147 79
140 137 75
152 148 75
158 154 79
148 144 74
148 143 76
152 147 80
158 152 78
159 154 87
157 152 75
159 154 78
158 154 77
162 157 80
158 152 83
157 151 84
158 153 79
166 161 87
165 158 83
163 157 78
168 161 83
162 155 81
160 156 75
165 159 83
166 160 85
170 163 90
163 157 80
166 160 82
162 157 79
171 164 86
164 158 78
166 159 82
167 160 78
168 161 85
168 162 84
159 153 72
160 154 73
158 153 75
166 159 82
156 150 71
168 161 83
163 157 75
164 157 78
162 156 75
167 160 76
159 152 72
162 156 79
164 158 75
164 157 84
162 155 74
159 153 71
163 156 80
163 156 76
154 147 76
157 152 73
154 149 71
159 153 75
159 151 73
152 146 71
160 154 71
155 148 68
156 150 65
151 145 63
157 150 73
151 145 71
149 144 61
153 147 70
143 138 59
152 146 69
157 151 68
147 143 59
148 142 67
149 143 65
142 136 61
141 135 63
144 137 61
146 141 66
141 136 66
149 144 70
143 140 57
137 132 56
140 138 59
146 148 52
146 151 39
150 155 51
150 160 39
156 166 37
158 171 28
154 166 34
157 174 19
157 174 19
162 182 0
162 179 11
172 192 11
170 191 0
171 191 0
170 191 0
168 189 0
174 197 0
171 195 0
172 195 0
172 195 0
171 194 0
171 194 0
171 195 0
169 192 0
173 196 0
169 193 0
171 195 0
170 193 0
173 196 0
173 196 0
171 195 0
173 196 0
171 195 0
170 194 0
170 194 0
175 197 0
169 192 0
173 195 0
174 197 0
169 193 0
173 197 0
169 193 0
171 194 0
172 195 0
173 196 0
172 195 0
171 195 0
170 194 0
172 196 0
173 196 0
172 195 0
172 195 0
171 194 0
170 194 0
168 192 0
170 194 0
169 193 0
171 194 0
172 196 0
171 194 0
172 195 0
170 193 0
173 195 0
173 197 0
173 196 0
169 192 0
166 189 0
169 192 0
170 193 0
172 195 0
170 192 0
171 195 0
169 193 0
173 197 0
171 194 0
170 193 0
172 195 0
167 191 0
173 196 0
169 194 0
165 188 0
170 194 0
170 194 0
167 189 0
170 192 0
172 196 0
167 190 0
170 194 0
171 194 0
173 196 0
168 191 0
165 188 0
171 195 0
169 192 0
169 193 0
169 192 0
170 194 0
171 194 0
166 189 0
170 194 0
172 195 0
167 191 36
141 166 100
98 126 135
61 97 152
61 97 149
62 98 163
62 98 160
62 98 165
61 97 157
62 98 163
62 99 168
62 98 165
61 98 162
62 98 168
62 98 167
61 97 160
61 98 166
62 99 172
62 99 170
62 98 167
63 99 170
61 97 165
61 97 164
62 98 165
62 98 168
62 99 169
62 99 171
62 99 174
62 99 170
62 99 174
62 98 171
63 99 171
62 98 169
62 98 166
62 99 169
63 99 172
61 98 171
62 99 173
62 99 175
63 99 175
62 99 174
62 99 171
62 98 171
62 98 172
62 98 171
62 99 172
63 99 174
62 99 174
62 99 176
62 98 171
62 99 175
62 99 174
62 99 175
62 99 175
62 99 173
62 99 172
62 98 169
62 98 169
61 98 172
62 99 174
62 99 173
62 99 176
62 99 173
63 99 174
62 99 174
63 99 176
63 99 176
63 99 179
62 98 171
62 98 174
62 99 176
62 99 171
62 99 176
62 98 172
63 100 178
62 99 174
62 99 179
62 99 178
61 98 173
62 99 173
63 99 176
61 98 169
62 98 169
62 99 172
61 98 171
62 99 174
62 99 175
62 99 172
62 99 175
62 99 173
62 99 175
63 99 176
62 99 175
62 99 172
62 98 167
62 99 173
62 99 175
61 98 171
63 99 172
62 99 172
62 99 172
62 99 171
62 98 171
61 98 169
63 99 175
62 99 176
63 99 177
62 99 173
63 99 173
62 99 172
62 99 173
62 99 174
62 98 170
62 98 174
63 100 178
62 99 173
62 99 174
62 98 171
61 98 168
63 99 172
61 98 171
61 98 174
63 99 177
62 99 174
62 99 169
62 98 170
63 100 176
62 99 166
62 98 168
62 99 172
62 98 165
62 98 170
63 100 174
61 98 171
63 99 173
62 98 172
62 99 170
63 99 171
62 99 167
63 99 170
62 99 169
63 99 168
62 99 175
62 99 171
62 98 166
61 97 163
62 98 165
62 98 168
62 98 162
63 99 167
62 98 171
62 98 170
61 97 164
62 98 159
62 98 167
62 98 169
61 97 164
62 98 165
63 99 171
62 98 168
62 98 169
62 98 165
61 97 163
62 98 161
62 97 159
62 97 156
60 95 153
61 96 159
62 97 163
60 95 154
60 93 147
61 96 160
60 94 151
60 94 151
57 90 141
59 90 138
58 81 120
53 64 72
64 69 49
42 48 33
53 58 32
74 78 45
71 75 43
75 78 43
77 80 42
78 81 48
75 78 42
90 92 53
86 88 50
85 88 51
92 93 52
99 101 61
81 85 45
106 108 53
99 101 56
100 101 57
119 119 64
106 106 59
107 107 52
123 121 63
103 105 55
119 120 66
116 116 63
135 133 79
124 123 63
126 124 70
129 128 72
129 126 67
132 130 76
131 129 72
144 140 73
140 137 71
142 139 77
139 136 71
147 144 74
142 138 71
151 147 79
141 138 70
150 145 69
141 138 71
153 148 74
156 151 79
150 146 78
145 141 72
158 151 78
145 141 66
156 152 72
155 149 75
155 150 71
165 158 81
156 151 80
155 151 72
162 156 82
152 147 79
157 152 78
157 153 74
163 157 83
161 156 82
168 161 87
165 159 84
164 157 80
160 155 85
161 155 80
164 157 84
166 159 80
163 158 77
168 161 75
163 157 81
168 161 83
160 154 78
165 159 80
164 158 77
166 160 81
169 162 85
162 155 75
161 155 77
163 156 79
164 157 77
162 157 77
160 154 79
163 156 82
160 154 74
158 152 75
164 157 78
161 155 68
167 159 84
161 155 71
161 155 75
154 148 70
160 153 72
154 149 64
161 155 75
160 153 71
161 154 75
161 155 75
155 149 70
154 148 66
161 154 80
151 145 66
152 146 65
147 143 60
154 148 69
154 148 65
156 149 71
151 145 72
153 148 65
147 142 63
142 138 53
149 144 68
147 141 67
139 134 57
150 144 63
143 135 58
138 133 51
147 141 61
133 128 54
145 139 59
149 145 66
144 141 49
144 145 42
145 149 41
147 151 47
149 157 41
152 161 37
161 174 32
160 172 25
160 177 28
165 184 19
167 186 19
168 187 16
171 192 0
172 194 0
173 194 0
168 190 0
173 195 0
173 196 0
172 195 0
171 194 0
170 194 0
171 195 0
172 196 0
173 197 0
169 192 0
171 195 0
171 195 0
171 195 0
174 197 0
173 197 0
173 196 0
173 197 0
172 195 0
170 194 0
173 196 0
170 193 0
172 196 0
174 197 0
174 197 0
168 192 0
174 197 0
170 194 0
174 197 0
171 194 0
171 195 0
173 197 0
172 195 0
171 194 0
168 189 0
174 197 0
168 192 0
173 196 0
171 195 0
170 194 0
166 190 0
170 193 0
169 193 0
172 195 0
172 195 0
170 193 0
172 196 0
169 191 0
170 194 0
172 195 0
166 189 0
171 194 0
173 196 0
171 194 0
172 194 0
171 194 0
170 194 0
173 197 0
168 191 0
172 195 0
167 191 0
168 191 0
172 196 0
171 195 0
170 193 0
171 194 0
170 193 0
170 193 0
169 192 0
172 196 0
170 194 0
171 195 0
168 191 0
171 193 0
169 193 0
169 193 0
171 194 0
172 195 0
167 190 0
168 192 0
171 194 0
171 195 0
171 193 0
164 188 0
171 195 0
169 192 0
166 190 0
169 192 0
160 183 44
136 160 107
88 118 150
63 99 162
62 98 163
61 97 154
62 98 159
62 98 163
62 98 164
62 99 167
61 97 164
62 98 169
61 97 163
62 99 164
61 98 166
62 98 167
62 98 164
61 98 165
61 98 164
62 98 167
62 98 165
63 99 170
63 99 173
62 98 166
62 98 165
62 99 170
62 98 167
62 99 170
62 99 173
62 99 169
62 98 169
63 99 170
62 99 173
62 99 177
62 98 165
62 99 170
62 99 172
63 100 177
62 99 168
62 99 172
62 98 165
61 98 175
63 99 178
62 99 174
62 98 167
61 97 168
62 99 172
62 99 175
63 99 177
61 98 172
62 99 174
62 99 176
62 99 172
63 99 176
62 99 177
63 100 179
62 99 176
62 99 174
62 99 177
62 99 176
62 98 172
62 99 172
62 99 174
61 98 166
62 98 173
61 98 174
61 98 172
61 98 172
63 99 177
62 99 177
62 99 178
62 99 173
63 99 176
62 99 171
63 99 174
62 98 173
62 98 170
62 99 174
62 98 167
62 99 176
61 97 165
63 99 176
63 99 177
62 99 170
62 99 177
62 99 176
62 99 171
62 98 169
62 99 173
62 99 173
61 98 173
63 99 173
63 99 171
62 99 171
62 98 171
62 99 177
61 98 175
62 99 171
62 99 170
62 99 175
62 99 177
62 99 176
63 100 175
62 98 169
62 99 170
62 99 172
62 98 170
62 98 170
62 99 172
62 99 173
63 100 173
62 98 173
62 99 172
62 98 168
62 98 170
62 99 176
63 99 172
61 97 165
62 99 172
62 99 174
63 100 173
62 98 169
63 99 173
62 99 172
62 98 168
62 99 174
63 99 170
62 99 171
62 99 169
63 99 168
62 98 168
62 98 170
63 99 171
62 99 169
62 98 168
62 99 175
62 98 163
62 99 172
62 98 169
62 98 169
62 98 167
62 98 163
62 99 168
62 99 174
62 99 168
62 99 169
62 98 167
61 97 166
62 98 170
62 98 166
62 98 164
62 98 169
62 98 165
62 98 165
62 98 167
62 98 168
62 98 159
63 99 169
61 97 163
61 97 158
62 98 162
62 99 171
61 96 154
62 98 166
61 97 166
61 97 161
62 98 164
61 97 159
61 97 158
60 95 153
60 95 158
60 94 153
61 95 152
60 93 152
58 91 147
57 87 136
54 75 104
60 71 66
55 61 46
69 72 42
57 62 38
61 66 35
70 73 34
72 75 38
78 81 43
83 85 42
64 69 36
87 89 47
70 75 41
77 82 52
88 91 50
93 94 49
99 101 53
94 96 53
109 109 56
100 101 56
94 97 54
103 104 54
115 114 68
104 105 48
113 113 60
122 121 69
121 121 64
113 113 59
120 118 61
132 130 71
134 131 67
128 126 64
128 125 72
131 128 66
139 136 69
147 143 77
139 136 71
150 144 82
131 129 68
144 141 76
149 145 71
143 139 72
152 147 77
141 138 70
148 144 69
153 147 74
147 143 77
151 147 72
158 152 73
149 145 76
154 149 80
154 149 77
158 153 79
155 150 76
159 154 83
151 147 72
163 156 76
160 154 80
159 155 76
155 150 78
157 152 73
155 150 70
156 151 79
159 154 73
166 160 87
159 153 82
165 159 79
162 156 76
167 160 80
161 155 76
159 153 73
161 155 80
166 160 80
162 156 77
162 156 76
165 159 75
164 157 77
162 156 75
163 157 75
153 147 67
167 161 77
164 157 80
166 160 84
157 151 73
162 155 75
157 151 74
163 155 80
156 150 72
163 157 74
161 155 72
165 159 75
167 160 82
161 155 73
158 151 67
156 149 73
148 142 65
155 150 66
157 150 70
155 149 74
157 151 65
156 151 68
154 148 64
155 149 69
155 148 71
157 150 69
153 147 68
148 142 64
154 147 64
160 153 76
149 143 58
145 139 69
148 142 62
148 142 62
149 142 65
143 137 56
142 136 57
151 144 62
140 134 57
117 113 47
139 134 54
129 126 51
141 139 49
146 147 54
149 150 53
139 143 42
152 158 36
153 161 41
151 162 22
158 172 28
153 167 11
162 180 16
162 181 22
166 185 11
171 193 11
170 190 0
171 192 0
168 190 0
169 189 0
173 195 0
171 196 0
173 197 0
170 193 0
170 194 0
172 195 0
172 195 0
171 194 0
173 196 0
172 196 0
172 195 0
172 196 0
174 197 0
172 196 0
168 191 0
171 194 0
174 198 0
173 196 0
172 195 0
171 195 0
172 195 0
171 194 0
171 195 0
168 192 0
171 194 0
170 194 0
173 197 0
172 196 0
169 192 0
173 197 0
171 194 0
171 194 0
170 194 0
170 193 0
172 196 0
170 194 0
169 193 0
172 195 0
169 193 0
171 195 0
168 192 0
171 193 0
173 195 0
168 191 0
170 193 0
168 192 0
170 194 0
171 194 0
170 194 0
169 192 0
173 196 0
167 191 0
168 191 0
169 193 0
170 194 0
169 192 0
171 195 0
173 196 0
173 197 0
169 193 0
172 196 0
172 195 0
166 189 0
171 194 0
170 193 0
171 195 0
172 196 0
167 190 0
171 195 0
171 194 0
170 192 0
166 190 0
167 191 0
170 193 0
166 190 0
167 192 0
169 193 0
168 191 0
165 188 0
166 190 0
171 194 0
168 192 0
168 191 0
171 195 0
172 194 0
168 192 0
158 182 60
124 149 117
76 108 158
61 97 154
61 97 155
62 98 163
62 97 158
62 98 167
62 98 161
62 98 160
62 99 164
63 99 168
61 98 162
62 99 169
62 98 165
62 98 165
61 97 165
63 99 171
62 99 174
63 99 176
63 99 172
61 98 170
63 99 176
62 99 168
62 98 170
61 97 163
61 98 163
62 98 170
61 98 171
61 98 169
62 99 172
62 99 176
62 98 171
61 98 169
63 99 170
62 99 171
62 98 172
61 98 166
62 99 173
62 99 172
61 98 169
62 99 171
62 99 173
61 98 173
62 99 174
62 99 175
62 98 171
61 98 166
62 99 171
62 99 173
63 99 174
62 99 172
62 99 174
63 99 173
62 99 175
63 99 178
62 98 171
62 99 173
62 99 176
62 98 171
62 99 173
62 99 179
62 99 174
62 99 176
62 99 177
62 99 173
61 98 174
63 99 175
62 99 172
63 99 176
62 99 175
62 99 174
62 99 172
62 99 173
62 99 173
62 99 172
62 99 177
62 98 169
63 99 171
62 99 178
62 99 170
62 99 175
63 99 171
62 98 173
61 98 172
62 99 173
62 99 173
63 99 172
62 99 172
62 99 174
62 99 175
62 98 173
63 100 176
63 99 175
62 99 176
62 98 168
62 98 170
62 98 174
62 99 174
62 99 173
62 99 176
62 99 171
63 99 176
62 98 170
63 99 174
62 99 175
62 99 172
62 98 171
62 99 170
61 98 169
62 98 171
62 99 173
62 98 169
61 98 170
62 99 174
62 99 174
61 98 174
62 98 167
62 98 169
63 99 174
61 98 169
62 98 166
63 100 176
63 99 176
62 99 172
62 99 170
62 99 171
62 98 167
62 98 170
63 99 172
63 99 168
63 99 170
63 99 170
62 98 167
62 98 164
61 98 167
62 98 166
61 98 162
62 99 170
61 98 171
62 99 171
62 98 167
62 99 171
61 97 159
62 98 170
62 98 163
62 98 169
61 98 167
63 100 175
61 98 165
62 98 166
63 99 168
62 98 169
61 97 162
62 98 167
62 98 168
62 98 166
62 98 165
62 97 160
61 97 164
62 97 162
61 97 158
61 97 166
62 97 165
61 96 157
62 97 159
61 96 155
60 95 151
61 96 164
61 96 155
60 95 157
60 95 160
60 95 158
61 95 150
60 94 144
60 92 142
58 84 126
60 77 103
56 64 54
61 65 37
60 64 23
65 69 32
57 62 31
60 65 27
75 77 37
78 80 42
68 73 43
81 85 51
83 88 45
98 98 51
87 90 49
90 91 42
103 102 51
95 98 55
111 111 56
97 98 54
110 111 64
108 108 53
104 104 57
109 109 52
119 118 62
122 121 62
124 122 63
122 121 66
118 118 57
116 115 53
124 122 55
126 125 68
134 131 67
134 131 70
131 130 67
128 127 61
129 127 65
147 143 77
146 142 70
145 141 76
143 139 67
147 143 69
149 144 69
149 144 72
147 143 75
152 147 80
150 145 72
146 143 75
149 145 71
151 146 75
152 147 75
162 156 77
156 150 76
156 151 75
156 152 74
155 150 83
163 156 82
163 156 78
154 148 76
164 158 81
165 159 77
156 151 72
152 147 72
165 159 78
169 162 86
160 154 77
165 158 81
163 157 78
166 159 75
164 158 82
162 157 75
162 156 80
164 158 75
162 155 78
167 160 78
168 160 85
164 158 75
164 157 79
161 154 64
161 155 69
164 156 80
161 155 75
163 158 74
163 158 75
161 155 77
168 161 82
162 155 75
164 158 81
156 150 74
158 152 69
150 145 60
157 151 72
155 150 70
158 153 65
148 143 61
145 139 63
150 144 65
159 153 75
151 145 67
164 156 80
149 143 71
153 146 71
156 150 74
156 149 69
152 145 67
156 149 72
149 143 64
155 150 56
144 138 59
154 148 70
143 138 67
144 138 54
147 142 66
154 148 65
142 136 60
142 136 57
145 140 57
135 130 52
141 134 60
131 126 51
144 141 52
136 135 47
144 149 47
144 150 44
143 147 42
151 159 37
149 159 36
158 170 36
159 174 22
159 175 22
164 181 16
167 186 16
165 184 0
172 193 0
171 193 0
170 191 0
173 194 0
170 192 0
167 188 0
171 194 0
171 195 0
171 194 0
172 196 0
172 196 0
172 195 0
171 195 0
171 194 0
170 194 0
173 196 0
172 196 0
170 193 0
173 197 0
171 194 0
172 195 0
174 197 0
169 192 0
170 193 0
173 196 0
172 196 0
170 194 0
170 193 0
169 192 0
171 194 0
169 193 0
174 197 0
172 195 0
172 195 0
174 196 0
170 194 0
172 196 0
173 196 0
171 194 0
172 195 0
173 196 0
169 191 0
170 194 0
170 194 0
170 193 0
169 193 0
173 196 0
171 194 0
171 195 0
171 194 0
169 193 0
168 191 0
172 195 0
174 197 0
171 195 0
169 192 0
172 195 0
168 191 0
168 192 0
168 190 0
168 192 0
170 193 0
172 195 0
170 194 0
169 193 0
166 189 0
169 193 0
171 194 0
170 193 0
172 195 0
166 188 0
168 192 0
170 193 0
172 195 0
168 191 0
169 193 0
173 196 0
168 191 0
167 191 0
168 191 0
174 197 0
169 192 0
170 194 0
169 193 0
171 194 0
171 194 0
164 187 0
171 194 0
168 192 0
170 193 0
163 187 18
146 169 80
120 146 121
73 106 164
62 98 160
62 97 155
61 97 161
61 96 151
62 98 166
61 96 157
62 98 162
61 98 161
62 98 163
62 99 168
62 98 165
61 98 169
62 98 169
62 98 164
62 98 166
62 98 164
62 98 171
63 99 167
62 98 167
62 99 168
62 99 169
62 98 163
62 98 169
62 98 170
62 98 171
62 99 170
62 98 166
61 98 167
63 99 170
62 98 170
62 99 173
62 99 175
61 98 165
62 99 171
62 99 172
62 99 173
62 99 169
63 99 177
62 99 174
62 99 175
62 99 173
62 99 172
62 99 175
62 99 171
62 99 173
62 98 172
62 99 172
62 99 170
62 98 170
62 99 173
63 100 176
62 99 173
62 98 175
62 99 173
62 99 175
62 99 174
62 99 176
62 99 174
63 100 175
63 99 172
62 99 175
62 99 174
62 98 172
62 99 171
62 99 176
62 99 173
61 98 167
62 99 171
63 100 176
62 99 173
62 99 173
62 98 173
62 99 176
63 99 175
62 98 168
63 100 175
62 99 174
62 98 171
63 99 173
62 98 164
62 99 172
62 99 170
62 99 175
62 99 175
62 99 177
62 99 172
62 98 169
62 99 172
62 99 174
63 100 177
63 100 177
62 99 172
61 98 167
62 99 177
61 98 169
62 99 176
61 98 167
63 99 175
62 98 170
63 100 175
62 99 166
62 99 171
62 99 172
62 99 171
63 99 173
62 99 174
62 99 176
62 98 167
63 99 167
62 99 170
61 98 169
62 99 173
61 98 170
63 99 171
63 99 170
62 99 173
62 99 172
62 99 170
62 98 169
61 97 161
62 99 172
62 99 170
63 99 172
63 99 167
62 98 165
62 98 162
62 98 166
63 99 170
62 99 171
62 99 171
62 99 171
63 99 166
63 99 173
63 99 168
63 99 171
62 98 169
61 98 167
62 98 164
63 100 173
62 98 166
62 99 172
62 99 167
61 98 166
63 99 165
62 99 163
62 98 168
61 98 169
62 98 163
62 98 167
62 99 172
62 97 160
62 98 162
62 98 162
61 97 161
62 98 167
63 99 168
62 98 165
62 98 165
62 98 167
63 98 164
60 96 155
62 97 158
62 98 166
61 96 152
61 96 158
61 96 160
61 97 160
62 97 158
61 96 156
60 94 149
59 93 149
59 93 146
59 93 145
64 90 128
62 79 101
61 69 54
49 57 39
61 65 35
65 68 36
70 72 39
52 58 37
64 68 36
68 73 38
64 69 34
77 80 41
83 84 48
81 84 40
100 100 51
100 100 51
93 96 48
84 87 37
100 101 48
98 98 58
91 95 52
117 115 56
105 105 48
112 112 58
104 104 53
114 113 63
105 105 54
124 122 64
124 123 62
135 132 62
120 119 60
122 120 60
135 132 74
130 129 65
140 136 71
127 125 66
130 128 65
150 146 78
145 142 73
142 139 72
133 130 65
139 136 70
139 135 72
142 138 68
158 152 75
146 143 68
154 149 80
150 146 72
150 145 68
154 149 76
151 145 76
153 148 80
153 147 76
154 150 75
157 152 77
163 156 84
157 151 72
161 156 82
161 155 75
157 152 72
156 150 75
152 148 63
159 154 74
161 155 75
164 158 81
161 155 78
160 154 77
165 159 73
162 156 75
162 155 76
160 154 74
168 161 83
162 157 78
162 156 73
157 150 73
162 155 74
168 160 83
158 152 69
163 156 75
159 153 69
165 159 73
165 158 73
158 153 74
158 152 65
164 157 70
162 156 75
159 153 74
160 154 71
158 152 64
153 146 68
159 152 73
152 147 67
155 148 73
156 151 61
159 152 75
158 153 70
153 147 72
154 148 63
154 148 70
160 153 77
149 144 64
148 142 62
154 148 69
155 149 69
150 145 65
149 144 61
144 138 61
153 146 66
153 146 70
154 148 64
146 142 58
138 132 56
149 141 65
147 141 63
145 139 57
131 125 49
130 125 52
138 133 57
125 120 48
150 146 64
137 134 51
129 129 44
137 140 39
143 147 45
146 152 39
157 169 41
155 168 22
158 172 28
162 178 22
160 177 16
166 186 16
163 181 11
165 185 11
169 191 11
172 192 0
169 190 0
171 193 0
172 192 0
170 191 0
171 195 0
173 196 0
171 194 0
172 194 0
173 196 0
173 196 0
173 196 0
169 193 0
171 194 0
172 196 0
171 194 0
172 195 0
169 193 0
171 195 0
167 190 0
172 195 0
173 196 0
170 194 0
172 195 0
174 197 0
170 194 0
172 195 0
168 192 0
169 193 0
169 192 0
172 195 0
173 197 0
170 193 0
171 195 0
171 195 0
167 191 0
168 192 0
171 194 0
171 194 0
174 197 0
171 194 0
173 195 0
170 193 0
170 192 0
172 195 0
169 192 0
173 196 0
171 195 0
171 194 0
170 193 0
169 193 0
169 193 0
174 197 0
169 193 0
168 192 0
169 193 0
170 194 0
169 192 0
170 193 0
169 192 0
171 195 0
169 193 0
170 194 0
169 192 0
171 195 0
172 195 0
169 192 0
169 192 0
171 194 0
170 194 0
172 196 0
172 196 0
173 195 0
172 195 0
168 191 0
169 193 0
168 191 0
170 193 0
171 194 0
167 191 0
169 192 0
170 194 0
172 195 0
170 193 0
169 192 0
170 194 0
162 185 0
169 193 0
168 191 0
163 185 40
144 169 90
106 133 133
62 98 155
62 98 165
62 97 157
61 97 157
62 98 161
61 97 161
62 98 166
62 99 169
61 98 165
62 98 170
62 98 164
62 98 163
62 98 169
61 97 159
61 97 158
62 98 166
62 99 170
61 98 168
63 99 169
62 98 164
62 99 166
62 98 169
62 98 171
62 98 168
62 99 174
62 99 173
62 98 169
61 98 166
62 98 168
61 98 167
63 99 168
62 99 174
62 98 166
62 99 174
62 98 169
62 98 172
62 98 170
62 99 172
62 99 172
62 99 171
61 97 165
63 99 171
62 99 170
62 99 175
63 99 170
62 98 174
62 98 170
62 98 168
62 99 173
62 98 174
61 98 174
62 98 171
61 98 170
62 98 173
62 99 178
61 98 173
62 99 173
61 98 171
62 99 174
62 99 175
61 98 170
62 99 171
62 99 172
63 99 178
62 99 173
62 98 172
62 99 174
62 99 170
62 99 173
62 99 174
62 99 169
61 98 168
62 98 171
62 99 174
62 99 174
62 98 173
62 99 175
62 99 176
61 98 173
63 99 175
62 99 174
61 98 170
62 98 170
62 99 172
62 99 171
62 99 172
62 98 169
62 99 175
62 98 171
62 99 175
62 99 171
62 99 172
62 99 171
63 99 173
62 99 174
62 99 176
63 99 171
63 100 177
61 98 169
62 99 169
62 99 170
62 98 169
62 98 168
62 99 172
62 99 171
63 100 174
62 98 168
61 98 167
62 99 171
62 99 170
62 99 174
62 98 169
62 99 173
62 99 174
61 98 160
62 99 176
62 98 167
62 98 166
63 99 169
62 98 170
63 99 172
62 98 165
62 99 172
62 99 174
62 99 172
62 98 167
63 99 171
62 99 171
62 99 173
63 99 173
61 98 167
62 99 172
62 99 174
62 98 166
62 98 165
62 99 172
63 99 171
62 98 161
62 99 175
62 98 168
62 98 165
62 98 166
61 98 166
62 98 162
62 98 163
61 97 159
62 98 162
61 97 157
63 99 170
62 97 162
62 99 170
62 99 172
62 98 166
62 98 170
61 97 165
62 98 168
62 97 161
61 97 155
62 98 165
62 98 163
62 97 167
62 97 161
61 97 158
62 98 163
61 96 155
61 96 160
61 97 159
60 95 156
61 96 157
61 96 161
60 95 151
61 95 147
57 91 138
61 95 156
58 87 133
64 83 99
64 75 73
64 67 34
75 77 35
68 72 35
61 67 34
70 72 29
60 62 32
80 83 43
66 70 37
79 83 39
82 84 43
87 89 45
80 85 47
84 86 52
102 102 43
105 105 50
99 100 49
92 93 43
113 113 59
92 95 43
106 106 49
103 104 52
122 120 61
113 113 57
126 125 65
121 120 63
125 124 64
129 126 64
142 139 65
124 123 65
130 128 66
138 134 58
141 136 61
131 129 64
137 135 70
138 136 63
139 136 69
139 134 62
142 139 65
152 147 72
150 145 75
140 137 67
147 142 71
150 146 73
150 145 81
145 141 68
151 146 76
151 146 72
154 149 76
151 146 72
146 141 70
162 156 75
155 150 73
159 153 71
148 145 63
156 150 76
157 152 74
161 154 76
162 156 78
162 156 72
153 148 72
160 155 76
152 147 73
165 159 75
160 155 71
161 155 79
159 154 73
160 153 74
161 154 77
164 156 75
157 151 73
162 156 72
157 151 70
161 155 79
161 154 77
166 160 76
163 156 76
162 156 76
163 156 70
160 154 67
160 154 73
161 154 68
164 157 73
154 149 67
154 148 72
164 158 74
156 151 70
154 149 68
162 156 67
156 150 67
157 151 75
158 152 74
160 154 74
152 147 66
160 153 70
155 149 67
155 148 71
157 151 65
151 145 64
152 147 60
153 147 63
159 152 73
140 135 51
149 143 62
145 139 61
142 136 60
147 142 57
148 142 60
152 146 67
149 144 63
150 144 64
139 133 57
142 136 59
142 137 63
141 135 59
139 133 51
140 135 47
138 135 56
141 139 51
133 134 37
137 141 41
143 149 37
144 151 34
152 164 32
159 171 32
156 165 34
152 169 16
162 179 19
163 179 16
163 182 0
163 183 0
170 190 0
172 194 0
170 191 0
170 189 0
171 192 0
170 193 0
172 195 0
169 193 0
171 194 0
171 195 0
171 195 0
169 192 0
172 196 0
171 195 0
171 195 0
172 195 0
171 194 0
170 194 0
173 196 0
170 194 0
169 192 0
171 195 0
172 195 0
170 193 0
171 195 0
173 196 0
166 189 0
171 194 0
171 194 0
174 197 0
174 198 0
171 195 0
168 191 0
169 193 0
172 196 0
173 196 0
171 195 0
168 191 0
169 193 0
170 194 0
169 193 0
171 195 0
171 195 0
172 195 0
169 193 0
172 195 0
171 194 0
172 195 0
171 195 0
170 195 0
169 192 0
169 192 0
170 193 0
172 195 0
169 192 0
167 190 0
171 195 0
171 194 0
170 194 0
174 197 0
171 194 0
172 195 0
168 192 0
170 194 0
171 195 0
166 189 0
170 193 0
171 195 0
170 194 0
170 193 0
167 191 0
172 195 0
171 194 0
167 191 0
162 186 0
167 191 0
172 194 0
169 192 0
167 190 0
171 195 0
166 189 0
171 194 0
169 192 0
168 191 0
170 194 0
171 194 0
173 196 0
166 190 0
167 191 0
166 189 0
165 188 25
150 174 82
95 124 148
62 98 159
62 97 155
62 98 161
61 97 151
62 98 163
62 98 162
62 98 156
61 97 158
61 97 157
62 98 168
62 98 164
61 97 157
62 98 167
62 98 162
61 98 167
62 98 164
61 97 161
60 97 167
62 99 165
62 98 165
61 98 168
61 98 164
62 98 169
62 98 167
62 98 168
62 98 169
61 98 171
61 98 171
62 98 168
62 98 170
62 98 168
62 98 173
62 98 172
62 98 169
62 99 170
62 99 170
62 99 172
62 99 171
62 99 172
61 98 173
61 98 170
62 99 170
62 99 174
62 99 173
63 99 175
62 98 170
62 99 176
62 98 166
63 99 175
63 99 171
62 98 171
62 98 169
61 98 172
62 98 172
61 98 165
62 99 172
62 98 170
62 99 175
62 99 169
63 99 176
62 98 169
62 99 169
62 99 173
62 98 170
62 99 171
62 99 174
61 97 160
62 99 174
62 98 172
62 99 171
62 99 172
62 99 172
61 98 168
62 99 171
61 98 172
62 99 176
62 99 173
61 98 167
62 99 170
62 98 172
63 100 176
62 99 173
62 99 173
61 98 168
62 99 171
62 98 171
63 100 175
62 98 173
61 98 168
62 99 174
62 99 172
63 99 174
62 99 176
62 99 169
62 98 170
62 99 175
61 98 172
62 99 171
62 99 175
62 99 177
62 98 170
62 98 166
62 99 171
62 99 172
62 99 170
63 100 175
62 99 171
62 99 170
61 97 165
62 99 173
62 99 170
62 99 169
62 98 169
63 99 174
62 98 162
62 99 172
62 99 169
63 99 173
62 98 167
62 98 166
62 99 170
61 98 167
62 98 165
62 98 168
61 98 166
62 98 167
62 99 168
62 98 160
62 99 169
61 97 164
63 99 167
62 98 170
62 99 170
63 99 166
62 99 170
62 99 169
61 98 162
62 98 165
61 97 165
63 99 167
63 99 170
62 98 166
62 98 168
62 98 166
62 98 164
63 99 167
62 98 166
61 98 165
62 98 165
62 98 167
61 97 159
61 97 164
62 98 162
62 98 168
61 97 159
60 96 159
62 98 164
62 98 162
61 96 157
62 98 159
60 96 151
61 97 162
62 97 160
61 98 161
62 97 158
61 97 159
61 96 153
61 96 152
60 95 150
61 95 156
61 96 155
60 95 153
60 93 145
61 96 157
61 91 137
63 81 107
60 70 78
63 68 45
71 73 31
60 62 26
65 68 27
72 73 36
70 72 34
85 87 40
79 80 39
75 77 29
83 84 36
80 84 44
82 84 41
92 94 47
100 100 49
96 98 48
101 103 54
92 94 47
108 108 60
105 106 47
115 114 56
107 109 61
113 111 56
109 109 55
121 120 60
110 111 57
116 114 61
116 114 55
118 117 60
129 127 60
132 129 68
133 130 60
141 139 71
139 136 65
132 130 61
133 131 69
134 132 64
142 138 73
146 142 75
141 138 68
142 139 75
141 138 59
137 133 63
145 141 69
144 139 59
154 149 72
146 141 71
153 148 71
152 146 76
154 149 71
149 145 71
158 153 75
163 157 79
155 149 78
158 153 76
155 150 76
156 150 74
155 150 68
152 147 71
154 148 72
159 152 74
159 154 75
157 152 77
163 157 80
162 156 75
158 153 64
163 156 78
160 155 73
162 155 77
163 156 75
159 153 78
160 154 71
158 152 68
161 155 75
159 154 69
162 155 80
157 151 75
162 156 71
157 150 66
149 145 65
156 152 64
163 157 71
168 161 77
157 150 70
161 155 69
154 148 69
155 149 64
157 152 62
156 149 65
156 151 66
155 150 73
156 149 71
151 146 65
154 147 67
160 154 76
156 150 63
152 146 66
154 147 65
152 147 64
148 143 60
152 146 64
152 146 61
152 145 71
148 142 63
145 140 60
141 136 56
142 137 59
152 146 66
142 136 56
153 146 61
144 139 54
144 138 53
147 140 57
141 135 49
136 130 54
136 132 53
130 126 53
143 141 53
138 138 44
150 151 47
141 144 51
149 156 36
148 160 32
147 158 32
151 163 28
158 171 36
166 180 28
165 181 25
167 186 0
168 188 0
168 191 0
169 189 0
174 195 0
170 190 0
170 191 0
171 192 0
170 190 0
173 197 0
172 196 0
170 194 0
171 194 0
173 196 0
170 194 0
171 195 0
172 195 0
174 198 0
171 194 0
171 195 0
172 195 0
174 197 0
172 195 0
172 196 0
171 194 0
172 194 0
172 195 0
171 193 0
170 194 0
170 193 0
171 195 0
172 195 0
171 195 0
169 192 0
172 196 0
172 195 0
170 193 0
171 194 0
171 194 0
172 195 0
170 194 0
171 194 0
171 194 0
169 192 0
174 197 0
170 193 0
172 195 0
169 192 0
171 194 0
172 195 0
170 193 0
169 193 0
171 194 0
170 194 0
166 190 0
169 193 0
173 196 0
170 193 0
170 193 0
174 197 0
168 192 0
172 195 0
170 193 0
171 194 0
172 196 0
170 194 0
171 194 0
170 193 0
168 191 0
169 193 0
166 190 0
170 194 0
168 192 0
171 194 0
169 192 0
171 195 0
169 192 0
164 186 0
170 192 0
169 192 0
168 191 0
168 191 0
171 194 0
169 191 0
169 191 0
171 193 0
167 191 0
169 192 0
167 190 0
169 190 0
164 187 0
166 190 0
170 193 0
162 185 47
144 168 92
87 116 145
62 98 157
61 97 155
62 98 161
61 96 148
61 98 161
61 97 157
60 96 156
61 97 161
61 97 158
62 98 162
62 98 159
62 98 165
61 98 163
61 98 164
62 99 170
62 98 168
62 99 171
62 98 169
63 99 170
62 99 170
62 98 163
63 99 174
62 98 168
61 97 161
63 99 172
62 98 169
61 97 167
61 97 166
61 98 167
61 98 166
63 99 173
62 98 169
63 99 173
62 99 172
63 99 171
62 99 171
62 99 172
62 98 169
62 99 174
62 98 166
62 99 175
62 99 171
61 98 172
62 98 172
62 98 174
62 98 170
62 99 173
62 99 174
62 99 176
61 98 167
62 98 168
63 99 176
62 98 173
62 98 171
62 99 175
62 99 175
62 99 173
62 99 176
61 98 170
62 98 168
63 99 175
62 99 177
62 99 173
62 98 171
63 99 176
62 99 175
62 99 173
62 98 168
63 99 175
62 98 169
63 100 177
61 98 163
62 99 175
62 98 170
62 99 174
62 99 175
62 99 174
62 99 175
62 99 169
62 99 171
63 99 172
62 98 170
62 99 174
62 99 172
62 99 170
62 99 170
62 99 171
62 98 171
62 98 163
61 97 160
63 100 173
63 100 176
62 99 173
61 98 170
62 99 173
63 99 177
62 99 176
62 99 172
63 99 176
63 99 169
62 98 168
63 99 171
62 99 171
62 99 166
62 99 170
62 99 172
62 98 170
61 98 168
61 98 165
62 99 169
63 99 175
62 98 170
62 99 171
62 99 173
62 98 168
62 99 174
62 99 168
62 98 167
62 99 172
62 98 172
62 99 170
62 99 171
62 98 166
63 99 169
63 99 169
63 99 169
62 98 164
61 98 170
62 98 167
62 98 168
62 99 170
62 99 173
62 99 170
62 99 166
62 99 170
61 97 160
62 98 163
63 99 167
62 98 167
62 98 172
62 98 170
62 98 166
63 100 173
62 98 162
61 97 157
62 98 165
63 99 168
62 97 160
61 97 160
62 98 166
62 99 164
61 97 164
63 99 168
62 98 166
62 97 160
61 97 160
63 99 170
62 98 158
62 98 162
61 97 161
62 98 162
61 97 162
62 98 162
61 97 156
61 97 158
60 95 154
61 96 152
62 96 160
61 96 160
61 95 158
60 95 157
59 93 149
61 96 156
60 94 152
58 91 147
61 81 104
54 69 76
70 76 43
62 65 28
66 69 23
65 69 37
68 71 27
70 74 34
80 81 33
79 81 25
82 86 42
90 91 39
86 88 42
89 92 48
90 91 45
90 91 47
85 87 41
101 101 47
101 102 50
110 110 56
115 114 48
113 112 61
115 113 56
97 100 56
113 112 54
118 118 55
119 118 56
111 111 59
119 119 59
119 117 55
124 122 60
128 126 61
125 124 62
143 139 62
134 131 61
140 137 63
136 133 69
141 137 62
135 132 65
134 132 67
147 142 76
147 143 71
142 138 62
144 140 74
148 144 71
149 144 76
146 143 62
148 144 64
151 148 69
148 144 74
148 143 67
153 149 69
155 150 78
150 145 71
159 153 77
155 150 71
157 150 73
159 153 78
159 153 72
155 149 72
161 155 71
161 155 72
161 155 72
152 147 69
165 158 79
161 155 77
158 152 70
157 151 78
152 145 66
159 153 69
165 159 79
155 148 71
167 160 81
162 155 73
163 157 72
162 155 78
163 158 70
160 154 78
166 159 76
158 152 73
163 158 75
164 157 79
151 145 72
157 151 71
161 155 67
158 152 64
155 148 67
154 147 66
156 150 65
159 153 71
157 152 66
159 151 71
154 148 69
152 146 63
153 147 63
158 152 68
154 148 64
155 149 73
153 147 62
153 147 68
153 146 69
149 143 63
153 145 65
145 141 57
152 147 57
144 140 52
145 140 56
141 135 48
140 134 57
140 135 54
140 135 53
149 143 60
146 141 59
142 137 59
138 132 57
135 130 57
125 121 42
139 137 47
139 137 48
133 132 51
148 153 39
141 148 32
146 154 28
145 153 32
159 173 30
154 167 32
158 173 22
161 178 19
161 178 0
168 188 0
169 189 11
167 187 0
165 182 0
166 187 0
168 188 0
172 192 0
170 191 0
169 188 0
169 192 0
173 196 0
171 195 0
175 198 0
172 195 0
171 194 0
170 194 0
171 194 0
172 196 0
168 192 0
171 194 0
174 197 0
171 195 0
169 192 0
169 193 0
169 193 0
171 194 0
171 195 0
171 195 0
169 192 0
172 195 0
172 196 0
172 196 0
172 195 0
169 192 0
172 195 0
168 191 0
169 193 0
167 191 0
173 196 0
171 195 0
167 191 0
167 191 0
173 196 0
171 194 0
170 193 0
170 194 0
169 193 0
171 195 0
167 192 0
172 195 0
170 193 0
167 191 0
172 194 0
167 190 0
169 194 0
168 191 0
172 195 0
168 191 0
172 194 0
167 190 0
172 194 0
165 189 0
170 193 0
172 196 0
168 191 0
166 191 0
170 193 0
169 192 0
169 192 0
172 195 0
167 190 0
169 192 0
170 194 0
170 194 0
170 192 0
171 194 0
173 196 0
170 194 0
166 188 0
170 193 0
170 193 0
166 191 0
169 192 0
170 194 0
166 190 0
166 189 0
168 191 0
168 191 0
168 192 0
169 193 0
167 191 0
166 190 0
165 188 0
157 180 54
127 152 103
70 103 151
61 96 147
61 97 153
62 98 163
63 99 166
63 99 165
61 97 158
63 99 169
62 98 160
61 97 156
62 98 164
62 99 166
61 98 165
62 99 172
61 98 163
61 98 169
62 98 169
61 97 169
61 98 167
62 99 171
62 99 168
62 99 171
62 98 166
62 99 173
62 98 167
62 99 169
62 99 174
61 98 169
61 98 168
62 98 170
62 98 170
63 99 175
62 98 170
62 99 172
62 98 168
61 98 169
61 98 169
61 98 165
62 98 166
62 98 173
63 100 176
63 99 173
63 99 172
61 98 169
62 98 172
61 98 172
62 98 169
61 98 169
62 98 171
62 99 169
62 99 172
63 99 174
62 99 174
62 98 162
62 99 173
62 99 172
62 99 172
62 98 172
61 98 166
62 99 173
61 98 169
63 99 173
63 100 178
62 99 169
63 99 178
63 99 173
62 99 171
62 98 174
62 98 171
61 98 168
62 99 171
62 99 178
62 99 175
62 98 167
62 99 174
62 98 168
61 98 167
62 98 170
62 99 175
62 99 173
62 99 168
62 98 172
62 99 171
62 99 174
62 99 171
62 99 173
61 97 165
62 98 172
62 99 172
62 98 172
62 99 171
62 98 169
63 99 170
61 98 170
62 99 177
62 99 175
62 99 170
62 99 172
62 99 172
62 99 171
62 99 168
62 99 172
62 99 170
62 98 168
63 99 171
62 98 166
61 98 166
61 98 169
62 99 173
62 98 170
62 99 174
62 98 168
63 99 171
61 98 173
62 98 170
62 98 167
62 98 166
62 99 173
62 99 167
61 98 170
62 99 169
62 98 169
62 98 168
62 98 170
62 98 170
61 97 162
63 99 171
63 99 171
61 98 168
62 99 168
61 98 166
62 98 167
62 99 171
62 99 170
62 99 167
62 98 164
61 97 162
62 98 169
62 98 164
61 97 163
62 98 166
62 98 165
61 97 164
61 97 161
62 98 165
62 98 163
63 99 169
63 99 161
62 99 169
62 98 163
63 99 169
61 98 166
62 98 163
63 99 167
62 98 161
62 98 163
61 97 163
62 98 161
62 98 170
62 98 171
62 98 160
62 97 158
62 98 164
62 98 163
61 96 155
62 97 158
62 97 160
61 97 159
60 95 153
60 96 152
61 96 159
61 96 154
61 95 154
58 91 140
60 95 151
59 90 134
58 84 118
65 79 95
68 73 51
56 59 23
61 64 26
64 68 29
65 69 35
71 74 34
63 67 35
53 60 30
78 80 42
75 78 37
72 77 39
91 93 42
87 89 37
86 89 37
94 94 45
96 96 42
95 96 40
101 103 51
93 95 45
99 101 48
114 114 58
107 106 48
110 110 57
114 113 59
113 112 51
125 124 63
115 113 54
126 122 61
126 124 57
132 131 58
133 130 64
136 133 68
131 129 65
138 134 61
135 132 68
134 131 63
136 133 65
142 139 69
144 140 61
142 138 69
152 147 71
151 146 77
148 143 66
151 146 72
142 140 63
156 150 74
146 142 67
150 145 65
146 141 69
158 153 77
156 150 73
156 151 70
153 148 68
154 150 72
150 146 66
156 151 71
165 159 78
156 150 70
163 157 75
153 147 71
163 156 76
155 151 67
155 150 65
164 157 76
156 150 71
162 156 75
152 146 72
158 151 69
160 154 68
161 154 70
161 156 72
167 160 77
161 155 76
155 149 63
163 157 74
158 153 69
153 147 65
157 151 68
158 151 72
158 152 71
158 152 71
154 148 66
165 158 75
159 153 70
158 151 64
159 152 72
150 144 62
154 149 65
158 152 64
158 152 73
155 149 69
151 146 61
152 145 64
146 140 64
154 149 63
158 151 69
138 133 59
156 148 69
147 141 62
151 145 61
151 145 65
139 134 61
150 143 63
152 146 56
148 142 61
142 136 59
151 144 60
143 137 57
143 138 49
141 136 51
131 126 47
136 130 52
129 125 44
136 131 59
134 130 44
129 127 45
139 139 47
139 141 42
145 149 30
139 142 45
145 153 30
151 162 25
148 157 32
161 176 22
159 172 30
159 176 11
157 173 11
168 187 16
168 188 0
168 188 11
167 188 0
170 191 0
169 191 0
169 189 0
168 187 0
171 191 0
172 196 0
171 195 0
172 196 0
170 193 0
175 198 0
168 192 0
171 194 0
172 194 0
169 193 0
171 194 0
171 194 0
174 197 0
171 193 0
171 195 0
171 195 0
170 193 0
168 192 0
169 192 0
170 194 0
172 196 0
168 191 0
167 190 0
171 194 0
172 195 0
170 193 0
173 197 0
171 195 0
171 194 0
174 197 0
168 192 0
167 191 0
172 195 0
171 194 25
173 197 0
173 196 0
171 194 25
171 194 0
171 193 0
170 194 0
172 196 25
172 195 0
166 189 0
168 191 0
170 193 0
172 196 0
171 194 0
168 192 0
171 194 25
169 193 0
172 196 0
171 194 0
172 196 0
172 195 0
171 194 0
170 193 0
170 193 0
170 192 0
165 188 0
169 192 0
169 193 0
166 190 0
171 195 0
170 193 0
170 193 0
169 193 0
172 195 0
162 185 0
168 190 0
167 191 0
169 192 0
167 190 0
170 194 0
168 191 0
168 190 0
169 191 0
169 192 0
170 194 0
166 190 0
170 193 0
170 192 0
170 194 0
164 188 0
163 186 0
170 193 25
157 181 67
117 143 121
74 106 147
61 96 150
62 98 160
62 98 157
62 98 163
61 97 152
62 98 158
62 98 161
61 97 160
62 99 167
62 99 167
62 98 168
61 98 162
62 98 165
61 97 160
61 98 162
62 99 168
62 98 169
61 98 166
62 98 167
62 98 167
62 98 163
62 99 171
62 99 169
62 98 167
62 98 165
62 99 174
62 98 167
62 98 169
62 99 174
62 99 172
61 98 170
62 98 168
62 98 173
62 99 172
61 98 165
62 98 171
62 98 168
62 99 170
61 97 165
62 98 170
62 99 172
62 99 173
62 99 172
62 98 171
62 98 166
62 98 170
63 99 174
62 98 168
63 99 170
62 99 173
62 99 171
62 99 174
62 99 176
62 99 172
62 98 169
61 98 171
61 98 172
62 98 170
62 98 170
63 99 173
62 99 173
62 99 174
62 99 172
62 99 173
62 98 170
61 98 167
61 98 166
62 98 169
62 99 176
62 99 169
63 99 171
62 98 172
62 98 169
62 98 172
62 99 172
63 100 173
62 99 168
62 98 163
62 98 170
62 99 172
62 99 172
62 99 172
62 98 169
63 99 172
61 98 168
62 99 176
62 99 173
62 98 170
63 99 173
62 99 170
63 99 173
61 98 170
63 99 174
61 98 170
62 98 169
62 99 173
62 99 174
62 99 171
61 98 171
63 99 175
63 99 171
62 99 170
62 99 173
62 99 172
62 99 170
62 99 169
62 99 173
63 100 176
62 99 170
62 99 173
62 99 170
61 98 162
62 98 169
62 99 169
61 98 165
62 99 171
61 98 164
63 100 175
62 99 173
62 98 162
61 98 169
62 98 170
62 98 169
61 98 163
62 98 167
62 98 169
61 97 161
62 98 168
63 99 171
63 99 170
62 98 166
62 98 166
62 98 165
61 98 165
61 98 166
62 99 166
62 98 166
63 99 170
62 98 158
62 98 166
62 98 169
62 98 168
62 99 167
62 98 163
61 97 160
61 98 166
62 98 161
62 99 170
61 97 163
61 97 160
62 98 161
63 99 171
62 98 164
62 98 163
62 97 158
61 98 165
62 98 162
62 98 167
62 97 156
62 98 163
61 97 161
62 98 163
61 97 158
61 96 153
61 96 158
62 97 162
62 97 158
61 97 161
60 95 155
61 95 155
62 98 161
61 96 152
60 94 137
60 94 144
59 92 141
59 86 125
61 77 93
63 72 67
68 71 35
48 56 29
71 69 28
72 77 35
77 79 38
75 78 31
84 86 39
61 67 30
71 74 29
76 79 36
86 87 38
80 82 40
97 97 43
93 94 46
99 100 47
104 104 39
96 98 46
115 113 50
111 110 55
106 107 55
111 109 53
121 120 60
115 115 51
124 123 54
124 121 60
120 120 60
123 122 57
116 114 53
133 130 63
121 119 53
127 125 69
131 127 65
137 133 62
132 130 59
143 139 67
142 137 59
132 130 62
148 144 78
144 140 74
145 141 63
142 137 63
137 132 65
145 142 68
150 145 71
149 145 72
145 142 66
153 148 73
149 144 69
153 147 65
149 143 73
151 145 68
154 148 68
149 144 63
149 146 61
153 148 73
157 151 69
155 150 65
158 153 73
156 151 69
159 153 78
158 153 69
161 155 76
160 153 75
161 156 74
154 149 58
161 155 73
162 155 71
163 156 75
164 157 78
154 149 67
160 154 70
158 152 66
160 154 70
163 156 71
160 153 69
162 156 67
150 145 58
152 147 62
154 148 62
152 148 64
152 146 60
167 160 82
154 149 61
146 140 58
162 155 74
154 149 64
161 154 71
151 145 62
150 144 61
157 151 71
152 147 56
150 145 58
151 146 64
151 145 61
149 143 59
152 146 64
144 138 56
152 146 61
152 146 51
148 142 63
155 149 62
148 141 65
151 145 64
137 132 52
147 141 54
140 135 56
144 137 60
146 140 58
137 131 48
137 133 54
129 124 49
131 126 44
135 130 48
142 141 48
139 141 47
142 145 37
136 140 42
143 149 32
153 162 34
157 167 34
157 167 32
153 165 25
157 172 16
162 179 22
168 186 16
162 181 11
165 184 0
166 185 11
167 187 0
169 190 0
168 190 0
171 192 0
170 190 0
171 192 0
171 192 0
173 197 0
172 195 0
173 197 0
171 194 0
173 196 0
170 193 0
171 196 0
171 195 0
173 196 0
171 194 0
172 195 0
172 196 0
172 195 0
173 196 0
170 194 0
172 195 0
172 195 0
173 197 0
170 193 0
171 195 0
173 196 0
173 196 0
168 192 0
169 193 0
170 193 0
168 192 25
170 194 0
172 195 25
171 194 0
171 195 0
171 194 0
172 196 36
171 194 25
172 196 36
173 196 51
171 193 0
172 196 25
172 194 0
169 192 25
169 191 25
174 197 25
170 193 0
170 194 25
169 193 25
172 195 25
171 194 25
168 192 0
168 192 0
167 191 25
168 191 0
170 193 0
169 192 0
170 193 0
169 192 25
171 195 0
171 195 0
166 190 0
170 193 0
168 191 25
172 195 0
168 191 0
172 195 0
171 194 0
165 189 0
168 191 0
164 187 0
170 193 0
167 190 0
167 191 0
168 192 0
165 190 0
166 189 0
171 193 0
167 191 0
167 190 0
168 191 0
169 191 0
170 193 0
167 190 0
172 196 0
169 191 0
162 186 0
169 191 0
166 190 31
147 171 76
112 138 118
62 98 155
60 96 151
62 98 162
62 98 159
61 98 162
62 98 159
62 98 163
62 98 155
61 97 156
62 98 162
61 97 160
62 98 167
62 98 161
61 98 163
62 98 170
61 97 164
62 98 165
62 98 166
62 98 163
62 99 171
62 98 168
62 98 170
62 98 168
62 99 172
62 99 171
62 98 171
61 98 165
62 98 167
62 99 169
62 99 170
62 99 173
62 99 171
62 99 175
62 98 167
62 99 175
62 99 169
61 97 167
62 99 173
62 99 172
62 99 171
62 99 168
62 99 171
62 98 169
61 97 166
61 98 175
61 98 169
63 99 175
62 98 169
62 98 174
62 99 172
61 98 166
62 99 171
62 99 172
62 98 170
62 99 174
62 99 170
62 98 170
62 98 168
62 99 170
62 99 175
62 99 174
63 99 170
63 99 173
62 99 171
62 99 172
62 99 172
62 98 167
62 99 174
62 99 173
62 99 170
62 99 171
62 99 174
63 99 176
63 99 172
62 98 168
61 97 164
62 99 172
62 99 173
62 98 168
62 98 170
62 98 168
62 99 173
62 98 170
62 99 173
63 100 176
62 99 170
63 99 171
62 99 171
63 99 174
61 98 168
62 99 170
63 99 173
61 98 166
62 98 170
63 100 175
63 99 175
63 100 177
62 98 168
61 98 166
62 98 173
62 98 165
62 98 170
62 99 169
62 99 171
62 98 167
63 99 175
62 98 168
62 98 169
63 99 174
62 99 170
62 98 166
62 99 169
62 98 164
62 98 169
63 100 174
62 98 166
61 98 164
62 99 173
63 100 174
62 98 169
62 99 168
63 100 173
62 98 175
62 99 169
62 99 169
62 98 166
62 99 171
62 98 166
63 99 169
62 98 165
62 98 166
62 99 169
63 99 172
61 97 159
62 99 171
62 99 166
63 99 172
62 98 168
61 98 167
62 99 169
62 98 165
62 98 162
63 99 167
62 99 167
62 99 166
62 98 160
62 98 161
63 99 168
63 99 169
62 98 161
61 97 158
61 97 160
61 97 161
62 98 166
61 97 158
61 97 158
62 98 164
62 98 165
63 98 166
62 98 165
61 98 162
61 97 159
60 96 158
61 97 154
61 98 161
60 95 153
61 96 159
61 96 162
61 96 155
60 95 149
60 95 149
61 95 153
60 95 155
61 95 151
59 93 145
60 94 144
59 86 117
54 73 94
71 78 63
76 78 34
64 67 24
64 67 28
74 76 33
80 82 35
76 81 37
79 81 39
89 90 38
70 73 30
79 80 35
96 97 40
76 80 45
100 100 40
105 105 52
96 97 42
92 95 40
107 105 53
107 107 47
103 104 51
104 104 49
110 110 53
104 106 46
113 113 47
116 114 55
114 113 49
119 118 52
115 115 55
120 119 45
125 124 61
132 129 63
128 126 61
130 129 57
129 128 55
141 136 66
143 139 65
130 127 62
137 135 53
140 136 60
135 133 54
143 138 62
152 147 71
147 142 67
149 145 66
137 133 66
153 149 75
145 141 64
146 141 61
151 146 70
152 148 71
154 149 62
149 145 69
153 147 69
156 151 69
153 147 67
152 146 69
156 151 72
161 155 74
157 150 75
156 150 73
154 148 70
158 152 74
154 149 69
154 149 63
157 150 75
163 155 78
154 148 70
155 149 66
157 151 67
160 154 68
166 160 80
155 149 62
158 152 70
157 150 71
162 155 72
159 152 68
155 149 61
157 151 61
156 151 67
156 150 68
157 152 62
151 145 71
158 152 68
153 147 70
160 153 70
154 148 65
154 150 64
152 146 68
153 148 64
156 149 66
143 138 62
148 143 62
154 147 68
154 147 63
154 148 65
155 148 65
149 144 60
151 145 62
145 140 56
145 139 60
144 139 54
150 144 60
143 139 49
145 140 52
144 138 52
146 140 49
137 130 57
140 135 53
137 132 52
142 136 58
136 130 52
143 138 52
138 133 51
138 138 42
131 132 37
131 131 41
138 142 32
134 137 39
147 154 37
154 163 32
158 171 30
151 163 30
154 166 25
161 177 22
159 175 19
163 182 11
166 184 0
167 187 0
167 187 0
167 187 0
168 188 0
170 189 0
170 191 0
164 184 0
170 189 0
171 193 0
171 194 0
170 193 0
172 196 0
173 196 0
167 190 0
171 194 0
169 193 0
173 197 0
171 194 0
170 194 0
173 196 0
173 196 0
169 192 0
168 191 0
173 196 0
173 196 0
174 197 0
173 197 0
171 194 25
171 195 0
171 195 0
170 193 36
169 193 25
170 193 0
172 195 25
169 192 25
174 197 25
172 195 25
172 196 36
172 196 44
168 191 25
173 195 36
170 193 36
170 193 25
170 194 36
170 194 0
170 194 0
170 193 44
168 192 36
173 196 62
167 190 0
176 198 44
169 193 0
169 192 36
168 192 0
170 193 25
169 192 0
173 196 51
166 190 25
170 193 44
172 194 36
169 193 0
171 194 25
171 194 44
172 195 44
171 194 25
170 193 0
173 196 36
172 195 0
171 195 0
169 193 0
167 190 0
169 193 25
167 191 0
170 193 0
170 194 0
171 195 0
171 194 0
170 192 0
165 188 0
171 194 0
168 191 0
172 195 0
171 194 0
170 194 0
167 190 0
172 194 0
170 194 0
168 191 0
168 191 0
166 189 0
167 190 0
167 190 0
163 186 25
142 167 84
105 132 124
61 97 155
62 98 154
61 97 157
61 97 158
62 97 159
62 98 159
62 98 162
61 97 158
62 98 159
61 97 162
62 98 162
62 99 169
62 98 165
61 97 160
62 98 165
62 98 163
62 99 168
62 97 159
62 98 166
61 98 167
62 99 168
62 99 170
62 99 167
61 97 159
61 98 165
61 98 168
63 99 174
61 98 171
62 98 172
62 98 170
63 99 171
62 98 169
61 97 161
62 98 169
62 98 169
62 98 164
62 98 163
61 97 161
62 98 168
62 99 169
62 99 174
62 98 170
62 99 176
63 99 177
61 98 171
62 98 169
62 98 173
62 98 169
62 99 176
63 100 177
62 98 170
62 99 173
62 99 172
62 99 174
61 97 170
62 98 170
62 98 169
62 98 172
62 98 165
63 99 173
62 98 169
62 99 170
62 98 166
62 98 173
62 98 166
61 97 168
62 99 173
62 99 171
62 99 169
62 98 170
62 99 175
62 99 174
63 99 174
62 98 169
63 99 176
62 99 172
62 98 168
62 99 173
61 98 166
62 99 171
63 99 171
62 98 168
62 99 175
63 99 174
62 98 172
62 98 167
62 99 175
61 97 170
62 98 173
63 99 175
61 98 168
62 98 169
63 99 166
62 98 171
62 99 169
62 98 167
61 97 164
62 98 168
61 98 165
62 98 164
62 99 170
61 98 164
62 98 168
63 99 170
62 99 171
62 98 167
62 98 166
61 98 170
62 99 170
62 98 170
62 98 166
63 99 172
63 100 174
62 99 171
61 98 168
63 99 172
62 98 166
62 98 169
61 97 165
63 99 175
62 98 169
62 98 165
62 98 170
63 99 169
62 98 163
62 99 168
61 98 164
62 98 161
62 98 162
62 98 169
62 98 165
63 99 173
62 98 164
62 98 161
63 99 168
62 98 167
62 98 167
61 97 156
61 97 162
62 99 170
62 98 165
62 98 166
61 97 160
62 98 166
62 99 165
62 99 167
61 98 164
61 97 156
61 97 164
62 98 163
61 97 156
62 98 165
63 99 172
61 97 159
61 97 161
62 98 167
62 98 163
61 97 158
61 97 159
61 97 161
61 97 153
62 98 164
61 97 160
62 97 160
60 96 155
62 98 161
61 96 154
62 97 160
62 97 161
62 97 158
61 96 158
61 96 153
60 95 156
60 95 149
61 95 154
60 94 147
59 85 116
60 78 98
57 69 69
65 68 30
84 84 24
75 77 27
65 69 24
75 77 28
70 74 30
77 80 36
84 85 27
81 83 34
85 86 44
98 99 41
87 87 41
107 107 38
95 96 43
102 101 51
111 109 49
92 94 38
97 97 40
108 107 49
100 101 39
108 108 49
110 110 51
117 116 42
115 116 53
122 121 54
120 119 62
126 124 56
131 128 64
119 118 53
133 130 63
130 128 49
132 130 56
120 118 53
133 131 62
142 138 64
133 129 62
143 139 61
140 136 61
137 133 62
143 139 70
137 135 60
140 137 58
146 141 67
144 139 68
145 141 64
154 148 64
152 147 69
148 142 61
149 145 63
159 153 73
153 148 67
150 145 66
156 150 71
153 147 71
152 146 69
154 148 69
160 153 69
156 150 67
151 146 65
153 149 69
157 151 67
155 150 68
156 150 67
161 154 69
164 157 77
161 155 63
152 147 61
151 145 57
156 150 69
156 151 65
158 152 67
158 152 70
158 151 75
155 149 68
152 147 60
145 139 56
156 150 67
155 149 66
160 154 63
154 148 68
149 143 63
162 154 72
156 150 70
151 145 63
152 145 61
156 150 64
147 142 57
152 146 64
149 143 68
149 143 63
157 150 68
145 139 54
153 146 64
158 152 66
151 145 56
148 143 53
141 135 59
151 145 65
150 143 59
140 134 52
154 146 72
144 140 57
146 139 62
140 134 56
158 150 67
144 139 52
134 128 47
138 133 53
128 121 49
127 121 44
138 131 48
141 135 56
138 134 47
144 143 49
145 147 41
145 144 48
143 147 47
134 139 32
144 155 25
154 162 22
151 163 22
152 167 25
160 177 22
163 182 11
164 182 16
168 188 11
168 186 0
168 189 0
168 188 0
167 187 0
169 190 0
161 179 0
169 191 0
170 191 0
169 186 0
173 196 0
170 194 0
170 193 0
172 195 0
168 192 0
170 193 0
173 196 0
171 195 0
173 195 0
170 194 0
168 191 25
171 194 0
170 194 44
173 196 25
171 194 0
172 195 25
170 194 0
172 195 0
172 196 0
170 193 36
175 197 51
175 198 44
169 192 44
167 191 25
172 195 44
170 194 36
174 197 36
178 200 51
168 191 36
173 196 51
174 197 44
171 194 44
169 193 36
171 194 0
169 192 0
172 196 25
173 195 51
169 192 36
172 195 36
172 195 51
171 194 25
171 194 51
173 197 36
173 196 36
170 194 44
172 195 44
175 198 51
171 194 62
174 195 25
169 192 36
169 192 0
170 192 25
171 194 36
172 196 25
173 196 44
170 193 36
174 197 36
167 191 0
170 193 36
169 192 36
172 195 25
169 191 0
171 194 25
168 192 36
167 190 25
169 192 0
171 194 0
166 189 0
169 191 0
171 194 0
170 193 0
165 189 0
171 193 0
165 187 0
171 195 0
165 189 0
169 193 0
171 194 0
166 190 0
168 190 0
168 191 0
167 189 0
164 187 0
164 189 31
135 159 99
89 119 144
61 97 161
61 97 149
61 97 160
61 97 154
62 98 162
62 97 157
61 98 161
62 98 164
62 98 164
61 97 155
61 97 167
62 98 163
62 98 166
61 97 159
62 98 168
62 98 162
62 98 168
62 98 166
61 98 165
62 99 169
62 98 169
62 99 171
61 98 162
62 98 166
61 98 168
62 98 166
62 99 168
62 98 167
62 99 170
62 98 164
62 99 175
62 98 170
61 98 167
63 99 175
62 99 171
62 99 170
62 99 172
62 99 174
61 98 168
62 98 167
62 98 169
62 99 173
61 98 169
62 99 171
61 97 165
61 97 167
62 99 170
62 99 171
61 98 172
62 99 172
62 98 171
62 99 169
62 99 173
62 99 171
62 98 170
62 99 170
62 99 169
62 99 173
62 98 170
62 99 174
62 99 171
62 98 166
62 98 170
62 99 171
61 98 175
62 99 173
62 98 172
62 99 167
63 99 176
62 99 177
61 98 172
63 99 173
62 98 169
61 98 167
61 98 166
62 99 168
62 99 174
62 99 173
62 99 167
62 99 171
63 99 177
62 98 172
62 99 171
62 99 172
63 99 172
62 99 176
62 99 168
62 99 173
62 98 168
63 99 173
62 99 171
62 99 174
62 99 171
62 98 169
62 99 170
62 99 169
63 99 170
63 99 172
62 98 166
62 98 169
62 99 171
62 99 172
62 99 172
61 97 163
61 97 161
62 99 171
61 98 164
62 98 167
62 99 173
62 98 163
62 99 173
61 98 168
61 97 163
62 99 168
63 99 169
61 97 160
62 99 173
62 98 166
63 99 173
62 98 168
63 99 173
62 99 168
62 98 166
61 97 162
62 98 171
62 99 169
62 99 171
62 98 169
62 98 164
62 98 160
62 99 165
61 98 170
62 98 166
62 99 170
62 98 165
63 99 168
62 98 165
62 98 162
61 97 157
63 99 168
62 99 172
61 97 160
62 98 166
62 98 162
62 98 164
62 98 169
62 98 157
62 98 166
61 98 162
62 98 165
62 97 153
62 98 164
61 97 159
62 99 167
62 98 166
61 96 151
61 97 160
62 98 162
62 98 163
62 98 162
62 98 161
63 99 160
62 97 156
61 97 159
61 96 156
60 96 153
61 96 157
62 97 152
62 97 166
62 98 157
60 95 154
60 95 149
58 93 146
60 94 151
59 92 143
60 94 142
64 90 123
69 85 97
71 80 77
66 72 51
62 65 25
69 72 25
71 73 28
69 72 25
84 84 28
79 81 32
86 87 35
77 80 29
73 75 36
86 86 34
95 97 37
87 90 38
95 96 40
95 94 41
93 94 29
99 100 41
109 108 47
103 103 51
109 108 52
104 104 48
117 117 49
119 117 54
108 108 48
124 122 56
115 115 52
117 117 52
127 125 58
130 127 55
129 126 63
124 122 63
131 127 59
134 131 56
130 128 61
134 132 52
132 128 58
142 138 68
139 135 57
139 135 66
134 131 54
133 129 67
147 143 67
138 133 60
145 140 66
151 146 70
146 142 64
138 134 57
146 142 65
148 144 62
147 143 58
149 144 63
156 150 65
149 145 62
149 145 61
149 144 64
151 145 69
156 150 65
154 148 63
161 154 71
146 141 64
163 158 66
151 145 67
149 144 57
156 151 63
148 143 60
156 149 66
155 150 68
151 147 64
153 148 62
151 145 69
156 149 63
152 146 64
150 144 53
155 148 67
162 156 70
158 153 61
151 146 58
163 156 66
162 156 74
158 151 64
153 148 53
148 144 53
149 143 60
147 141 60
155 149 58
152 145 61
155 149 63
162 155 70
154 148 61
149 143 59
153 146 62
152 146 64
149 143 63
146 141 63
142 136 56
150 143 62
155 150 61
144 138 54
149 142 59
148 142 59
142 136 56
144 138 59
144 138 47
147 142 57
144 138 57
133 128 45
134 129 47
138 133 57
138 134 37
133 127 48
144 140 54
133 129 48
139 137 41
144 144 48
134 135 39
140 143 37
147 154 37
145 152 30
149 161 22
158 171 28
153 169 22
158 169 34
165 181 19
160 177 22
164 182 11
166 185 0
169 189 0
168 188 0
164 183 0
170 191 0
168 188 0
167 186 0
167 188 0
171 190 0
169 189 0
170 193 0
172 195 0
171 194 0
171 194 0
171 194 0
172 195 25
173 196 0
171 195 0
172 195 0
168 192 0
171 195 0
171 195 0
166 189 25
172 196 0
172 196 25
176 199 36
171 194 36
171 194 36
171 194 25
171 194 36
169 192 44
173 196 0
173 196 51
171 195 36
172 194 44
170 193 51
175 198 44
172 195 57
173 195 51
171 194 36
174 197 44
172 195 36
170 194 36
173 196 57
168 192 25
174 197 36
169 192 44
175 197 57
173 195 51
174 196 36
173 195 51
171 194 57
171 194 57
171 194 0
174 197 44
167 190 51
171 195 44
169 191 0
169 193 25
173 195 57
169 191 36
169 192 44
167 190 44
174 196 57
172 196 44
170 193 36
174 197 44
172 195 36
166 189 25
170 194 25
169 192 25
170 193 25
166 188 25
169 192 36
170 194 0
167 191 25
171 193 36
165 188 0
169 191 25
165 189 0
168 192 0
169 192 0
170 193 0
167 192 0
165 189 0
172 196 0
169 192 0
164 189 0
167 191 0
170 193 0
171 194 0
166 189 0
167 191 0
158 183 40
147 171 84
89 119 135
61 96 150
61 97 157
62 98 164
61 97 160
63 99 166
62 98 162
62 97 155
62 97 162
61 97 158
61 97 156
62 98 164
62 98 157
61 97 161
61 98 160
62 98 167
61 97 162
61 97 160
62 98 162
62 99 169
61 97 163
63 99 170
62 98 168
62 98 166
62 98 168
61 97 158
63 99 171
61 98 168
62 98 168
62 98 170
62 98 167
62 99 172
61 97 158
62 98 175
62 98 168
62 98 166
62 98 167
61 98 167
62 99 169
60 97 160
62 98 166
61 98 170
63 99 174
62 99 167
62 99 175
61 97 166
62 99 171
61 97 168
63 99 174
61 98 167
62 99 171
62 99 168
62 98 170
63 99 172
63 99 168
62 98 174
62 99 174
62 99 174
62 99 175
62 99 173
61 98 169
63 99 174
62 98 174
62 99 173
61 98 171
62 99 171
62 99 169
62 99 168
63 99 174
62 99 174
61 98 171
62 99 172
62 99 170
62 99 177
61 98 169
62 98 171
63 99 175
63 100 178
62 99 169
62 98 170
63 99 174
62 99 173
62 99 168
61 98 170
62 99 171
62 98 172
63 99 170
62 99 173
62 99 171
62 99 168
62 99 177
62 99 174
61 98 168
62 99 172
63 99 174
62 98 168
62 98 168
62 98 165
62 98 168
62 98 164
62 99 171
62 99 174
63 99 172
62 98 171
62 98 169
62 98 167
62 98 165
61 98 167
64 100 172
62 99 167
62 98 166
62 98 165
62 98 167
62 99 170
61 98 165
62 98 171
61 97 158
62 98 168
62 98 161
62 98 169
63 99 169
62 99 168
62 99 170
62 98 166
63 99 170
62 98 165
61 98 162
62 98 165
61 97 167
62 99 170
63 99 170
61 98 166
62 98 166
62 99 166
62 99 169
62 98 163
62 98 169
61 97 158
62 98 166
62 98 164
62 98 161
63 99 173
62 98 167
62 98 165
62 98 157
63 99 170
63 99 168
62 98 163
62 98 161
62 98 161
63 99 170
62 98 165
62 99 167
62 98 158
62 98 163
62 98 161
63 99 161
62 98 164
62 98 163
62 98 163
62 97 158
61 97 157
61 96 149
60 95 147
62 97 161
61 97 157
62 98 160
62 98 166
62 97 152
61 96 159
60 95 148
62 97 160
61 95 157
60 95 150
59 94 148
60 94 144
62 97 162
56 88 133
64 82 90
69 78 64
59 64 42
67 68 21
80 82 25
79 80 25
83 84 21
70 73 29
79 82 25
74 79 35
101 100 32
78 80 33
81 83 37
90 92 33
89 90 38
100 100 40
89 89 38
95 96 38
109 109 52
95 96 33
100 102 51
108 108 54
107 106 47
122 119 47
117 116 51
116 115 54
116 115 45
122 121 51
126 123 55
106 107 48
125 123 61
127 125 56
128 125 49
129 127 55
130 128 57
135 133 65
127 124 53
140 137 56
135 132 65
143 139 67
147 141 68
141 137 62
143 140 69
137 134 53
141 137 58
141 137 60
147 143 63
141 137 58
141 135 63
149 143 66
149 143 68
136 133 61
151 146 71
155 149 75
158 152 70
159 153 70
157 151 65
152 147 64
151 147 63
150 145 61
151 146 64
156 150 69
149 144 67
152 147 68
151 145 62
151 146 55
154 148 64
155 150 59
161 154 68
156 150 63
161 154 71
154 148 67
154 149 64
151 145 62
155 149 65
156 150 67
146 141 53
154 147 60
148 143 62
152 146 63
160 153 69
155 149 62
154 147 70
150 145 53
159 152 68
158 151 73
147 141 61
159 153 64
156 150 62
149 143 60
152 147 52
149 143 57
155 148 58
155 149 61
147 143 60
144 138 53
152 144 64
145 140 56
147 141 52
150 144 59
143 137 49
140 135 49
143 138 52
153 147 58
148 142 62
148 141 61
147 140 56
148 141 52
134 128 47
134 129 37
141 134 57
137 134 44
133 130 37
142 140 48
141 141 45
135 136 41
146 150 45
152 159 42
148 156 25
148 159 16
150 161 19
155 167 32
157 170 16
161 176 25
162 178 16
165 182 11
166 185 0
169 188 0
170 189 0
166 185 0
166 185 0
169 191 0
168 189 0
168 189 0
169 188 0
170 190 0
167 187 0
171 195 0
173 195 0
172 195 0
171 194 0
172 195 0
171 194 25
172 195 0
174 198 36
168 192 0
174 197 36
172 194 25
171 193 36
170 193 0
173 196 25
174 197 36
172 195 44
173 196 51
172 195 36
172 195 44
175 198 36
170 193 44
174 196 76
172 194 25
169 193 25
173 196 44
170 193 36
172 195 62
167 191 36
174 196 51
174 196 51
173 196 72
173 195 51
171 194 25
169 193 25
171 195 44
173 197 57
171 195 36
171 195 36
174 196 72
172 195 51
172 195 36
172 195 51
173 196 36
171 194 44
172 195 51
171 194 51
172 195 25
174 196 62
169 192 51
170 193 51
176 198 67
172 194 67
173 196 44
172 195 57
172 194 36
169 191 57
167 190 25
171 193 51
171 194 51
167 189 36
170 193 25
171 194 51
170 193 57
168 191 25
169 192 25
165 188 0
168 191 36
171 194 36
170 192 25
165 189 0
169 192 36
163 186 0
167 190 25
167 190 0
167 189 0
168 192 0
172 195 0
166 190 0
169 192 0
164 188 0
168 191 0
168 191 0
169 192 0
162 186 54
135 158 94
81 112 146
60 96 145
62 98 159
61 96 149
62 98 164
62 98 158
60 95 146
61 97 160
62 98 162
62 98 162
61 97 162
62 98 160
62 97 159
62 98 162
62 98 167
62 99 167
62 98 165
61 98 168
61 97 163
61 97 162
61 97 159
61 97 162
61 97 163
62 98 163
62 98 163
61 98 169
60 97 167
62 98 164
62 99 170
63 99 166
63 99 168
62 98 172
61 98 164
62 99 170
62 98 167
61 98 168
62 98 172
61 98 166
62 99 174
62 98 168
61 98 163
62 99 170
62 99 171
62 98 171
62 98 169
62 98 168
62 98 168
62 99 171
62 99 175
62 99 172
62 98 165
63 99 173
62 98 167
62 99 174
63 99 171
62 99 170
62 99 169
62 99 171
62 99 172
62 98 164
61 97 166
63 99 174
62 98 173
61 98 173
61 97 169
61 98 168
62 98 170
61 98 167
63 99 167
62 99 173
61 98 170
62 99 173
61 98 166
62 99 171
61 98 165
62 98 168
61 98 170
62 99 176
62 99 172
61 98 168
62 99 171
62 99 168
63 99 175
62 99 175
62 99 175
63 99 172
63 99 173
62 99 172
63 99 172
62 98 168
62 98 169
62 99 170
62 98 169
62 98 162
62 99 170
61 97 163
62 99 166
62 99 170
61 98 169
62 99 169
62 98 168
62 99 167
62 98 167
62 98 166
62 99 168
61 98 165
61 97 159
62 99 171
62 98 165
62 99 170
62 99 169
62 99 170
63 100 173
62 98 167
61 97 163
62 99 171
63 99 164
62 98 162
62 98 161
63 99 170
61 98 161
63 100 170
62 98 164
62 99 167
63 99 173
61 98 164
62 98 163
62 98 166
61 98 164
62 98 161
63 99 171
62 98 165
62 98 166
62 99 169
62 99 170
62 98 165
61 97 160
62 99 168
62 99 167
62 98 165
61 97 159
63 99 165
62 98 160
61 97 160
62 98 157
62 98 160
62 98 165
63 99 170
62 98 160
62 98 166
62 98 164
63 99 171
61 97 156
62 98 165
62 98 159
61 97 162
62 98 166
61 97 159
62 98 160
62 97 160
63 99 170
62 98 166
61 97 158
61 96 156
62 97 158
62 97 161
62 97 160
62 97 153
61 97 152
61 96 151
61 96 160
60 94 143
61 96 153
57 90 132
60 94 149
61 94 146
60 94 149
58 91 140
64 85 103
66 80 94
73 80 49
64 68 19
64 67 20
72 73 22
79 80 22
77 79 25
86 86 37
77 78 27
82 83 24
87 87 33
83 86 34
79 80 38
93 93 39
91 93 44
89 90 33
89 90 42
108 107 51
103 102 47
102 102 44
121 118 48
109 107 50
110 109 45
115 115 52
111 110 48
122 120 56
117 115 48
121 119 54
124 121 55
123 120 51
119 117 47
138 135 60
123 121 48
131 128 59
137 134 60
134 130 66
139 134 63
141 136 57
139 135 56
142 138 58
137 134 54
136 134 57
139 136 56
140 136 61
140 136 60
146 142 70
146 143 62
137 134 51
143 139 62
153 148 66
149 143 64
147 143 64
153 148 55
156 150 67
149 142 67
147 141 62
149 144 60
151 147 65
145 140 62
150 145 58
155 148 69
159 154 71
153 148 61
158 152 66
157 150 72
155 148 63
156 150 63
156 150 63
158 151 74
158 152 72
157 150 63
159 153 68
156 149 65
150 145 60
155 148 64
153 146 67
159 152 64
150 145 57
159 152 72
153 148 56
150 145 59
155 149 63
143 138 57
156 150 64
153 146 60
153 148 64
146 141 47
150 144 62
153 147 63
146 139 62
150 145 52
155 149 61
146 140 59
156 149 62
142 137 54
146 141 53
147 140 57
150 144 56
143 138 58
136 130 51
150 143 60
148 142 53
139 134 47
129 125 48
137 132 53
144 137 59
131 126 42
134 128 52
124 120 36
130 126 52
141 137 51
136 134 44
145 145 47
141 141 39
139 142 36
149 157 37
156 165 41
148 158 25
155 164 28
152 163 32
158 171 22
160 175 25
160 177 11
154 172 0
165 183 16
171 190 11
168 185 0
169 190 0
166 185 0
169 189 0
167 186 0
171 192 0
171 192 0
171 192 0
166 185 0
169 189 0
169 193 0
169 192 0
171 194 0
172 196 0
171 194 25
173 196 25
172 195 25
173 196 0
170 194 44
171 195 51
174 196 36
171 194 36
172 195 44
170 193 25
171 194 36
171 194 36
175 198 51
172 195 44
172 195 36
176 199 57
171 194 36
170 194 36
169 192 44
172 195 44
173 196 44
171 194 36
172 195 36
175 198 62
173 197 44
174 197 62
174 197 57
173 196 57
173 196 44
173 196 72
174 197 51
174 197 51
173 195 51
176 199 67
169 192 44
173 197 76
174 197 72
176 199 84
174 196 62
173 195 80
173 195 57
171 193 25
171 194 44
171 193 51
172 195 57
172 195 57
172 194 36
179 200 88
173 195 57
172 195 51
171 194 57
169 191 51
171 193 51
174 196 62
169 192 51
171 194 51
169 192 25
172 195 51
170 193 44
170 193 51
168 192 36
169 192 25
172 194 44
168 191 25
166 190 36
165 188 0
168 192 0
165 188 0
172 194 44
172 195 25
170 193 36
170 194 0
168 191 0
169 192 0
167 190 0
161 184 0
166 189 0
170 193 0
166 189 0
151 174 62
118 144 111
74 106 143
61 96 145
61 96 151
62 97 159
62 98 158
61 97 157
60 96 156
62 98 162
62 98 162
63 98 164
61 97 162
61 97 159
61 96 160
61 97 154
61 97 156
60 97 158
62 98 165
62 98 161
62 98 166
61 97 162
62 98 168
62 98 167
62 98 168
63 99 167
62 98 167
61 97 158
62 99 171
61 97 162
61 97 165
61 98 169
62 98 167
61 98 165
62 99 168
60 96 163
62 98 163
62 98 168
62 98 165
62 99 169
61 97 165
62 99 172
62 98 169
62 99 171
62 98 169
62 98 166
61 98 168
61 97 162
62 98 162
61 98 172
63 99 176
62 98 169
62 99 171
62 98 167
61 98 168
62 98 169
62 98 169
62 99 172
61 97 162
61 97 164
62 99 171
63 99 175
63 99 173
62 99 174
62 99 171
62 99 172
62 98 169
62 98 167
63 99 173
62 99 170
62 98 164
63 100 174
62 99 171
62 99 168
62 99 172
62 99 170
62 98 168
61 98 167
62 99 168
63 99 167
62 98 169
62 99 172
63 99 173
61 98 164
62 98 166
62 99 168
63 99 171
62 98 170
63 99 173
62 99 171
62 99 171
62 98 170
63 99 178
62 98 167
62 99 170
63 99 173
61 98 164
62 98 173
62 98 168
62 99 173
62 98 167
61 98 163
62 98 167
62 98 168
62 98 168
63 100 175
62 99 170
62 98 167
62 98 167
62 98 164
62 99 170
62 99 173
62 98 165
63 99 170
62 99 171
62 99 170
63 99 171
62 98 165
61 98 169
62 99 169
62 98 162
61 98 163
62 99 166
63 99 173
62 98 162
62 98 164
62 98 160
63 99 168
62 98 163
62 98 163
61 98 167
62 98 164
63 99 168
62 98 165
61 98 165
62 98 162
61 97 162
62 98 168
62 98 165
62 98 164
61 98 165
63 99 166
62 98 166
62 99 165
62 98 167
62 98 166
61 97 160
61 97 159
63 99 171
62 98 164
62 98 164
63 99 169
62 98 168
62 97 156
62 98 167
61 97 154
62 98 165
62 99 167
61 96 159
62 98 163
62 97 155
62 98 162
62 98 164
61 97 163
63 99 169
61 97 152
61 96 151
62 98 156
62 97 155
60 95 152
62 97 155
61 97 160
62 97 160
60 94 144
62 96 153
60 95 153
59 93 146
59 93 148
59 93 144
58 90 127
63 87 119
62 77 88
61 66 39
54 57 28
74 74 16
77 78 24
63 66 21
72 74 34
82 83 31
79 82 37
79 80 35
76 81 37
84 85 33
97 96 34
99 100 27
101 101 36
96 98 36
107 105 36
98 97 37
105 105 47
109 109 43
110 109 43
103 104 44
110 108 45
108 108 42
116 115 42
117 117 53
116 114 48
116 116 42
122 120 46
118 116 56
116 114 53
113 113 45
139 134 61
133 130 53
131 128 45
135 132 56
138 135 55
130 128 52
136 133 62
137 133 60
138 134 63
138 135 64
139 134 54
144 139 60
143 139 62
139 135 56
146 141 60
151 146 74
149 144 62
143 139 61
141 136 61
147 142 57
151 146 62
144 139 59
144 140 58
152 147 64
149 143 54
152 146 63
147 143 57
160 154 72
155 150 65
154 149 65
148 142 59
155 148 64
153 147 66
150 145 58
150 145 60
153 147 63
161 155 71
153 147 59
153 147 62
161 153 65
147 143 56
159 153 72
151 145 56
154 148 63
160 153 67
156 149 62
150 143 60
145 139 57
154 149 60
156 150 63
150 145 62
150 144 61
150 145 60
146 140 53
152 146 59
152 147 58
150 145 58
150 144 56
151 146 65
149 143 62
143 138 49
144 140 57
142 137 52
148 142 58
146 139 61
148 142 57
144 138 53
145 139 62
139 134 41
145 140 52
144 138 51
137 131 49
135 130 41
132 128 48
131 125 52
141 135 52
132 127 41
135 131 42
132 129 51
137 136 42
141 140 47
140 143 36
144 150 32
139 145 30
149 154 37
142 150 19
152 163 28
160 175 30
160 176 22
160 177 22
168 184 22
163 182 11
165 183 0
167 187 0
168 188 0
171 190 0
169 189 0
170 188 0
168 189 0
171 191 0
170 190 0
168 189 0
171 191 0
169 188 0
172 195 25
170 193 0
174 197 36
174 197 51
174 197 36
172 195 25
174 197 36
167 190 0
175 197 44
174 197 44
175 198 44
174 197 57
176 199 57
167 190 0
173 195 57
174 196 57
170 193 36
173 195 57
171 194 36
172 195 44
173 195 57
175 198 72
174 197 57
172 194 51
176 198 62
174 197 62
176 198 62
174 197 72
175 197 36
176 199 67
174 198 51
176 198 76
171 193 51
173 196 51
176 197 67
176 198 76
174 197 72
172 196 51
175 197 72
174 197 62
173 196 67
176 198 72
173 195 36
173 197 44
173 195 67
175 197 57
173 196 44
175 199 51
170 193 51
175 197 72
172 195 67
175 198 76
169 192 44
173 196 44
174 196 62
167 190 0
167 191 44
172 196 62
169 191 51
173 196 57
169 191 44
171 194 44
173 195 67
167 190 51
173 197 51
169 193 36
171 194 36
172 195 36
166 188 57
168 191 51
168 191 36
169 192 57
167 190 36
167 190 25
168 191 0
167 190 25
173 195 36
168 191 25
169 193 36
166 189 0
166 190 0
165 187 18
164 186 18
150 175 65
128 152 107
75 106 139
61 97 160
63 98 155
59 95 149
61 97 152
61 97 151
61 97 159
61 96 152
62 98 161
61 97 159
62 97 162
62 98 162
61 98 162
62 98 159
61 97 156
62 99 163
62 98 163
62 99 165
61 97 153
61 97 158
61 98 166
61 97 158
62 98 163
61 98 167
61 97 165
62 98 166
62 98 166
62 98 168
61 97 158
61 98 168
62 98 169
61 97 159
63 99 169
62 99 170
61 97 164
61 98 165
62 98 166
62 98 164
62 98 168
62 98 164
62 98 169
62 98 172
62 99 174
62 98 171
62 98 165
62 98 169
62 98 165
61 98 166
63 99 172
62 99 169
62 98 168
62 98 171
62 99 172
61 98 170
62 99 171
62 99 171
63 99 172
61 97 163
61 98 171
63 99 171
61 97 160
61 98 169
62 98 165
62 98 168
62 99 170
62 98 166
61 98 167
63 100 174
61 97 162
62 98 167
61 98 167
61 97 161
61 98 169
63 99 172
62 98 164
62 98 168
62 99 170
63 99 170
62 98 172
63 99 171
62 99 173
62 99 174
62 99 170
63 99 178
62 98 167
62 98 168
62 99 172
62 99 171
62 99 170
63 99 172
62 98 170
61 97 159
63 99 170
62 98 166
62 98 167
62 99 170
62 99 168
62 99 172
61 98 165
62 99 173
62 98 164
63 99 170
62 98 165
61 98 168
62 98 168
62 99 165
62 98 164
62 98 167
61 98 165
62 98 167
62 99 167
62 99 166
62 98 168
62 98 164
62 98 168
61 98 165
62 98 169
61 96 151
62 98 166
62 99 168
62 98 169
61 97 157
62 98 160
62 99 168
62 99 171
62 99 172
62 98 163
62 98 165
62 99 171
62 99 167
62 98 163
62 98 168
62 98 164
62 97 157
62 99 170
62 98 165
62 98 161
61 97 166
62 98 165
63 99 164
62 98 162
61 97 158
62 99 167
61 97 162
61 96 158
62 98 163
62 98 162
61 97 160
62 99 164
63 99 164
63 99 167
61 98 163
62 98 163
61 97 162
62 98 162
61 97 161
62 97 154
62 97 157
62 98 162
62 98 162
60 95 152
62 97 158
62 98 164
62 98 161
61 96 151
61 97 157
60 95 149
62 97 159
61 96 156
60 94 146
61 95 154
61 97 158
61 96 159
60 95 148
59 94 147
60 94 151
60 94 148
58 90 128
63 83 108
64 78 89
67 73 47
70 73 17
75 77 23
69 71 28
86 87 31
83 83 28
78 79 21
81 81 27
92 93 31
86 88 32
83 84 39
95 93 30
88 89 30
91 92 27
95 95 38
97 98 43
96 94 32
102 102 39
105 104 46
117 116 48
113 113 45
116 114 49
99 100 38
121 119 50
121 118 50
119 117 55
117 116 39
125 123 51
124 122 53
124 120 48
120 118 56
126 124 52
127 125 56
134 130 55
128 126 54
133 130 64
139 135 65
135 131 58
136 132 53
134 131 57
136 132 55
134 132 54
134 132 51
133 130 47
143 139 53
139 135 53
151 145 64
142 137 55
145 139 62
146 142 61
146 142 51
142 137 63
148 144 59
153 146 64
146 141 57
148 142 54
146 142 63
147 143 53
152 146 64
149 143 59
152 146 62
145 139 57
153 147 54
150 145 64
150 144 53
159 152 70
151 147 63
152 146 60
155 149 65
148 143 59
149 143 58
154 147 63
149 143 61
147 142 54
157 151 67
153 148 68
152 146 58
155 150 64
149 143 64
153 147 61
153 148 60
155 149 59
145 140 57
153 146 61
151 144 65
150 144 63
153 146 58
143 138 44
147 141 53
152 146 59
148 141 53
150 144 61
154 148 59
135 131 49
141 135 48
144 138 60
146 140 52
143 139 47
145 139 57
140 135 45
133 128 49
133 126 47
139 133 54
142 137 44
136 130 52
126 121 44
143 137 57
137 132 47
135 131 48
139 135 54
132 130 44
139 143 36
140 144 32
144 152 25
141 149 25
148 156 30
157 167 19
154 169 16
157 172 19
159 173 16
162 177 19
165 179 25
162 177 11
168 186 0
168 187 0
169 188 0
171 191 0
166 185 0
168 188 0
171 189 0
167 187 0
167 186 0
166 185 0
169 191 0
171 191 0
173 195 25
173 196 44
174 197 36
173 196 44
174 197 51
169 193 0
173 197 36
169 192 36
178 200 76
177 199 67
176 198 62
173 196 44
175 198 72
169 192 36
174 197 36
176 199 72
176 199 67
175 197 76
172 195 44
172 194 72
178 200 76
170 193 51
175 198 76
173 196 72
174 196 67
175 198 67
175 197 67
177 200 80
174 198 72
170 193 57
173 196 62
171 194 57
176 198 62
175 198 62
178 201 80
178 200 84
174 197 72
177 200 72
176 198 72
176 198 76
177 199 80
176 198 80
172 195 62
173 196 80
174 197 76
176 198 72
174 196 62
175 198 67
174 197 62
173 195 67
172 195 72
172 194 84
178 200 72
177 199 84
172 195 36
175 197 67
169 191 44
170 193 62
172 195 36
168 191 62
172 195 51
171 195 44
167 191 44
172 195 72
172 194 72
169 191 44
170 193 67
169 192 57
175 196 80
167 190 25
171 193 44
166 189 44
166 189 36
172 195 44
167 190 0
166 190 44
167 190 36
168 191 25
168 191 25
174 197 25
163 187 0
164 187 0
162 186 40
156 179 57
129 154 94
69 102 140
62 97 154
62 98 160
62 98 157
62 98 162
62 98 161
61 96 147
61 97 156
61 97 156
62 98 157
62 98 163
61 97 156
61 97 160
61 97 158
62 99 165
61 98 166
61 97 163
61 97 161
60 96 162
61 97 156
62 98 168
62 98 166
61 98 164
61 97 164
62 98 165
62 98 168
62 98 166
61 97 161
61 98 166
61 97 159
62 98 168
62 98 165
62 98 170
62 99 171
61 97 167
62 98 167
61 98 168
62 99 172
61 98 169
61 98 163
62 99 172
62 99 171
62 98 169
62 98 168
62 98 162
63 99 174
62 98 167
61 97 166
62 98 172
62 99 172
62 99 172
61 98 165
62 99 170
62 98 166
62 98 171
62 98 166
62 99 165
61 97 165
62 98 163
62 98 166
62 99 175
62 98 163
62 99 171
62 98 168
64 100 175
62 98 164
62 98 169
62 98 170
62 98 170
61 98 172
61 98 169
62 99 168
62 98 166
62 99 169
62 98 171
63 99 171
63 99 172
62 99 170
62 98 168
62 99 170
62 98 166
62 98 164
62 98 173
63 100 177
62 99 175
62 98 168
62 98 167
60 97 163
62 99 172
61 98 170
62 98 168
62 98 165
62 99 169
62 98 165
62 98 168
61 98 164
62 98 168
61 97 161
62 98 167
62 98 160
61 98 164
61 97 161
63 99 170
63 99 173
62 98 167
62 98 167
62 99 171
62 98 163
63 99 169
62 99 170
62 99 169
62 98 166
62 98 168
62 98 170
62 98 167
63 99 169
62 98 164
63 99 171
61 98 165
62 98 169
62 98 165
62 98 170
61 98 163
62 98 165
63 99 167
61 98 166
62 99 167
63 99 170
62 98 163
62 98 166
62 99 167
62 98 164
62 98 165
61 97 158
62 99 169
61 98 161
62 98 165
63 99 169
62 98 162
62 98 160
61 97 160
63 99 170
62 98 160
63 99 167
62 98 159
62 99 165
62 98 166
63 99 165
62 98 161
62 98 158
61 97 159
62 97 158
62 98 164
61 97 160
61 97 162
62 98 164
61 97 157
62 98 158
62 97 155
62 97 162
61 97 161
63 98 163
61 96 155
61 96 155
62 97 156
62 98 161
60 95 149
61 96 153
61 97 153
61 96 158
61 96 155
61 96 152
59 94 150
61 96 154
61 95 150
60 95 149
59 93 143
59 90 141
71 91 104
61 77 89
74 80 57
84 84 27
83 83 15
86 85 15
76 76 19
94 94 30
69 72 29
69 73 28
86 85 28
91 90 24
87 88 28
82 84 28
93 93 31
84 87 28
102 100 32
89 90 30
97 97 36
112 110 33
112 111 45
104 103 36
100 99 39
112 111 45
112 110 48
109 108 47
110 109 45
119 117 45
117 116 48
118 116 49
119 117 49
117 116 46
123 121 49
135 132 49
136 132 57
129 127 51
125 123 45
128 125 50
125 122 52
134 129 53
140 136 50
136 132 55
140 135 61
140 137 55
145 141 58
144 140 59
140 135 62
149 143 60
146 141 61
138 134 57
143 138 57
148 143 57
143 139 57
143 138 51
140 136 61
149 144 57
151 146 61
142 137 60
151 146 63
153 146 66
156 150 70
152 147 56
150 144 63
152 146 59
151 144 69
159 153 67
148 144 48
161 155 68
155 148 67
147 142 57
147 142 61
146 141 51
154 147 62
152 146 61
147 142 58
152 146 59
154 148 60
148 143 52
150 144 61
149 143 52
148 142 60
152 147 58
150 144 64
137 132 48
149 142 56
153 147 60
150 145 56
147 141 58
152 145 57
147 140 61
150 144 60
143 138 52
145 140 47
147 142 53
153 147 59
153 147 60
146 140 54
145 139 51
141 135 49
134 129 49
140 134 48
144 138 53
134 128 45
136 131 52
139 135 42
135 129 44
133 129 44
132 128 47
129 124 30
142 138 45
133 130 41
134 134 41
135 136 37
136 140 30
143 148 32
148 155 34
141 147 34
149 159 22
156 167 30
153 165 22
157 172 19
161 176 0
160 177 11
161 177 0
168 187 11
166 186 0
170 189 0
170 191 0
163 180 0
167 185 0
169 188 0
170 191 0
164 183 0
169 188 0
170 190 0
169 191 0
170 190 0
169 192 44
172 195 36
174 197 44
173 196 36
174 196 44
173 196 57
167 190 25
176 198 51
173 195 62
177 199 80
174 197 51
171 194 25
172 195 62
173 194 57
172 195 67
174 197 72
172 196 36
169 192 36
175 197 67
175 197 67
171 194 72
173 196 67
172 195 62
174 197 57
176 198 84
176 198 72
174 197 80
175 198 72
173 195 67
178 201 80
180 201 102
177 200 72
181 202 111
179 202 92
173 196 62
176 197 95
175 197 80
177 199 76
173 195 72
177 199 80
172 195 67
174 196 80
174 196 80
178 201 84
176 198 76
177 199 92
171 195 67
170 192 72
173 195 84
179 201 95
179 200 76
173 195 80
176 198 72
169 192 57
177 199 80
174 196 76
174 196 72
171 193 80
172 196 62
169 191 62
171 194 51
174 197 44
171 194 62
174 196 67
170 193 44
167 188 57
172 195 57
171 193 36
168 191 44
172 195 62
168 190 44
171 193 36
164 186 51
171 193 25
171 193 25
168 192 25
174 197 62
170 192 44
168 191 25
165 188 0
167 190 18
166 189 18
166 188 57
147 170 62
113 140 124
83 114 137
67 101 145
65 100 154
63 98 155
65 100 152
63 98 153
61 97 159
61 97 152
60 96 155
62 97 156
61 96 155
61 97 156
61 97 156
62 98 163
61 98 161
61 97 156
61 97 162
61 97 156
61 97 163
62 98 164
60 96 160
61 97 163
61 97 164
61 97 161
61 96 150
62 98 165
61 97 158
61 97 160
62 98 171
62 99 172
61 97 159
63 99 170
62 98 169
62 98 166
62 98 167
61 98 174
63 99 171
62 98 168
62 98 167
61 98 162
61 98 167
62 99 172
60 97 163
62 98 167
63 99 171
61 98 173
62 99 172
62 98 172
62 99 175
61 97 164
62 99 171
62 99 169
63 99 169
61 98 169
61 98 169
62 98 169
62 99 169
63 99 169
62 99 170
62 99 172
61 98 170
62 99 170
62 98 167
62 98 168
62 98 165
62 98 167
62 98 170
63 99 173
62 99 173
62 99 171
61 98 167
62 99 165
62 99 169
62 99 169
62 98 166
62 98 167
62 98 170
61 98 168
63 99 172
62 98 167
62 98 166
62 98 167
62 98 167
62 98 167
63 99 171
62 98 162
61 98 165
62 99 167
62 98 168
62 98 172
62 98 164
62 98 169
62 98 167
61 98 165
62 99 167
63 99 167
63 100 171
62 99 173
62 99 173
62 98 165
62 98 166
62 98 167
62 98 170
63 99 166
62 98 164
61 97 158
61 97 159
63 99 169
62 98 171
63 99 172
62 98 165
62 98 165
61 98 163
62 98 168
62 98 167
62 98 160
62 98 165
61 97 161
62 98 166
62 98 168
62 98 169
62 98 163
63 99 172
62 98 160
62 98 165
62 98 165
61 98 165
62 98 161
62 98 162
62 99 171
62 98 164
62 98 163
62 98 166
63 99 168
62 98 166
62 98 164
62 99 169
62 98 167
62 98 167
62 99 173
62 98 164
62 98 162
61 97 162
62 99 168
60 96 157
62 98 162
62 98 159
62 98 160
62 98 163
62 98 161
62 98 163
62 98 161
62 98 159
62 98 161
62 97 157
62 98 160
61 97 156
61 97 161
61 97 162
61 96 151
61 97 157
61 96 151
62 98 156
62 98 160
61 97 154
61 97 154
62 97 159
61 96 155
60 95 155
61 96 154
61 96 153
59 94 154
60 95 158
60 95 145
59 93 142
61 96 143
60 94 141
61 95 150
59 83 114
67 82 93
85 87 50
77 78 25
74 76 25
81 82 17
74 76 19
82 82 18
94 92 23
86 87 32
80 82 31
89 88 32
73 75 16
94 94 30
94 94 29
89 91 35
103 103 38
86 87 28
93 94 32
105 104 39
100 100 31
113 112 40
102 101 34
113 111 50
107 106 38
101 101 40
112 111 42
115 113 44
114 113 41
116 114 41
118 115 45
120 119 45
120 119 49
115 113 42
122 121 42
125 123 50
122 120 48
128 125 51
128 124 56
131 128 49
129 125 53
124 123 44
136 133 60
143 140 55
141 137 56
143 137 53
143 139 55
145 139 68
140 135 55
149 142 66
149 144 55
146 141 58
145 140 56
140 136 49
147 143 58
148 144 58
147 142 61
147 142 54
143 139 53
148 142 62
148 142 57
148 143 55
152 146 63
150 145 58
149 144 54
150 144 61
157 151 63
152 147 56
150 145 61
146 141 54
141 136 51
157 151 67
151 145 54
150 145 54
152 146 60
157 150 68
146 142 58
149 143 51
144 139 53
151 145 58
151 145 59
144 138 57
146 141 56
148 142 58
141 136 53
146 140 52
150 144 57
144 138 61
146 141 58
145 139 52
151 144 58
142 136 53
145 139 51
144 139 51
143 138 48
139 134 47
139 133 52
137 132 52
141 136 48
144 139 52
139 134 54
139 133 51
131 126 49
132 128 45
142 136 53
134 129 51
133 127 47
130 127 48
122 120 34
139 136 42
138 139 39
144 147 39
145 147 30
152 159 19
142 149 37
146 152 36
145 156 22
149 159 25
154 166 30
156 170 0
156 171 16
157 172 16
165 181 16
160 179 0
161 181 0
168 187 0
168 190 0
166 185 0
169 187 0
168 188 0
168 189 0
166 185 0
168 186 0
171 191 0
170 191 0
171 192 0
164 183 0
175 197 36
173 195 62
171 194 51
173 195 57
170 193 36
178 201 72
172 195 44
171 195 44
178 200 72
170 193 36
175 198 62
174 197 57
173 197 44
171 194 57
175 198 67
173 196 57
175 198 72
175 196 80
176 198 76
176 198 67
178 199 102
175 198 80
177 199 95
175 197 62
175 198 88
171 195 72
178 199 99
177 199 76
178 200 88
177 198 84
180 201 102
181 203 105
180 202 95
183 204 111
179 200 88
179 200 92
178 201 92
177 199 92
177 199 84
175 197 84
177 198 80
177 199 95
179 199 105
180 202 111
178 200 92
177 199 92
177 199 95
177 198 84
178 200 92
175 196 92
178 200 95
178 199 92
179 201 88
175 197 95
170 193 67
178 200 92
176 198 88
174 196 51
176 198 80
175 197 84
176 199 76
176 197 76
175 197 84
173 195 67
167 190 51
171 194 44
173 195 76
174 197 57
172 195 72
168 191 51
174 197 62
171 195 51
169 192 44
171 194 51
169 192 57
172 195 62
161 184 36
169 192 25
171 194 51
165 188 36
169 190 54
164 187 47
162 185 57
153 176 54
118 142 105
81 112 148
72 104 144
68 101 148
65 99 144
65 100 153
65 99 148
62 98 162
61 97 160
62 97 156
61 97 156
61 97 165
61 97 159
60 96 163
62 98 167
62 98 157
62 98 164
61 98 162
61 97 161
61 97 159
62 98 165
62 98 163
60 96 162
62 98 165
61 97 159
61 97 164
61 97 161
62 98 162
61 97 166
61 97 161
62 98 170
61 97 162
61 97 161
61 98 168
63 99 171
62 98 165
61 98 167
62 98 167
62 98 170
62 98 166
61 97 167
62 99 170
62 99 170
62 98 167
61 98 168
62 98 167
62 98 166
60 97 161
62 99 166
62 98 170
62 98 168
62 98 166
62 99 171
62 98 166
61 97 165
61 98 164
62 99 173
61 98 165
62 99 166
61 98 168
62 99 174
62 98 166
62 99 174
62 99 171
62 98 168
62 99 171
62 99 170
62 98 170
62 99 169
63 99 166
62 98 171
63 99 171
63 99 177
62 98 168
62 98 165
61 98 160
63 99 171
62 98 169
62 99 172
62 99 168
62 98 168
62 98 165
62 99 171
61 98 164
62 98 168
62 98 171
63 99 168
62 99 174
62 99 166
62 98 166
62 98 169
61 98 165
62 98 164
62 98 165
62 98 165
63 99 170
62 99 166
63 99 172
62 99 172
63 99 175
62 99 173
62 98 168
62 99 171
61 98 163
62 98 167
62 99 167
62 98 167
62 98 161
61 98 164
62 98 166
62 98 166
62 99 169
62 98 164
62 98 166
62 98 164
62 98 165
62 98 160
63 99 163
61 97 160
62 99 168
62 98 162
61 97 159
62 98 162
62 98 164
61 97 165
62 98 164
63 99 171
62 98 166
62 98 170
61 98 163
61 98 163
61 97 161
62 99 167
62 98 164
62 98 161
62 98 164
62 99 170
63 99 164
62 98 158
62 99 165
62 98 164
62 98 166
62 98 165
63 99 169
61 97 159
60 96 153
62 98 164
62 98 160
62 99 165
62 98 168
61 97 157
62 99 169
61 97 162
62 98 166
62 98 162
62 98 161
62 98 160
61 97 154
62 97 153
62 98 162
63 99 162
61 97 158
61 96 151
61 97 155
62 98 160
62 97 163
61 96 156
61 96 148
62 97 158
61 96 155
61 96 153
61 96 149
61 95 152
60 95 144
61 96 150
60 94 148
59 93 144
61 96 151
59 93 143
72 91 111
74 83 77
71 77 56
73 74 28
81 82 18
79 78 21
75 78 27
80 81 24
78 79 16
81 81 14
81 82 23
90 91 40
85 86 30
91 89 30
85 85 29
90 91 24
88 90 30
97 98 36
99 98 43
107 105 30
94 95 31
99 98 38
112 110 39
116 114 44
105 104 38
116 114 35
121 117 44
120 119 42
121 117 37
116 113 46
114 112 49
123 121 45
123 120 47
134 129 54
124 123 36
127 125 49
124 122 51
126 125 42
128 124 46
138 133 57
138 134 50
133 129 51
132 128 55
136 132 50
141 137 56
138 134 57
138 133 57
141 137 50
144 139 51
125 122 49
142 137 51
145 141 57
137 133 55
146 140 62
142 137 59
151 146 55
152 147 65
150 145 54
146 141 57
148 143 60
143 139 51
150 144 58
156 150 69
144 140 49
150 144 57
154 148 62
152 146 54
160 154 65
150 144 59
154 149 53
149 144 56
153 147 63
153 148 57
153 147 56
144 139 53
152 146 59
151 146 56
151 146 54
149 144 60
141 136 49
153 146 63
142 137 49
142 138 51
155 148 60
151 146 49
149 143 59
146 140 57
151 146 56
137 132 51
142 136 56
151 145 52
146 140 49
139 134 53
150 144 57
148 141 60
143 139 52
149 143 60
149 142 53
142 137 53
144 139 47
140 135 53
132 128 42
127 122 42
136 130 47
132 127 44
136 131 44
126 121 44
125 121 36
138 135 42
138 136 44
132 135 36
140 139 41
135 141 30
143 148 25
150 157 30
154 163 28
155 168 16
152 164 16
151 166 11
157 173 0
156 170 0
157 172 16
160 177 0
164 182 11
167 185 0
167 185 0
167 186 0
167 185 0
165 184 0
168 189 0
167 186 0
165 185 0
169 187 0
167 184 0
168 188 0
166 185 0
165 183 0
176 199 67
165 188 36
174 197 51
175 198 51
174 196 62
171 193 44
175 198 51
175 197 62
171 194 57
175 198 51
173 196 57
175 197 67
173 196 67
174 197 67
175 198 76
178 200 88
175 198 62
177 199 80
173 196 62
183 204 99
175 198 84
177 200 84
183 204 108
171 194 62
178 199 92
179 200 108
178 200 102
182 203 108
182 203 122
181 203 102
179 201 102
179 201 99
183 204 114
177 199 92
182 203 111
180 201 117
182 202 125
176 198 95
179 200 102
184 204 120
177 199 108
181 201 117
179 201 99
180 202 122
176 198 99
180 202 105
173 196 80
177 200 102
176 197 80
184 205 111
182 203 117
179 200 95
180 201 108
175 198 80
176 198 88
177 199 99
181 201 108
173 195 88
175 196 95
179 200 88
170 192 67
176 199 88
178 200 88
177 199 88
173 195 80
171 194 44
167 189 51
169 192 62
173 196 62
174 196 67
172 195 67
169 192 44
173 195 62
169 192 51
168 190 57
170 193 51
165 188 25
168 191 51
173 195 57
171 194 51
164 187 57
162 184 86
161 184 78
147 172 90
121 147 121
75 106 147
71 104 137
66 100 149
66 100 156
64 99 158
64 98 154
67 102 159
60 96 155
61 97 159
65 100 158
63 99 163
62 98 158
61 97 156
61 97 160
61 97 161
62 98 160
62 98 163
62 98 167
61 97 161
61 97 154
62 98 158
61 98 163
61 97 164
61 97 161
63 99 166
61 97 160
62 98 165
63 99 169
61 98 164
62 98 166
62 98 163
63 99 166
61 97 167
61 97 164
61 97 166
62 98 171
61 97 161
61 97 167
62 98 170
62 98 163
62 98 166
62 98 169
62 98 164
62 98 166
62 99 173
62 98 166
62 99 173
61 98 166
62 99 172
62 98 165
61 97 161
62 98 168
62 98 167
62 99 173
62 98 172
62 98 170
62 98 166
62 99 170
62 98 167
62 98 169
62 98 169
63 99 170
62 99 172
63 99 171
62 98 170
61 98 161
63 99 172
62 98 168
61 97 161
62 99 170
62 98 170
62 99 168
61 98 171
62 98 165
62 98 160
63 99 169
61 98 167
62 98 168
61 98 167
61 97 162
62 98 169
62 99 166
61 97 164
62 98 164
63 99 171
62 98 165
62 99 167
62 98 165
62 98 165
62 98 169
62 99 166
61 98 165
63 99 175
62 99 169
61 98 166
62 99 168
62 98 166
63 99 168
61 98 163
62 98 170
62 99 169
62 98 167
62 98 166
62 98 167
62 98 162
62 98 165
63 99 169
62 98 168
62 98 167
62 98 163
63 99 165
61 98 165
62 98 166
62 99 166
62 99 171
63 99 169
63 100 174
62 98 164
62 98 163
62 98 165
62 99 169
62 98 166
63 99 166
62 99 168
62 99 169
61 97 161
62 98 157
62 99 165
62 98 165
62 98 163
62 98 163
61 97 154
61 97 158
61 97 157
61 98 166
61 98 163
62 99 166
61 97 156
61 97 157
61 97 158
62 98 161
61 97 154
62 98 157
62 97 159
61 97 159
62 98 161
63 100 169
62 98 164
61 97 162
61 97 155
62 98 165
62 98 165
63 98 163
62 98 160
61 97 159
61 97 154
63 98 163
61 97 155
62 98 161
62 97 157
62 98 159
62 97 149
62 98 161
62 97 162
62 98 164
62 97 154
61 96 158
63 98 160
62 97 157
61 97 154
61 97 157
62 97 152
61 95 152
61 95 144
62 96 151
60 93 144
59 92 138
61 94 143
59 86 112
80 90 83
70 75 58
82 81 8
64 66 13
80 80 20
82 81 4
77 78 28
77 78 14
80 82 29
90 88 12
76 77 20
86 87 27
96 96 29
90 90 28
104 103 38
94 94 33
98 98 33
91 91 33
108 106 38
100 100 23
102 101 34
105 104 34
105 105 38
110 109 46
104 103 31
111 110 48
123 120 48
126 123 48
115 113 44
118 117 38
118 115 53
125 122 51
122 118 55
123 119 40
130 126 57
131 128 46
134 130 51
141 137 54
126 124 49
135 131 51
133 128 43
128 125 42
137 134 53
129 126 46
137 133 53
147 143 56
133 130 48
140 136 56
141 137 49
142 138 52
149 143 63
143 139 53
151 145 57
143 138 53
145 140 51
138 134 53
137 133 55
149 144 53
146 141 53
149 144 54
146 141 56
144 139 57
152 146 59
150 144 61
146 141 58
144 139 41
159 152 70
148 143 57
142 137 56
150 145 51
147 141 56
151 146 56
152 146 56
148 142 60
151 145 66
147 141 56
150 144 54
147 141 58
150 144 54
154 148 61
148 143 53
144 138 60
149 143 53
147 142 52
147 142 52
151 144 58
152 146 53
146 142 44
140 135 52
148 142 53
138 133 48
138 132 44
141 135 48
146 139 57
141 136 42
145 140 51
145 139 53
142 138 41
139 134 47
131 126 49
139 133 51
124 120 39
136 130 48
127 122 37
126 122 39
134 130 44
140 135 45
143 145 39
136 133 44
129 126 30
142 149 30
143 148 36
146 153 34
141 147 25
150 161 25
154 165 28
155 171 16
160 176 16
159 172 16
161 178 0
161 177 0
167 185 19
165 183 0
167 184 0
165 185 0
168 188 0
165 182 0
171 191 0
168 186 0
166 186 0
169 188 0
168 188 0
168 187 0
167 188 0
169 189 0
165 185 0
174 196 51
173 197 51
175 198 57
174 197 51
174 197 51
177 199 62
176 199 57
178 200 88
179 201 99
178 200 92
178 200 80
175 197 72
181 203 95
179 201 88
177 199 99
177 200 80
177 200 92
176 199 88
179 201 84
178 200 102
178 200 102
184 205 117
180 201 111
181 203 108
179 201 88
179 202 105
180 201 114
181 202 99
185 206 135
184 205 122
180 202 114
185 205 137
181 202 111
187 207 140
184 205 120
181 203 108
181 202 114
186 206 130
186 207 120
183 204 108
177 199 102
181 203 114
182 203 125
182 203 135
183 204 114
183 204 137
183 204 128
178 199 111
181 202 111
185 206 125
180 202 111
183 203 122
181 203 108
181 203 108
185 205 108
180 201 114
184 205 117
172 194 80
181 202 92
173 196 95
179 200 102
172 194 76
173 194 92
174 196 88
176 199 88
169 191 67
173 197 76
174 196 51
173 195 84
170 192 72
175 197 57
170 194 36
167 190 44
173 196 62
170 192 62
168 191 67
171 194 67
170 193 51
170 193 44
172 195 70
161 184 67
162 185 74
154 178 78
151 173 78
120 145 125
76 106 146
71 103 143
67 101 149
66 100 154
65 100 158
65 99 154
61 97 156
66 100 151
65 99 152
63 98 157
65 100 163
62 98 157
61 96 151
61 97 159
62 98 162
62 98 170
61 97 159
61 97 158
62 98 171
62 99 168
61 98 161
61 98 162
61 97 158
61 97 165
62 98 168
61 97 163
61 98 168
62 98 162
61 97 167
61 97 166
61 97 156
62 98 164
62 98 165
61 98 171
61 98 170
61 98 162
62 98 171
61 97 165
62 99 172
62 98 165
62 98 163
62 98 166
61 98 163
62 99 172
62 98 168
61 97 166
62 98 169
62 98 169
62 98 168
61 97 164
60 97 164
62 98 166
61 97 159
62 98 164
61 98 165
61 97 170
62 99 167
61 98 169
62 99 175
62 98 174
62 98 169
63 99 173
62 98 167
62 98 168
63 99 173
62 99 173
61 98 163
62 98 169
62 98 171
62 98 170
62 99 179
62 99 171
62 98 167
61 98 167
62 99 173
62 98 164
61 98 167
62 98 168
62 98 164
62 98 172
62 98 165
63 99 171
62 99 171
62 99 167
63 99 169
62 98 164
63 99 170
62 98 166
62 98 165
61 98 162
61 97 162
62 99 169
61 97 165
61 98 166
62 99 168
62 99 167
62 98 167
61 98 164
63 99 167
62 98 167
61 97 163
62 99 168
62 98 164
62 99 167
63 99 168
62 99 170
62 99 170
62 99 169
62 98 166
62 99 169
62 98 161
63 100 173
62 98 166
62 99 168
62 98 167
62 99 172
63 99 166
63 99 170
62 99 169
62 98 163
62 99 168
62 98 160
63 99 168
62 98 163
62 99 167
62 98 164
62 98 165
63 99 170
62 98 162
60 96 154
62 98 159
62 98 164
61 98 163
62 98 159
62 98 163
61 97 155
62 99 166
62 98 161
62 98 159
62 98 159
62 98 162
61 97 163
63 99 160
61 97 158
63 99 170
61 97 161
62 98 159
61 97 158
63 100 172
61 97 162
61 98 164
62 98 158
61 97 153
62 98 161
62 98 162
63 99 167
62 98 164
62 97 158
62 98 159
61 97 160
62 97 161
62 97 157
62 98 160
61 96 156
62 97 154
62 97 155
61 97 153
61 96 151
62 97 158
62 97 157
61 96 151
61 96 151
60 95 148
60 94 142
59 93 144
60 94 143
59 92 138
57 90 128
65 89 117
73 86 86
81 85 57
82 82 26
85 85 14
81 80 13
87 87 15
80 82 26
78 80 22
75 76 19
76 75 18
98 96 28
88 89 29
90 91 28
101 99 28
96 96 22
86 86 29
95 94 19
107 107 36
92 93 36
99 98 31
100 99 32
101 101 30
103 102 38
105 105 39
108 108 42
114 112 48
105 104 39
113 112 34
106 105 38
122 120 41
129 125 51
122 119 43
120 117 43
130 126 43
125 122 51
124 120 50
115 115 39
130 127 47
136 131 53
133 129 43
135 131 46
136 131 51
132 128 50
137 132 55
133 130 54
148 143 57
128 125 45
131 128 45
134 128 50
145 141 51
144 140 56
148 143 55
135 131 51
149 144 56
147 141 54
147 142 51
146 141 49
144 139 51
146 141 56
147 142 48
146 141 54
150 145 51
150 145 53
143 138 53
145 141 55
145 140 47
148 143 51
153 147 62
149 143 53
152 146 63
147 144 51
143 137 61
144 138 48
149 142 60
139 135 40
146 141 56
157 149 63
147 142 49
144 139 54
146 140 58
142 137 48
147 142 48
141 135 47
152 145 62
144 139 49
154 147 61
144 137 58
145 139 51
150 143 47
147 141 57
145 139 52
139 134 42
150 145 56
144 139 47
140 134 51
141 134 49
140 134 44
138 133 47
141 137 45
140 134 51
139 133 52
131 127 28
134 129 39
125 121 41
133 129 45
135 133 34
143 141 32
129 130 37
142 141 37
138 146 22
144 147 39
136 141 30
150 157 28
152 162 30
158 169 25
155 168 19
158 168 16
160 175 16
154 166 25
165 182 16
160 174 0
168 186 0
165 183 0
164 182 0
167 186 0
165 182 0
167 186 0
166 183 0
165 183 0
169 190 0
171 191 0
169 188 0
170 189 0
169 189 0
167 187 0
171 192 0
174 196 67
174 198 51
171 195 25
175 198 57
173 196 62
176 198 67
168 192 44
178 200 84
172 195 67
177 199 80
175 198 72
170 193 76
181 203 102
181 202 99
181 202 99
183 203 111
176 198 84
180 202 111
181 202 105
183 204 111
181 202 114
185 205 120
182 203 117
182 204 114
181 202 108
183 203 122
183 204 122
179 200 111
185 205 140
180 201 111
187 208 140
185 206 128
184 205 120
183 204 122
184 205 135
187 207 142
181 202 108
185 206 137
186 207 137
185 204 130
183 205 120
184 205 122
186 207 135
182 203 125
183 203 128
187 207 135
183 204 128
189 209 144
185 206 120
182 203 108
186 206 128
184 204 120
181 202 117
180 201 120
181 203 108
182 202 125
175 197 117
176 198 88
178 200 95
184 204 128
177 199 95
179 199 111
179 199 95
174 196 95
174 196 88
173 195 99
178 199 84
175 197 95
181 202 102
179 200 95
169 192 57
175 196 88
168 190 67
173 195 88
169 192 62
170 192 67
169 192 67
171 193 62
168 191 51
170 193 62
154 177 70
155 179 72
154 177 84
137 160 100
123 147 120
84 113 147
90 118 148
65 99 150
64 99 155
64 99 148
72 105 153
61 96 156
66 101 156
65 99 153
67 102 158
63 98 160
62 98 159
64 99 158
61 97 162
61 96 158
62 98 159
62 98 163
61 98 165
61 97 159
62 98 164
61 97 158
60 96 158
61 98 162
60 97 166
61 98 159
61 97 167
62 98 168
61 97 160
60 96 163
61 98 164
61 97 164
62 98 172
62 98 164
62 98 167
62 98 170
62 98 169
61 98 166
62 98 172
61 97 159
61 97 166
62 98 169
61 98 169
62 98 169
62 98 168
61 97 160
61 97 160
62 99 175
62 98 171
62 98 163
62 98 170
61 97 164
62 99 167
62 99 167
62 98 170
61 97 165
62 98 165
62 98 168
61 98 165
62 98 166
62 98 168
61 98 168
62 98 167
62 98 166
62 99 168
62 99 173
62 99 164
62 98 166
63 100 171
62 98 168
61 98 165
62 98 164
62 99 168
61 97 170
61 98 163
62 99 171
62 99 169
61 97 164
61 98 163
62 98 169
62 98 164
62 98 166
61 98 170
62 98 165
62 99 169
62 99 173
62 98 167
61 98 164
63 99 172
62 99 170
62 98 166
62 98 168
61 97 160
63 99 170
62 98 166
62 98 168
63 99 171
62 98 168
62 99 168
61 98 166
61 97 164
62 98 170
62 98 164
61 97 162
62 98 162
62 98 164
62 99 166
62 98 165
61 98 163
62 98 163
61 97 156
63 99 170
63 99 167
62 98 170
63 99 167
61 98 160
63 99 170
62 99 168
62 98 162
62 98 166
61 98 163
62 98 164
63 99 163
62 99 170
63 99 172
62 98 164
62 98 164
62 98 164
62 98 161
62 98 167
63 99 165
62 98 163
62 98 163
62 98 162
62 98 165
61 98 160
62 98 166
62 99 167
61 97 157
61 97 155
62 98 163
63 99 168
62 98 162
62 98 161
62 98 167
62 98 164
62 99 167
61 97 157
63 99 164
61 97 157
62 97 160
62 98 165
62 98 160
62 97 159
62 97 154
61 97 153
61 97 159
61 96 152
61 97 160
62 97 151
62 98 166
61 97 154
62 97 158
60 95 148
61 96 156
61 96 150
61 97 152
62 97 159
60 95 145
60 95 147
60 95 141
61 96 146
60 94 145
59 93 138
60 96 152
60 94 136
60 94 141
60 93 144
59 93 133
65 87 113
71 84 88
84 90 68
90 89 12
80 79 10
81 82 15
77 78 20
83 83 17
86 84 29
89 88 18
87 87 22
87 88 22
87 88 17
90 89 34
95 94 21
92 92 26
86 87 24
102 100 31
100 99 32
95 95 29
112 111 40
110 109 42
104 105 39
98 97 36
104 103 24
101 102 42
110 108 36
117 116 37
123 120 39
109 108 39
120 118 47
116 114 39
127 123 46
124 121 47
130 127 45
122 120 45
130 126 48
124 120 49
127 123 45
125 123 43
128 125 39
133 129 42
132 127 46
123 120 42
135 130 54
138 134 46
134 130 50
129 127 42
148 143 55
138 134 42
134 131 48
145 140 51
147 143 55
137 133 40
148 144 58
138 133 57
147 142 58
143 138 55
142 137 53
130 126 42
141 136 44
147 140 54
145 140 55
143 138 53
139 135 46
147 141 57
153 147 66
149 142 61
146 140 45
149 142 54
149 143 59
156 150 59
145 140 49
146 141 47
152 146 58
145 140 47
141 135 49
150 145 51
148 143 51
146 141 51
153 147 65
145 139 44
148 141 62
139 134 41
145 140 47
140 135 45
134 131 39
130 125 39
145 139 47
143 136 52
142 137 45
139 133 37
136 131 45
131 126 44
142 136 52
138 131 47
133 128 47
137 132 45
140 135 48
138 133 37
135 129 45
140 134 48
133 127 44
133 128 42
129 125 37
123 122 30
131 131 37
134 132 39
138 140 41
141 143 37
147 152 30
150 156 28
135 143 19
146 153 34
155 165 25
154 164 16
151 162 16
153 166 22
156 171 0
158 173 11
164 182 0
163 180 0
165 183 0
167 185 0
166 186 0
165 183 0
165 184 0
167 185 0
168 187 0
166 185 0
163 181 0
169 189 0
167 185 0
170 191 0
167 186 0
165 184 0
167 184 0
175 198 36
174 197 36
173 196 62
177 199 67
176 198 80
179 201 84
175 198 72
177 199 95
180 202 108
180 202 84
183 204 120
180 201 105
177 199 102
179 201 72
181 203 120
186 207 125
182 202 122
186 207 130
181 203 120
180 201 117
182 204 114
183 204 125
182 204 117
185 206 128
186 206 137
186 206 130
190 210 137
185 206 128
185 205 135
187 208 151
184 204 137
181 202 120
187 207 140
186 207 135
185 205 151
183 203 137
188 209 147
186 206 144
185 206 140
184 206 125
189 209 140
191 210 155
186 207 137
189 209 149
185 205 137
184 205 140
187 207 142
185 206 133
185 205 137
183 204 133
184 205 137
183 204 130
185 205 153
183 203 125
185 205 147
184 204 122
184 203 133
181 202 133
187 207 130
186 206 133
178 200 95
176 197 105
179 200 111
181 203 111
183 204 114
174 196 108
178 200 108
179 201 102
174 196 92
178 200 99
178 199 120
172 194 76
174 196 92
172 195 62
176 198 92
174 196 62
173 195 67
172 195 67
171 193 80
162 185 80
163 185 95
155 178 97
149 172 74
150 173 99
118 144 135
91 119 148
79 109 143
74 106 153
69 102 146
74 106 157
66 101 152
64 99 156
66 100 156
63 98 149
66 101 164
65 100 156
64 98 148
64 99 161
61 97 158
61 98 164
62 98 162
62 98 159
62 98 164
60 96 151
61 97 159
61 97 159
61 97 160
60 96 154
61 97 161
61 97 159
62 98 166
62 99 174
62 98 167
61 97 159
62 99 168
60 96 163
61 97 159
63 99 166
61 97 164
62 99 168
60 96 161
60 97 164
62 99 171
60 97 162
61 98 167
61 98 164
61 98 172
62 98 164
61 97 159
62 99 171
62 99 168
61 97 165
61 98 166
61 97 164
61 97 166
62 98 168
62 99 171
62 99 171
61 98 169
61 98 165
61 98 166
62 99 171
62 98 167
61 97 165
62 98 171
62 98 169
61 97 161
62 98 168
61 98 167
62 98 166
61 98 166
61 97 163
62 98 165
62 98 166
62 98 169
61 98 167
61 98 162
62 98 168
63 99 174
62 98 165
62 98 164
63 99 171
61 98 168
62 98 169
62 98 165
62 98 158
61 98 164
62 98 167
63 99 169
63 99 172
62 98 167
62 98 167
61 98 166
62 98 166
62 99 170
63 99 174
62 98 165
62 98 163
62 98 168
62 99 169
62 99 167
62 98 164
62 98 166
62 99 169
62 98 168
61 97 164
61 97 161
61 98 162
62 99 166
62 98 168
62 99 167
62 98 163
61 98 169
62 99 169
62 99 166
61 97 159
63 99 171
63 99 167
63 99 174
63 100 173
61 98 163
62 98 165
62 98 163
62 98 159
63 99 165
62 99 166
62 98 157
62 98 166
62 99 166
62 98 167
62 98 167
63 99 163
61 98 164
62 98 164
62 98 157
61 97 157
62 98 164
62 98 165
62 98 160
62 98 162
62 98 164
62 98 159
61 97 160
62 98 159
62 97 161
61 97 162
62 98 162
62 98 163
61 97 162
62 99 164
63 99 166
62 98 158
62 98 163
62 98 163
62 98 160
62 98 166
62 97 159
61 97 154
62 98 152
62 98 156
62 98 160
62 98 163
62 98 158
63 98 157
60 96 152
62 97 154
62 98 159
61 97 154
61 96 150
61 97 156
61 95 146
61 96 151
60 96 155
60 95 148
60 95 147
59 94 142
61 96 151
61 96 151
61 96 154
60 95 153
59 93 139
60 94 147
60 93 143
61 87 117
85 95 90
79 84 57
81 80 18
76 76 16
80 80 15
83 82 12
72 74 20
79 79 28
87 85 15
73 74 22
90 90 23
79 81 16
88 88 26
93 92 16
107 106 30
89 90 27
103 102 33
102 101 24
88 88 26
102 101 30
84 85 18
103 104 38
108 106 37
101 100 36
103 102 32
103 102 22
107 106 39
123 120 38
112 112 33
108 107 40
117 115 40
128 126 44
118 115 46
121 117 47
125 122 54
124 122 48
126 123 48
132 128 43
134 129 50
131 126 51
133 129 49
135 130 48
122 120 40
140 136 51
132 128 44
135 131 40
145 139 53
140 135 54
127 124 42
138 132 49
140 136 53
142 136 48
148 142 60
149 143 58
144 139 52
139 134 53
144 140 53
143 137 49
151 144 56
143 139 58
141 136 50
141 137 50
150 144 52
149 143 52
149 142 52
144 139 49
149 144 60
149 143 53
149 143 57
139 134 47
142 137 59
146 140 49
146 141 47
149 143 47
145 141 47
145 141 42
145 140 47
147 141 52
139 135 44
136 130 45
138 132 47
146 141 47
136 132 47
136 131 45
143 139 47
142 136 52
143 138 48
147 142 49
143 138 49
152 146 56
141 136 44
138 133 42
136 130 48
144 138 52
139 134 53
138 133 37
134 129 44
131 126 39
137 130 44
130 126 32
132 126 39
129 124 42
124 120 30
133 130 41
137 135 44
136 135 37
141 144 32
144 144 34
136 141 30
141 144 28
143 150 28
139 145 22
148 158 22
151 161 16
152 165 19
157 172 11
160 175 0
162 179 0
159 176 0
163 182 0
164 182 0
167 186 0
165 184 0
168 186 0
172 190 0
170 190 0
165 182 0
165 184 0
167 183 0
169 187 0
167 185 0
168 188 0
170 188 0
168 189 0
167 188 0
165 185 0
175 198 57
175 198 72
176 199 80
179 201 88
178 200 99
179 201 99
178 200 84
181 203 102
180 201 105
179 201 108
183 204 120
180 202 99
180 201 102
182 203 120
181 203 117
183 205 122
185 205 122
183 204 130
186 207 133
186 207 128
183 204 122
185 206 133
186 206 133
187 208 147
188 208 142
187 207 137
189 209 140
186 206 147
187 208 135
188 208 144
188 208 142
191 210 157
192 211 163
191 211 149
184 206 130
195 214 163
190 210 153
189 209 144
187 207 157
190 209 167
190 209 165
188 209 144
189 210 149
187 207 144
183 204 140
189 209 149
192 211 155
192 212 155
188 208 149
182 203 133
193 212 159
189 208 151
178 198 130
183 204 133
186 206 135
185 205 137
182 203 111
186 206 147
181 202 122
189 209 149
182 203 133
184 205 130
181 202 117
185 205 137
178 200 105
186 207 135
180 201 111
179 201 114
183 204 125
181 201 108
178 200 92
177 199 95
173 196 88
181 202 99
174 195 92
176 198 99
177 198 99
171 193 51
171 193 76
163 185 82
160 182 78
157 180 88
153 177 103
143 166 111
116 142 135
81 111 146
72 105 153
78 109 154
70 102 145
71 104 164
73 106 156
62 98 149
65 100 157
77 109 155
68 103 164
66 100 158
61 97 159
67 102 161
63 98 161
66 101 159
62 98 161
62 98 165
62 98 165
61 98 168
60 96 162
61 97 163
61 97 159
61 97 161
61 97 160
61 97 161
60 96 154
61 98 168
62 98 172
62 98 166
61 98 164
61 98 166
62 98 165
62 98 168
62 98 165
63 99 167
61 97 161
60 96 157
61 98 164
61 97 166
63 99 168
61 98 163
61 97 162
61 98 165
62 98 169
61 97 161
61 98 165
61 98 165
63 99 172
62 98 167
61 97 162
62 99 171
61 97 164
62 98 164
62 98 166
63 100 176
62 98 168
62 99 165
62 98 166
61 97 164
61 97 164
61 98 163
61 98 164
63 99 171
62 98 166
62 98 168
62 98 160
61 98 172
61 98 167
62 98 167
62 99 171
62 99 171
62 98 167
61 98 163
62 99 172
61 98 161
62 98 165
62 98 168
62 98 164
61 97 162
61 97 166
62 98 166
63 99 170
63 99 169
62 98 167
62 98 170
62 98 159
61 98 164
61 97 162
61 97 164
61 97 158
63 99 171
62 98 166
61 97 168
63 99 171
62 98 161
62 98 165
62 98 162
62 99 167
62 99 167
63 99 170
63 99 172
62 98 165
61 98 163
62 98 165
62 99 163
61 98 163
62 98 162
62 98 164
61 98 163
62 98 165
61 97 162
62 99 171
61 97 160
62 98 163
62 98 167
62 98 165
63 99 168
62 98 166
62 98 165
62 99 167
61 97 163
62 98 165
62 98 165
63 99 172
61 97 161
62 98 160
62 99 164
62 99 165
61 97 155
62 98 166
61 98 165
62 98 160
62 98 165
63 99 167
63 99 166
63 99 170
62 98 163
62 98 158
61 98 160
62 98 161
61 97 159
62 98 159
62 98 157
63 99 164
62 98 158
62 98 159
62 98 161
63 98 163
62 98 164
61 97 152
62 98 156
62 98 163
63 99 163
61 96 149
61 97 154
62 98 153
61 97 155
62 98 162
62 97 157
61 96 148
62 98 159
61 96 155
60 95 148
61 97 149
62 97 162
61 97 157
61 97 150
62 97 154
61 96 153
61 96 147
60 94 145
60 95 144
61 95 147
60 95 146
61 95 152
61 95 148
61 95 149
61 93 138
70 94 121
66 82 97
79 84 65
84 84 24
80 80 9
77 76 9
77 77 20
89 89 22
85 86 14
85 84 22
84 84 19
85 85 25
97 97 19
95 93 24
91 91 25
96 95 24
86 86 21
96 96 14
87 88 28
92 91 25
106 105 22
105 105 32
100 97 31
108 105 41
108 106 28
109 109 32
107 106 39
118 117 30
119 116 35
108 106 29
119 116 38
113 112 39
116 114 35
119 117 42
122 118 45
135 132 48
121 119 41
128 125 46
129 125 51
126 124 42
131 128 42
130 127 43
128 124 38
138 133 60
131 127 44
132 128 43
139 134 53
142 138 54
136 131 43
137 132 47
134 129 58
140 135 46
147 140 57
125 122 35
138 132 47
151 145 62
140 135 49
127 123 47
147 142 53
142 137 57
138 133 52
134 129 32
144 139 49
143 138 56
146 141 45
143 137 52
148 142 54
145 140 47
137 133 46
142 137 48
148 142 51
148 142 53
145 139 49
142 138 48
149 143 48
142 137 45
144 138 41
151 145 59
142 137 45
145 141 48
139 134 51
146 139 52
143 138 53
142 138 51
142 137 47
142 138 44
139 134 42
142 136 51
137 132 34
138 133 47
141 136 42
139 133 44
131 126 39
140 133 49
136 131 44
139 132 51
137 132 44
142 137 39
137 131 48
135 129 36
128 123 37
131 125 39
127 122 32
133 131 44
144 141 41
126 127 32
130 129 36
142 146 34
140 143 16
144 151 25
142 147 19
145 154 16
152 161 28
152 165 16
155 168 19
158 171 19
164 177 11
157 171 19
164 180 0
160 178 0
164 181 0
167 184 0
167 186 0
170 188 0
166 186 0
170 189 0
166 185 0
167 186 0
170 190 0
166 187 0
168 188 0
169 188 0
164 183 0
169 188 0
168 188 0
167 185 0
168 187 0
176 199 80
174 196 76
182 202 120
176 199 80
180 202 99
177 199 102
177 199 88
181 202 114
180 202 108
181 203 111
186 206 133
182 202 114
182 203 122
179 201 105
186 206 135
183 204 128
184 205 130
186 207 130
183 204 125
187 207 140
191 211 155
185 206 130
186 207 137
186 207 137
191 211 147
194 213 165
191 211 153
189 210 155
189 210 153
192 211 165
192 211 159
186 207 151
191 211 159
190 211 153
191 211 161
190 211 153
189 210 153
191 211 155
183 204 130
195 213 179
187 207 147
193 213 169
192 212 161
188 208 159
194 213 182
188 208 149
190 209 161
192 212 161
192 212 167
189 209 155
188 208 147
195 214 173
190 210 155
186 206 144
189 209 149
190 210 159
187 207 151
187 207 130
190 209 163
188 207 149
186 206 135
186 205 149
182 204 125
184 203 135
184 203 133
186 206 142
183 203 130
180 201 120
178 199 108
185 205 130
182 202 105
179 201 111
182 203 120
186 206 117
178 200 105
176 199 95
177 198 95
174 196 95
173 195 95
159 182 114
156 178 110
144 168 99
145 168 110
132 156 117
111 136 134
95 123 149
88 117 150
71 103 148
88 117 163
77 108 157
78 110 159
68 103 160
68 102 151
70 104 151
65 100 155
70 103 156
66 100 152
65 100 160
60 96 158
65 100 155
63 99 156
63 98 156
61 97 157
61 97 155
61 97 158
62 98 162
60 96 159
61 97 158
61 97 158
61 97 164
62 98 167
60 96 155
60 96 157
61 98 167
61 98 165
60 96 160
61 98 165
62 98 170
62 98 168
62 98 169
61 97 163
63 99 174
61 97 161
62 98 162
61 97 167
62 98 167
62 98 166
62 98 169
61 97 161
62 98 164
61 97 161
62 98 168
61 97 166
61 97 161
63 100 174
62 98 168
62 99 171
61 97 160
61 98 166
61 97 162
63 100 171
61 98 165
62 99 174
62 98 165
61 97 161
63 99 170
61 97 164
62 98 166
61 97 163
62 99 170
62 98 168
61 98 172
62 99 170
61 97 160
62 99 170
61 98 169
62 99 170
62 98 166
62 98 161
62 98 165
61 98 166
63 99 166
62 98 167
61 97 167
62 99 169
62 99 167
62 99 171
62 98 166
62 98 165
61 98 159
61 98 167
62 98 165
63 99 168
62 98 167
62 98 165
62 99 166
62 98 161
62 98 163
62 98 167
62 98 160
61 98 162
62 98 165
62 98 164
62 98 164
62 98 168
62 99 166
63 99 168
61 97 165
62 98 167
62 99 169
62 99 166
62 98 161
62 99 168
63 99 164
61 97 160
61 97 157
62 99 171
62 98 158
62 99 165
61 98 164
62 98 165
62 98 164
63 99 167
62 98 159
62 98 168
63 100 169
61 97 154
62 98 162
62 98 159
62 98 168
63 99 162
61 97 163
63 99 167
62 98 163
62 99 171
62 98 161
62 98 162
62 98 159
62 98 161
62 99 166
62 98 168
61 97 159
62 97 153
62 98 157
62 98 164
62 98 167
62 98 166
62 98 163
61 97 153
61 97 160
62 97 149
61 97 155
61 97 158
62 98 157
62 98 160
61 97 156
62 99 165
61 97 165
63 98 160
61 97 154
61 97 150
61 96 151
62 98 161
61 96 154
62 97 158
62 98 163
62 98 158
61 97 156
63 98 162
61 97 154
61 96 148
59 94 141
61 96 154
61 96 152
61 95 149
59 93 142
60 95 154
61 95 152
61 95 149
60 94 146
60 95 145
61 94 141
59 93 141
63 90 130
69 83 90
73 78 56
73 73 23
80 80 8
83 81 18
74 74 19
85 84 12
90 87 11
82 82 19
94 93 24
84 82 22
91 89 21
83 82 10
80 81 20
92 93 16
94 92 26
91 90 23
78 80 22
101 98 26
104 100 32
98 97 26
104 103 35
110 108 35
104 102 33
110 109 33
110 107 38
110 107 35
112 109 29
115 112 34
111 110 29
123 119 45
128 124 49
121 118 42
104 105 30
131 127 40
129 126 46
124 122 34
134 131 38
125 123 42
123 121 42
127 124 39
127 125 41
145 140 47
130 127 46
127 125 30
133 129 39
132 127 43
130 126 41
141 136 49
132 127 45
134 131 45
137 132 47
131 128 36
145 140 54
139 134 52
139 134 45
146 140 53
144 139 54
147 142 49
136 132 42
142 136 45
144 137 51
151 144 57
144 138 58
143 138 49
147 142 46
144 139 48
139 134 42
148 143 53
147 140 53
144 139 54
146 140 53
144 139 48
142 137 44
134 129 44
142 138 48
136 130 45
138 133 41
144 139 47
141 137 44
148 142 56
139 133 49
145 139 47
135 131 37
136 131 41
133 128 34
142 137 45
139 135 49
139 132 41
139 132 44
144 138 48
140 135 44
139 134 37
136 132 44
130 125 36
138 132 44
136 131 44
140 134 42
133 128 37
131 127 37
119 115 30
133 129 41
136 134 37
130 127 41
132 132 22
140 139 39
137 141 34
139 144 22
143 147 28
150 157 32
147 156 22
157 167 28
155 167 19
153 166 11
163 179 0
159 172 16
162 179 16
164 181 0
165 182 0
165 183 0
162 181 0
170 189 0
162 181 0
163 180 0
167 185 0
171 189 0
167 184 0
163 181 0
170 188 0
168 188 0
164 181 0
166 186 0
170 185 0
168 186 0
164 183 0
168 186 0
180 202 92
179 201 102
178 200 92
178 200 108
177 199 108
179 201 114
182 204 114
179 200 99
186 207 125
183 203 128
185 206 128
180 202 95
184 205 120
190 209 151
184 204 128
188 209 140
191 211 157
186 207 142
191 210 153
188 208 142
188 209 140
190 209 159
190 211 157
189 209 149
189 209 159
191 211 163
190 210 153
191 211 163
195 214 175
187 208 147
194 213 171
191 211 169
188 208 144
191 211 163
187 207 151
196 215 177
195 214 171
192 212 165
193 213 179
190 210 165
196 215 186
194 214 169
194 213 163
194 214 171
192 212 167
197 215 181
194 213 171
193 212 161
194 213 165
190 210 161
196 215 177
188 209 142
189 208 163
191 211 151
192 210 179
197 216 177
191 211 153
194 214 175
189 208 151
194 213 167
189 209 147
187 207 159
185 207 135
187 207 142
189 208 149
190 209 159
183 202 140
184 204 135
184 205 130
186 205 133
185 205 120
185 206 135
182 203 122
181 203 122
177 199 105
181 202 99
178 199 111
174 195 97
166 188 117
156 178 102
150 171 117
145 168 122
143 166 115
129 153 125
110 138 130
100 126 145
92 120 158
92 120 149
84 113 158
67 100 145
78 110 153
75 107 154
81 112 144
67 101 155
61 97 158
61 96 147
68 102 150
69 103 154
61 97 155
63 98 163
64 99 157
61 97 162
60 96 154
63 99 158
62 98 164
62 98 164
60 95 150
61 97 165
61 97 160
61 97 159
62 98 173
61 97 161
60 97 162
61 97 158
61 98 163
61 97 166
61 97 158
62 99 166
61 97 165
60 97 166
62 98 164
62 98 165
63 99 170
61 97 169
63 99 171
61 97 161
60 96 160
61 97 162
61 97 164
62 98 166
62 98 168
61 98 168
62 98 171
62 98 166
62 99 167
62 99 170
61 97 160
61 98 163
62 98 166
61 97 164
62 98 171
62 98 167
61 98 166
61 98 164
61 97 162
62 99 166
62 98 167
61 97 166
60 96 159
62 99 169
62 98 167
62 98 166
61 98 164
60 96 155
62 98 167
63 99 169
62 99 167
61 97 161
62 98 163
63 99 168
61 97 162
61 98 165
62 99 168
62 99 169
62 98 163
62 98 161
61 97 161
63 99 167
61 97 160
63 99 166
62 98 168
62 99 165
61 98 167
62 99 168
62 98 169
62 99 174
62 98 164
63 99 168
61 97 162
62 99 167
62 98 162
62 98 157
62 98 163
61 98 165
62 98 165
61 98 162
62 98 165
61 97 157
61 98 164
61 98 166
62 98 168
63 99 167
62 98 166
62 98 164
62 98 168
62 98 164
62 98 164
63 99 165
63 99 166
62 98 167
62 99 168
63 99 167
63 99 166
62 97 159
62 98 161
62 98 163
62 98 165
61 98 163
63 100 173
61 97 158
62 98 158
63 99 164
61 97 155
62 98 162
62 98 162
62 97 160
62 98 166
63 99 167
62 98 158
62 98 161
61 97 154
62 98 166
62 98 167
62 98 156
62 98 161
62 98 162
62 98 160
62 98 160
62 98 158
61 97 153
62 97 153
61 97 161
62 97 156
60 96 155
62 98 158
62 98 158
61 97 156
63 99 163
62 97 154
62 97 159
62 98 154
62 98 162
62 97 157
62 98 161
62 98 161
62 98 163
62 98 155
61 97 151
61 96 149
61 96 155
61 96 157
62 97 159
61 97 157
62 97 156
60 95 151
61 97 143
62 97 156
60 95 145
60 95 150
61 95 145
60 94 139
58 92 140
58 91 135
70 91 115
70 80 77
82 86 56
77 76 22
88 85 12
81 80 16
89 88 8
89 89 21
91 89 9
87 86 14
75 76 16
96 95 22
93 93 20
96 94 19
89 88 20
91 90 9
91 91 29
92 90 24
94 94 22
102 100 24
94 94 28
99 99 23
100 100 22
98 97 29
107 106 35
108 105 25
109 106 32
116 115 37
117 114 31
121 118 37
116 114 34
116 115 33
118 116 30
111 109 33
112 111 32
121 118 36
125 122 34
129 124 37
131 126 39
127 123 48
122 118 46
128 124 39
139 134 48
125 122 33
136 132 45
132 129 38
128 124 40
127 124 37
135 131 51
138 134 43
132 127 50
138 132 42
139 133 48
133 130 41
143 138 38
135 130 39
134 130 34
132 127 39
142 137 49
141 137 49
141 135 53
137 133 46
140 135 45
147 141 53
147 141 53
144 139 49
150 144 56
146 140 51
143 138 49
142 136 45
141 135 47
144 139 52
140 135 47
147 141 53
144 139 45
145 140 41
141 135 48
139 134 48
142 137 45
140 135 34
142 136 45
140 135 44
137 132 39
144 139 39
140 135 45
139 134 52
141 135 41
129 124 39
142 138 39
136 130 51
135 129 45
141 136 49
137 131 47
135 130 41
132 127 34
138 134 36
134 128 39
140 136 41
135 130 37
129 125 32
133 130 39
131 127 39
135 136 32
127 127 30
135 133 36
132 134 30
137 141 25
145 148 37
142 150 22
137 142 28
152 161 30
146 154 22
152 164 11
155 168 11
155 169 0
160 176 16
160 176 0
159 173 16
166 179 11
163 178 11
162 181 0
168 185 0
168 187 0
168 186 0
162 180 0
168 187 0
162 179 0
168 186 0
167 184 0
165 185 0
167 187 0
162 181 0
166 184 0
168 187 0
164 182 0
168 185 0
167 188 0
179 200 92
182 204 111
182 204 111
180 202 95
184 205 133
185 206 122
185 206 125
183 204 133
184 205 117
184 206 128
191 211 149
187 208 147
183 203 122
190 210 147
188 208 149
187 208 147
187 207 142
190 210 153
192 212 159
193 213 163
192 212 161
193 212 171
190 210 157
195 213 175
194 214 171
194 212 171
195 214 181
194 213 175
197 216 186
193 212 163
194 213 173
197 217 188
199 218 193
194 213 169
196 216 179
198 216 184
191 212 165
191 211 161
198 217 182
195 214 179
195 215 175
193 213 171
195 213 181
191 210 167
199 217 189
198 217 186
194 213 165
199 218 193
195 214 177
192 212 163
194 213 173
193 213 169
196 215 177
192 212 171
194 213 169
191 211 167
195 214 167
198 217 182
192 211 169
192 211 159
195 215 173
189 209 155
192 211 171
191 211 153
186 206 149
186 207 142
188 207 149
181 202 130
189 209 157
187 207 144
186 207 137
188 208 140
185 206 133
183 203 122
180 200 120
180 201 108
177 198 105
178 198 133
175 196 118
163 184 145
149 172 113
135 159 117
144 167 137
135 159 124
122 147 130
92 120 148
83 113 144
82 112 152
85 114 153
86 116 156
71 104 153
78 109 154
74 105 144
71 103 159
69 102 155
67 100 148
68 102 158
66 100 156
69 102 152
61 97 159
67 101 159
60 96 157
65 100 163
62 98 165
61 97 157
61 97 162
63 98 160
63 99 158
61 97 162
61 98 159
62 98 162
62 99 168
61 97 161
60 97 166
61 97 163
62 98 162
62 98 171
61 97 162
61 97 160
62 98 167
62 98 166
61 97 157
61 97 163
60 96 162
61 97 165
61 97 159
61 97 165
62 99 172
61 97 164
61 97 166
62 98 163
62 98 169
62 99 169
62 98 160
62 98 169
61 97 160
62 98 163
63 99 171
62 98 166
62 98 165
61 98 162
62 98 163
62 98 164
61 97 168
62 98 163
61 97 159
62 98 169
62 98 165
61 97 163
61 98 160
60 97 158
62 98 163
61 97 161
62 99 174
61 98 165
62 98 166
62 98 166
61 97 159
61 97 160
62 98 162
61 98 165
63 99 171
63 99 172
62 99 168
62 98 162
61 97 155
62 98 167
62 98 163
62 98 165
62 98 163
62 98 163
62 98 162
62 98 164
61 97 160
61 97 161
61 97 159
62 98 166
62 98 164
62 99 167
62 98 163
62 98 165
61 97 159
62 98 157
62 98 164
62 98 162
62 98 164
62 98 166
62 98 165
63 99 164
62 98 167
63 99 163
62 98 163
62 98 166
62 99 165
62 99 168
62 98 162
63 99 165
62 98 168
62 98 163
62 98 166
62 98 163
61 97 154
63 99 168
62 98 163
62 98 163
61 97 163
62 99 167
62 98 162
62 98 160
62 97 162
61 97 159
62 97 160
63 99 164
63 99 167
63 99 164
61 98 165
62 98 163
61 97 154
62 98 168
62 98 163
61 97 160
61 97 157
63 98 164
62 98 156
61 97 153
62 98 160
62 98 156
62 98 163
62 98 157
62 97 158
62 98 163
61 97 153
62 98 162
61 96 153
62 98 163
62 98 157
62 98 161
62 98 155
61 97 159
62 98 162
62 98 160
60 96 150
62 98 160
62 98 154
61 97 156
61 97 155
61 97 158
61 96 155
63 98 156
62 98 162
61 96 149
62 98 160
61 96 149
60 94 145
61 95 147
60 95 145
62 97 151
62 96 147
59 93 143
60 94 141
60 94 147
60 94 147
61 93 138
63 88 108
77 89 85
80 80 37
82 81 25
88 88 8
86 85 12
87 85 14
93 91 12
86 85 18
101 98 20
77 77 16
89 87 16
96 94 20
89 89 19
97 96 33
100 99 29
90 90 21
100 97 22
105 103 25
96 95 27
111 109 31
101 100 24
106 104 28
100 100 26
107 104 25
101 100 25
111 107 27
111 109 31
99 98 22
117 114 42
109 106 30
110 108 32
117 113 35
117 115 39
127 123 37
131 127 46
131 127 47
123 119 44
117 115 36
119 116 48
122 119 43
121 118 27
130 126 49
126 122 40
127 125 35
143 137 51
139 135 41
135 130 43
137 133 45
141 137 51
135 130 46
131 128 47
136 133 34
132 128 38
126 122 38
145 140 54
139 133 51
137 133 46
139 134 42
141 137 47
139 133 45
132 128 34
132 127 44
134 130 42
148 142 45
149 144 45
137 134 41
138 133 41
144 139 41
141 136 41
137 131 47
141 137 47
143 138 52
144 138 44
139 134 45
137 133 41
138 133 41
139 133 45
139 135 42
147 141 51
147 141 54
144 139 51
147 142 53
138 134 34
137 133 42
142 136 45
139 133 41
130 126 34
141 135 37
137 132 44
148 142 41
135 130 42
132 128 39
138 133 36
138 132 48
134 128 44
137 130 45
137 130 37
124 119 28
132 127 32
140 135 41
133 131 32
123 121 30
130 130 32
141 143 30
134 136 30
141 144 32
141 145 22
142 150 25
149 156 19
148 158 16
152 164 19
154 163 22
159 173 16
155 170 11
156 170 0
157 174 11
163 178 11
161 177 0
165 183 0
164 182 0
169 187 0
163 181 0
168 185 0
163 182 0
164 180 0
162 179 0
165 183 0
167 185 0
166 182 0
164 182 0
169 188 0
168 187 0
165 184 0
166 185 0
166 186 0
160 178 0
181 203 120
182 204 105
181 203 117
182 203 128
185 205 133
190 210 144
187 208 144
183 204 133
191 211 149
186 206 149
187 207 149
194 214 169
192 212 147
189 209 149
187 207 144
190 210 163
188 209 157
194 214 169
192 212 155
190 211 155
198 217 186
194 213 167
195 214 175
199 217 186
197 215 186
195 214 173
197 216 182
198 217 188
196 215 177
196 215 177
195 214 186
196 215 179
193 213 171
198 217 189
200 219 198
203 221 207
197 216 194
197 216 186
196 216 184
199 217 193
196 215 184
192 211 161
201 219 201
194 214 175
195 215 177
195 215 177
196 215 186
197 216 189
196 215 189
195 214 181
195 214 186
199 218 194
196 215 189
200 219 194
195 214 181
199 219 194
196 215 182
194 214 171
195 215 179
195 214 177
188 208 157
192 212 171
187 207 149
194 212 161
189 209 147
197 215 181
187 207 144
189 208 159
188 208 147
189 208 151
187 207 149
185 205 144
187 207 142
186 206 128
181 202 117
188 208 142
182 203 136
177 197 124
158 178 131
154 175 151
139 161 142
149 171 142
131 155 135
116 141 136
123 148 128
105 132 144
77 108 153
91 119 156
75 107 153
79 110 143
80 111 155
67 101 151
82 113 154
88 117 153
67 101 156
75 107 155
62 97 154
62 98 158
68 102 153
63 98 157
65 100 154
61 97 158
63 98 157
62 97 154
62 98 159
62 98 163
61 97 156
59 95 154
62 98 166
61 97 155
61 97 158
62 97 159
61 98 162
61 98 164
61 97 162
61 97 156
62 98 164
61 97 162
61 97 158
61 97 161
61 97 165
61 98 169
61 97 163
61 97 158
61 97 157
60 96 159
61 97 156
61 97 166
61 97 163
62 98 164
61 98 169
62 98 164
61 98 163
62 98 167
62 98 164
62 98 170
62 98 166
62 98 164
62 99 170
63 99 169
62 99 171
62 98 168
62 98 167
61 97 163
62 98 166
62 98 167
61 98 168
62 98 163
62 98 165
62 99 170
63 99 170
63 99 174
62 98 162
62 99 167
62 98 161
61 97 156
61 98 162
62 98 165
62 98 164
62 99 177
61 97 164
62 98 164
62 98 164
63 99 165
62 99 169
62 98 161
61 97 157
61 97 164
62 98 163
61 97 157
62 99 167
62 98 168
62 98 169
62 98 163
62 98 169
62 98 161
61 97 160
62 99 168
62 98 165
61 98 162
61 98 163
61 97 162
62 98 160
62 99 165
62 98 165
62 98 161
62 98 166
61 98 164
63 99 164
63 99 166
62 98 160
61 97 157
62 98 158
62 98 161
62 98 162
62 98 165
62 98 164
62 98 163
62 98 159
61 97 154
62 98 161
62 98 161
63 100 173
62 98 158
62 98 161
61 97 156
62 98 154
62 98 163
63 99 166
61 97 155
62 98 160
62 98 162
61 97 158
61 97 159
62 98 159
61 97 157
62 98 163
62 98 156
61 97 156
62 98 164
61 97 155
63 99 165
62 98 159
62 98 163
62 98 163
63 99 164
61 96 150
62 98 158
61 97 159
61 97 161
61 97 157
62 98 160
61 97 158
62 97 159
62 97 151
61 97 153
62 98 154
62 98 158
62 98 155
61 96 151
62 98 162
62 98 162
62 98 160
61 97 159
62 97 157
63 99 160
62 97 155
62 98 161
61 97 156
61 96 159
62 98 162
61 96 155
60 95 147
59 94 135
61 96 150
61 96 152
61 96 145
61 97 155
60 94 150
60 95 141
59 93 140
59 92 141
57 89 125
64 90 115
80 88 84
73 77 56
89 87 32
78 79 3
78 76 11
80 80 12
87 84 14
82 81 16
79 78 12
78 77 18
94 92 9
83 83 18
95 94 12
82 81 14
97 94 21
101 98 23
98 96 25
94 94 14
99 98 19
97 97 27
108 104 16
102 101 20
104 102 24
109 105 21
110 107 33
94 93 22
105 104 25
118 115 27
111 107 30
122 119 38
119 115 33
115 111 41
106 105 29
115 113 29
124 120 38
121 118 31
122 118 36
125 123 35
124 119 31
123 121 38
132 128 34
129 125 40
124 121 31
123 119 38
127 123 41
129 125 42
129 124 39
133 129 36
133 129 45
137 133 45
137 133 47
140 135 37
133 129 34
139 135 39
137 133 45
136 131 48
140 135 45
134 129 40
138 133 44
140 137 48
135 131 37
138 132 44
144 139 44
146 140 51
140 134 41
138 134 44
138 133 44
135 131 39
142 136 47
143 139 52
139 134 34
144 139 42
143 138 42
137 133 41
148 142 56
140 135 39
137 132 48
131 125 28
141 135 44
139 133 39
135 130 39
138 132 48
132 127 39
139 135 37
134 130 36
139 132 41
132 126 37
132 126 41
127 122 37
134 130 36
122 115 45
130 125 39
136 131 32
129 125 39
136 130 45
130 126 36
137 130 37
135 130 42
135 129 49
141 137 41
134 134 37
131 131 36
142 143 22
132 136 25
136 137 32
134 137 19
151 161 19
145 153 22
146 154 22
155 168 11
145 157 0
148 161 0
156 169 16
159 173 11
158 171 16
162 181 0
162 179 0
165 181 0
164 180 0
169 187 0
165 183 0
167 183 0
168 186 0
166 184 0
165 182 0
169 187 0
165 184 0
169 188 0
164 184 0
165 181 0
163 180 0
165 183 0
168 185 0
168 188 0
169 187 0
168 187 0
183 203 125
180 201 122
180 201 122
184 205 137
185 205 142
184 205 125
188 209 147
185 206 137
192 212 163
191 211 157
190 210 153
196 215 173
194 213 163
192 212 167
190 210 157
200 219 193
196 215 179
192 211 161
191 211 169
196 215 177
194 214 179
196 215 182
196 215 184
198 217 189
200 219 199
196 215 181
197 216 179
197 216 189
196 216 186
194 213 179
199 217 193
196 215 182
201 220 196
200 219 196
199 218 193
201 219 204
198 217 193
200 219 191
199 218 193
194 214 179
196 215 182
198 217 191
199 218 188
196 216 184
200 219 198
197 217 194
196 215 191
199 218 194
202 220 201
201 219 199
197 216 191
201 219 198
195 214 177
201 220 203
199 217 196
197 216 186
197 216 188
196 216 179
198 217 189
195 214 186
194 213 177
197 217 188
192 211 159
192 212 169
189 210 149
197 216 179
199 217 186
195 215 173
196 215 177
196 215 181
191 210 165
188 208 149
188 208 153
183 203 133
191 211 153
187 207 141
183 203 150
175 195 144
166 187 156
153 175 144
142 165 139
143 165 143
137 160 159
120 145 135
118 143 148
95 122 149
92 120 149
88 117 156
90 118 149
83 112 158
73 105 154
79 110 150
77 109 161
80 111 154
70 103 159
66 101 160
62 98 155
66 100 155
63 99 157
63 99 156
65 99 159
67 102 160
63 99 160
65 99 153
61 97 157
65 99 160
61 97 157
63 98 161
60 96 154
62 98 167
61 96 155
61 97 163
62 98 164
61 97 163
62 98 160
62 98 162
61 97 160
62 98 166
62 99 165
60 96 153
61 97 171
61 96 161
61 97 160
61 98 168
61 98 168
62 98 168
61 97 164
61 97 159
61 97 163
62 98 168
61 97 160
61 97 163
62 98 168
61 98 162
62 99 170
61 98 160
62 98 167
62 99 170
62 98 162
61 98 166
62 98 166
62 98 162
62 98 168
61 97 158
62 98 166
62 98 164
61 97 165
61 98 161
62 98 164
62 99 167
61 98 168
61 97 162
62 98 168
61 97 159
62 98 166
61 97 155
61 97 158
62 98 164
62 98 166
62 99 167
61 98 162
62 98 165
61 97 159
62 98 165
62 98 161
63 99 165
62 98 161
62 98 160
62 98 167
62 98 165
61 97 162
62 98 163
61 98 167
63 99 166
62 98 162
62 98 164
61 98 164
63 99 170
62 98 169
62 98 170
62 98 157
61 98 167
62 99 168
63 99 167
62 97 159
62 98 163
62 98 164
62 99 168
62 99 162
61 97 162
61 97 159
62 99 165
62 98 163
61 98 159
61 98 164
62 98 159
63 99 167
61 97 157
60 96 157
62 98 169
61 97 158
62 98 163
62 99 166
61 98 163
62 99 168
62 98 169
62 98 162
62 98 164
63 99 164
62 98 158
62 98 164
62 98 161
62 98 160
62 99 170
62 98 164
63 99 165
62 97 154
63 99 165
62 97 157
61 97 158
62 98 159
61 97 158
62 98 163
61 97 160
62 98 165
61 97 154
61 96 152
61 96 150
62 98 160
62 97 153
61 97 155
62 98 161
62 98 156
61 97 155
62 98 160
61 97 154
63 98 161
62 98 162
61 97 156
61 97 156
62 98 159
61 97 155
62 97 155
61 97 156
62 98 154
62 98 154
62 97 155
60 95 147
61 96 150
61 96 144
61 97 157
61 96 151
60 95 145
61 96 153
60 94 140
60 95 148
60 95 154
60 95 146
58 92 141
58 92 141
59 93 139
59 92 135
56 89 127
69 89 112
75 85 83
82 87 65
89 86 25
79 79 14
87 85 14
84 83 22
82 80 16
93 90 11
92 90 18
92 89 19
95 92 14
93 90 16
83 83 11
85 86 27
85 84 16
103 101 21
102 101 18
102 100 20
98 97 28
101 99 29
95 94 21
100 99 22
99 96 29
109 107 21
98 97 21
106 105 24
108 107 19
113 109 33
127 123 35
118 115 36
106 104 28
120 116 35
110 108 38
126 124 30
120 115 38
123 121 33
129 124 38
115 113 29
117 114 30
131 128 35
122 119 33
122 119 30
120 119 34
129 125 34
127 124 39
124 120 32
133 129 37
132 128 42
132 129 38
134 130 37
135 130 38
136 131 42
141 136 45
134 130 43
132 128 31
145 141 41
136 131 46
139 133 54
134 131 36
143 138 49
143 138 47
135 130 47
132 127 41
137 132 53
143 138 39
138 132 39
142 137 48
142 137 49
139 133 44
142 137 42
135 131 42
138 132 45
142 137 44
146 140 48
151 144 54
137 131 42
134 130 36
134 130 36
142 137 47
144 139 41
137 132 42
130 125 39
132 128 32
132 126 34
130 126 34
133 129 32
137 131 41
138 132 48
128 123 39
131 125 37
120 116 22
126 120 39
131 125 37
131 125 36
126 121 28
131 127 41
115 110 34
142 137 41
120 117 19
133 131 30
138 140 37
138 138 28
144 148 28
140 143 32
147 153 28
142 146 32
147 155 22
145 153 30
146 154 19
152 164 11
158 168 16
156 169 16
163 176 22
163 178 0
161 176 0
164 181 0
166 185 0
164 180 0
164 180 0
167 184 0
163 181 0
165 182 0
162 178 0
168 186 0
168 186 0
164 182 0
162 180 0
164 183 0
166 186 0
168 187 0
166 184 0
167 186 0
167 187 0
164 182 0
167 186 0
171 189 0
184 205 117
193 212 153
185 206 122
187 207 147
186 206 147
192 211 153
190 209 149
193 213 167
189 210 149
196 215 179
190 210 161
193 213 175
193 213 171
194 213 177
193 212 163
195 214 173
190 211 161
197 216 181
194 214 175
195 214 182
194 214 177
198 217 186
200 219 203
196 215 186
198 217 186
201 220 203
201 219 194
201 220 203
201 220 201
199 218 196
202 220 203
197 216 186
197 217 193
200 219 201
200 219 206
200 219 201
200 219 201
201 219 207
201 220 209
204 222 209
200 219 193
202 221 209
202 221 206
199 217 194
201 220 204
202 221 206
202 221 209
201 220 203
200 219 203
201 220 201
201 220 206
203 221 211
203 220 204
195 214 186
201 219 196
204 222 215
202 220 199
198 218 191
200 219 189
195 214 184
198 217 189
194 214 175
193 212 173
196 215 181
196 215 182
193 213 173
197 216 177
193 213 171
197 216 179
194 213 169
193 212 169
189 209 157
191 210 155
187 207 151
186 207 133
190 209 161
181 201 154
172 193 148
156 178 150
152 173 155
139 162 154
131 154 147
143 165 168
133 157 142
123 147 169
89 118 149
88 117 149
75 107 163
87 116 161
85 115 159
73 106 159
89 119 153
76 108 154
75 107 165
70 104 162
67 101 153
69 102 150
70 104 160
63 98 159
70 102 157
69 103 154
64 99 149
66 101 163
61 97 154
63 99 161
62 98 162
62 98 162
62 98 165
61 98 160
61 97 156
60 96 159
62 97 159
61 97 154
61 97 161
61 96 161
61 97 158
61 97 162
61 97 164
60 96 162
61 97 161
62 98 166
60 97 164
62 98 169
61 97 161
61 98 164
61 97 160
61 98 162
62 98 164
60 96 163
62 98 167
60 96 161
61 97 159
62 98 163
60 96 157
62 99 169
61 97 166
61 98 166
62 98 167
62 98 160
62 98 167
61 98 163
63 99 171
61 98 167
61 97 164
61 98 167
62 98 166
63 99 172
62 98 165
61 98 163
61 97 162
61 97 159
61 97 165
61 98 163
61 98 161
61 97 160
62 98 166
62 98 162
61 98 165
62 99 171
61 97 162
63 99 168
62 99 167
61 97 158
62 98 166
61 98 166
62 99 166
61 97 158
61 97 156
62 98 166
63 99 166
62 98 170
61 97 159
62 98 168
62 98 163
61 97 160
62 98 163
62 98 163
61 97 161
62 98 162
62 98 160
62 98 166
62 99 168
62 98 164
62 98 165
62 98 163
62 98 167
63 99 169
62 98 161
62 98 163
62 98 160
62 98 158
62 98 163
61 98 162
62 98 159
61 97 158
62 98 165
63 99 167
62 98 160
61 98 164
62 98 166
62 98 159
62 98 165
63 99 167
63 99 166
61 98 163
60 96 152
62 98 159
61 97 159
63 99 168
62 98 159
61 98 161
61 97 149
62 98 165
62 98 163
63 99 163
61 97 160
62 98 161
61 97 154
61 97 155
61 97 161
62 98 160
62 98 165
62 98 160
62 98 159
62 98 162
63 98 160
63 98 163
62 98 161
62 98 162
62 98 162
62 98 160
61 97 150
60 96 149
63 98 156
62 98 160
61 97 154
61 97 159
60 95 148
62 97 156
61 97 155
62 98 159
61 96 159
61 97 161
62 98 157
62 98 155
61 97 157
61 95 148
62 97 154
61 96 146
62 97 150
60 95 143
59 94 140
61 96 147
60 95 145
61 96 151
60 94 144
60 94 132
60 94 140
61 96 151
59 92 128
61 96 143
60 94 145
58 92 137
65 88 111
87 94 76
75 78 50
94 92 19
84 83 14
95 91 16
97 94 8
80 79 14
92 90 14
84 81 14
80 78 14
99 96 25
94 92 17
77 79 22
96 95 31
91 89 8
91 90 14
95 93 24
97 96 16
99 97 14
98 96 24
103 101 25
106 102 25
102 101 22
109 106 29
114 112 18
102 100 25
106 104 28
107 104 30
114 113 24
119 118 36
116 114 33
107 105 29
120 117 29
121 118 32
118 114 44
120 116 34
124 120 37
122 119 36
131 126 42
121 118 37
118 116 30
120 117 31
132 128 42
132 129 37
130 124 37
125 121 31
134 130 39
125 123 25
124 120 37
128 125 30
135 131 45
134 130 37
136 130 38
134 130 35
137 132 43
135 131 37
135 130 32
129 124 32
134 129 44
142 137 46
132 128 36
143 138 42
141 137 42
138 134 34
133 128 39
133 128 30
133 128 41
139 134 36
134 130 32
137 133 37
137 132 41
139 134 36
137 131 42
139 134 41
141 135 39
128 123 34
128 123 32
131 125 36
139 133 34
142 137 39
133 127 39
130 126 36
133 127 42
136 129 52
138 132 45
134 130 32
133 128 34
133 128 34
131 126 37
127 121 39
139 134 47
133 127 41
135 130 39
128 123 34
132 128 34
130 128 32
134 133 32
135 134 36
121 123 16
137 134 37
143 146 22
140 144 28
143 146 28
140 141 34
145 152 22
144 153 22
146 156 19
145 154 11
151 163 0
151 160 19
153 165 19
158 171 0
157 170 11
163 177 0
161 179 0
162 179 0
158 174 0
162 177 0
165 180 0
164 181 0
163 179 0
165 183 0
162 178 0
163 180 0
165 184 0
164 180 0
166 183 0
166 184 0
169 188 0
170 189 0
165 183 0
165 182 0
167 187 0
162 181 0
167 187 0
170 188 0
188 208 137
188 208 153
190 210 157
191 211 153
190 209 153
193 213 171
189 209 153
197 216 177
195 214 177
188 208 151
193 212 173
194 213 167
198 217 191
195 215 182
200 219 196
191 211 179
199 217 189
197 216 194
194 214 177
202 220 201
198 216 189
199 218 198
191 211 171
196 216 184
201 219 199
203 221 204
203 222 211
203 222 211
201 220 206
204 223 212
202 221 206
202 221 206
204 222 212
202 221 209
204 222 215
201 220 207
198 217 191
200 220 204
204 223 217
203 221 207
200 219 198
205 223 221
202 221 211
207 225 224
203 222 211
205 224 217
200 219 196
202 221 207
201 220 206
203 221 214
204 223 214
204 222 215
202 220 206
204 222 215
197 216 193
200 219 199
199 217 194
198 218 194
199 217 201
202 220 204
199 218 196
201 219 194
199 218 193
199 218 193
201 219 196
196 215 181
197 216 188
189 209 169
194 213 181
196 215 177
189 209 159
189 209 153
197 216 179
192 210 169
189 209 161
186 205 157
184 204 172
171 191 163
163 183 182
159 179 167
139 161 171
130 153 166
135 157 171
122 145 156
105 131 160
107 133 169
99 126 160
83 113 150
82 112 148
78 109 161
92 120 157
82 113 162
93 121 163
72 105 165
77 108 157
68 102 147
80 111 157
87 117 150
72 105 155
63 98 160
67 101 155
66 101 159
66 100 155
64 99 160
63 98 154
64 99 164
61 98 159
62 97 156
63 99 161
61 98 169
62 97 164
61 96 156
65 100 161
66 100 149
62 98 169
61 97 155
59 95 148
62 98 162
61 97 167
60 96 155
61 97 160
62 98 163
61 98 163
62 98 167
62 98 163
61 97 163
61 98 166
62 98 163
61 96 160
61 97 163
61 97 160
61 98 168
61 97 161
61 97 163
62 98 166
62 99 169
61 97 161
61 97 162
61 97 162
62 99 168
61 98 168
62 98 168
61 97 161
61 97 159
63 99 172
62 98 166
62 99 168
62 98 164
61 98 164
61 97 160
61 97 160
62 98 165
62 98 166
62 99 168
62 99 166
62 99 165
61 97 161
61 98 164
63 99 169
61 98 163
63 99 166
62 98 160
62 97 160
61 97 163
61 97 154
63 99 166
61 98 162
61 97 168
62 98 166
61 98 165
62 99 168
62 98 161
62 98 166
62 98 162
61 97 160
61 97 161
62 98 161
63 99 168
62 98 163
62 98 159
61 97 161
62 98 161
62 98 165
62 99 165
62 98 162
61 98 164
62 98 168
62 98 164
62 98 168
63 99 170
62 98 164
62 98 165
62 98 162
63 99 162
62 98 166
63 99 164
62 98 160
63 99 166
62 98 162
62 98 167
61 97 161
61 97 154
61 97 155
62 98 160
62 98 163
61 97 155
61 96 151
62 99 166
62 98 160
62 98 165
62 98 160
62 97 151
63 99 167
61 97 162
62 97 152
63 99 164
62 98 160
62 98 158
61 97 153
63 99 163
62 98 160
63 99 169
61 96 154
61 97 158
62 98 159
62 98 162
63 99 160
62 98 159
63 98 156
61 97 155
61 96 153
60 96 150
61 96 153
61 97 155
62 97 155
62 98 158
61 97 151
62 98 156
62 98 162
62 97 160
62 98 160
62 97 153
60 96 153
61 97 153
61 97 153
61 96 153
61 96 147
61 97 155
61 97 157
62 98 161
61 97 155
61 96 156
60 94 147
62 98 156
60 95 139
61 95 149
59 94 139
60 95 140
60 94 139
61 96 152
59 93 140
60 94 139
60 90 132
66 87 107
73 84 74
98 100 37
82 80 5
75 76 8
86 85 8
87 86 0
83 81 25
79 78 9
91 89 20
77 76 14
89 87 8
88 85 9
96 93 8
98 97 20
99 97 8
100 98 12
93 90 16
92 91 16
104 102 24
101 99 14
105 103 19
106 106 23
103 102 27
109 108 24
97 96 21
105 104 24
119 114 25
109 108 25
119 116 21
111 108 30
112 111 29
118 114 37
116 113 23
116 113 24
118 115 30
116 114 31
119 115 30
116 112 32
110 108 35
122 117 32
129 125 31
124 121 33
133 130 35
127 124 32
130 127 32
135 130 47
127 123 33
137 131 34
137 132 41
128 124 34
127 125 31
133 128 44
132 128 28
143 137 41
126 121 22
133 129 39
138 133 41
137 132 28
135 130 42
136 132 32
132 128 32
132 128 36
136 132 35
134 129 37
129 125 33
135 130 41
135 129 39
140 134 41
142 136 53
130 125 37
138 133 39
142 137 42
139 133 47
130 125 34
130 126 32
141 135 41
138 133 41
130 126 37
136 131 37
136 130 36
130 124 36
136 132 36
131 126 34
134 128 41
130 125 39
133 127 41
125 120 37
129 123 37
132 127 41
130 125 34
124 119 30
125 120 37
132 127 39
130 124 36
128 124 34
127 126 25
125 123 19
131 130 32
134 132 22
135 137 32
127 132 0
147 150 32
150 154 25
141 143 28
146 156 19
148 156 0
150 159 0
151 162 16
157 167 25
153 165 0
159 171 11
158 170 11
162 177 0
161 177 0
166 182 0
164 180 0
164 179 0
161 179 0
163 181 0
161 175 0
164 179 0
167 185 0
153 166 0
163 182 0
168 186 0
166 183 0
163 180 0
167 185 0
167 186 0
169 188 0
170 190 0
167 186 0
167 184 0
167 186 0
166 182 0
167 184 0
191 210 153
190 210 157
190 210 161
191 211 163
195 214 175
191 211 163
195 214 173
196 215 179
194 214 177
193 212 169
199 217 191
201 219 196
195 215 181
198 217 188
197 217 188
196 215 189
198 217 188
200 219 203
199 218 193
200 220 207
206 224 217
199 218 199
202 221 211
201 220 204
201 220 206
201 220 201
200 219 201
204 223 217
201 220 206
201 220 206
203 221 207
205 223 217
201 220 201
204 222 212
200 219 203
202 221 211
201 220 212
204 223 215
205 223 224
203 222 211
203 222 211
205 223 215
203 222 211
202 221 211
200 219 198
203 222 211
206 224 221
199 218 199
204 223 220
198 217 193
203 222 212
206 224 221
202 221 207
205 223 221
202 221 212
202 220 204
200 219 207
206 224 226
204 222 214
201 220 209
204 222 209
202 221 203
202 221 203
200 219 204
199 218 203
202 220 199
200 219 194
194 213 175
200 218 189
195 214 188
195 214 177
198 217 182
196 214 179
195 213 173
190 210 175
188 207 167
185 204 177
166 186 169
148 170 173
154 174 168
137 159 171
135 157 179
146 167 164
118 143 161
113 138 164
106 132 164
105 130 168
87 116 154
93 121 156
81 112 158
75 107 153
78 109 163
81 111 164
80 110 147
71 104 157
71 104 154
76 108 157
67 101 156
66 100 157
77 109 160
68 101 152
62 96 153
63 98 155
63 98 160
65 99 155
60 96 159
62 98 154
62 98 155
61 97 159
61 97 164
65 100 162
61 97 162
62 99 169
60 96 157
61 96 157
60 96 164
61 98 162
61 96 160
61 97 163
62 98 166
61 97 162
61 98 166
61 97 160
61 98 163
62 97 161
61 97 166
61 98 164
60 96 155
61 97 160
61 97 162
61 98 163
61 98 169
61 97 160
61 97 157
61 98 161
62 98 167
61 97 162
62 98 165
62 98 160
61 98 163
62 98 162
62 98 165
62 98 163
62 98 162
61 97 160
63 99 172
61 98 164
62 98 170
61 98 164
61 98 162
63 99 170
61 98 165
62 98 162
62 98 161
62 97 158
62 98 159
61 97 167
61 97 157
62 98 161
61 97 163
62 98 163
61 97 162
62 98 160
62 98 161
62 99 168
62 98 168
62 98 164
63 99 170
61 98 166
61 97 157
61 98 162
62 98 167
62 98 169
62 98 165
63 99 167
61 97 163
61 97 160
62 97 159
61 98 166
62 98 162
61 97 156
62 98 166
63 99 165
62 98 161
61 97 159
62 98 163
63 98 160
62 98 162
62 98 164
63 99 166
62 98 166
61 98 165
62 98 158
62 99 169
62 98 163
62 98 159
62 98 161
62 98 166
62 98 163
62 98 157
62 98 163
61 98 163
62 98 157
62 98 163
62 98 160
62 98 159
62 98 157
61 97 157
62 98 162
62 98 158
62 98 160
62 98 162
62 98 162
63 99 164
61 97 153
62 98 164
61 97 159
61 96 153
61 97 159
62 98 158
62 98 157
62 97 158
62 98 162
62 98 158
62 98 157
61 97 157
62 97 155
60 96 151
61 97 153
61 97 155
61 96 158
62 97 158
61 97 154
61 97 158
62 98 154
62 97 156
62 98 158
62 97 158
62 97 151
61 97 148
62 97 155
61 97 153
62 97 161
63 99 161
62 97 157
61 96 150
60 95 147
61 96 148
61 96 146
61 96 145
61 96 147
61 96 151
60 95 141
59 94 138
62 97 156
60 95 140
59 94 134
60 95 141
60 94 141
58 91 136
59 93 139
60 94 140
63 89 120
69 87 102
86 92 58
80 82 46
92 90 8
93 92 12
83 82 12
92 91 20
98 96 9
86 85 11
83 80 3
82 80 12
80 79 14
89 88 21
97 94 8
96 93 3
89 88 11
96 94 11
86 86 16
81 81 24
93 90 18
94 94 20
102 100 14
95 94 26
99 99 12
95 94 11
101 99 24
98 95 23
98 98 16
116 113 28
117 114 28
105 104 30
107 104 19
107 106 18
119 116 32
112 109 34
108 106 26
121 118 29
118 116 30
120 115 18
117 113 30
116 112 30
126 122 38
117 114 23
119 114 31
123 120 24
134 131 37
128 124 39
124 120 38
131 128 35
133 128 40
132 128 38
119 115 26
132 128 36
133 128 36
131 127 30
138 133 39
137 134 36
128 124 32
134 129 33
137 132 30
130 125 30
135 131 32
145 140 44
137 132 37
133 129 30
132 126 39
139 134 42
134 129 32
129 126 39
130 126 34
138 133 39
137 132 39
132 127 37
135 129 41
138 134 36
126 121 32
140 135 41
139 134 37
132 126 34
131 124 30
127 121 34
123 118 36
131 126 39
132 125 32
134 129 39
129 125 25
131 125 32
135 130 45
134 128 45
132 127 36
119 115 30
127 120 30
137 132 32
121 119 19
128 126 22
130 130 28
126 124 28
132 132 25
126 125 19
132 133 22
148 153 28
136 139 32
135 142 28
136 141 11
145 152 16
147 154 25
154 165 11
152 166 16
154 162 0
157 169 16
157 170 11
162 177 11
165 180 0
164 178 0
168 183 0
163 177 0
167 183 0
170 186 0
166 182 0
165 180 0
161 177 0
169 187 0
166 182 0
166 183 0
168 185 0
166 184 0
163 181 0
166 184 0
168 188 0
162 182 0
166 185 0
168 186 0
168 186 0
164 181 0
169 186 0
164 182 0
164 183 0
189 209 157
196 215 179
190 210 155
188 209 153
191 211 161
197 216 193
196 216 179
191 211 159
197 216 181
193 214 171
199 218 196
198 217 186
202 220 199
201 220 196
200 218 196
200 219 198
203 221 214
201 220 201
203 222 214
202 220 201
201 219 201
200 219 199
202 220 211
205 223 215
204 222 217
204 222 215
204 223 218
201 220 203
203 221 212
204 223 220
205 223 214
204 223 217
202 221 215
203 221 211
202 221 206
204 222 221
204 222 223
209 226 228
204 223 218
208 225 226
200 219 199
205 223 218
205 223 220
204 222 215
206 224 223
206 224 220
206 225 224
204 223 220
204 223 215
202 221 209
205 223 217
208 226 233
205 223 220
201 220 201
201 221 206
202 221 209
201 220 203
204 222 212
201 220 199
204 222 209
202 221 207
204 222 214
202 220 206
199 218 196
199 218 201
199 218 193
201 220 203
201 220 203
200 218 198
200 218 199
198 217 193
198 217 193
197 216 188
197 216 182
196 215 189
189 208 185
182 201 176
165 185 181
165 184 188
144 166 172
139 161 190
144 165 192
129 151 175
123 147 172
115 141 162
98 124 169
102 129 159
94 122 161
96 123 159
88 117 152
78 109 163
84 114 162
80 110 158
85 114 164
78 109 159
71 103 157
72 105 158
71 104 160
71 104 151
76 108 169
72 105 151
65 101 164
65 99 159
65 100 162
66 101 166
61 97 157
61 97 159
61 97 158
62 99 168
60 96 160
61 97 163
63 98 155
63 98 158
61 98 163
61 96 155
61 97 159
62 99 166
61 98 164
61 98 166
62 98 163
62 98 166
61 97 157
60 96 158
61 97 159
61 98 166
61 98 160
61 97 164
61 97 165
61 97 161
61 97 162
61 98 168
62 98 161
62 98 163
62 98 171
61 98 161
62 98 166
62 98 162
61 98 164
61 98 169
61 97 167
62 98 163
62 98 163
62 98 167
61 98 163
61 97 157
62 98 165
62 98 168
61 97 162
62 98 164
61 97 160
62 98 160
62 99 169
62 99 169
62 99 167
61 97 157
62 98 168
61 97 159
61 97 157
62 98 167
62 98 161
62 99 164
62 98 170
62 98 164
62 98 164
62 98 165
62 98 165
62 98 162
61 97 158
61 97 161
62 98 164
61 97 159
63 99 172
62 98 163
62 98 160
62 99 170
62 97 156
61 97 159
62 99 171
61 97 158
62 98 158
62 98 164
62 98 169
63 99 167
62 98 165
63 99 167
62 97 162
63 99 166
62 98 163
62 98 162
62 98 165
61 97 156
62 98 159
62 97 159
62 98 163
61 96 154
61 97 162
63 98 158
62 98 161
63 99 167
61 98 160
62 99 165
62 98 160
62 98 161
62 98 163
62 98 160
62 98 159
62 97 155
62 98 161
62 98 158
62 98 157
62 98 164
62 98 160
61 97 154
61 97 159
62 98 164
61 97 154
61 97 156
62 98 164
62 98 161
62 98 157
61 97 152
61 98 163
62 98 158
63 99 160
62 98 157
62 98 159
62 98 152
62 98 160
62 98 162
61 96 145
63 98 156
62 98 156
62 98 160
61 96 152
61 96 155
62 98 159
62 97 153
61 97 153
62 97 148
62 98 163
63 99 165
61 96 150
61 97 157
61 97 153
62 97 153
61 97 153
61 97 149
60 94 147
60 95 139
60 96 151
60 95 143
62 98 153
60 95 141
61 96 149
60 95 141
61 95 147
59 92 137
61 96 152
61 95 148
60 94 138
59 92 133
60 94 135
57 87 118
76 90 90
93 99 68
91 95 37
93 92 0
95 96 14
92 88 8
97 94 14
93 92 14
84 82 0
90 86 3
93 90 8
86 83 1
90 87 16
91 88 16
82 80 2
85 84 14
95 94 21
92 90 18
101 97 21
105 102 14
89 86 12
99 96 18
102 99 21
105 103 12
102 98 25
106 104 18
110 107 25
109 105 23
104 101 24
109 106 22
113 108 18
116 112 18
119 117 33
111 109 25
117 115 18
118 114 35
107 104 14
119 115 25
114 112 22
119 117 22
122 119 30
121 119 29
117 113 29
116 113 21
129 124 35
120 117 31
129 125 34
118 116 16
131 126 34
128 124 31
128 124 21
122 116 32
130 126 37
124 120 31
137 133 37
134 130 36
135 130 37
122 117 34
137 131 44
127 122 28
125 122 28
133 128 39
126 122 30
138 133 37
137 132 30
137 133 22
143 138 41
133 128 36
131 126 32
117 115 19
135 129 45
128 123 32
126 122 30
138 134 36
132 127 30
138 132 44
132 127 28
133 128 39
123 120 28
136 130 42
125 121 19
125 121 28
123 120 22
120 116 28
129 123 30
121 116 25
131 126 34
138 132 37
120 116 25
126 121 28
125 120 32
126 123 28
130 126 34
130 125 19
126 124 19
130 129 30
129 129 30
135 134 36
136 137 28
134 137 25
139 144 19
146 151 28
136 144 19
138 145 22
144 151 28
149 157 19
147 157 19
150 160 19
151 162 0
159 174 11
158 172 11
166 181 11
163 179 0
161 176 0
155 170 0
163 179 0
166 184 0
162 179 0
162 178 0
165 182 0
169 187 0
164 180 0
166 185 0
165 182 0
164 180 0
164 181 0
165 183 0
164 179 0
167 187 0
169 189 0
166 185 0
171 191 0
165 184 0
166 185 0
168 185 0
167 186 0
165 186 0
190 210 157
198 217 182
193 212 171
195 215 177
191 211 155
197 216 181
195 215 179
197 216 189
200 219 199
197 217 189
200 219 204
199 218 194
196 216 188
199 218 196
199 218 194
204 222 215
202 221 207
200 219 201
205 223 221
202 221 207
203 222 207
205 224 221
203 222 211
205 224 220
204 223 220
205 224 223
204 223 215
203 221 207
204 223 217
206 224 220
207 225 223
203 222 211
204 223 215
205 224 224
206 224 223
208 226 230
208 226 230
206 225 224
201 220 203
207 225 221
204 222 218
206 224 226
202 221 209
206 224 224
204 222 224
209 227 231
203 221 215
205 224 224
205 223 221
206 224 217
209 226 228
205 223 217
205 224 218
204 223 215
209 226 230
206 224 224
202 221 215
206 224 221
203 222 211
205 223 214
205 223 217
204 222 215
202 220 214
203 221 204
201 219 203
198 217 198
200 219 198
203 221 211
201 220 204
206 223 215
198 217 191
198 217 193
197 216 182
194 213 172
192 210 188
188 207 185
183 202 204
168 186 201
162 181 198
163 182 204
144 165 188
149 169 185
135 157 190
135 157 182
102 129 163
119 143 167
111 135 175
91 120 168
86 116 157
78 110 159
104 131 163
89 119 169
83 113 157
73 105 157
78 109 154
75 107 155
74 107 153
69 103 163
63 98 155
62 98 158
63 99 160
65 100 153
73 105 158
63 97 156
67 101 157
63 98 156
61 97 159
62 98 161
63 97 149
65 100 157
64 99 163
62 98 163
61 96 156
60 96 158
61 97 159
60 95 161
61 96 157
61 97 160
60 96 155
61 97 160
61 97 165
61 97 162
60 96 162
61 96 159
61 98 163
62 98 166
61 97 160
62 98 162
61 97 162
60 96 156
61 96 161
61 97 158
60 96 158
62 98 165
60 96 165
61 97 160
61 97 161
62 99 166
61 97 160
62 98 162
62 99 167
61 97 163
62 98 161
61 97 159
62 98 159
61 98 161
62 98 165
62 98 170
61 97 160
61 96 159
61 97 159
61 97 154
62 98 164
62 98 166
62 98 161
62 98 164
61 98 162
62 98 164
62 98 167
62 98 160
61 97 161
62 98 160
62 97 160
62 98 166
61 98 170
62 98 166
61 97 163
62 98 160
62 98 166
62 99 168
62 98 160
61 97 158
61 97 157
61 97 156
62 98 165
62 98 162
62 98 166
61 97 159
61 97 164
61 97 152
62 98 167
62 98 163
61 98 162
62 98 158
62 98 163
62 98 165
61 97 158
62 98 162
61 97 157
61 97 155
62 99 169
62 98 159
62 98 157
61 97 158
62 98 165
62 98 166
62 98 162
62 98 163
62 98 159
61 97 157
61 97 158
62 97 161
61 97 157
60 96 155
62 98 158
63 99 164
62 98 156
62 98 165
63 99 168
62 98 155
62 98 160
62 98 164
62 98 159
61 97 153
61 97 157
62 98 157
61 97 153
62 97 162
63 98 161
62 98 157
60 96 145
62 98 162
62 98 161
62 97 160
63 98 160
62 98 158
62 98 157
61 97 159
61 97 158
61 97 156
62 98 158
62 98 160
62 97 150
61 96 153
62 97 159
61 96 154
61 96 148
61 97 153
62 97 155
62 97 159
61 97 151
62 98 155
62 98 155
61 97 150
61 96 151
61 97 155
61 97 153
62 97 152
61 96 149
61 95 143
60 95 132
61 96 145
62 97 148
60 94 143
61 96 151
61 96 149
61 96 147
59 94 134
61 96 149
60 94 134
59 93 142
58 91 131
56 88 131
67 85 100
95 100 69
96 99 20
105 105 11
93 93 3
80 79 8
82 81 0
83 80 0
99 97 16
85 84 12
92 91 3
89 86 0
97 94 12
97 94 11
82 81 0
104 101 8
100 98 12
100 97 19
93 90 21
97 95 19
95 94 12
87 86 16
97 95 25
101 100 16
93 91 19
101 99 21
102 98 16
106 103 21
107 103 24
101 98 21
102 99 23
108 107 18
102 100 22
114 113 18
106 104 21
108 105 21
110 108 25
115 112 21
117 114 22
115 112 34
115 113 16
126 123 30
119 116 21
125 120 39
112 109 28
121 119 28
129 125 36
126 121 37
113 110 25
123 118 32
128 124 34
126 122 21
138 132 30
118 113 35
130 125 33
124 119 22
128 124 31
134 129 36
131 126 34
133 127 36
134 129 32
133 129 28
136 131 30
128 122 39
128 124 19
128 123 30
126 121 34
129 124 34
131 126 30
137 132 28
120 116 30
132 128 25
136 129 25
129 125 36
127 121 34
136 131 34
131 125 37
144 138 37
137 131 45
123 119 22
132 127 28
121 116 22
128 122 32
117 111 22
126 121 30
128 122 34
126 121 34
125 120 28
113 107 25
128 124 25
137 133 22
136 134 37
131 128 32
127 123 36
132 129 36
124 125 19
137 136 22
131 131 22
135 138 11
138 145 11
149 155 16
136 142 19
147 152 22
145 153 19
148 158 16
147 158 16
152 162 19
154 166 0
159 172 11
157 170 0
160 176 0
159 174 0
164 180 0
160 174 0
159 174 0
162 180 0
162 177 0
163 180 0
158 171 0
163 179 0
165 181 0
163 180 0
168 185 0
163 179 0
166 182 0
161 178 0
161 178 0
166 184 0
168 185 0
166 183 0
169 188 0
167 184 0
169 188 0
167 185 0
168 187 0
168 186 0
168 185 0
194 213 182
193 213 173
195 214 179
195 214 175
200 219 191
200 218 194
197 217 186
202 221 204
198 217 199
198 217 196
204 222 214
200 219 194
205 223 214
200 219 201
204 223 214
201 220 209
207 225 227
201 221 209
201 220 206
208 226 227
204 223 214
204 222 212
206 224 220
207 225 221
207 225 226
204 222 215
206 224 221
202 221 212
206 225 224
206 224 220
204 222 218
206 224 223
208 226 230
205 224 224
209 227 231
207 225 231
204 223 217
206 224 224
208 227 234
207 225 231
207 225 230
205 224 227
208 226 231
208 225 226
209 226 230
207 225 228
207 225 223
206 224 224
205 224 221
207 224 224
207 225 226
208 226 230
207 225 224
204 222 217
205 223 217
204 222 211
207 225 221
207 225 224
205 223 223
205 224 224
207 225 224
202 221 209
205 223 215
204 222 214
206 224 223
204 223 214
202 220 207
201 220 206
200 219 203
204 221 206
202 221 204
204 222 207
197 216 182
198 216 196
189 209 183
190 209 207
186 205 206
166 186 199
167 186 201
158 177 203
145 166 193
126 149 193
141 162 189
133 156 191
120 143 177
119 143 176
105 130 158
99 127 171
92 120 161
84 114 166
95 123 167
87 117 157
81 111 159
79 110 154
64 98 153
81 112 165
72 105 157
77 108 149
79 109 152
72 104 157
76 108 159
64 98 151
68 102 160
68 102 156
61 97 163
65 99 152
63 99 164
63 98 155
68 103 165
67 102 155
62 97 158
66 100 159
61 98 161
64 99 161
62 97 154
61 97 161
64 99 163
61 98 163
61 97 158
61 97 165
60 96 155
61 97 162
61 97 160
61 98 163
61 97 165
61 98 164
61 97 162
61 98 167
61 97 161
61 98 164
60 96 160
60 96 153
61 97 156
61 97 159
61 97 168
61 97 159
62 98 165
61 96 155
61 97 157
61 96 154
61 97 158
63 99 170
62 98 167
61 97 161
61 97 158
61 97 158
62 97 160
63 99 166
62 98 164
62 98 164
62 98 160
62 98 165
62 98 162
61 97 159
60 97 160
62 98 160
62 98 164
62 98 168
61 98 164
61 97 155
62 98 166
62 98 164
61 97 157
61 98 168
62 98 168
61 97 158
61 97 158
62 99 170
61 97 157
62 98 160
61 97 159
61 97 161
61 97 162
61 97 161
62 98 159
62 98 161
62 98 161
61 97 157
62 98 159
62 98 169
62 98 159
62 98 164
62 97 152
62 98 165
61 97 154
63 99 162
61 97 158
62 97 160
62 99 162
62 99 167
62 98 162
62 98 159
62 98 157
61 97 156
61 97 156
62 98 162
62 98 165
63 99 164
62 98 156
62 98 162
62 98 167
61 97 153
62 98 157
62 98 166
61 97 157
62 99 166
62 97 159
62 98 160
62 98 159
62 97 154
61 97 158
62 98 159
62 97 153
62 97 157
62 98 165
62 97 154
62 98 162
62 98 158
62 98 163
61 97 157
62 98 159
61 97 159
63 99 164
62 97 156
62 98 159
61 97 153
63 98 161
62 98 158
61 97 157
62 97 155
61 97 154
61 97 155
61 96 151
61 97 151
61 96 154
61 96 152
62 97 158
61 97 151
61 97 150
61 97 147
62 98 162
62 97 160
60 96 150
61 96 148
61 96 151
62 97 158
61 96 149
60 95 150
60 95 154
61 97 155
61 97 151
60 95 140
61 96 154
59 93 139
60 95 142
61 96 144
61 96 141
61 95 142
59 93 135
59 93 138
61 96 144
59 93 130
73 98 129
82 96 85
94 102 62
96 97 33
95 95 10
91 89 0
95 92 14
94 93 0
88 86 0
89 88 11
92 89 11
73 71 11
93 91 11
90 87 14
88 85 0
94 90 8
88 87 8
109 105 14
94 91 3
97 94 11
94 92 14
96 93 14
103 100 19
107 104 1
97 93 16
98 96 8
102 101 14
106 102 25
107 106 20
106 104 16
102 99 12
113 110 14
119 115 21
118 113 19
102 99 26
115 112 19
111 109 23
122 118 24
112 109 25
110 108 18
126 123 24
107 104 22
118 114 21
117 112 36
123 119 25
112 108 30
124 119 26
122 119 19
130 125 28
123 120 26
126 121 32
121 118 22
128 124 28
127 123 24
135 130 33
122 117 32
133 129 33
122 116 22
132 127 37
127 123 34
126 122 28
115 112 24
134 128 32
132 127 36
130 126 34
128 122 36
132 129 34
137 132 39
122 118 25
139 132 44
127 121 32
120 116 22
133 126 34
134 128 32
129 125 34
125 122 22
125 121 32
136 130 36
128 123 28
131 126 39
129 125 28
126 121 25
134 129 32
131 126 47
126 120 22
126 122 34
120 115 25
128 122 34
115 110 22
131 124 41
129 126 30
127 125 16
123 120 28
137 134 39
127 124 32
132 131 28
134 134 22
132 135 22
132 139 19
144 148 19
137 139 11
142 152 11
139 144 16
151 159 22
153 162 11
148 158 11
156 164 16
151 161 19
156 167 16
153 167 0
163 180 0
161 173 0
159 172 0
164 177 0
163 180 0
165 181 0
153 168 0
159 174 0
167 184 0
164 178 0
163 181 0
164 183 0
167 184 0
164 181 0
166 183 0
168 185 0
170 189 0
164 181 0
161 177 0
164 181 0
167 185 0
165 184 0
169 187 0
166 185 0
167 184 0
167 183 0
166 184 0
164 182 0
196 216 179
194 213 175
199 218 194
200 218 191
202 220 201
198 218 193
193 213 171
198 217 198
203 221 207
203 222 214
206 224 220
202 221 207
202 221 212
201 220 209
201 220 206
207 225 224
205 223 212
203 222 212
208 226 228
203 222 217
205 224 220
205 224 223
203 221 206
204 223 217
203 221 214
206 225 226
205 223 223
208 226 233
205 224 226
208 226 227
211 228 237
208 226 227
211 228 238
209 227 231
208 225 231
205 223 220
209 226 228
206 224 224
207 225 230
204 223 217
208 225 224
206 224 221
212 229 242
211 228 236
207 224 227
206 224 224
209 227 230
206 224 223
210 228 237
208 226 227
209 226 227
209 226 231
208 226 226
209 227 231
209 227 237
207 225 224
201 220 209
208 226 228
209 227 230
206 224 218
207 224 220
207 225 226
205 224 218
205 223 220
207 224 217
204 222 214
204 222 211
209 226 226
208 225 223
204 222 209
204 222 212
201 220 204
201 219 206
197 216 204
194 212 210
194 212 218
175 194 211
177 196 203
164 184 210
164 184 208
164 183 212
137 158 195
141 163 195
126 150 187
131 153 191
115 139 177
111 137 175
107 133 172
113 138 179
85 115 160
96 124 165
81 112 170
96 123 156
84 114 156
86 115 158
82 113 161
84 114 156
80 111 160
76 107 155
73 106 152
77 109 158
65 99 155
77 109 167
61 97 157
67 101 157
64 99 162
67 101 156
64 99 151
61 98 163
61 97 160
60 96 154
65 100 155
61 98 163
61 97 159
60 95 154
61 97 158
60 97 159
61 97 161
60 96 157
62 98 159
60 95 153
61 97 158
61 97 166
61 97 163
61 97 159
61 96 161
60 96 160
62 98 160
61 97 163
60 95 156
60 95 155
60 96 157
60 96 158
60 96 161
60 95 154
62 98 167
62 98 163
61 97 157
62 98 165
61 97 163
63 99 168
61 97 162
60 97 165
62 98 161
61 97 162
60 96 147
61 98 165
61 97 161
62 98 160
62 98 161
62 98 160
61 97 162
61 98 161
63 99 167
61 98 160
62 98 166
61 98 164
61 97 162
61 97 162
61 96 155
62 98 165
61 97 160
61 97 159
61 97 162
61 98 161
61 97 162
61 97 154
61 97 154
62 98 163
63 99 163
61 97 154
62 98 160
61 97 159
61 97 165
62 97 158
62 99 166
61 98 162
62 98 164
61 97 163
62 99 166
62 98 162
62 99 166
62 98 162
61 97 164
62 98 157
61 97 156
62 98 161
62 98 160
63 99 167
63 99 169
62 98 158
61 97 156
61 97 161
62 98 159
62 98 165
62 98 158
62 98 164
62 98 164
62 98 161
62 98 165
62 98 161
62 98 160
62 98 161
62 98 161
61 97 157
62 98 162
61 97 153
61 97 155
62 98 157
61 97 152
61 97 160
61 97 147
61 97 156
62 98 158
61 97 156
61 97 155
62 97 158
62 98 161
61 97 158
61 97 154
62 98 159
61 97 162
63 99 160
62 98 159
61 97 153
62 98 163
61 97 157
62 98 155
61 97 150
61 97 159
62 97 153
61 96 151
61 96 152
62 97 154
61 97 153
60 96 155
62 98 155
62 97 148
61 97 150
61 95 145
61 97 150
61 96 150
62 97 156
62 97 153
61 96 150
62 97 150
61 96 152
60 95 147
61 96 146
60 94 141
60 95 141
61 97 151
61 95 150
60 95 140
59 93 135
60 95 152
61 96 141
60 94 131
58 92 129
59 92 132
58 91 137
57 91 133
67 92 120
81 95 94
85 91 62
94 94 25
85 85 14
77 79 0
94 93 0
97 99 8
90 87 0
98 97 14
93 89 11
101 97 12
89 86 0
94 92 14
100 99 8
96 94 8
97 93 0
89 85 11
88 85 8
93 91 8
100 99 0
98 95 14
103 100 22
109 106 20
109 104 12
108 104 16
107 104 3
96 93 16
105 101 16
106 104 11
103 100 18
113 108 24
114 110 14
105 100 0
108 106 21
106 103 18
112 108 23
115 111 21
110 106 16
110 108 18
112 111 24
122 118 30
116 114 26
123 119 25
119 115 28
116 112 22
123 119 28
118 114 11
122 119 26
124 120 24
131 126 30
126 122 32
112 108 32
124 120 18
136 131 40
121 117 24
130 125 28
132 127 31
129 125 22
126 121 33
130 125 25
128 124 28
134 130 36
117 111 25
129 124 28
127 123 22
132 126 25
122 117 19
127 123 25
121 116 25
125 121 28
133 128 22
130 127 28
130 126 22
127 122 30
127 123 30
127 122 22
127 121 28
128 124 28
125 120 37
128 124 30
125 119 30
133 128 34
120 116 22
127 122 30
125 120 32
123 118 36
132 128 37
122 117 19
123 120 25
127 124 34
128 125 28
119 116 22
127 124 28
137 137 36
134 136 28
132 134 22
131 134 19
135 138 11
141 145 32
143 147 19
147 153 0
148 156 22
146 153 30
152 161 22
148 157 25
157 170 0
154 165 11
158 169 0
159 172 0
156 169 0
161 174 0
165 179 0
161 176 0
158 173 0
155 167 0
161 175 0
167 185 0
162 177 0
159 175 0
160 175 0
166 181 0
166 185 0
166 183 0
166 184 0
168 184 0
163 178 0
164 181 0
163 178 0
168 187 0
165 184 0
163 181 0
159 175 0
167 185 0
167 184 0
168 187 0
164 182 0
170 190 0
197 217 188
197 216 181
195 215 179
199 218 193
200 219 196
198 217 189
200 219 198
201 219 204
203 221 215
202 221 209
200 219 203
201 220 203
202 221 212
208 226 228
203 221 214
206 225 223
206 224 224
208 225 224
202 221 218
205 223 220
209 227 234
208 226 227
206 224 224
208 226 233
209 227 234
205 224 224
208 226 233
208 225 228
208 225 228
207 225 228
207 225 226
208 226 233
209 227 231
210 228 238
212 229 238
211 228 238
210 227 238
211 228 237
210 227 233
211 228 238
209 226 231
211 228 237
208 226 233
212 228 241
207 225 230
206 224 230
208 226 234
206 224 227
208 226 231
206 224 224
209 226 234
210 227 231
211 229 240
209 227 236
210 227 228
207 225 230
206 224 221
209 226 228
205 223 223
208 226 227
206 224 221
209 226 231
207 225 221
206 223 221
207 224 226
206 224 226
202 220 206
209 226 224
204 222 217
204 223 215
202 220 211
202 220 206
204 222 212
204 222 223
195 214 211
190 208 216
189 207 228
164 183 211
181 199 228
153 174 207
154 174 207
150 170 200
135 157 198
112 137 184
141 162 199
135 158 202
107 133 178
104 130 176
118 142 185
96 124 173
89 118 163
80 112 170
78 109 165
85 115 155
71 104 160
79 111 161
74 107 163
72 104 158
75 108 158
74 107 158
85 115 169
70 103 147
64 99 160
62 98 155
63 98 159
65 100 164
64 98 155
64 99 161
64 99 148
61 98 166
60 96 153
64 99 166
60 96 151
62 96 154
61 96 157
63 99 158
60 95 153
61 97 157
61 97 162
60 96 159
63 99 160
60 96 159
62 98 165
60 96 158
60 95 156
59 95 162
60 96 158
61 97 156
61 97 165
61 97 161
61 97 164
61 97 161
61 97 161
60 96 157
61 97 155
61 96 153
61 97 157
61 97 163
60 97 158
62 98 157
61 97 157
62 98 165
62 98 167
61 97 160
63 99 168
62 97 159
61 97 162
62 98 158
61 97 161
62 98 165
61 97 159
61 98 162
62 98 164
62 97 158
62 98 166
63 99 169
61 98 160
62 98 166
60 97 160
62 98 164
60 96 157
61 97 159
61 97 156
60 96 150
62 99 164
61 97 161
62 98 160
63 98 159
62 98 165
62 98 161
61 97 162
62 98 161
62 98 162
61 96 153
63 100 169
62 98 162
62 98 161
62 98 160
62 98 160
61 98 167
60 96 155
62 98 164
62 99 169
62 98 159
62 98 165
61 97 154
61 97 161
62 98 165
62 98 164
61 97 159
62 98 163
62 98 161
62 98 160
62 99 166
61 97 157
61 96 152
61 96 149
62 98 161
62 98 155
61 97 159
62 98 157
63 99 166
62 98 157
60 97 158
62 99 164
62 98 160
62 98 163
63 98 157
61 97 155
62 98 159
61 97 156
61 97 161
61 97 154
62 98 162
62 97 153
61 97 153
61 97 158
62 98 161
61 96 145
62 98 160
62 98 157
62 97 152
61 97 153
61 97 153
61 97 151
63 98 159
61 97 160
61 97 155
62 97 152
61 96 150
61 97 152
61 96 152
61 96 142
60 96 149
60 96 148
61 96 155
62 98 159
61 97 154
63 98 162
62 97 148
61 97 153
62 97 156
61 97 152
61 96 151
61 96 149
62 98 161
62 97 149
60 95 147
61 96 142
61 96 151
60 95 142
60 95 139
61 97 149
60 94 145
59 94 140
60 94 139
60 94 141
60 94 136
60 93 136
59 92 137
60 94 140
62 93 142
61 85 107
84 98 94
89 95 55
94 97 8
97 98 0
97 98 0
100 102 8
104 106 11
103 103 0
97 94 0
92 93 8
102 102 8
110 109 11
88 87 5
86 83 0
93 90 12
80 78 12
90 88 8
104 100 14
96 92 11
91 90 0
84 82 11
93 89 11
93 91 9
98 94 11
97 94 16
105 101 11
96 93 11
106 101 18
110 106 25
110 107 8
105 102 14
115 111 11
102 100 19
102 99 21
112 108 18
99 96 18
107 104 22
120 116 29
115 110 19
109 107 14
114 112 18
119 116 25
121 117 29
113 109 24
115 111 22
120 117 22
123 118 29
124 120 24
123 119 29
110 106 25
115 112 19
125 120 30
120 116 19
128 122 28
122 117 22
130 125 31
131 127 34
133 129 32
125 120 30
135 130 19
128 124 31
130 126 34
131 126 34
139 133 39
116 112 32
120 115 22
124 118 22
130 126 29
122 117 18
130 126 28
122 118 25
132 126 37
128 123 19
132 128 25
134 130 37
130 124 32
124 118 25
124 119 34
133 127 28
116 112 11
130 124 36
120 116 22
125 121 25
118 115 16
116 111 25
129 124 28
131 124 34
128 123 32
127 124 30
124 121 28
133 132 25
126 124 22
129 128 28
142 146 19
131 133 22
140 146 19
144 149 16
147 152 19
149 155 11
146 154 16
140 147 16
141 149 11
149 159 16
151 160 22
153 164 16
161 174 11
153 163 0
158 172 0
159 171 0
159 172 0
161 178 0
162 175 0
156 170 0
162 176 0
164 179 0
164 178 0
162 178 0
166 183 0
165 181 0
169 186 0
160 174 0
163 181 0
167 184 0
170 188 0
160 176 0
164 181 0
164 179 0
162 179 0
170 190 0
169 187 0
163 181 0
167 184 0
164 182 0
167 185 0
169 187 0
163 183 0
164 183 0
199 218 196
201 220 203
201 219 199
203 222 211
197 217 194
203 222 212
205 223 215
205 223 215
202 220 206
204 223 221
202 221 214
205 223 217
203 222 212
209 227 236
204 223 221
205 223 221
207 225 227
203 222 221
206 224 224
204 222 214
206 224 223
206 224 224
208 226 231
208 225 223
207 225 227
209 227 236
210 228 236
210 227 233
208 226 228
210 228 237
204 223 218
210 228 240
212 229 242
210 227 231
209 226 231
209 227 236
209 226 233
209 226 236
210 227 236
208 225 223
210 227 234
210 227 231
209 226 234
206 224 221
210 228 236
210 227 233
211 228 241
209 226 234
209 226 228
208 226 231
207 224 228
212 229 237
205 223 220
210 227 228
208 226 233
211 228 233
210 228 233
205 223 224
210 228 234
207 224 226
209 226 227
207 225 223
211 228 236
209 226 230
207 225 224
207 225 224
210 227 231
208 225 226
206 224 221
205 223 214
206 224 217
207 224 218
205 223 223
205 223 231
196 214 214
184 202 222
173 192 211
173 192 219
176 194 224
162 181 211
147 168 203
145 166 206
140 161 203
130 153 197
132 154 198
134 156 199
123 146 183
112 136 181
103 129 175
88 118 163
109 135 179
92 120 170
94 122 170
84 114 167
81 111 164
82 112 166
77 108 164
72 105 167
85 115 161
69 103 165
78 109 157
64 99 161
64 99 162
73 105 165
72 105 155
68 102 158
63 98 155
61 97 162
67 102 163
67 101 152
61 97 161
60 96 153
61 97 157
61 98 163
61 97 157
60 95 152
61 97 159
62 98 164
61 97 158
63 99 159
63 99 165
61 97 154
60 96 161
61 97 160
61 97 162
61 97 156
61 97 160
61 97 157
61 97 161
60 95 153
62 98 165
61 98 164
61 97 160
62 98 164
62 98 164
62 99 167
62 98 165
61 97 161
61 97 157
61 97 164
61 96 157
61 97 162
62 98 163
61 97 155
61 98 164
61 97 159
61 97 163
61 97 159
61 97 158
60 96 150
61 97 155
61 97 158
62 98 162
61 97 159
61 98 161
62 98 159
62 98 165
62 98 164
62 98 164
61 97 155
61 97 158
62 98 162
62 98 160
62 98 168
61 97 155
62 98 162
62 97 156
61 97 159
62 98 163
62 98 162
62 98 162
62 98 162
62 98 167
62 98 161
61 97 160
59 95 148
62 98 160
62 98 162
61 97 161
61 98 166
61 97 158
62 98 164
62 97 155
61 97 157
60 96 156
61 97 160
62 98 163
61 97 151
61 97 157
62 98 163
61 97 156
61 97 157
62 98 161
61 97 158
62 98 162
61 97 159
62 98 160
61 97 157
62 97 157
62 98 156
63 98 158
61 97 157
61 96 155
62 98 156
61 96 153
62 98 160
60 96 151
62 98 158
62 97 157
61 97 157
62 97 154
62 97 151
61 97 157
61 97 159
61 97 155
63 99 160
62 98 163
62 98 160
61 97 152
62 97 155
61 97 151
62 98 159
61 97 152
62 98 160
62 98 157
62 98 161
62 98 158
63 98 159
61 96 147
61 96 145
62 97 155
61 96 148
62 98 155
62 97 158
62 98 157
61 96 148
60 95 143
61 96 144
62 97 154
61 97 154
62 98 156
61 97 145
61 96 149
61 96 147
62 98 159
60 95 150
61 96 153
60 95 140
61 96 151
60 94 141
61 97 147
61 96 145
61 95 141
60 95 143
61 95 145
60 94 135
61 95 146
61 95 145
58 92 136
60 95 142
61 96 142
58 90 130
71 93 108
85 94 70
95 100 31
99 100 18
101 104 11
108 107 16
91 91 0
101 100 8
93 92 0
94 92 0
91 87 0
90 89 11
95 90 1
88 87 11
92 90 0
77 76 8
101 95 0
95 92 0
86 83 11
88 86 0
105 100 14
101 98 18
99 95 0
93 90 16
106 102 11
105 101 19
98 94 18
94 91 11
97 93 14
104 99 8
104 100 16
100 98 12
113 110 11
103 99 12
105 102 19
111 108 19
109 105 24
121 118 16
104 100 14
114 111 24
104 99 14
106 103 19
122 118 14
116 110 20
115 110 21
115 111 26
120 114 20
121 117 22
116 111 18
123 118 16
117 112 25
126 122 28
123 119 31
115 113 16
120 115 21
120 116 16
121 116 19
122 118 22
125 119 21
122 117 28
126 122 16
135 128 28
133 128 25
128 123 28
124 120 25
126 122 25
136 131 25
109 105 19
133 127 34
123 118 25
132 127 28
124 119 25
123 118 25
126 122 19
120 114 22
116 111 32
124 120 19
130 125 25
131 126 34
123 118 19
123 118 30
121 116 25
125 120 32
126 123 16
125 121 37
131 128 28
124 122 22
125 122 19
134 131 30
134 132 19
133 131 25
133 134 25
137 136 28
143 146 28
134 135 22
133 135 22
138 143 0
142 148 30
140 146 11
145 151 0
149 156 16
142 151 11
148 158 16
152 161 19
147 155 11
155 168 0
154 167 0
149 161 0
161 174 0
167 183 0
160 175 0
162 178 0
159 173 0
159 174 0
163 178 0
163 178 0
162 177 0
164 180 0
160 172 0
161 176 0
160 175 0
162 177 0
165 181 0
166 182 0
163 181 0
166 183 0
161 177 0
166 183 0
167 184 0
164 183 0
167 185 0
166 182 0
162 179 0
163 180 0
167 184 0
163 182 0
169 187 0
167 187 0
202 220 201
201 220 211
201 220 206
199 218 199
203 222 214
204 223 215
204 222 212
208 225 227
205 223 220
204 223 217
207 225 226
201 220 206
205 223 218
209 227 234
208 226 227
207 225 231
208 226 227
208 225 228
206 224 224
206 224 226
208 226 234
207 225 226
208 226 231
209 227 234
210 228 234
210 227 238
210 227 236
212 228 237
213 230 245
210 227 237
210 228 240
208 226 227
207 226 228
207 225 227
209 227 231
207 225 226
207 225 231
208 226 227
208 225 226
206 224 223
207 225 223
210 227 237
207 224 223
209 226 228
205 223 226
208 225 227
210 227 236
208 225 231
209 227 230
211 228 236
207 224 226
208 225 228
202 220 215
209 226 230
207 224 223
209 227 230
206 224 221
211 228 237
209 227 227
207 224 226
208 226 228
207 224 221
208 225 228
207 225 224
206 223 220
209 226 230
208 225 227
206 223 223
206 224 220
209 226 227
207 224 220
208 225 227
208 226 230
202 219 225
199 216 227
193 210 220
183 201 223
172 191 220
170 189 226
161 181 207
161 181 214
155 175 212
147 168 206
145 166 205
141 162 205
127 150 196
124 148 193
118 142 186
106 132 179
104 130 172
97 124 173
102 129 178
72 105 166
80 111 174
87 117 167
81 112 167
88 117 166
75 107 164
73 105 156
77 109 157
68 102 159
73 106 156
76 108 165
73 105 156
67 101 155
69 103 150
66 101 163
63 98 159
66 100 156
62 96 155
63 99 164
62 97 158
64 98 156
60 96 158
60 96 157
60 96 156
62 97 158
63 99 156
60 96 156
60 96 157
62 97 157
60 96 157
61 97 160
61 97 162
59 95 155
61 97 158
61 97 158
61 98 161
61 96 156
60 97 164
61 97 161
61 97 165
61 97 159
62 98 164
62 98 166
62 99 168
61 97 160
61 97 163
60 96 153
61 97 159
61 97 155
61 97 163
62 98 165
60 97 158
61 96 162
62 98 166
62 98 163
61 97 159
61 97 161
61 97 158
61 97 159
62 98 161
62 98 165
61 97 159
61 97 156
62 98 162
62 98 167
61 97 162
61 97 154
61 97 154
61 97 155
61 97 160
63 99 164
62 98 158
62 98 165
61 97 155
61 97 163
62 98 165
61 97 155
62 98 163
61 98 163
61 97 156
62 97 158
61 97 155
62 98 157
63 99 168
62 97 159
61 97 155
62 98 162
62 98 163
62 98 163
62 98 162
62 98 164
62 98 160
61 97 157
62 98 164
62 98 160
62 98 158
61 97 160
62 98 157
62 98 163
62 98 157
62 98 161
61 97 154
62 98 159
61 97 155
62 98 161
61 96 150
62 98 157
62 98 159
62 97 159
62 97 155
62 97 158
62 97 154
61 97 153
63 98 160
61 97 155
62 98 157
62 97 161
62 98 163
62 98 156
61 97 156
61 97 155
62 98 155
62 98 156
63 99 163
61 97 152
62 98 162
61 97 154
60 96 149
60 96 152
62 97 154
61 97 154
62 97 160
62 98 158
62 98 158
61 96 157
62 97 152
62 97 151
61 97 152
62 97 158
61 96 153
61 97 156
61 96 144
61 97 157
61 97 150
60 96 147
60 94 135
60 95 152
59 94 134
61 96 144
62 97 152
60 95 143
61 96 145
61 95 143
62 97 153
60 95 143
62 98 156
61 96 148
61 96 149
62 97 150
60 94 138
61 96 151
60 95 148
61 95 139
58 92 129
60 94 138
59 93 140
60 94 133
60 94 136
60 95 142
59 89 124
73 92 107
87 94 56
87 89 45
118 120 0
91 90 14
111 112 11
99 100 0
84 82 11
99 97 11
101 100 8
96 92 8
101 100 11
102 101 8
94 90 0
92 91 14
89 87 12
92 90 0
95 92 11
84 82 14
97 93 11
91 87 14
99 98 8
94 90 0
91 87 8
103 100 0
98 94 0
105 102 14
95 92 14
107 102 14
96 93 14
93 89 2
112 108 18
101 96 19
95 92 0
116 111 18
96 93 8
107 104 22
104 101 21
115 110 14
116 112 22
102 98 14
110 108 16
109 106 19
118 112 24
113 109 28
112 109 16
119 116 24
124 119 14
118 114 25
128 123 24
117 113 16
112 108 22
120 116 19
127 122 36
120 116 21
123 118 28
121 117 11
111 108 16
130 125 28
112 109 19
116 112 22
120 115 28
125 119 28
119 115 11
114 110 16
118 113 16
126 121 19
119 114 19
119 115 22
114 110 22
127 122 19
127 121 28
122 118 16
126 121 22
123 119 22
128 123 32
120 114 30
113 108 16
120 113 16
121 116 25
131 126 32
126 122 19
115 110 28
119 114 30
126 123 16
117 111 30
133 134 19
131 128 25
129 129 22
130 131 16
135 132 34
137 141 16
131 132 25
136 137 25
141 141 22
137 142 16
139 143 22
146 151 22
149 156 16
153 161 16
151 158 0
149 159 11
146 155 11
149 158 11
156 169 16
153 168 0
164 182 0
158 171 0
165 180 0
162 178 0
163 177 0
160 176 0
156 170 0
162 177 0
163 180 0
161 177 0
157 170 0
158 173 0
165 180 0
159 175 0
162 179 0
165 181 0
167 185 0
160 177 0
159 176 0
159 174 0
163 182 0
167 185 0
166 185 0
165 182 0
163 179 0
166 182 0
164 179 0
166 183 0
168 186 0
166 184 0
168 184 0
168 186 0
199 218 193
202 221 209
203 222 207
199 218 199
202 221 203
202 221 207
201 220 204
202 221 209
206 223 217
207 226 228
209 226 228
207 225 223
207 225 227
206 225 224
205 223 220
207 225 228
210 227 234
208 226 234
210 227 234
208 226 230
208 226 224
205 223 220
211 228 234
212 229 240
209 226 230
208 226 231
210 228 240
206 224 227
208 225 223
211 228 240
205 223 221
208 226 228
208 226 228
208 225 226
208 225 228
208 226 228
208 225 230
207 225 228
201 219 211
209 227 231
206 224 218
203 220 217
210 227 231
208 226 236
208 225 227
204 223 218
206 224 221
203 221 218
205 223 215
202 221 217
206 224 226
202 221 206
206 224 220
204 221 215
209 227 234
204 223 221
207 224 228
208 225 224
204 223 215
206 223 220
206 223 224
210 227 230
203 222 217
208 225 228
204 222 215
207 224 224
209 226 226
206 224 226
210 227 233
208 225 224
208 225 226
209 227 231
203 221 213
202 219 225
194 212 225
181 200 223
181 199 224
172 191 220
164 184 214
171 190 217
155 175 211
149 170 205
153 173 206
141 163 201
145 167 208
127 150 191
127 150 194
122 146 189
123 146 196
112 137 186
100 127 187
108 134 187
99 126 177
84 114 164
88 117 167
92 121 178
74 107 166
81 111 160
71 105 167
81 112 163
76 108 159
64 99 158
79 111 161
80 111 162
62 98 154
71 105 160
64 98 154
66 101 165
63 98 148
60 96 157
66 101 167
63 98 159
61 97 162
61 97 158
61 96 158
64 99 155
61 97 157
64 98 146
63 99 159
64 100 164
63 98 159
59 95 150
60 95 155
61 97 162
60 95 148
61 97 158
62 99 167
61 97 158
61 97 159
61 97 159
61 97 162
61 97 161
61 97 163
59 95 150
61 97 167
60 96 154
62 98 164
61 97 151
61 97 154
61 97 165
62 98 163
62 98 166
61 97 156
61 97 160
61 97 163
61 97 159
60 96 153
61 98 164
61 97 160
60 96 153
62 98 162
61 98 166
62 98 159
61 96 157
61 97 155
62 97 160
62 98 160
61 97 152
62 98 162
61 97 157
61 98 160
62 98 164
62 98 159
61 97 163
62 98 166
62 98 160
60 96 156
63 99 165
62 98 160
62 99 165
62 98 160
61 97 159
62 98 160
62 98 164
62 98 162
61 97 160
61 97 154
62 98 160
62 98 163
62 98 159
62 98 159
62 98 161
61 97 157
63 98 159
61 97 156
61 96 156
61 98 160
62 98 157
62 98 160
62 98 160
61 97 157
61 97 149
61 97 154
61 97 152
62 98 157
61 97 157
62 98 164
62 98 163
62 98 160
61 97 157
62 98 157
62 97 156
61 97 154
62 98 165
62 98 160
62 97 155
61 97 152
63 99 167
61 97 153
63 98 158
62 98 159
62 98 163
62 98 158
62 97 155
60 95 150
62 98 153
62 97 154
61 97 154
62 98 152
63 99 161
61 97 156
62 98 153
61 97 150
60 96 150
61 97 154
61 96 148
60 96 151
61 96 151
62 98 154
61 96 148
61 96 151
61 97 156
61 97 153
62 98 153
61 96 150
61 97 150
61 96 147
62 97 154
62 97 158
61 96 143
62 97 150
62 98 153
61 97 148
61 96 145
60 96 149
63 98 153
61 96 150
62 97 152
61 97 151
61 96 143
61 96 144
60 95 141
61 96 150
60 95 142
62 97 154
61 96 139
61 96 153
60 95 138
60 94 135
58 92 129
59 92 132
65 92 110
83 98 101
92 101 72
104 106 25
109 111 0
108 109 11
102 100 0
106 111 8
101 102 0
94 95 0
97 98 0
101 97 3
100 97 11
93 95 0
100 99 3
98 94 0
98 96 0
91 89 0
95 93 16
82 82 8
91 87 0
94 91 12
95 90 16
101 96 0
102 99 0
93 89 14
111 106 0
101 96 19
101 98 12
103 100 16
105 101 19
98 96 16
107 104 0
81 80 11
106 102 18
104 101 16
103 99 11
102 97 16
103 100 11
109 104 0
108 104 0
101 97 11
112 109 16
112 108 11
112 109 16
115 112 14
113 108 22
112 109 16
120 115 22
116 111 21
117 112 19
120 113 28
118 114 28
117 112 25
127 121 16
111 107 11
124 119 16
120 115 25
120 117 28
132 127 22
119 113 16
121 116 11
119 116 19
123 117 31
117 113 16
111 107 22
123 120 11
126 122 22
129 123 25
122 116 19
125 120 28
125 120 16
117 113 19
129 122 28
122 117 22
118 113 19
112 107 16
121 114 32
127 122 28
127 122 25
117 113 11
113 108 22
130 127 16
122 117 11
127 126 28
134 130 11
122 120 16
130 127 28
129 128 19
126 125 19
133 134 16
135 136 19
134 138 19
133 136 16
139 141 0
135 138 11
141 145 19
135 141 16
141 143 19
143 150 11
151 160 22
149 158 0
144 152 11
149 157 19
150 160 0
148 157 11
160 174 0
153 165 0
156 167 0
161 176 0
157 171 0
165 178 0
161 175 0
161 174 0
162 176 0
161 173 0
161 178 0
165 181 0
159 176 0
162 179 0
168 183 0
165 182 0
162 181 0
163 177 0
166 182 0
163 177 0
162 178 0
160 179 0
165 182 0
164 183 0
168 185 0
166 183 0
164 181 0
164 182 0
162 180 0
162 180 0
169 189 0
167 185 0
166 183 0
200 219 196
202 221 212
201 220 203
203 222 215
205 223 214
208 225 227
206 224 223
207 225 224
209 227 234
211 228 238
205 224 224
209 227 233
207 224 228
208 225 228
209 226 228
207 225 227
209 227 233
207 225 231
207 225 227
208 226 226
209 226 233
207 225 228
207 225 226
205 223 221
212 229 237
203 221 214
209 226 230
206 224 223
205 223 212
207 224 224
207 225 226
202 221 206
204 222 212
204 223 215
201 220 207
203 222 215
202 221 204
202 221 212
196 215 196
203 221 212
200 218 201
199 218 211
203 221 206
205 222 209
202 220 207
203 221 214
196 215 193
200 219 204
205 223 221
201 219 211
199 218 196
198 217 186
202 221 211
206 224 223
203 221 214
207 225 220
199 218 206
201 219 209
205 223 223
208 225 227
209 227 233
205 223 226
205 223 223
205 223 217
207 224 223
206 223 212
206 224 221
207 225 220
207 224 227
208 225 223
206 223 219
207 224 220
203 221 228
191 210 210
188 206 220
183 201 223
184 203 226
168 187 220
171 190 214
161 180 210
158 178 211
154 175 214
140 162 203
145 166 203
141 162 203
138 160 200
131 154 200
117 142 192
114 139 192
113 138 192
108 134 186
106 132 185
87 117 178
88 118 181
84 114 172
82 113 177
73 105 158
75 107 168
76 108 168
73 106 167
85 114 163
78 109 159
73 105 166
61 97 161
82 112 167
69 102 155
64 99 159
64 99 161
66 100 153
64 99 158
72 105 157
66 100 151
66 100 150
60 96 157
61 96 153
65 100 155
61 96 150
61 97 158
59 95 153
61 97 157
63 98 156
62 97 162
60 96 161
61 97 160
60 95 152
60 96 154
61 96 158
62 98 164
61 97 161
62 98 160
61 97 159
60 96 160
61 97 160
61 97 162
60 96 162
60 96 156
60 96 157
60 96 152
61 97 158
61 97 162
62 99 169
61 96 148
61 97 161
62 98 159
62 98 160
62 98 163
61 97 159
61 97 159
61 97 157
62 98 160
61 97 162
61 97 156
62 98 157
62 98 160
60 95 153
61 97 157
62 97 158
61 98 163
61 97 156
61 97 153
62 98 162
62 98 164
61 97 161
61 97 157
61 97 158
61 97 155
62 98 162
62 98 161
62 98 167
62 98 160
61 98 165
61 97 157
62 97 155
61 97 163
60 97 159
63 98 163
62 98 155
62 98 159
62 98 156
61 97 162
62 98 158
62 99 167
62 97 162
62 97 157
61 97 156
63 99 169
63 99 163
62 98 159
62 98 159
62 98 162
62 98 156
62 97 157
62 97 157
61 97 153
62 97 155
62 98 160
62 98 164
61 97 157
62 98 156
63 99 163
62 98 161
61 97 157
62 97 153
62 98 158
61 97 153
62 97 157
60 96 145
60 96 147
61 97 155
61 96 152
62 98 157
62 98 159
61 97 156
61 97 152
62 98 160
62 97 157
62 98 158
62 97 157
62 97 152
62 98 160
61 96 150
62 98 150
63 99 164
62 98 156
61 97 157
62 97 157
63 99 167
61 97 151
61 96 141
62 97 154
61 97 151
61 97 152
61 97 153
62 97 152
61 97 150
61 97 151
61 96 149
62 97 152
61 97 149
61 97 147
62 97 152
61 96 150
61 97 154
62 97 150
62 97 150
60 95 141
62 97 149
61 95 145
60 95 141
60 94 135
60 95 149
61 95 145
60 95 140
59 95 143
60 94 134
59 93 140
59 94 141
60 94 138
59 93 129
59 93 134
58 91 115
80 101 120
87 104 100
92 101 55
90 92 31
96 97 0
94 97 0
103 105 0
89 91 2
106 108 11
93 91 0
83 85 14
99 99 11
86 86 0
88 87 0
100 99 14
99 96 0
88 87 11
96 93 11
95 91 11
94 93 16
85 83 0
89 83 0
85 81 8
96 91 0
103 98 0
86 83 11
92 90 0
106 101 0
90 86 11
100 96 12
95 91 8
100 97 0
103 100 0
110 106 14
89 85 18
119 113 11
101 97 16
106 102 14
112 108 16
102 99 19
100 95 16
108 104 14
104 101 19
108 103 19
112 108 19
110 107 16
114 111 22
116 112 16
114 110 16
120 116 21
114 110 0
111 106 11
112 108 11
117 114 19
111 108 16
121 114 25
127 122 28
124 119 11
116 111 25
113 109 16
114 110 16
114 109 19
128 124 30
121 115 19
126 121 22
130 123 28
124 119 25
120 115 0
121 115 16
119 116 22
121 115 19
113 108 19
123 118 19
108 102 16
122 118 16
122 115 32
122 117 28
111 107 19
119 116 19
121 118 19
127 125 16
121 117 19
120 115 22
128 127 22
131 128 25
121 119 22
129 127 19
124 122 19
133 132 19
132 134 22
124 125 22
136 139 22
136 139 16
134 136 16
133 135 11
145 151 16
135 140 19
138 145 11
152 161 0
148 156 11
142 150 0
150 159 11
150 158 0
154 166 11
158 168 11
156 166 0
155 168 0
162 175 0
160 173 0
158 171 0
159 172 0
161 176 0
159 171 0
159 173 0
164 179 0
160 175 0
151 165 0
163 177 0
162 178 0
159 173 0
164 180 0
165 181 0
163 180 0
163 177 0
159 175 0
167 184 0
163 181 0
163 181 0
161 178 0
165 182 0
163 180 0
167 182 0
167 185 0
165 184 0
163 182 0
164 184 0
167 185 0
162 178 0
167 186 0
202 221 207
205 224 218
208 225 223
204 222 211
205 223 218
207 224 223
206 224 218
208 226 227
204 223 215
208 226 230
207 225 230
210 227 231
212 229 238
209 226 227
210 227 230
208 226 231
204 222 215
206 224 226
207 224 228
204 222 218
204 222 214
207 224 223
207 224 221
206 224 221
207 224 223
206 224 224
202 219 207
202 220 212
205 223 217
202 221 214
204 222 220
201 219 214
201 221 207
201 219 203
203 221 209
200 219 198
200 219 204
199 218 203
197 216 186
196 216 186
202 220 199
197 216 198
199 218 196
201 219 207
203 221 211
201 220 207
199 218 201
197 216 188
201 220 206
197 216 193
198 217 196
197 216 188
194 214 182
203 222 211
199 219 199
201 220 198
202 221 209
203 221 211
203 222 211
198 217 193
199 218 206
203 220 212
204 222 217
204 221 214
208 225 228
205 223 214
203 220 215
206 224 224
204 222 218
205 223 214
207 224 220
206 224 225
202 220 222
195 213 220
189 207 225
183 201 220
180 198 221
176 195 222
163 182 214
166 186 215
152 173 216
137 160 201
148 169 204
146 167 209
144 166 206
124 148 199
122 146 193
129 152 194
136 159 202
124 148 196
100 127 176
110 136 188
105 132 188
96 124 179
86 116 174
85 115 171
77 109 176
80 111 166
87 117 163
78 110 165
77 109 167
65 100 160
67 101 160
80 111 161
73 105 157
70 103 153
70 104 163
69 103 162
67 101 162
62 97 153
72 103 163
61 97 162
64 99 148
64 98 153
62 97 150
65 99 156
63 97 150
60 96 158
61 97 161
60 95 158
59 95 150
62 98 166
60 96 155
61 97 162
61 97 158
61 96 156
61 97 160
61 97 157
58 93 137
59 95 153
61 97 162
60 96 163
61 97 157
60 96 158
61 97 160
61 96 157
61 96 154
61 97 157
63 99 166
61 97 160
60 96 156
61 96 159
60 96 163
61 96 157
61 97 158
61 96 157
61 97 157
61 97 158
62 98 161
62 98 164
61 97 158
62 98 164
61 98 170
61 97 157
62 98 161
62 97 158
62 98 161
62 98 167
62 98 160
61 97 158
61 97 158
61 97 158
61 97 157
61 98 163
61 97 157
61 97 158
62 98 157
62 98 159
61 97 157
61 97 157
61 97 156
61 97 154
61 97 161
62 97 157
63 98 163
62 98 161
61 97 162
62 98 163
61 97 153
61 98 163
61 97 163
61 97 156
62 98 159
61 98 160
62 97 154
61 96 144
61 97 158
62 98 164
63 99 168
62 98 161
61 97 155
61 97 151
62 98 157
61 97 150
62 98 163
61 97 159
62 97 155
62 97 153
62 97 159
62 98 159
62 97 154
62 98 159
61 97 159
62 98 165
61 97 157
62 97 159
61 97 154
62 98 160
62 97 156
62 98 157
60 96 151
62 98 159
61 96 153
61 97 154
61 97 155
62 98 158
61 97 152
63 99 166
61 97 149
63 98 158
62 98 160
61 96 147
60 96 147
62 98 157
62 97 160
62 98 158
61 97 149
62 97 153
61 96 150
62 97 152
62 97 147
61 95 145
61 96 141
61 96 151
61 97 151
61 97 148
61 97 151
60 96 148
61 96 143
60 96 147
61 97 150
61 96 147
62 97 149
61 97 151
61 96 142
61 97 150
59 94 133
62 97 153
61 96 148
60 95 143
60 95 146
59 94 136
62 97 152
61 96 150
59 92 132
59 94 134
59 93 137
58 92 129
60 95 132
58 91 125
61 94 130
75 97 102
91 105 83
106 114 54
112 116 35
101 102 0
111 112 0
104 105 11
100 100 16
94 95 11
114 115 11
94 96 11
95 97 14
97 100 11
99 97 11
99 100 0
92 90 11
96 94 3
96 94 8
91 89 0
91 88 0
102 97 0
91 89 8
100 96 8
85 81 8
100 96 0
96 94 2
100 96 0
101 99 0
101 96 3
91 87 8
94 92 11
102 97 11
98 94 11
96 93 0
93 89 8
96 93 0
106 102 0
99 94 0
114 109 11
117 114 8
102 98 8
98 95 19
103 101 8
117 112 21
111 108 19
115 112 16
112 109 0
119 113 21
115 110 16
112 107 0
117 112 19
107 103 11
112 108 11
115 111 22
119 114 16
112 107 19
119 115 16
124 121 16
118 113 0
121 116 22
119 115 22
115 110 16
115 111 22
108 104 11
109 104 28
117 112 11
110 105 16
117 113 11
117 113 11
121 116 22
125 119 28
123 118 25
125 120 25
132 125 22
127 121 22
122 118 22
123 116 34
121 117 16
128 125 19
115 112 22
124 118 19
129 126 25
126 122 28
123 121 11
137 137 16
130 132 11
123 124 16
124 122 11
132 134 16
140 142 25
145 147 19
129 132 11
137 139 22
145 150 16
140 145 16
142 148 11
139 146 11
143 149 16
138 145 0
148 156 0
153 166 0
152 163 0
151 162 0
156 168 0
156 166 0
158 171 0
160 171 0
158 167 0
157 170 0
160 173 0
157 171 0
159 174 0
162 178 0
158 172 0
160 175 0
160 175 0
162 177 0
160 175 0
162 177 0
166 181 0
158 174 0
165 182 0
164 179 0
162 176 0
166 180 0
163 179 0
161 178 0
164 182 0
159 174 0
167 183 0
162 177 0
166 184 0
166 183 0
162 180 0
167 187 0
169 187 0
162 179 0
164 182 0
165 182 0
204 222 214
203 222 217
202 221 207
207 225 230
206 224 224
206 224 220
206 224 220
208 225 228
205 223 228
206 223 221
208 225 230
207 225 228
212 229 240
208 226 227
209 226 228
206 224 218
208 226 228
205 223 218
203 222 214
208 225 228
206 224 220
203 221 212
202 221 209
206 224 220
204 222 212
198 217 199
206 224 221
198 217 196
202 220 203
198 217 198
204 222 211
201 220 204
200 219 199
197 216 189
193 213 179
196 216 196
198 217 191
195 216 184
194 214 181
193 213 177
194 214 184
193 213 181
192 212 177
193 213 177
190 211 171
196 215 184
195 215 189
190 211 169
201 220 198
198 217 182
196 216 182
198 217 189
195 214 189
195 214 182
196 215 188
197 217 193
200 219 198
194 214 189
197 217 189
201 220 203
201 220 198
200 219 199
200 219 199
202 221 206
203 221 212
198 217 189
201 219 204
206 223 214
198 217 201
204 222 212
200 219 208
205 223 223
201 218 226
195 212 223
187 204 223
174 193 211
171 190 209
167 187 217
176 195 226
159 179 210
154 174 204
150 171 208
149 171 211
133 156 195
126 149 193
143 165 207
134 156 200
125 149 196
131 154 195
117 142 192
127 150 195
102 129 185
116 141 191
113 138 189
87 117 178
95 123 175
86 116 176
81 112 177
72 105 165
75 108 170
76 108 168
78 109 166
75 107 155
68 102 159
72 105 166
64 98 157
67 101 161
70 103 161
67 101 168
66 100 158
72 104 153
68 101 159
63 98 154
63 98 158
60 96 155
61 97 157
63 98 155
60 96 154
62 97 152
61 96 160
63 98 159
60 96 156
60 95 154
61 97 163
61 97 162
60 96 159
61 97 156
60 96 157
60 96 154
61 97 161
61 97 159
60 95 151
61 97 161
61 97 157
62 98 166
61 96 154
61 97 160
61 96 155
60 96 162
62 99 163
60 95 153
61 97 161
61 96 148
61 97 159
61 97 155
61 97 153
61 97 159
62 98 159
62 98 162
61 97 158
62 97 157
61 98 165
61 97 159
62 98 160
61 97 156
62 98 161
62 97 162
61 97 160
62 98 163
61 97 156
60 96 156
61 97 157
61 97 158
62 98 158
61 97 159
62 98 167
62 98 160
62 98 163
61 97 162
61 96 155
63 99 163
62 98 160
61 97 157
62 98 161
61 97 157
61 97 154
62 98 161
62 98 158
62 98 159
62 98 159
63 99 164
61 97 157
63 99 168
61 97 156
61 97 155
61 97 156
62 98 161
61 98 164
61 97 157
61 96 148
62 98 157
62 98 160
62 98 163
61 97 158
62 98 164
63 99 160
62 98 163
62 98 153
62 97 153
62 98 154
62 98 159
62 97 156
61 97 157
61 97 158
62 98 154
62 97 157
62 98 162
61 97 153
61 96 151
62 98 158
62 99 163
61 97 155
61 96 144
61 96 148
62 97 154
61 97 156
62 98 162
61 97 148
61 97 153
62 98 161
62 97 150
62 98 160
61 97 150
60 96 150
61 97 150
61 97 152
62 98 155
61 97 154
62 98 156
61 97 153
61 97 150
61 97 149
61 96 148
61 97 145
62 98 156
62 98 161
62 98 155
61 96 152
61 96 145
62 98 154
60 95 142
61 96 149
62 97 148
61 96 148
61 97 152
61 96 149
60 95 143
60 94 146
60 95 149
61 96 148
61 95 140
61 95 142
60 95 146
61 96 142
59 93 130
60 93 140
59 93 134
59 92 131
59 92 128
59 92 131
66 95 120
75 96 107
84 97 77
108 115 55
109 116 0
111 113 0
105 105 0
105 109 0
101 103 0
106 106 0
112 113 11
102 106 14
102 104 0
101 100 0
96 99 0
89 87 0
99 101 0
93 92 0
94 92 0
98 95 0
86 85 0
103 102 0
96 93 0
86 81 0
86 82 8
91 87 0
102 98 0
89 85 0
100 95 11
101 99 0
95 92 0
93 89 0
105 99 0
97 94 0
100 97 8
104 99 0
98 94 0
101 96 16
102 99 0
103 99 8
104 100 0
100 97 0
114 110 8
100 96 8
108 103 0
106 102 11
110 107 18
109 105 11
104 99 0
105 102 11
117 110 25
108 103 16
112 108 0
112 106 11
109 103 19
112 108 11
113 109 16
116 110 19
117 113 16
120 114 25
113 108 16
117 112 25
109 107 16
108 104 11
114 110 0
118 112 16
117 112 22
117 111 0
113 109 11
110 105 19
109 107 22
111 106 0
123 119 22
117 113 19
112 109 11
114 110 16
119 115 30
123 119 11
126 121 22
129 126 28
125 121 16
127 126 11
128 125 22
127 124 22
123 121 16
122 122 16
127 126 11
125 125 22
129 131 11
137 138 22
135 136 19
130 133 0
129 131 16
136 139 16
142 148 11
145 152 11
149 155 11
143 150 0
150 157 0
155 166 0
153 161 0
153 162 0
155 162 11
152 162 0
157 167 0
152 162 0
156 170 0
156 166 0
157 170 0
154 167 0
155 167 0
157 172 0
158 172 0
160 172 0
162 178 0
161 177 0
159 173 0
158 170 0
164 179 0
165 182 0
166 182 0
159 172 0
166 181 0
163 177 0
165 179 0
163 178 0
167 184 0
161 177 0
161 177 0
168 187 0
165 180 0
163 180 0
166 183 0
162 181 0
165 182 0
164 181 0
167 185 0
164 184 0
162 180 0
169 188 0
207 225 228
206 224 223
207 225 221
206 224 218
206 224 224
207 225 221
209 226 231
208 225 224
207 225 226
208 226 227
207 225 223
206 224 227
209 227 227
207 225 221
204 222 218
205 224 221
203 222 215
203 221 209
203 221 211
201 220 207
200 219 207
201 220 211
195 214 188
198 216 198
198 217 186
199 219 199
198 218 196
197 216 182
202 220 207
194 214 181
197 216 189
198 218 198
200 219 194
198 218 193
194 214 184
194 214 177
195 215 189
186 207 157
191 212 169
186 206 155
191 212 167
191 211 167
196 215 181
187 208 151
192 213 163
192 213 171
191 211 163
196 215 182
190 211 161
195 215 184
195 214 182
191 211 159
199 218 191
195 215 179
188 208 157
193 213 173
194 214 179
195 215 181
195 215 189
198 217 194
200 218 194
197 216 184
198 217 193
197 216 188
200 219 199
198 217 199
201 219 209
199 218 201
197 215 189
201 219 207
198 216 214
199 217 217
194 213 211
192 210 221
181 199 223
176 195 210
169 188 213
174 193 220
159 179 209
141 163 197
143 165 201
154 174 209
146 167 207
143 164 207
134 157 199
121 145 198
117 141 188
124 148 194
122 146 194
128 152 199
111 137 187
97 125 180
102 129 186
96 124 182
107 133 186
86 116 175
101 128 189
78 110 173
87 116 178
80 111 169
67 101 165
70 104 170
76 108 163
69 102 162
82 112 159
69 103 162
69 103 166
69 102 157
70 103 165
65 99 159
70 103 158
69 102 160
70 103 163
64 98 150
63 98 156
68 102 161
65 100 153
61 97 164
61 97 166
62 97 149
60 95 145
63 98 156
64 98 153
59 94 154
60 96 150
64 99 155
60 96 160
61 97 159
60 96 155
61 97 159
60 95 156
60 96 151
62 97 164
62 98 161
61 98 162
61 96 158
62 98 161
62 98 165
62 98 163
60 95 151
62 98 162
62 97 155
62 98 161
61 97 160
61 97 161
60 95 150
61 96 151
61 97 159
61 97 157
61 97 160
59 95 154
60 96 157
61 97 157
61 97 161
60 96 155
61 97 163
61 96 159
61 96 156
62 98 164
63 99 167
62 98 161
61 97 155
61 97 159
61 97 157
62 98 160
61 96 153
61 97 154
61 97 159
61 97 156
63 99 164
61 97 151
62 98 160
63 99 165
60 96 152
62 98 162
61 97 152
61 97 155
61 97 150
62 98 158
61 97 151
62 98 160
61 97 151
61 97 160
62 97 159
62 98 162
61 97 158
61 97 155
61 97 156
61 96 148
62 97 155
62 98 156
61 97 158
63 99 162
62 98 164
62 98 157
62 97 150
60 96 154
61 97 157
62 98 155
62 98 158
62 98 160
61 97 154
61 97 155
61 97 152
62 98 160
61 97 157
61 97 154
63 99 166
63 99 166
61 97 155
61 97 159
61 96 149
62 97 154
62 98 164
61 97 147
63 99 162
61 97 151
62 97 157
60 96 142
62 97 156
61 97 150
61 96 151
62 98 159
61 96 144
61 97 159
62 97 151
62 98 159
61 97 152
61 96 154
61 96 150
61 97 154
61 96 149
61 96 150
61 96 150
60 95 142
62 97 154
61 96 153
61 96 149
61 96 145
60 95 140
61 96 142
61 96 147
60 96 141
62 97 148
61 95 140
61 96 145
61 96 148
61 97 148
60 95 140
60 95 135
62 97 145
60 95 143
59 93 135
61 96 148
61 95 141
61 95 145
60 95 139
60 93 139
59 94 129
58 91 129
64 94 122
80 99 99
97 111 65
101 109 40
109 114 0
104 109 0
120 126 8
105 108 0
105 106 0
112 113 11
101 102 0
110 112 0
100 100 0
99 99 8
98 98 0
98 97 14
95 94 11
98 98 0
103 101 0
94 94 0
105 101 0
93 94 0
101 95 11
95 95 0
99 97 11
98 92 0
83 81 0
98 93 11
100 95 0
99 94 0
103 100 11
91 89 3
98 95 0
92 87 0
93 89 8
102 98 14
112 108 11
95 91 0
95 90 0
89 83 14
106 103 14
104 99 0
105 99 0
102 97 8
105 101 0
103 100 0
112 107 11
99 96 11
101 97 11
110 107 0
105 100 0
112 108 16
116 110 11
104 100 14
108 103 11
115 110 11
112 106 16
108 102 11
118 111 16
112 110 0
113 107 0
128 124 16
113 108 19
119 113 19
116 112 16
115 110 11
122 117 22
112 107 11
112 106 11
116 112 11
117 113 19
122 116 16
117 113 11
112 108 11
122 115 22
121 117 19
112 109 16
124 120 11
126 124 11
121 119 0
121 116 16
127 124 19
122 119 11
119 117 16
124 125 11
129 130 11
127 130 0
138 138 16
135 137 22
143 148 19
137 143 11
150 152 16
140 143 11
143 145 22
145 149 22
139 146 0
132 137 11
144 150 11
153 165 11
145 152 0
157 167 11
150 158 0
153 166 0
156 169 0
153 164 0
157 171 0
161 173 0
158 172 0
154 164 0
156 170 0
158 168 0
157 169 0
156 170 0
163 177 0
159 173 0
163 181 0
166 182 0
164 177 0
167 184 0
161 174 0
164 180 0
164 179 0
161 179 0
163 179 0
166 183 0
161 176 0
161 176 0
163 176 0
162 177 0
165 182 0
164 181 0
162 179 0
166 184 0
160 176 0
165 183 0
163 180 0
168 187 0
161 178 0
165 184 0
168 187 0
204 222 214
209 227 230
205 223 218
209 227 231
208 226 227
208 225 230
206 224 215
210 227 233
203 221 217
207 225 223
205 223 217
208 226 231
208 226 228
209 226 230
205 223 215
204 222 214
206 224 221
203 221 212
204 222 215
199 218 199
198 217 191
201 220 209
197 216 199
197 216 194
197 217 189
192 213 179
193 213 175
194 214 186
191 211 165
195 214 189
196 216 188
194 214 177
191 211 175
192 213 173
192 212 161
190 211 165
190 210 179
197 216 188
192 212 171
188 209 153
189 210 163
192 213 181
188 209 153
188 208 159
189 209 155
184 205 142
187 207 153
185 206 144
188 210 151
190 211 157
185 207 157
190 211 171
191 211 169
189 210 159
193 213 177
191 211 165
191 211 163
189 210 165
193 213 175
192 212 171
190 210 171
188 208 155
190 211 165
188 209 153
195 214 175
195 215 182
196 215 189
201 220 203
197 216 196
199 218 198
197 216 206
191 210 203
187 206 216
173 192 201
185 204 218
175 193 212
160 181 212
150 171 209
165 184 216
150 171 202
150 172 207
153 173 206
156 177 213
137 159 203
123 147 193
138 160 198
143 164 206
124 147 198
130 153 203
128 150 195
121 145 194
112 137 193
102 128 181
100 128 185
100 126 183
95 123 180
90 119 183
82 113 176
71 104 168
97 125 177
72 105 167
70 103 165
69 103 170
73 106 169
78 109 169
70 103 158
80 110 161
76 108 161
63 98 156
64 99 165
66 100 163
69 102 156
64 98 149
61 96 147
60 95 150
60 96 154
59 95 151
60 96 159
63 98 158
61 97 161
61 96 156
63 98 155
63 99 158
61 97 156
59 94 148
60 96 155
60 96 154
61 97 162
61 97 157
60 96 154
61 96 160
59 94 148
61 97 156
60 95 150
62 98 163
60 95 153
61 96 159
60 96 150
60 96 154
61 97 154
60 96 158
62 97 163
61 97 160
61 97 159
59 95 145
61 96 154
61 96 155
62 98 162
61 97 158
60 96 157
61 97 160
62 98 155
62 98 164
62 98 161
62 97 154
62 98 163
60 95 150
60 96 154
62 98 160
61 97 160
61 97 155
61 97 162
61 97 158
61 97 159
61 97 159
61 97 158
62 98 161
61 97 155
61 96 161
62 98 159
62 98 153
61 97 160
62 98 160
62 98 162
62 97 162
61 98 162
62 98 158
61 97 158
62 97 153
63 98 159
62 97 152
61 97 153
61 97 156
60 95 145
61 97 154
61 97 156
62 97 156
62 98 157
61 97 158
61 97 157
63 99 165
61 98 163
62 97 153
62 98 159
62 97 151
62 97 156
61 97 149
62 97 155
61 97 158
62 98 159
61 97 155
62 97 156
61 96 155
62 98 155
62 98 155
62 98 159
63 98 160
61 97 151
62 98 155
61 97 149
61 97 148
61 96 151
61 97 153
61 96 152
62 98 157
62 97 154
61 97 154
60 96 145
61 96 153
61 96 152
60 95 147
62 97 153
62 98 155
62 97 154
61 96 151
61 97 147
61 96 143
61 97 151
61 96 149
62 98 159
62 97 154
62 98 152
61 96 152
61 96 145
62 97 153
61 97 153
61 96 145
60 95 150
61 96 148
62 97 149
62 97 150
62 97 147
60 96 148
62 97 157
61 96 140
60 95 145
61 96 140
61 96 148
62 97 144
61 96 144
60 95 138
60 94 138
60 95 147
61 95 134
60 95 140
59 94 134
59 93 136
60 94 136
59 92 136
58 91 127
65 94 122
93 109 91
102 110 68
104 107 26
114 118 11
99 103 0
112 116 0
108 110 0
97 98 0
101 103 0
113 116 0
95 97 0
115 115 11
111 112 0
89 90 0
107 103 11
99 98 0
94 90 11
95 93 0
96 95 0
100 97 0
96 93 0
92 88 0
99 97 0
103 98 0
84 80 0
99 95 0
100 98 0
97 92 0
94 93 0
97 94 0
102 98 0
97 94 0
98 92 0
89 86 0
102 98 0
100 97 8
104 99 0
98 95 0
98 94 0
102 97 0
102 96 0
110 104 0
97 93 0
97 93 0
102 96 0
111 107 14
106 103 0
107 103 16
101 96 16
90 87 11
107 103 11
108 103 11
112 108 0
108 105 0
113 108 11
116 112 0
117 112 11
114 110 0
102 97 11
112 109 11
123 118 16
127 121 19
110 106 11
110 105 11
117 114 19
120 115 16
119 113 11
119 114 0
108 103 11
116 110 16
125 119 16
117 110 16
124 121 11
113 109 16
119 116 11
110 107 11
121 119 19
122 116 19
124 120 11
127 126 11
118 117 19
122 120 22
131 130 11
129 128 16
134 135 16
125 126 0
133 137 11
128 131 11
135 138 11
132 137 16
135 139 16
137 142 0
143 150 0
139 143 0
149 155 16
150 156 11
151 160 0
152 163 0
154 163 0
153 161 0
149 159 0
153 164 0
153 165 0
153 162 0
151 161 0
160 172 0
160 173 0
151 161 0
156 166 0
164 180 0
160 172 0
156 169 0
158 170 0
163 176 0
158 171 0
165 177 0
165 179 0
163 179 0
164 178 0
166 180 0
160 176 0
163 178 0
166 181 0
161 176 0
159 175 0
161 176 0
169 187 0
159 176 0
162 176 0
162 179 0
167 185 0
167 186 0
165 182 0
167 186 0
167 185 0
166 184 0
169 189 0
167 187 0
162 180 0
210 227 231
210 227 234
206 224 223
209 226 223
208 226 231
202 221 209
204 222 218
207 225 223
206 224 227
203 222 215
204 222 218
204 222 224
202 220 207
202 221 211
202 221 203
200 219 203
198 217 191
195 214 193
196 215 193
193 213 191
198 217 186
197 216 193
197 218 203
199 218 193
197 217 188
191 212 171
195 214 173
191 211 169
189 210 163
192 213 173
186 207 149
187 208 155
192 212 169
189 210 159
185 206 142
184 206 135
183 205 147
186 207 149
186 208 155
187 209 142
187 208 149
188 209 153
188 209 151
187 208 142
186 207 137
187 209 153
187 208 149
187 208 151
189 209 155
186 207 140
187 208 149
188 209 153
191 212 161
185 207 130
188 209 159
188 209 155
188 209 157
188 209 157
194 214 171
180 202 125
190 211 165
188 209 163
194 214 181
189 209 163
191 212 165
194 214 171
195 213 181
193 212 171
192 212 175
186 207 167
189 209 188
180 199 194
176 195 194
171 190 207
167 187 194
162 181 207
162 182 209
149 170 196
153 174 202
161 181 210
148 170 199
149 171 207
132 155 192
139 161 197
134 157 198
127 150 199
118 142 187
137 159 201
118 143 192
126 150 195
111 136 185
111 137 191
97 125 179
90 120 181
100 127 188
105 131 187
95 123 176
82 113 179
84 114 171
92 120 173
65 100 167
73 106 174
68 102 165
72 105 165
65 100 169
76 108 169
66 101 161
67 101 170
77 109 161
73 105 158
65 99 159
67 100 159
67 101 161
67 102 168
62 97 153
64 99 155
62 98 162
60 96 156
61 96 157
61 97 153
62 97 153
59 95 156
63 98 150
62 97 150
61 96 151
60 95 147
59 94 159
61 96 149
59 95 148
61 97 155
60 96 151
60 96 152
61 97 162
60 95 150
60 96 149
61 97 151
61 96 159
61 97 155
62 98 161
61 96 158
61 97 163
62 98 161
60 95 149
60 96 152
61 97 160
62 98 164
61 97 157
61 97 154
60 96 156
62 98 162
61 97 160
60 96 153
61 97 155
61 96 154
60 96 152
61 97 164
61 97 151
61 97 158
60 96 152
62 98 161
61 96 151
61 97 157
62 97 160
61 97 157
62 98 163
62 97 159
62 98 156
62 98 164
62 98 160
61 97 153
62 97 162
61 97 152
61 97 156
61 97 156
62 98 161
62 98 158
62 98 158
61 96 154
61 97 158
62 98 159
61 97 151
61 97 151
62 98 157
61 97 152
61 97 156
62 97 154
60 96 150
62 98 165
61 97 161
61 97 156
61 97 154
61 96 152
61 97 149
62 98 162
61 98 160
61 97 157
61 97 151
62 97 157
63 98 160
61 97 157
61 97 153
61 97 156
61 96 150
62 97 161
62 97 155
62 98 160
62 98 159
62 98 156
62 98 157
61 97 150
61 97 154
62 98 163
60 96 151
61 97 155
61 97 154
62 98 155
61 96 149
63 99 164
61 97 154
61 97 162
61 96 147
61 97 152
61 96 143
62 97 155
61 97 156
60 96 143
61 96 150
62 97 152
61 97 153
61 96 147
61 96 145
61 96 142
61 97 152
61 96 150
60 95 141
61 96 150
60 95 143
61 96 153
61 97 154
59 94 139
61 96 144
61 97 149
61 97 149
62 97 154
61 96 151
61 97 149
60 95 143
60 95 148
61 95 143
60 95 141
60 94 138
61 95 141
60 95 137
59 94 139
59 94 139
61 95 142
59 92 132
58 92 133
59 93 130
58 92 128
73 98 113
93 105 78
103 111 52
106 110 25
99 104 0
112 113 0
114 119 0
106 111 0
102 104 0
119 123 11
99 101 0
110 111 0
103 103 11
104 105 11
101 100 0
91 90 0
104 101 0
108 107 0
106 107 0
102 100 11
89 86 8
88 86 0
98 98 0
94 92 0
90 88 11
103 100 11
92 91 0
101 99 0
95 90 0
98 92 0
91 88 0
103 99 0
99 92 11
98 94 0
94 90 0
110 106 0
96 91 0
96 93 8
107 102 11
94 90 0
99 96 14
103 99 0
111 107 11
98 95 0
96 93 0
108 103 0
113 109 11
101 97 11
95 89 0
102 98 0
114 107 11
112 108 11
108 102 0
109 103 0
111 107 0
112 106 11
104 100 11
112 109 11
98 94 21
102 96 11
113 111 0
118 112 19
109 105 11
116 110 11
110 106 0
117 111 16
118 114 0
131 128 16
109 106 19
109 106 19
121 117 0
122 118 25
123 122 16
120 116 19
119 116 11
127 124 22
112 107 0
126 124 11
130 127 19
135 135 19
129 131 0
123 120 0
124 124 11
135 137 19
133 134 0
122 119 0
131 132 11
139 143 0
144 149 0
137 141 11
139 145 11
143 150 0
137 145 11
145 149 0
144 152 0
149 155 11
154 161 0
152 160 0
153 163 0
155 165 0
155 166 0
156 168 0
158 170 0
151 161 0
156 167 0
156 169 0
158 170 0
155 167 0
155 165 0
156 169 0
162 173 0
159 174 0
160 175 0
164 176 0
158 172 0
166 183 0
158 171 0
164 179 0
158 173 0
152 166 0
165 181 0
161 179 0
164 180 0
163 180 0
155 167 0
157 171 0
162 177 0
160 175 0
157 172 0
165 181 0
163 178 0
166 184 0
167 184 0
162 177 0
158 175 0
169 187 0
167 185 0
167 185 0
166 184 0
164 181 0
208 225 226
205 223 218
204 222 214
208 226 227
207 224 223
204 222 214
203 221 212
205 223 218
202 221 207
201 220 209
203 221 203
203 221 209
198 218 196
201 220 203
199 218 201
196 215 189
197 216 186
193 213 186
196 215 182
197 217 191
196 216 189
189 210 163
195 214 177
192 211 171
190 210 157
186 208 144
196 215 184
188 210 155
192 212 171
187 208 157
184 205 130
183 205 128
188 209 153
183 204 135
189 210 153
186 207 137
180 202 137
184 206 130
188 209 144
184 205 137
183 205 128
184 206 128
186 208 157
186 207 135
186 208 137
180 203 128
186 208 133
183 204 125
185 207 133
179 201 111
184 205 114
183 205 135
182 204 133
187 209 144
183 206 135
186 208 144
186 208 147
183 204 128
177 199 125
185 207 147
185 206 140
186 207 135
187 208 140
183 204 130
187 208 151
191 211 163
190 210 167
189 210 157
191 211 165
184 205 163
174 195 175
167 188 174
171 190 196
155 176 186
159 179 204
159 179 205
155 176 207
155 175 204
154 174 205
136 158 202
136 158 191
151 173 203
136 159 198
136 159 193
143 165 200
136 159 195
134 156 199
129 152 200
126 150 194
115 140 194
116 141 193
112 138 192
122 146 191
101 128 188
100 127 186
103 130 187
104 130 186
93 121 179
85 115 181
93 122 183
83 113 173
70 104 174
68 102 171
69 103 165
70 104 168
74 106 167
73 105 162
75 106 161
71 104 159
72 105 164
64 99 164
68 102 167
68 101 156
64 99 161
63 98 149
61 97 165
60 96 159
63 98 154
60 96 152
60 95 153
60 95 149
61 97 161
61 97 165
62 97 157
59 95 154
63 98 155
62 98 165
60 96 158
61 97 156
60 96 155
61 96 155
61 96 152
62 98 165
59 94 151
60 96 152
60 96 150
61 96 155
60 96 154
61 96 155
61 96 159
60 96 154
60 96 153
62 98 158
61 97 157
62 98 162
62 97 159
61 97 162
62 98 164
60 96 155
61 97 159
61 97 159
61 97 157
62 98 157
61 97 160
62 99 168
61 97 157
61 96 148
61 96 149
60 96 154
61 97 154
61 97 157
61 97 157
61 97 156
62 98 160
60 96 151
60 95 147
61 97 161
62 98 165
62 97 151
61 97 162
61 97 154
61 97 157
61 97 149
63 99 161
61 97 151
62 98 159
60 96 158
61 97 154
61 96 150
61 96 156
62 98 155
62 98 159
61 96 152
61 97 158
61 97 152
61 97 155
62 98 157
62 98 159
60 95 150
62 98 157
62 98 155
61 97 158
61 97 149
61 97 153
62 97 158
61 97 155
61 97 155
61 97 151
62 97 150
62 97 159
61 97 152
62 97 149
62 98 161
61 97 151
62 97 154
61 97 154
62 97 152
61 97 150
61 97 155
61 96 152
61 97 151
61 97 148
61 97 155
61 97 151
61 97 155
60 95 142
61 97 153
61 96 148
62 98 152
62 98 156
62 97 152
61 96 151
61 96 149
62 97 149
62 98 162
61 97 154
61 97 147
62 97 148
61 96 148
60 95 144
61 96 147
62 98 155
62 97 151
61 96 147
61 97 150
61 97 151
61 96 148
61 96 148
62 97 152
60 94 144
62 97 151
60 96 144
60 95 141
60 95 143
60 95 139
61 96 145
60 96 143
61 96 148
61 96 144
60 95 144
61 95 145
61 95 141
60 94 135
59 94 129
60 94 137
58 92 130
60 94 131
59 93 125
57 88 126
59 89 119
81 99 106
98 109 79
112 119 57
113 118 0
110 113 0
115 119 0
113 118 0
102 107 0
107 112 0
97 103 0
108 110 0
94 95 0
121 124 0
100 100 0
101 103 0
106 106 11
99 99 0
98 98 0
98 97 0
113 112 0
105 105 0
94 91 11
101 100 0
101 100 0
89 90 0
101 99 0
102 98 0
89 84 0
97 93 8
97 95 0
95 94 0
109 108 0
98 96 0
84 83 0
103 98 0
97 93 0
101 99 0
97 94 0
94 88 0
103 98 3
94 91 0
94 88 12
87 85 0
95 90 0
93 89 0
100 95 0
93 90 0
105 100 14
112 109 0
102 99 0
112 109 0
109 106 11
110 106 0
109 106 0
109 104 16
107 101 11
106 102 0
115 109 0
114 109 8
116 112 0
113 109 19
105 98 0
112 108 0
105 100 16
109 104 16
107 102 0
118 113 11
103 100 11
109 105 22
114 109 19
118 116 0
114 110 0
128 126 19
122 121 19
127 124 11
121 119 11
121 119 0
126 125 0
130 130 19
123 123 11
136 137 11
132 133 0
128 128 0
121 121 19
137 140 11
132 133 0
136 138 19
135 139 11
140 144 11
139 145 11
145 150 11
144 150 0
145 151 0
145 153 0
146 153 0
149 154 0
150 161 0
152 162 0
148 155 0
153 163 0
154 166 0
148 158 0
149 158 0
154 162 0
151 162 0
157 168 0
153 164 0
154 165 0
165 179 0
152 163 0
156 171 0
155 164 0
158 173 0
166 181 0
158 172 0
159 172 0
162 176 0
158 171 0
160 175 0
160 176 0
163 179 0
161 174 0
159 174 0
166 184 0
157 173 0
162 179 0
165 181 0
168 187 0
162 177 0
165 183 0
161 177 0
163 178 0
162 178 0
161 178 0
164 181 0
164 182 0
162 176 0
166 183 0
163 182 0
162 180 0
206 224 220
208 225 221
202 220 211
205 223 223
205 222 218
205 223 217
201 219 201
205 223 214
204 222 220
197 216 188
200 219 207
198 217 196
194 214 184
198 217 193
192 212 171
194 214 167
198 217 189
195 215 182
187 208 159
192 212 171
192 212 173
188 209 157
186 208 157
191 211 161
187 209 151
189 210 147
188 209 155
184 206 142
185 206 142
184 206 144
184 206 140
186 207 153
185 207 133
180 203 122
185 207 137
180 202 120
185 206 128
180 202 117
182 205 125
181 204 114
184 205 128
172 195 92
175 198 111
179 201 114
179 201 105
182 204 133
180 202 120
178 200 105
179 201 111
182 204 122
183 205 125
184 206 122
180 203 117
180 202 108
185 207 133
177 200 102
184 206 135
180 203 122
181 203 120
177 200 99
183 204 125
181 204 128
185 205 117
183 204 133
184 205 140
187 208 142
184 206 142
189 210 155
185 206 148
179 201 145
173 194 165
172 192 169
161 181 173
167 187 195
173 192 217
150 170 197
150 171 195
140 162 184
151 172 191
147 169 199
129 151 194
140 162 200
122 147 184
124 149 183
126 150 181
133 156 190
114 139 183
118 143 191
126 150 192
109 134 187
108 134 188
99 127 177
103 130 181
99 126 183
108 134 190
104 130 186
96 124 181
103 130 187
97 125 179
97 125 184
95 123 180
93 121 181
71 104 168
68 102 173
76 108 166
72 105 165
64 99 163
71 103 162
65 99 156
66 100 159
72 105 163
66 100 161
66 100 162
70 103 162
63 98 158
62 98 156
62 96 145
60 95 151
60 95 155
62 97 151
60 96 154
66 100 153
60 95 154
61 97 157
60 96 155
60 96 156
61 97 157
63 98 160
61 96 156
61 96 157
60 95 155
60 96 153
61 97 158
61 96 150
61 96 156
61 97 154
59 95 150
60 95 148
60 95 154
61 97 155
60 95 157
61 97 157
62 97 153
61 97 160
61 97 155
61 97 161
62 98 166
61 97 162
61 96 156
61 97 154
61 97 151
61 97 158
61 97 158
61 96 152
61 96 151
61 97 155
61 97 156
62 98 158
60 95 151
61 98 162
61 97 160
61 97 151
61 97 157
61 96 150
61 97 151
62 98 165
61 98 159
61 97 156
60 96 153
62 98 159
61 97 151
62 98 157
63 98 159
62 97 151
61 97 152
61 97 154
61 97 149
61 97 160
62 98 162
61 97 159
61 96 147
61 97 157
61 97 160
62 98 162
62 98 160
62 98 160
61 97 159
62 97 148
62 97 161
61 97 150
60 96 148
61 97 150
62 97 150
62 97 152
61 97 156
61 96 147
62 97 152
60 96 151
61 97 150
61 97 149
62 98 157
61 97 153
60 96 153
63 99 161
61 97 148
61 97 156
62 98 158
62 98 154
60 96 151
61 96 148
61 97 152
62 97 150
61 96 144
61 97 150
61 96 149
61 97 155
61 96 148
61 97 153
60 96 147
61 97 155
61 96 144
62 97 151
61 97 151
60 96 145
61 97 154
61 96 144
62 98 156
61 96 143
61 97 148
62 98 159
61 96 148
61 97 152
62 97 154
61 96 149
61 97 147
61 97 148
61 97 156
61 96 144
61 96 147
60 95 140
61 97 147
60 95 139
60 94 136
60 95 143
60 95 141
59 94 138
61 96 154
60 95 134
61 96 142
61 96 148
60 95 139
59 93 133
60 95 136
60 94 128
59 93 132
60 94 135
60 93 135
60 93 131
58 91 120
64 96 131
85 105 104
106 118 76
119 127 42
121 126 0
110 116 0
101 105 0
110 116 0
117 118 0
106 111 0
115 118 0
100 103 11
115 119 0
116 118 0
98 104 0
104 104 0
96 98 11
113 116 0
102 102 0
109 110 0
102 103 0
96 96 0
94 93 0
102 98 0
96 94 0
102 98 0
87 87 0
89 86 0
98 97 0
99 95 0
91 87 0
102 98 11
86 83 0
95 91 0
97 92 0
90 85 0
109 104 0
105 102 8
104 98 0
104 102 0
99 95 0
101 100 0
95 92 0
94 89 0
98 95 0
116 112 0
104 98 0
109 102 0
111 105 0
106 101 0
105 101 0
105 103 11
104 98 11
112 109 11
101 97 8
104 99 0
94 88 0
108 103 11
103 100 11
119 115 0
112 108 16
117 112 16
99 96 11
124 120 14
106 103 11
112 111 0
122 116 11
121 117 11
122 120 11
113 111 11
117 117 0
118 116 11
118 114 0
121 118 0
108 109 0
124 122 0
114 111 11
128 128 11
124 124 0
130 129 22
130 133 11
124 124 16
135 136 11
133 135 11
133 134 11
136 139 19
134 137 16
133 138 0
137 141 0
135 140 0
145 152 0
141 149 0
149 158 11
152 159 0
148 155 0
149 156 0
150 158 0
152 160 0
150 161 0
155 166 0
153 163 0
160 172 0
161 174 0
157 169 0
157 168 0
157 168 0
160 173 0
156 168 0
160 174 0
157 171 0
157 168 0
159 174 0
158 172 0
163 177 0
163 179 0
163 177 0
167 178 0
160 175 0
157 171 0
165 184 0
166 180 0
159 171 0
159 174 0
159 170 0
160 174 0
167 185 0
161 178 0
156 172 0
161 176 0
163 180 0
160 176 0
166 185 0
158 173 0
167 186 0
164 181 0
165 182 0
165 182 0
161 179 0
158 176 0
166 184 0
167 185 0
204 222 221
203 221 209
203 221 211
205 223 215
207 225 224
203 221 207
202 221 206
200 218 203
199 218 196
196 215 184
194 214 194
199 218 189
198 217 191
194 213 182
194 214 182
190 211 157
196 216 182
187 208 169
192 213 167
188 209 159
186 208 137
182 204 130
182 205 133
186 207 144
186 207 149
186 207 147
186 207 140
176 200 95
180 202 114
182 204 144
181 203 120
178 200 122
180 202 111
178 200 111
175 198 76
177 201 122
179 201 99
176 200 84
174 197 95
176 199 102
177 200 92
179 202 114
172 196 76
180 202 105
178 200 95
183 204 120
177 199 95
178 200 99
178 201 99
180 203 111
179 201 88
179 202 102
175 198 76
175 198 92
181 203 114
178 200 108
178 201 95
173 195 72
180 202 108
183 205 114
180 202 92
175 197 105
184 206 120
179 201 105
180 202 125
184 206 128
180 202 122
186 207 154
183 204 145
179 201 153
176 196 173
171 192 159
135 159 165
139 161 184
137 160 187
139 161 182
143 165 190
146 168 199
136 158 184
139 161 187
133 156 190
139 161 195
136 158 190
129 153 189
134 157 197
115 140 188
123 147 184
110 136 177
117 141 188
121 146 197
104 130 181
105 132 187
91 121 182
104 131 192
107 133 188
108 134 188
102 129 189
109 134 182
93 121 183
103 130 182
93 122 178
87 117 180
90 119 177
79 110 172
70 103 169
67 102 163
72 105 165
65 100 168
68 102 167
67 101 158
72 105 165
74 106 162
71 104 159
66 100 159
65 99 156
61 97 160
63 98 157
61 97 157
60 96 155
63 98 157
63 98 158
60 95 155
65 99 152
60 96 157
61 96 155
61 97 155
60 95 149
60 96 155
60 95 155
61 97 157
61 97 158
60 95 157
60 95 154
60 95 155
62 98 165
60 95 149
61 97 159
60 95 144
60 96 150
60 96 148
61 97 154
60 96 154
60 96 151
61 96 154
61 96 150
60 95 139
62 97 153
62 98 163
61 97 160
59 95 156
62 97 159
60 96 153
62 97 157
60 95 144
60 96 150
60 95 150
62 98 167
61 97 159
61 96 150
60 96 145
62 98 156
61 97 157
61 97 149
61 97 155
61 97 157
62 97 159
62 98 159
61 97 162
61 97 155
61 96 149
62 98 158
63 99 164
62 98 165
61 97 156
61 97 150
62 98 155
61 96 149
61 97 156
62 97 150
62 98 156
62 98 164
61 97 154
62 98 165
62 98 162
61 96 152
61 96 151
60 96 147
61 96 148
62 98 155
62 98 165
61 97 161
62 98 164
61 97 160
61 97 150
61 97 150
61 97 151
62 97 150
61 96 151
61 97 153
61 96 153
61 96 156
61 96 156
62 98 153
61 97 158
62 97 155
62 98 155
61 96 144
62 97 151
60 96 144
61 97 148
61 97 154
61 96 149
61 96 144
61 96 145
61 97 150
61 96 152
61 96 145
61 96 154
62 98 159
61 96 148
62 97 152
61 97 148
62 98 158
61 97 151
60 95 139
61 96 151
61 97 149
60 95 137
61 96 148
61 97 151
61 97 153
62 98 155
61 96 147
61 96 149
61 96 147
61 96 143
61 96 145
61 96 143
62 97 153
61 95 150
60 95 140
61 96 141
61 96 149
60 95 140
61 96 150
61 95 141
60 94 124
60 95 134
61 96 145
60 94 141
61 95 141
59 93 131
61 96 146
60 94 138
57 90 114
59 92 130
59 93 134
60 94 131
59 93 123
71 97 110
83 98 85
101 115 60
108 113 37
113 121 0
116 123 0
119 124 0
110 115 0
112 120 0
113 117 11
125 129 0
113 117 0
112 117 0
109 112 0
116 119 0
117 118 0
110 113 11
96 96 0
100 98 0
101 99 0
101 99 11
107 106 0
103 106 0
97 96 0
92 94 0
108 107 0
103 103 0
97 94 0
103 99 0
96 94 0
102 100 0
104 101 0
97 96 0
101 100 0
85 82 0
101 99 0
87 83 0
106 103 0
107 103 0
102 100 0
106 103 0
101 97 0
107 104 0
103 98 0
105 98 0
115 109 0
108 103 0
105 103 11
102 96 0
94 92 0
106 103 0
96 91 0
99 94 0
105 101 0
118 113 0
112 110 11
105 98 11
105 100 11
120 115 0
117 113 11
101 98 0
119 117 0
105 98 11
113 111 19
116 115 11
109 107 16
108 106 0
121 117 0
123 124 0
124 122 0
114 114 0
124 124 19
114 113 16
125 121 11
125 124 16
124 122 11
120 122 0
121 120 16
122 121 11
132 132 11
133 134 11
132 134 11
137 140 11
133 136 0
129 128 16
139 144 16
137 142 0
141 146 0
139 142 11
143 148 16
138 144 11
147 154 0
144 152 0
152 159 0
155 163 0
149 158 0
145 154 0
150 161 0
153 163 0
155 165 0
157 167 0
154 164 0
155 164 0
153 164 0
154 167 0
156 166 0
160 172 0
153 165 0
158 171 0
157 169 0
157 171 0
160 173 0
158 172 0
159 172 0
161 175 0
164 178 0
158 172 0
160 173 0
160 175 0
160 175 0
164 180 0
165 182 0
159 175 0
164 180 0
157 173 0
163 180 0
165 182 0
161 177 0
164 183 0
162 178 0
162 177 0
160 176 0
163 179 0
164 182 0
163 180 0
163 179 0
165 182 0
160 177 0
167 185 0
166 182 0
166 184 0
203 222 211
204 222 214
205 223 212
200 219 194
203 221 207
204 222 207
198 218 193
199 218 196
194 214 177
193 213 169
196 216 191
191 211 167
189 210 167
190 210 159
189 209 151
190 211 163
185 207 149
190 211 157
187 209 147
188 210 153
185 207 133
186 207 149
183 204 122
179 201 108
182 204 117
181 203 102
182 204 122
178 200 105
177 200 102
180 202 120
179 202 108
177 200 92
176 200 99
177 200 95
175 198 76
180 203 99
179 201 105
173 196 76
172 196 80
176 199 95
176 199 84
172 196 72
175 198 84
175 199 62
174 197 76
177 199 88
177 200 99
171 195 88
177 199 84
172 196 72
178 200 99
177 200 80
177 199 95
174 197 80
175 199 67
177 201 114
176 199 84
172 196 67
174 198 76
179 201 92
174 197 84
179 202 92
180 202 117
182 204 117
180 202 114
179 202 102
180 202 114
178 201 105
182 204 144
174 196 137
159 181 139
155 177 158
136 159 163
126 150 176
144 166 184
143 165 181
125 148 178
132 155 170
114 140 169
142 164 181
133 156 189
132 155 188
136 159 193
122 145 181
138 161 188
123 147 192
124 148 187
115 140 187
114 139 180
103 129 173
97 125 181
116 141 183
103 130 188
115 141 192
104 131 185
103 130 178
101 128 183
100 127 180
82 113 177
90 120 184
88 118 178
87 116 176
80 111 172
91 120 180
73 106 171
83 113 171
75 108 175
70 104 169
70 104 171
61 97 163
73 106 168
76 107 168
76 108 161
72 105 160
66 100 160
69 102 152
64 98 148
64 99 164
61 97 156
61 97 166
64 98 157
60 96 152
61 96 153
64 99 158
59 94 151
62 97 155
59 93 143
59 94 143
59 94 146
61 96 151
63 98 148
60 95 156
62 98 160
61 96 158
60 95 148
60 96 155
61 96 153
61 97 160
61 96 153
60 95 149
61 97 151
61 96 154
61 96 162
61 97 153
60 95 152
60 95 151
61 96 151
62 97 161
60 96 149
62 98 157
60 96 153
61 96 151
61 97 157
61 97 158
60 96 154
62 98 162
61 97 151
61 97 154
60 96 158
61 96 145
61 96 156
61 96 155
61 96 153
62 98 158
61 97 154
62 98 162
62 98 161
61 97 158
61 96 154
60 96 153
61 96 152
61 97 151
61 97 152
61 97 150
61 97 157
60 95 156
60 96 150
62 98 164
61 97 151
62 98 164
61 97 154
61 97 161
61 96 150
61 97 153
60 96 151
62 98 157
60 96 150
62 98 158
61 96 149
62 97 157
61 96 155
62 97 156
62 97 148
62 98 157
61 97 148
62 98 160
60 95 147
61 96 150
62 97 152
61 96 153
62 97 154
61 97 150
61 96 151
60 96 147
61 96 156
62 97 153
63 98 154
60 96 149
62 98 157
62 98 155
60 96 147
62 97 152
62 98 158
61 96 154
62 98 154
62 97 153
61 97 156
61 96 139
61 97 148
61 96 145
61 97 148
61 96 149
61 96 144
61 96 144
60 95 144
62 97 151
62 98 159
61 96 143
62 97 150
62 97 151
60 95 143
61 96 144
61 96 148
59 94 134
62 97 150
60 95 141
61 97 149
61 96 145
61 96 142
61 96 144
61 96 142
61 96 143
61 96 141
61 95 139
59 93 134
60 95 138
61 96 143
61 96 139
61 96 140
62 97 147
60 94 143
59 93 129
59 93 134
59 94 143
59 92 128
58 91 130
58 92 128
58 91 134
57 89 113
70 94 112
91 106 97
115 125 52
101 105 0
119 123 0
124 132 0
121 127 0
119 123 0
123 126 0
119 124 11
130 134 0
113 116 0
120 123 0
105 109 0
100 104 0
118 122 0
107 109 0
119 122 0
110 106 11
103 105 0
104 102 0
101 103 0
98 100 0
105 106 0
103 103 11
101 100 0
97 96 0
98 99 0
100 99 11
98 98 0
91 88 0
98 96 0
104 100 0
98 95 0
94 93 11
100 97 0
91 86 0
90 86 0
99 96 0
86 84 0
88 82 0
103 102 0
103 99 0
102 98 0
96 94 0
98 93 0
110 104 0
109 106 0
99 95 0
104 102 0
107 102 0
107 103 0
112 107 0
106 101 0
114 112 0
107 103 11
104 99 0
111 105 0
98 95 0
112 110 0
110 106 0
117 114 0
121 117 0
121 118 0
106 104 11
112 109 19
118 116 0
124 121 11
122 118 16
115 113 11
110 107 0
117 115 11
132 131 0
121 120 11
122 123 11
131 130 16
127 126 19
134 134 11
121 120 11
126 127 11
122 122 0
134 134 0
133 132 19
139 139 11
131 134 0
130 131 0
129 132 0
148 152 0
142 146 11
141 148 0
140 142 0
142 150 0
153 160 0
146 154 0
148 157 0
152 161 0
150 161 0
150 158 0
150 160 0
155 164 0
155 167 0
154 165 0
158 168 0
154 166 0
157 168 0
160 171 0
158 171 0
164 177 0
162 175 0
161 175 0
161 173 0
156 168 0
155 168 0
154 163 0
158 171 0
158 171 0
158 170 0
161 175 0
155 169 0
163 179 0
158 172 0
167 182 0
159 174 0
163 176 0
159 173 0
159 171 0
164 178 0
163 180 0
167 186 0
164 179 0
168 187 0
164 182 0
167 184 0
167 184 0
165 181 0
163 181 0
169 186 0
161 178 0
168 186 0
162 178 0
163 181 0
203 221 220
200 218 199
201 220 207
193 213 177
198 217 196
197 217 194
195 215 188
196 216 181
192 212 169
194 215 181
193 214 175
188 209 155
192 213 169
186 207 142
189 210 157
180 202 120
185 207 130
186 207 149
181 203 137
181 203 117
181 203 108
178 201 111
175 197 84
179 200 120
182 205 125
180 203 114
182 204 117
176 199 76
179 202 105
177 199 88
176 199 88
172 195 62
177 200 99
175 198 99
175 197 72
173 196 62
173 197 72
174 196 67
173 197 62
177 201 99
172 196 51
175 198 95
174 198 72
177 200 88
172 195 51
174 198 62
175 198 72
177 201 84
175 198 72
173 197 84
175 199 88
176 198 84
173 196 67
174 198 67
173 197 76
176 199 99
173 196 62
177 199 84
175 198 62
176 198 84
175 199 95
177 200 80
179 200 95
176 200 95
178 201 84
173 196 99
176 199 103
176 199 105
175 197 125
168 190 118
160 183 143
137 161 147
138 161 151
120 144 153
118 142 163
120 145 170
137 160 183
132 155 182
135 157 186
134 156 183
128 151 186
120 144 179
126 150 172
115 140 178
117 143 174
107 134 173
99 126 176
103 131 178
100 128 176
100 128 176
113 139 188
111 137 182
102 129 183
113 139 184
99 127 182
95 123 176
90 119 178
99 127 184
89 118 175
94 122 180
94 123 182
84 114 175
80 111 176
74 107 174
86 115 173
81 112 175
71 104 170
70 104 165
73 106 171
67 102 167
65 100 160
69 102 158
67 101 167
65 100 156
63 99 158
64 98 154
65 99 148
69 102 157
61 96 154
66 99 149
62 97 150
59 95 147
60 96 154
63 98 155
64 98 155
65 99 157
61 96 151
60 95 151
61 96 150
59 94 151
61 97 157
58 93 144
60 96 152
60 95 151
60 96 153
60 96 150
62 98 163
58 93 141
60 95 158
61 97 156
59 95 147
60 95 153
60 96 151
61 97 151
61 97 153
60 95 151
61 97 154
60 95 145
61 97 150
61 97 160
62 98 156
61 97 160
61 97 161
61 96 153
60 95 148
63 99 160
61 96 149
62 98 159
61 96 151
61 96 153
61 97 158
60 95 151
61 97 154
60 96 148
60 96 156
61 97 149
60 95 152
61 97 154
61 97 154
61 97 159
61 97 149
63 99 164
62 98 152
61 96 149
61 96 152
61 97 152
60 96 152
62 98 160
62 98 161
62 97 151
61 97 148
61 97 154
62 97 154
61 97 155
62 98 158
61 96 150
62 97 156
61 97 157
61 97 156
61 96 153
61 96 148
62 98 164
62 97 154
61 97 157
61 97 155
61 97 156
62 97 157
61 97 150
62 98 161
61 97 149
62 97 153
61 97 147
62 98 157
62 97 153
61 97 151
61 96 145
62 98 159
61 96 149
61 97 149
60 95 142
61 96 149
62 98 156
62 97 156
61 96 153
62 97 155
62 98 154
62 98 158
62 98 159
63 98 158
62 97 154
61 96 149
61 95 142
61 96 147
61 97 147
60 95 143
61 96 149
61 96 148
63 98 151
61 96 140
61 96 151
60 95 141
61 97 144
62 97 151
60 96 147
61 97 145
60 95 142
59 94 137
61 96 145
60 95 145
61 96 148
61 96 148
60 95 147
61 95 145
59 93 130
61 96 142
60 95 142
61 95 144
61 95 137
60 94 136
59 94 132
59 93 132
59 94 135
61 96 143
60 94 141
60 94 136
59 93 134
59 93 131
59 93 131
58 89 112
86 106 105
99 109 54
111 120 45
120 127 18
115 121 0
119 125 0
122 127 0
102 107 0
112 116 0
105 110 0
111 113 0
106 110 0
104 107 0
116 123 0
115 118 0
102 103 0
122 125 0
102 104 0
97 101 0
96 96 0
99 103 0
114 120 0
101 98 0
107 107 0
92 92 0
104 106 0
107 106 0
101 102 0
106 108 0
95 95 0
105 104 0
98 94 0
100 97 0
99 98 0
100 97 0
101 99 0
97 96 0
97 95 0
86 82 0
101 99 0
111 110 0
99 94 0
99 97 0
93 86 0
99 99 0
105 101 0
103 99 0
110 107 0
103 100 0
111 108 0
112 109 0
103 100 0
109 106 0
104 98 0
116 114 0
102 100 0
109 106 11
120 115 0
107 102 0
120 117 11
116 112 0
108 106 0
117 113 0
102 101 0
107 104 11
114 111 11
115 112 0
115 112 11
123 122 0
111 109 0
116 113 11
112 112 0
115 113 11
124 125 11
123 123 11
122 125 11
122 121 16
131 134 0
123 123 0
136 141 0
133 137 0
131 133 0
132 136 11
132 136 0
135 139 0
139 142 16
144 151 0
139 142 0
143 149 0
144 150 0
139 147 0
135 138 0
152 161 0
151 156 0
145 153 0
151 159 0
153 163 0
151 161 0
148 158 0
156 165 0
151 159 0
153 162 0
158 170 0
155 165 0
163 174 0
158 170 0
155 167 0
158 171 0
156 166 0
154 166 0
155 168 0
158 173 0
152 161 0
160 173 0
163 178 0
163 178 0
161 176 0
158 173 0
156 170 0
156 168 0
164 178 0
161 175 0
166 181 0
153 167 0
167 184 0
158 173 0
167 185 0
162 177 0
163 178 0
163 178 0
163 182 0
163 177 0
163 181 0
166 183 0
162 179 0
160 177 0
166 186 0
161 178 0
165 181 0
167 185 0
161 178 0
199 218 191
197 216 189
197 216 188
196 216 191
197 216 186
192 211 169
192 212 181
186 206 149
190 211 165
187 208 149
188 209 147
184 206 137
186 206 137
184 206 130
179 200 135
180 202 102
183 206 130
181 203 122
179 201 105
178 200 84
181 204 117
177 201 102
175 197 105
174 198 72
178 201 99
178 201 92
176 199 95
173 197 72
174 198 76
174 197 76
176 199 84
173 197 88
175 198 80
174 198 80
172 196 51
177 200 72
171 195 57
172 196 88
174 198 95
175 199 51
171 195 62
175 198 62
172 195 51
177 200 72
172 195 62
175 197 62
173 196 72
174 198 80
175 198 88
172 196 72
177 200 84
172 196 72
173 197 84
172 195 57
173 196 57
170 194 72
176 199 76
173 197 62
173 196 57
174 197 57
176 199 80
174 197 76
172 195 72
173 196 76
173 195 62
173 196 62
175 198 95
170 193 80
171 194 118
164 186 111
151 174 118
137 160 145
133 157 155
114 140 162
121 145 173
119 143 172
138 161 179
137 159 178
107 133 174
119 144 170
135 158 186
101 127 164
113 139 171
111 136 181
114 139 168
108 134 181
116 141 188
107 133 177
99 127 181
110 136 176
105 132 175
94 121 172
106 133 177
107 133 187
91 120 182
107 133 185
94 123 185
97 125 181
76 108 173
84 114 174
76 109 175
78 109 176
82 113 178
82 113 175
77 109 174
79 110 166
76 108 168
74 106 166
79 110 169
73 106 172
65 101 168
68 102 166
70 104 166
69 103 154
73 105 161
66 100 161
71 104 163
68 101 155
65 100 160
63 99 162
60 96 155
69 103 154
63 98 155
66 100 158
63 98 155
62 97 154
60 96 153
58 93 141
61 96 158
61 96 153
62 97 151
64 99 162
61 97 156
61 96 155
61 96 153
60 96 153
61 97 158
60 96 144
61 96 150
60 95 155
61 97 157
61 97 154
61 97 149
60 96 151
61 96 159
61 97 151
61 96 160
60 95 146
61 96 152
61 97 157
61 97 162
61 97 151
63 98 164
62 98 161
62 98 155
62 98 161
61 96 144
61 97 157
61 96 149
60 95 148
61 97 152
62 98 159
62 97 157
61 97 159
60 95 153
62 98 160
60 96 155
61 97 152
62 98 159
61 97 150
61 97 159
61 97 156
62 98 159
62 98 160
61 97 156
62 98 163
62 98 158
61 97 151
62 98 154
62 98 156
61 96 151
61 97 151
61 97 152
60 95 141
63 99 160
61 96 151
62 98 160
62 98 156
61 96 152
60 95 140
61 96 158
62 97 153
61 97 157
61 96 143
62 97 158
61 97 154
60 96 147
61 97 150
61 96 147
60 96 151
62 97 148
61 96 148
61 97 150
61 96 147
62 98 159
62 97 152
61 96 149
62 98 154
62 97 149
60 95 136
60 95 141
62 97 154
61 96 151
61 97 150
61 95 139
61 97 149
61 96 144
61 97 153
62 97 149
62 98 157
62 97 145
62 98 155
61 97 148
61 96 143
60 94 141
61 96 148
61 96 145
60 95 141
61 97 147
61 96 143
62 97 147
61 96 149
61 97 152
61 97 147
60 94 140
61 96 142
61 96 143
60 95 142
61 96 147
60 96 142
61 96 142
61 96 145
60 95 139
61 96 143
60 95 135
59 93 136
61 97 151
59 93 129
59 94 135
60 95 142
61 96 145
60 94 130
59 93 129
60 94 135
59 93 128
59 93 131
58 91 129
62 95 131
69 96 112
96 117 107
100 111 60
117 127 40
105 112 0
116 124 0
113 119 0
108 114 0
106 113 0
113 117 0
109 115 0
112 118 0
114 117 0
106 108 0
114 120 0
113 113 0
102 106 0
112 115 0
110 113 0
98 102 0
121 125 0
112 115 0
97 99 0
110 110 0
100 104 0
112 113 0
99 101 0
101 100 0
99 99 0
93 93 11
116 116 0
96 95 0
102 99 0
102 100 0
108 107 0
104 101 0
101 98 0
108 105 0
113 112 0
97 95 0
108 109 0
100 99 0
104 101 0
102 101 0
109 106 0
100 99 0
100 98 0
104 102 0
107 103 0
110 106 0
112 111 0
106 101 0
109 106 0
109 107 0
101 98 0
111 109 0
119 118 0
109 107 0
103 102 0
109 106 0
110 107 0
117 116 0
123 120 0
115 112 0
119 120 0
120 117 0
117 113 0
113 109 0
118 115 11
123 124 0
118 114 11
129 129 0
119 116 0
117 118 0
119 121 11
123 121 11
131 132 0
124 125 0
143 145 16
133 135 0
139 140 0
135 135 11
128 132 0
130 133 0
142 147 0
142 146 0
143 148 11
143 149 0
140 145 11
149 156 0
155 163 0
143 147 0
144 150 0
147 153 0
145 151 0
149 158 0
148 159 0
149 160 0
149 159 0
150 160 0
154 161 0
151 162 0
155 164 0
156 167 0
150 161 0
154 166 0
159 170 0
157 169 0
155 168 0
156 168 0
155 171 0
157 171 0
154 169 0
165 179 0
157 172 0
155 168 0
164 179 0
159 171 0
157 171 0
160 175 0
157 170 0
161 175 0
155 171 0
159 173 0
167 183 0
166 183 0
160 177 0
161 176 0
161 179 0
159 175 0
163 179 0
158 174 0
166 185 0
157 173 0
163 179 0
168 186 0
164 179 0
166 183 0
166 184 0
165 184 0
164 183 0
163 183 0
202 220 207
192 213 171
196 215 184
192 212 173
192 212 167
194 213 171
192 212 175
190 211 161
183 204 128
184 205 147
182 203 133
185 207 142
182 204 120
179 202 105
181 203 102
183 204 117
177 200 114
181 203 95
180 201 99
181 203 102
178 200 95
176 200 99
176 199 108
177 199 102
176 200 105
178 202 102
175 199 99
174 197 76
175 200 92
173 196 57
174 198 62
171 195 67
173 197 72
173 196 80
167 191 62
172 195 88
171 195 84
171 195 76
174 198 76
174 198 88
175 198 72
173 197 62
172 196 57
170 194 67
174 198 72
174 198 72
171 195 76
173 197 62
175 198 88
177 200 92
175 199 88
173 197 80
175 199 88
173 197 76
173 196 62
170 194 62
174 197 84
171 194 72
168 192 72
173 197 88
173 197 76
170 194 51
174 197 80
171 195 62
170 193 72
173 197 72
170 195 76
173 196 92
169 191 92
158 181 95
154 177 102
126 151 128
119 145 145
103 131 166
105 132 153
95 123 161
114 139 166
119 143 168
109 134 153
102 129 159
111 136 168
121 146 178
110 136 169
113 139 170
110 136 166
110 136 171
111 137 178
92 121 165
108 134 172
112 139 182
103 130 178
99 127 172
91 120 173
99 126 175
97 125 176
91 120 179
90 119 180
101 128 179
80 112 167
82 113 170
88 118 179
88 118 176
81 112 172
87 116 170
90 119 180
78 109 171
70 104 172
65 100 167
68 102 166
73 106 175
78 109 167
78 109 165
73 105 166
73 106 158
65 100 162
69 102 164
67 101 163
69 102 163
65 98 147
70 103 160
64 99 160
63 98 159
59 94 152
62 97 155
62 96 149
61 95 145
62 97 155
60 96 150
59 94 153
61 97 153
60 95 150
60 95 151
61 97 151
60 95 142
61 97 162
59 95 153
59 94 144
59 94 150
61 96 153
60 95 144
60 95 150
61 97 162
60 96 152
61 97 159
61 96 150
60 96 154
61 97 155
59 95 146
61 97 154
61 96 156
61 96 150
60 96 154
61 96 155
62 98 156
62 97 155
59 95 148
61 97 160
60 96 152
61 97 150
61 97 158
62 98 155
60 95 147
61 97 155
61 96 157
61 97 153
61 96 148
62 97 155
62 98 161
61 97 152
61 97 154
61 97 153
60 95 145
62 98 153
60 95 140
62 97 157
62 98 160
61 97 156
61 96 154
62 97 155
61 97 158
61 97 154
61 97 152
61 97 150
62 97 155
60 96 150
61 96 145
60 95 148
61 97 157
62 98 159
61 97 154
61 96 154
61 97 157
61 97 150
62 98 159
61 96 147
61 96 148
61 97 152
61 97 150
62 98 165
61 96 143
61 96 148
61 96 147
61 96 150
62 97 153
60 96 141
61 96 149
61 96 150
61 96 143
61 97 153
62 98 157
62 97 152
61 96 150
61 97 151
60 96 141
62 98 159
61 96 143
60 95 142
62 98 151
61 96 150
62 98 157
61 97 144
62 97 156
61 96 144
60 95 144
61 96 139
61 96 145
61 96 149
60 96 148
62 97 154
61 96 147
61 95 137
61 97 151
61 96 140
60 95 145
61 96 142
59 94 136
62 97 153
60 95 143
60 95 137
60 95 136
62 98 157
61 96 149
59 93 134
61 95 140
61 96 143
60 95 140
60 94 140
59 94 130
61 96 151
60 94 138
59 93 134
60 94 128
60 95 143
59 92 128
58 91 116
58 91 109
59 92 124
58 92 131
76 100 108
99 115 73
95 103 48
124 132 0
110 118 0
113 121 0
107 112 0
122 128 0
116 124 0
109 114 0
108 116 0
104 109 0
113 116 0
110 114 0
104 106 0
109 112 0
108 110 0
110 112 0
118 119 0
111 113 0
114 117 0
108 112 0
102 106 0
104 104 0
113 111 0
100 101 0
111 113 0
106 106 0
104 103 0
112 113 0
109 111 0
107 109 0
95 91 0
101 98 0
99 99 0
108 109 0
97 96 0
110 111 0
102 99 0
108 103 0
108 107 0
106 103 0
106 107 0
99 98 0
105 104 0
113 113 0
101 97 0
111 108 0
109 106 0
112 111 0
102 100 0
104 101 0
107 102 0
105 104 0
113 113 0
119 119 0
110 107 0
114 111 0
115 114 0
117 115 11
121 118 0
109 109 0
118 115 0
111 109 0
121 120 0
127 125 11
112 111 0
129 129 0
126 123 11
126 126 0
120 122 0
132 134 0
128 129 11
124 125 0
135 135 11
133 133 0
138 141 0
129 130 11
128 131 0
143 149 0
131 134 11
140 143 0
140 146 0
134 137 0
144 149 0
139 147 0
148 155 0
140 143 0
139 143 0
153 162 0
150 160 0
148 155 0
149 157 0
149 155 0
142 149 0
147 154 0
156 167 0
149 159 0
148 155 0
147 156 0
154 166 0
150 159 0
151 161 0
154 165 0
155 167 0
158 171 0
154 165 0
160 173 0
161 174 0
153 164 0
157 168 0
156 170 0
159 173 0
154 167 0
159 173 0
160 172 0
153 163 0
159 174 0
159 175 0
165 180 0
164 181 0
164 180 0
163 180 0
162 179 0
164 179 0
166 181 0
160 178 0
164 181 0
161 175 0
163 180 0
162 177 0
158 174 0
158 173 0
164 182 0
158 172 0
163 180 0
162 179 0
164 182 0
163 181 0
162 180 0
166 183 0
169 189 0
198 217 194
195 214 186
194 215 177
191 211 177
188 209 159
187 208 142
184 205 153
185 206 144
187 209 147
180 202 111
185 207 135
178 199 117
180 202 114
180 202 120
180 203 111
177 200 88
180 202 88
173 196 76
178 200 67
176 199 88
176 199 80
173 196 62
174 197 76
177 201 95
177 200 67
174 197 62
172 196 72
173 196 76
175 198 44
176 200 95
177 201 105
168 192 67
169 192 57
174 198 88
173 197 84
174 198 80
173 196 95
173 196 84
174 197 95
173 196 57
172 196 51
171 194 62
174 198 80
172 197 88
175 199 76
172 196 57
172 196 72
175 198 84
171 195 62
173 197 80
174 196 67
173 197 76
173 197 76
170 194 76
174 197 80
174 197 76
169 193 84
174 197 84
170 194 67
172 196 62
173 196 72
172 195 84
170 193 51
172 197 67
170 194 62
171 194 25
169 193 36
172 195 74
165 189 84
165 189 80
145 169 107
136 160 133
116 142 134
100 128 154
115 140 153
107 133 147
108 134 151
90 119 157
107 133 158
114 139 146
108 134 166
107 134 166
101 129 171
103 130 167
110 135 168
104 132 173
104 131 173
101 129 176
99 127 159
101 128 170
108 134 176
93 121 174
98 126 180
96 124 171
92 121 179
94 123 174
93 123 181
82 114 180
83 114 173
84 115 170
74 107 177
82 113 179
82 113 174
84 114 179
86 116 177
89 118 181
76 108 170
79 111 173
78 110 170
69 103 172
67 101 157
68 102 160
76 107 164
78 109 167
67 101 153
61 97 159
68 102 164
61 97 160
68 101 158
66 100 161
67 100 159
66 99 155
60 95 154
61 97 156
60 95 155
60 95 150
61 97 159
62 97 141
60 95 156
60 96 149
62 97 153
60 96 158
60 96 152
60 96 151
60 95 148
60 96 154
60 96 148
61 97 159
61 96 149
61 96 152
60 96 151
60 95 151
61 97 152
60 96 156
60 95 142
61 97 155
60 96 151
60 95 151
61 97 160
60 95 147
60 95 150
60 96 154
61 97 153
61 97 154
62 98 160
60 96 150
61 97 156
61 96 151
62 97 155
61 96 152
61 97 157
62 97 151
60 95 149
60 96 150
61 96 149
62 97 156
61 97 156
61 96 152
62 97 152
60 96 146
61 96 151
62 98 158
62 97 152
62 98 159
62 97 153
60 95 147
61 96 148
61 97 160
61 97 157
62 97 153
62 97 154
61 97 154
61 97 152
61 97 149
61 97 151
61 96 150
62 97 150
61 96 156
61 96 148
61 97 153
60 96 148
61 97 149
61 97 152
62 98 157
61 97 153
62 98 161
61 96 147
61 96 147
62 97 152
60 94 145
60 95 147
61 96 149
61 96 149
61 96 145
61 97 148
60 96 150
62 97 148
60 96 141
61 97 155
61 97 152
61 96 149
60 96 141
61 97 153
61 97 150
60 95 144
61 96 145
61 96 145
61 97 149
61 96 141
61 97 149
62 97 155
61 96 154
60 95 141
61 97 148
61 96 150
61 96 148
61 96 140
61 97 148
61 96 140
60 95 133
61 96 147
61 96 150
61 97 148
61 97 148
60 94 134
61 97 145
60 96 140
61 97 145
59 94 133
60 95 138
60 94 133
63 98 158
60 95 142
60 94 136
60 95 139
61 97 143
61 96 139
59 93 133
60 95 141
60 94 133
60 94 133
61 95 136
59 93 130
59 94 136
59 93 121
59 93 122
60 93 131
60 89 118
84 102 81
98 111 60
112 120 36
126 132 0
112 119 0
123 131 0
116 122 0
118 127 0
110 117 0
124 131 0
104 109 0
119 123 0
106 113 0
116 120 0
111 116 0
106 112 0
92 97 0
111 115 0
114 119 0
99 103 0
106 110 0
114 120 0
110 114 0
103 104 0
99 101 0
105 105 0
99 101 0
98 101 0
98 98 0
98 101 0
102 102 0
101 101 0
111 112 0
105 104 0
111 110 0
100 99 0
109 110 0
113 112 0
108 109 0
105 105 0
107 106 0
105 103 0
111 111 0
101 100 0
115 115 0
103 99 0
117 115 0
128 128 0
97 91 0
104 101 0
106 101 0
121 118 0
114 109 0
105 102 0
115 114 0
115 113 0
110 109 0
116 113 0
107 106 0
120 117 0
111 111 0
106 103 0
115 114 0
117 116 11
128 129 0
122 121 0
123 123 0
111 108 0
115 114 0
119 120 0
128 127 0
128 128 0
120 119 0
122 123 0
128 131 0
124 128 11
132 134 0
128 129 0
125 126 0
145 149 0
142 147 11
132 132 0
134 136 16
143 146 11
146 153 0
137 139 0
148 152 0
143 149 0
149 154 0
147 157 0
149 156 0
148 156 0
149 156 0
139 145 0
147 155 0
159 167 0
147 155 0
153 161 0
154 163 0
147 158 0
159 172 0
154 165 0
156 167 0
157 166 0
151 160 0
152 163 0
155 166 0
156 167 0
158 170 0
159 171 0
163 178 0
159 170 0
156 168 0
154 166 0
153 167 0
154 169 0
158 171 0
155 168 0
157 170 0
161 175 0
161 176 0
162 174 0
159 174 0
159 172 0
159 172 0
160 174 0
161 178 0
162 178 0
160 174 0
162 177 0
162 178 0
166 183 0
163 180 0
164 180 0
158 173 0
164 181 0
165 184 0
161 179 0
164 180 0
169 186 0
164 182 0
168 188 0
190 211 161
187 208 159
189 210 163
192 212 163
185 207 137
184 206 130
187 208 142
184 205 130
182 204 128
178 200 120
183 204 125
183 205 120
178 200 99
181 203 108
176 199 88
176 198 92
173 196 72
175 199 88
173 196 67
175 199 72
174 198 72
172 196 51
175 199 80
173 197 84
174 197 67
173 196 95
170 194 67
176 200 102
174 197 72
173 197 84
173 196 67
175 198 62
174 198 84
171 195 57
171 195 62
172 196 62
172 196 76
175 198 84
176 199 72
175 199 92
176 199 80
168 192 57
168 192 57
175 198 84
173 197 67
170 193 51
173 196 76
172 196 72
172 197 72
172 196 62
176 199 80
174 197 62
172 195 76
175 199 88
171 194 67
174 198 62
176 200 76
175 198 62
175 198 76
174 198 80
173 197 51
174 197 67
175 199 67
173 197 88
173 195 57
174 197 67
175 198 57
167 190 74
170 194 74
159 182 97
151 175 111
138 162 107
130 155 142
96 124 148
95 123 156
97 125 143
98 126 151
93 122 156
99 127 163
109 135 158
102 129 162
93 122 158
97 125 157
92 121 156
107 134 173
92 121 159
104 131 164
100 128 169
103 130 176
110 137 172
98 126 173
101 128 169
87 117 177
99 126 174
100 128 169
85 115 165
86 116 169
89 118 174
82 113 174
86 116 170
76 108 173
82 113 174
83 114 176
70 104 169
74 107 171
76 108 168
77 109 173
72 105 166
79 110 171
76 108 176
73 106 166
74 107 176
68 103 174
68 102 162
67 101 163
65 99 156
63 99 159
66 100 158
60 96 154
63 98 158
63 98 152
66 100 149
60 96 159
63 98 156
63 98 157
62 96 150
63 97 155
61 97 152
60 95 149
62 98 158
63 97 150
60 95 153
61 97 155
61 96 143
65 100 148
61 96 151
63 98 149
61 96 155
59 95 144
61 97 156
61 97 151
61 96 154
59 94 147
60 96 153
61 97 152
61 97 154
60 95 150
60 95 152
60 96 154
61 97 151
61 97 154
61 97 153
60 96 156
60 96 148
60 96 147
61 97 152
60 95 144
60 96 152
61 96 153
60 96 145
61 96 149
61 97 147
61 97 149
62 97 154
60 95 144
62 98 156
61 97 152
60 96 150
61 96 152
61 96 151
62 98 160
61 97 151
61 97 154
61 97 149
60 96 147
62 98 156
62 97 151
62 98 161
62 98 158
61 97 152
60 95 140
60 96 150
61 97 157
61 96 152
62 98 158
62 98 156
61 97 147
60 96 152
61 97 148
62 98 154
60 96 143
61 96 148
61 97 149
62 98 156
60 95 145
61 96 151
62 97 153
61 97 150
61 97 152
61 96 148
62 97 156
61 97 156
61 97 151
61 96 141
61 96 142
62 98 158
60 95 147
60 96 148
61 97 148
61 96 152
61 97 149
61 97 148
61 96 145
62 97 156
60 96 148
59 94 137
60 95 145
62 97 154
60 96 139
61 96 145
62 98 156
61 96 143
61 96 143
62 97 148
61 96 144
62 98 151
62 97 151
62 97 148
59 94 136
60 95 137
61 97 147
61 97 143
61 96 143
61 96 144
60 96 147
60 95 144
61 96 143
60 94 140
60 95 143
61 96 150
61 95 135
60 95 141
60 95 143
61 96 147
61 96 145
61 96 140
60 95 142
60 95 136
59 94 142
59 93 127
59 93 128
59 94 130
58 92 119
62 96 147
59 93 123
58 91 120
59 92 119
68 95 120
99 116 88
98 111 74
108 118 36
110 116 0
128 138 0
123 132 0
107 114 0
124 131 0
123 131 0
115 120 0
108 113 0
118 125 0
110 114 0
108 113 0
104 108 0
108 114 0
108 116 0
109 112 0
107 111 0
110 115 0
107 111 0
109 113 0
97 101 0
114 117 0
110 113 0
100 104 0
103 105 0
103 106 0
100 101 0
111 115 0
108 108 0
100 98 0
106 104 0
104 104 0
110 113 0
102 102 0
105 104 0
104 105 0
110 113 0
101 99 0
109 111 0
99 97 0
109 109 0
106 106 0
114 114 0
98 95 0
107 107 0
103 102 0
109 109 0
109 105 0
104 101 0
111 111 0
113 113 0
113 112 0
106 104 0
112 113 0
119 117 0
121 123 0
110 109 0
112 111 0
118 116 0
123 120 0
125 126 0
121 120 0
120 121 0
126 124 0
120 118 0
129 130 0
121 120 0
121 118 0
133 136 0
128 130 0
132 136 0
134 135 11
138 142 0
130 134 16
128 131 0
141 146 0
129 133 0
131 133 0
142 145 0
133 135 0
130 133 0
147 152 0
143 152 0
143 148 0
137 139 0
146 151 0
150 158 0
146 157 0
145 150 0
152 162 0
155 165 0
154 163 0
147 158 0
157 169 0
148 157 0
145 154 0
155 163 0
154 167 0
154 164 0
153 164 0
150 159 0
155 166 0
155 165 0
152 164 0
156 168 0
154 166 0
160 172 0
158 172 0
158 170 0
158 171 0
155 167 0
155 168 0
155 167 0
156 169 0
158 171 0
160 176 0
154 167 0
161 177 0
159 173 0
160 175 0
160 176 0
163 179 0
161 174 0
164 181 0
165 181 0
156 171 0
163 181 0
163 180 0
161 178 0
162 177 0
166 183 0
161 178 0
160 174 0
168 186 0
168 186 0
165 181 0
164 183 0
165 183 0
167 184 0
164 182 0
185 206 159
189 210 153
189 210 161
184 205 137
185 207 130
186 207 140
185 207 137
185 207 130
182 205 120
179 202 128
178 201 105
176 199 88
180 202 99
179 201 99
179 202 99
175 198 84
175 198 92
173 196 72
172 195 88
174 198 88
174 198 57
174 197 72
174 197 62
174 198 92
176 199 72
175 198 62
170 194 76
174 198 72
171 195 67
174 198 80
173 196 72
174 199 99
174 198 67
173 197 67
175 198 62
173 197 84
173 196 44
174 198 80
173 196 80
171 194 51
169 192 67
174 197 76
172 195 72
171 195 44
174 198 76
172 196 80
171 194 51
171 195 80
171 194 25
175 198 92
171 194 80
172 195 57
168 191 62
171 195 72
173 197 88
173 196 76
169 192 67
172 194 88
174 197 62
170 193 84
173 196 72
174 197 76
177 200 92
170 193 84
174 198 92
172 195 80
171 195 62
172 195 78
171 194 84
162 186 99
157 180 99
144 169 133
126 152 140
99 126 147
90 118 131
89 119 159
98 125 143
99 127 156
101 129 148
94 122 153
93 122 165
97 125 145
106 133 158
99 127 163
101 129 166
100 129 151
94 122 163
109 135 165
81 112 161
102 130 174
85 115 167
88 117 165
96 124 169
90 120 169
98 126 169
90 120 168
82 113 168
78 109 163
88 118 173
95 123 171
78 109 168
87 117 171
73 106 169
74 107 170
88 118 181
86 116 175
79 110 175
83 114 175
76 108 172
68 102 167
76 109 178
67 101 164
70 104 165
68 102 165
71 105 169
69 102 158
66 100 154
65 99 153
70 103 161
66 101 161
72 104 155
64 98 155
72 105 152
63 98 160
62 96 144
62 97 154
64 98 156
63 97 147
63 97 151
60 96 155
60 95 154
65 99 149
62 96 148
60 96 155
60 95 151
60 96 144
60 96 149
59 95 153
61 97 153
61 96 148
61 96 142
61 96 150
60 96 153
61 97 155
60 95 148
61 97 155
60 96 147
60 96 154
60 96 148
60 95 147
61 96 149
61 96 148
59 95 143
61 96 153
60 95 154
60 96 152
60 95 147
62 97 151
59 94 140
61 97 153
62 98 162
59 95 147
61 96 151
61 97 153
63 99 164
60 96 151
60 96 142
61 97 148
61 96 155
61 97 145
62 97 153
60 96 151
61 97 157
61 97 150
59 95 140
62 98 160
61 97 155
61 96 152
62 98 157
61 96 151
61 96 149
61 97 150
60 96 151
61 97 154
62 97 152
60 96 151
62 98 159
61 97 156
62 98 154
62 97 157
61 96 148
62 97 157
61 96 151
61 97 150
61 97 154
61 96 143
60 96 148
61 97 155
62 97 153
62 98 155
62 98 158
59 94 139
61 97 150
60 95 139
62 98 155
61 96 143
61 97 150
61 96 155
59 94 131
60 96 140
62 98 153
61 96 149
61 97 155
60 96 142
61 97 148
61 96 148
61 96 145
62 98 151
61 96 147
61 96 141
62 97 147
60 95 143
61 97 151
59 94 126
62 97 154
60 94 141
62 97 144
62 97 149
61 96 141
61 96 144
62 97 152
60 96 145
61 96 145
61 97 149
61 96 145
60 95 140
61 96 145
60 94 130
60 94 137
61 96 144
60 95 139
60 95 135
60 95 139
60 95 136
61 96 142
60 94 138
60 94 134
60 94 135
59 94 138
59 93 125
59 94 136
60 95 137
59 93 125
59 93 124
58 91 118
59 92 124
61 93 120
78 101 110
96 110 60
114 122 40
98 105 18
111 120 0
114 124 0
122 132 0
108 117 0
113 121 0
116 121 0
105 111 0
112 119 0
112 118 0
104 109 0
111 116 0
120 126 0
116 124 0
125 131 0
115 121 0
116 120 0
110 113 0
112 117 0
113 115 0
113 115 0
110 112 0
108 110 0
117 121 0
99 101 0
110 112 0
108 111 0
107 110 0
109 111 0
122 126 0
105 106 0
117 118 0
103 99 0
105 104 0
96 97 0
112 113 0
104 107 0
122 124 0
110 113 0
104 104 0
103 102 0
113 114 0
114 114 0
109 108 0
103 101 0
109 110 0
109 110 0
102 98 11
112 108 0
116 115 0
110 109 0
108 109 0
114 112 0
120 119 0
114 114 0
103 102 0
120 120 0
112 111 0
114 113 0
122 122 0
124 123 0
121 122 0
115 113 0
124 125 0
134 137 0
129 129 0
132 134 0
131 135 0
130 131 0
134 137 0
134 134 0
137 138 11
138 144 11
126 127 0
137 140 0
139 144 11
132 136 0
140 144 0
141 150 0
139 146 0
136 140 0
142 148 0
147 153 0
147 152 0
152 157 0
149 156 0
138 142 0
144 150 0
137 141 0
146 153 0
149 158 0
148 159 0
153 162 0
142 150 0
152 163 0
148 156 0
157 167 0
151 157 0
157 170 0
155 165 0
161 174 0
147 156 0
153 167 0
156 166 0
157 170 0
159 171 0
150 162 0
157 169 0
152 163 0
161 174 0
159 172 0
162 176 0
157 171 0
152 162 0
159 174 0
162 176 0
160 176 0
163 179 0
160 172 0
161 176 0
159 173 0
159 176 0
161 175 0
162 178 0
159 173 0
165 181 0
165 183 0
163 178 0
164 181 0
163 180 0
164 177 0
164 181 0
164 179 0
163 176 0
162 180 0
162 180 0
170 188 0
166 185 0
158 177 0
164 182 0
189 210 151
186 208 137
185 206 155
183 206 137
181 203 128
180 203 122
179 202 125
181 203 122
175 198 88
178 200 95
176 199 99
175 198 80
171 196 84
176 199 62
175 199 67
172 195 67
174 197 72
173 196 84
173 196 67
176 200 92
172 196 57
173 197 72
175 198 76
176 199 80
172 195 57
170 193 67
174 197 57
175 198 67
174 197 72
172 196 72
172 195 62
169 193 67
171 194 72
171 194 62
172 196 62
172 197 67
168 192 76
172 195 0
172 197 80
175 199 76
176 200 72
173 197 57
172 196 67
172 195 72
173 198 84
171 196 57
174 197 67
170 193 44
172 196 57
173 196 62
174 196 67
173 197 72
172 195 72
177 200 67
176 199 67
172 196 84
172 193 76
172 196 76
169 192 62
171 195 62
174 197 76
174 197 67
169 193 67
172 196 84
174 197 72
173 196 76
173 196 62
170 194 51
171 194 76
159 183 94
156 180 114
132 156 108
125 151 131
113 139 136
108 135 161
93 122 151
86 115 158
92 122 161
97 125 163
79 109 150
98 126 156
102 128 152
83 113 156
100 129 172
91 120 155
98 126 168
107 134 154
91 119 151
101 128 162
97 124 151
91 121 161
99 127 163
103 131 169
89 118 163
95 124 179
83 114 177
81 112 167
81 112 163
79 110 160
87 118 160
86 116 169
74 107 168
75 107 167
83 113 167
69 103 169
84 114 175
70 104 170
83 113 166
77 108 175
70 104 168
68 101 168
65 100 163
70 103 163
71 104 163
69 103 167
61 97 159
67 101 167
63 99 158
71 104 161
67 101 160
63 98 150
65 100 153
67 101 160
63 97 152
60 96 155
63 98 156
64 98 148
63 97 150
59 95 153
62 97 149
58 93 147
61 96 151
60 95 153
59 94 147
63 97 147
60 95 145
61 96 141
61 96 154
59 94 145
60 96 155
60 95 149
60 96 151
61 97 152
61 97 158
60 96 153
62 97 157
60 96 156
60 95 147
60 96 159
60 95 145
60 96 151
61 97 157
60 96 143
61 97 151
62 97 157
61 97 151
61 97 158
61 96 151
60 95 145
60 96 151
61 97 158
61 96 149
61 96 143
61 96 156
60 96 151
61 96 151
61 97 156
61 97 156
61 97 149
60 95 144
60 96 151
61 97 154
61 96 145
61 96 151
62 98 156
61 96 149
61 96 153
61 96 143
60 96 145
61 97 149
61 97 156
62 97 153
61 96 152
61 97 152
61 97 149
61 97 152
62 97 147
60 95 144
60 94 140
61 96 147
61 97 157
61 97 149
61 96 153
61 97 155
61 96 147
61 96 145
61 96 154
62 97 155
61 97 155
61 97 145
62 98 154
62 98 156
62 97 153
60 96 152
60 95 136
61 96 141
61 96 153
60 96 149
62 97 152
61 97 147
61 97 148
61 95 143
61 97 147
61 97 153
60 94 136
61 96 143
61 97 145
61 96 147
60 95 145
61 96 145
61 96 141
62 97 149
60 95 142
60 95 143
60 96 147
61 96 143
61 97 152
61 96 143
59 94 136
60 95 139
60 94 141
60 94 139
62 97 151
61 95 137
61 96 143
61 96 139
59 94 133
61 96 142
60 94 131
61 96 147
61 96 149
60 94 143
59 94 136
60 94 133
59 94 129
60 94 130
58 93 128
59 94 134
60 94 129
59 93 129
59 93 122
57 91 124
58 91 130
59 92 124
56 88 120
58 91 127
65 92 103
90 108 80
100 113 70
104 111 32
116 121 0
117 124 0
119 128 0
113 123 0
119 125 0
114 122 0
111 116 0
106 112 0
123 129 0
122 129 0
114 120 0
112 117 0
114 120 0
115 121 0
112 118 0
112 117 0
120 124 0
116 120 0
111 119 0
114 120 0
111 116 0
103 106 0
118 120 0
111 115 0
108 114 0
116 117 0
107 110 0
99 100 0
93 94 0
103 105 0
109 109 0
107 110 0
106 106 0
108 110 0
109 112 0
110 112 0
118 120 0
98 96 0
104 106 0
111 111 0
110 114 0
114 113 0
114 110 11
110 107 0
114 113 0
119 121 0
119 120 0
114 113 0
123 125 0
115 118 0
116 118 0
114 113 0
110 110 0
122 122 0
117 117 0
120 119 0
123 126 0
112 115 0
114 115 0
108 106 0
116 117 0
114 115 0
121 125 0
122 122 0
127 127 0
126 131 0
126 130 11
129 135 0
132 135 0
144 149 0
132 134 0
134 138 0
122 123 0
137 141 0
138 140 0
135 137 0
138 140 0
134 138 0
139 143 0
141 147 0
134 138 0
150 157 0
143 150 0
141 146 0
144 149 0
147 154 0
144 156 0
155 165 0
155 164 0
152 162 0
153 162 0
146 154 0
146 157 0
149 159 0
152 160 0
153 161 0
155 164 0
148 159 0
154 165 0
156 168 0
153 164 0
155 167 0
153 163 0
152 163 0
153 164 0
157 170 0
157 169 0
161 174 0
150 161 0
163 180 0
156 169 0
158 171 0
154 166 0
155 167 0
159 176 0
160 175 0
157 172 0
160 175 0
163 180 0
153 167 0
158 172 0
162 179 0
165 180 0
163 180 0
162 178 0
162 177 0
157 170 0
164 180 0
162 179 0
165 182 0
163 179 0
163 179 0
161 176 0
163 180 0
157 172 0
164 182 0
166 183 0
163 179 0
166 185 0
165 184 0
189 210 159
186 207 140
181 203 122
185 206 135
179 202 102
179 202 105
180 202 102
177 200 92
176 200 80
176 198 80
172 195 72
171 195 57
175 198 99
174 197 67
175 198 72
172 195 36
172 196 84
172 196 84
175 198 76
175 198 67
172 195 51
173 197 44
173 197 67
173 196 84
173 197 62
172 197 84
174 198 80
173 197 76
173 197 76
175 198 57
172 195 44
171 194 62
169 194 72
173 197 62
170 194 92
174 198 57
174 198 80
175 199 92
173 197 72
174 197 72
168 192 76
168 192 76
169 193 67
173 197 57
172 195 72
169 193 67
171 195 80
168 193 57
173 199 105
169 193 62
174 197 62
171 195 67
176 200 88
174 198 80
175 198 84
175 198 76
171 195 88
172 195 72
172 195 67
173 197 88
172 195 62
173 197 84
170 193 67
173 197 84
168 192 72
173 196 67
171 196 88
169 191 80
172 195 82
164 188 84
163 186 100
141 166 107
136 161 130
111 137 133
85 115 153
89 117 147
92 121 151
99 127 162
95 123 153
94 123 154
94 122 156
107 134 153
93 121 143
99 127 151
102 129 149
97 125 156
97 125 157
105 132 156
83 113 163
87 116 158
92 121 167
94 123 166
99 127 164
88 118 171
83 113 155
94 123 171
94 122 171
83 113 163
89 119 177
89 118 172
75 107 172
88 118 177
83 113 168
78 110 178
80 112 177
77 109 170
76 108 163
67 102 168
76 109 175
65 100 167
65 100 170
73 106 167
79 110 169
75 107 169
73 105 167
62 98 166
72 104 161
71 104 161
60 95 149
63 99 160
62 97 155
68 102 151
66 100 156
62 98 152
66 100 148
65 99 156
64 99 149
60 95 149
64 98 152
62 97 144
59 94 150
63 97 146
63 98 151
62 96 147
60 95 145
60 95 154
60 95 142
60 95 150
58 94 144
61 97 153
59 94 150
60 95 150
60 95 154
62 98 160
60 95 146
60 96 150
61 97 151
61 96 155
60 95 145
59 94 141
60 95 140
60 96 154
61 97 153
60 96 143
61 97 158
60 95 145
61 97 157
60 95 145
61 96 150
59 95 151
61 96 150
62 97 155
61 96 144
61 96 142
62 97 157
60 95 150
61 97 153
62 98 156
60 96 149
61 97 153
62 98 158
61 97 159
61 97 145
61 97 149
61 96 148
61 96 145
61 97 155
61 96 148
61 97 148
62 97 154
62 97 154
60 96 147
61 97 153
60 95 142
61 96 150
60 96 143
60 95 140
62 97 145
62 97 153
62 97 145
61 96 147
61 97 147
61 96 149
61 97 151
62 97 152
62 98 157
61 97 150
61 96 147
61 97 148
61 97 144
62 98 158
61 97 150
62 97 149
61 96 147
61 97 150
61 96 149
61 96 139
60 95 144
61 96 148
62 98 158
61 96 149
62 97 145
61 96 148
61 97 155
61 96 144
61 97 152
61 96 140
61 96 150
61 96 149
61 96 142
61 96 143
61 96 144
61 96 144
61 97 145
61 96 150
60 95 135
60 95 136
61 96 145
60 96 143
62 97 153
62 97 154
61 96 148
60 96 150
61 95 137
61 96 143
62 97 145
61 96 144
61 95 140
60 95 135
58 93 130
61 96 150
61 96 147
60 95 142
60 95 137
61 96 147
60 94 135
59 93 128
60 95 136
60 94 125
60 95 134
59 93 128
59 92 124
59 93 130
59 92 125
59 93 126
60 93 117
69 97 117
89 108 89
112 124 65
112 123 31
117 127 0
111 119 0
119 128 0
115 123 0
122 130 0
112 120 0
111 118 0
107 114 0
117 121 0
117 124 0
119 127 0
110 117 0
114 120 0
113 120 0
112 115 0
131 138 0
121 128 0
116 123 0
104 112 0
121 129 0
105 108 0
109 113 0
115 118 0
111 116 0
110 113 0
110 112 0
110 111 0
117 122 0
107 111 0
110 112 0
113 118 0
117 118 0
116 117 0
109 112 0
112 115 0
104 105 0
120 124 0
105 104 0
114 113 0
111 112 0
110 113 0
110 113 0
99 97 0
108 111 0
121 122 0
116 119 0
118 121 0
112 113 0
126 127 0
121 124 0
116 118 0
111 111 0
125 127 0
125 124 0
122 126 0
110 109 0
120 121 0
124 126 0
126 125 0
121 122 0
128 129 0
114 115 0
124 126 0
119 117 0
135 138 0
124 124 0
128 131 0
134 137 0
140 144 0
133 135 0
133 137 0
141 147 0
133 140 0
137 140 0
140 143 0
139 148 0
144 152 0
136 139 0
146 154 0
147 155 0
144 151 0
152 158 0
134 138 0
139 144 0
142 151 0
140 145 0
146 154 0
148 155 0
140 146 0
139 145 0
139 145 0
147 155 0
147 156 0
151 160 0
155 166 0
148 157 0
147 158 0
154 163 0
150 160 0
156 168 0
153 165 0
154 165 0
159 171 0
151 163 0
155 166 0
150 163 0
154 166 0
160 171 0
160 173 0
159 174 0
162 177 0
161 177 0
161 177 0
157 171 0
163 178 0
160 174 0
159 172 0
161 177 0
162 178 0
159 174 0
160 175 0
160 178 0
164 180 0
158 173 0
164 180 0
163 181 0
158 173 0
164 180 0
164 180 0
162 181 0
169 186 0
163 179 0
161 177 0
163 180 0
161 178 0
166 183 0
161 179 0
165 182 0
163 182 0
166 184 0
178 201 108
179 201 105
180 202 125
180 202 102
177 200 92
177 200 105
175 199 92
176 199 95
178 201 72
176 200 88
176 199 51
179 202 88
175 198 84
176 199 76
172 195 62
175 198 80
174 197 76
173 195 51
170 193 80
174 198 80
171 194 76
174 197 92
174 198 95
170 194 76
169 193 57
172 197 72
172 196 67
173 196 57
172 197 84
174 197 57
175 198 76
174 198 76
171 194 51
172 197 76
168 192 76
172 196 76
171 195 72
171 195 80
173 196 72
171 196 76
173 197 72
171 195 67
170 193 57
174 198 84
172 196 62
169 192 62
171 195 67
168 191 36
169 193 62
170 194 80
173 197 88
171 195 76
170 194 80
172 196 80
172 197 102
169 192 72
173 197 72
174 197 67
172 195 80
171 195 72
168 191 51
171 195 62
171 195 67
172 196 80
172 196 88
170 193 67
168 191 62
173 196 84
168 192 72
163 187 74
162 185 80
150 173 95
133 158 114
121 145 115
108 133 134
100 128 147
83 114 145
107 134 154
98 125 143
87 117 151
93 122 158
98 125 149
95 123 154
98 126 150
106 133 162
97 125 154
104 131 148
108 134 148
72 105 159
100 128 158
88 118 157
96 124 166
100 127 172
93 122 157
101 129 168
98 126 165
81 112 165
82 113 166
86 117 166
92 121 167
87 117 173
80 111 163
95 124 173
83 114 167
86 115 169
70 104 163
79 111 170
65 100 161
81 112 167
77 109 170
64 100 168
62 98 171
68 102 167
75 107 175
73 106 170
70 103 164
83 113 164
70 103 165
66 101 161
70 103 159
62 97 157
67 100 155
71 103 151
64 99 151
64 97 144
62 98 162
62 97 149
60 95 155
60 96 153
60 96 153
65 99 153
60 95 145
61 96 150
60 96 155
60 95 150
59 95 154
59 94 141
60 96 152
60 95 155
60 96 144
60 95 147
61 96 151
59 95 148
61 96 147
61 96 154
60 96 144
60 96 150
60 96 155
61 97 151
60 96 145
61 97 153
62 97 152
61 96 149
61 97 158
61 96 151
62 97 154
60 95 144
61 96 149
60 96 150
60 95 143
60 95 151
61 96 154
60 95 143
61 96 147
62 97 153
61 96 150
61 97 158
60 96 144
61 97 154
61 97 151
61 97 150
61 96 149
60 95 141
60 95 142
62 97 154
61 96 153
61 97 150
61 96 148
62 97 151
61 97 153
61 97 153
60 95 148
61 96 150
61 96 144
61 97 150
61 97 157
61 97 152
60 96 142
60 95 140
61 96 145
60 95 143
60 95 145
61 96 147
62 98 156
63 98 160
59 94 141
61 97 150
62 97 149
62 97 150
61 96 147
61 97 152
62 97 149
62 97 154
62 97 152
60 95 147
61 96 137
61 96 144
60 95 141
61 96 148
61 97 151
61 97 152
61 96 147
61 96 149
61 96 143
61 97 147
61 96 148
60 95 136
62 97 154
61 97 150
61 96 147
61 96 149
61 96 149
62 97 150
62 97 151
59 94 143
60 95 131
61 97 150
62 97 150
60 95 141
61 96 143
60 95 134
62 97 154
62 97 144
61 96 141
59 93 134
60 95 143
60 95 141
60 95 141
61 95 145
58 93 124
61 96 140
58 92 118
60 95 140
59 93 130
60 95 136
59 94 131
59 93 128
59 93 134
59 92 122
60 95 133
60 94 128
59 94 126
57 90 122
58 91 131
58 92 124
66 94 102
80 102 92
93 106 70
111 120 31
120 128 0
111 119 0
116 124 0
113 120 0
116 126 0
115 123 0
118 129 0
115 122 0
108 116 0
113 119 0
114 119 0
110 116 0
119 128 0
100 104 0
120 129 0
117 124 0
127 134 0
116 121 0
108 113 0
111 116 0
115 122 0
116 122 0
111 117 0
110 115 0
115 122 0
111 116 0
109 113 0
105 109 0
117 123 0
102 103 0
111 114 0
120 121 0
106 110 0
113 114 0
114 114 0
123 123 0
114 118 0
128 133 0
115 118 0
112 116 0
117 119 0
105 108 0
118 120 0
116 118 0
110 111 0
111 112 0
119 122 0
121 121 0
113 115 0
120 125 0
118 121 0
125 127 0
113 112 0
119 118 0
109 109 0
124 126 0
118 117 0
118 116 0
122 125 0
125 129 0
129 132 0
131 137 0
137 143 0
131 136 0
127 130 0
139 143 0
135 137 0
136 137 0
142 147 0
134 138 0
136 141 0
142 150 0
135 140 0
138 142 0
144 149 0
140 144 0
141 145 0
140 144 0
142 144 0
145 149 0
144 147 0
143 148 0
139 147 0
147 152 0
145 154 0
146 154 0
148 156 0
142 147 0
146 156 0
151 161 0
153 163 0
150 158 0
154 164 0
149 158 0
153 166 0
148 159 0
146 154 0
158 170 0
150 159 0
147 158 0
160 173 0
154 165 0
158 170 0
148 159 0
158 171 0
150 162 0
146 157 0
155 167 0
159 171 0
156 170 0
159 173 0
159 174 0
158 171 0
166 182 0
158 174 0
156 171 0
159 175 0
158 170 0
160 175 0
162 179 0
160 175 0
164 180 0
162 179 0
157 170 0
161 176 0
166 181 0
161 176 0
164 179 0
156 171 0
163 181 0
161 177 0
160 175 0
164 182 0
160 173 0
158 174 0
164 181 0
162 179 0
164 182 0
163 182 0
166 184 0
163 183 0
181 202 130
181 203 111
179 201 92
178 201 84
176 200 92
177 201 102
176 199 102
175 198 62
176 199 80
175 198 84
170 192 57
176 198 72
176 199 80
171 194 84
174 197 51
175 198 80
172 197 84
174 198 72
174 197 80
176 199 92
173 197 76
173 197 67
173 196 51
170 194 51
173 196 67
169 192 25
172 196 92
172 195 80
173 197 80
175 199 84
172 197 80
172 197 92
175 198 88
171 194 67
169 193 57
172 195 62
171 195 67
173 197 76
170 195 72
175 198 80
174 198 88
171 195 72
176 199 67
171 195 72
168 190 62
172 196 67
169 193 76
169 193 72
170 194 76
174 198 92
170 193 72
165 189 76
168 192 57
167 191 36
173 196 72
172 195 51
171 195 57
171 194 67
172 195 72
174 197 88
169 192 67
169 193 67
173 197 99
167 191 76
173 197 72
171 194 72
171 193 72
174 197 84
174 198 88
166 190 47
158 181 90
161 186 110
145 169 97
129 153 127
115 141 140
91 120 140
95 122 150
90 118 149
89 118 152
93 122 156
103 130 151
103 131 147
86 116 140
97 125 162
103 130 164
98 126 150
93 121 153
95 123 143
104 131 155
101 129 159
87 116 165
91 121 164
88 118 156
94 123 157
88 118 158
95 123 156
90 119 154
83 115 162
101 129 175
88 117 157
80 111 160
87 116 164
85 114 160
83 114 174
86 115 168
80 111 165
75 108 169
83 113 168
72 106 168
71 105 170
87 116 173
64 99 158
73 106 165
67 101 167
67 101 164
76 107 167
69 103 166
60 96 159
64 99 162
60 95 158
67 101 158
61 97 154
63 98 157
61 97 157
67 101 157
60 96 150
60 95 153
64 98 149
62 97 149
65 100 155
60 95 143
60 95 151
59 94 148
59 94 143
60 95 146
62 97 160
59 94 144
61 95 134
61 96 150
60 95 145
60 95 147
62 98 159
60 95 143
61 96 145
60 95 147
60 96 143
62 98 158
62 97 154
60 95 148
59 95 151
61 97 154
60 95 143
61 97 151
59 95 142
60 96 147
60 94 136
61 96 150
60 95 144
60 95 142
60 95 141
60 96 154
60 95 147
61 96 152
61 96 151
61 97 152
60 95 146
61 97 154
61 96 148
61 96 147
61 97 149
61 96 149
62 97 152
60 95 142
61 97 151
62 98 158
61 97 151
61 97 158
61 96 149
61 96 151
61 96 144
61 96 149
60 95 143
61 97 151
61 97 151
62 98 154
61 96 142
62 98 160
62 97 150
61 96 144
61 96 150
60 95 145
60 95 144
60 96 142
60 94 141
62 97 150
61 96 143
61 96 151
61 96 149
61 97 151
61 96 149
61 96 152
61 97 150
61 97 149
61 96 143
60 95 140
61 96 145
60 96 145
61 97 147
60 96 137
61 96 141
60 95 140
61 96 149
60 95 141
60 96 151
61 96 149
61 96 150
61 97 149
62 97 154
61 96 140
60 95 143
61 95 139
61 97 145
60 95 136
61 96 143
61 96 142
60 95 137
60 95 143
61 96 142
61 96 141
60 95 139
60 94 137
61 96 139
60 95 139
59 94 130
61 95 139
62 97 148
60 95 131
60 95 143
59 93 130
60 95 137
61 96 142
59 94 128
62 97 145
59 93 122
59 94 131
59 93 132
59 93 129
59 93 131
58 91 124
59 93 129
59 93 131
60 94 133
59 93 128
59 93 126
62 92 121
79 102 98
82 101 88
98 109 57
112 122 36
122 131 18
121 130 0
120 129 0
112 120 0
118 127 0
113 120 0
122 130 0
105 112 0
109 115 0
116 123 0
119 128 0
107 115 0
119 127 0
111 116 0
115 121 0
117 124 0
122 129 0
119 125 0
104 105 0
111 116 0
105 110 0
109 114 0
111 116 0
117 121 0
124 131 0
105 111 0
108 112 0
112 118 0
109 111 0
107 111 0
122 124 0
118 122 0
117 122 0
112 114 0
117 120 0
119 123 0
107 109 0
114 118 0
122 127 0
107 108 0
115 118 0
114 120 0
114 115 0
122 125 0
114 115 0
115 118 0
130 137 0
125 130 0
117 117 0
118 122 0
114 113 0
122 125 0
124 128 0
124 128 0
121 124 0
121 122 0
124 127 0
129 132 0
132 131 0
122 122 0
131 134 0
127 129 0
125 128 0
130 135 0
130 134 0
133 135 0
124 126 0
140 147 0
130 136 0
138 146 0
139 143 0
136 142 0
146 153 0
131 135 0
139 144 0
143 150 0
134 138 0
136 141 0
136 141 0
144 152 0
143 150 0
148 155 0
149 153 0
142 149 0
134 138 0
147 155 0
145 155 0
152 160 0
139 146 0
145 153 0
147 157 0
156 168 0
152 163 0
152 161 0
154 164 0
152 160 0
150 160 0
149 158 0
153 164 0
153 163 0
142 152 0
156 167 0
153 165 0
146 155 0
149 161 0
160 172 0
154 167 0
159 169 0
154 166 0
156 169 0
154 166 0
156 171 0
158 174 0
162 177 0
159 173 0
157 169 0
158 172 0
160 174 0
157 171 0
159 174 0
160 176 0
161 174 0
158 175 0
161 178 0
162 177 0
163 180 0
160 178 0
159 173 0
162 175 0
162 179 0
162 178 0
156 172 0
169 186 0
164 181 0
164 182 0
165 183 0
168 186 0
166 185 0
159 174 0
167 187 0
165 183 0
180 203 99
182 204 125
177 199 102
178 201 95
174 198 72
176 200 84
176 199 80
175 198 62
172 196 72
170 194 44
177 200 92
174 197 76
173 197 84
172 197 84
171 195 76
173 196 72
171 196 67
171 196 84
171 195 72
173 197 57
174 198 72
172 195 62
173 197 72
171 194 76
171 194 76
175 198 72
173 197 88
171 195 44
172 196 88
173 198 88
172 195 51
175 198 72
171 194 62
169 193 88
172 195 57
172 196 62
172 197 80
171 194 72
170 195 67
168 191 51
173 195 67
170 194 62
172 196 76
172 196 84
170 194 92
170 194 95
173 197 84
174 197 76
170 194 57
168 193 67
168 191 80
170 193 72
171 195 72
171 194 72
168 192 72
173 196 80
167 190 84
171 195 51
168 192 57
174 197 62
172 195 88
168 192 80
165 188 57
171 194 72
171 195 80
169 193 62
175 198 67
174 197 84
176 198 80
170 194 92
163 187 95
157 179 86
144 169 95
135 159 122
124 149 129
97 125 139
96 124 148
104 131 149
91 119 152
89 118 143
90 118 143
96 124 160
95 122 144
90 119 151
92 120 138
89 118 142
86 116 147
94 122 153
102 129 156
94 122 152
107 134 157
84 114 147
100 128 147
88 117 158
93 122 160
95 123 157
98 126 162
101 128 160
84 114 154
83 112 165
91 120 164
84 114 162
83 114 160
81 112 161
87 117 166
84 114 165
74 106 166
80 111 167
71 105 168
84 115 165
74 107 170
71 104 167
77 109 176
73 105 164
71 104 167
67 101 162
71 104 162
67 101 155
61 97 156
66 100 160
70 102 162
67 100 159
71 103 154
71 103 156
63 97 152
64 98 155
64 99 159
63 97 151
64 98 149
62 97 149
60 96 150
65 98 147
60 95 153
61 96 154
59 93 139
59 94 148
61 95 141
61 96 143
60 95 146
60 95 145
61 95 148
60 95 153
60 95 151
61 97 153
59 95 147
60 96 152
61 96 149
61 96 150
59 94 140
59 94 141
61 96 156
60 96 147
61 96 148
61 96 151
61 96 153
61 97 155
60 95 146
60 96 160
61 96 145
61 97 151
61 96 147
60 95 140
62 97 154
62 97 149
60 95 145
60 96 141
61 97 148
60 95 147
60 95 144
62 97 156
61 97 151
61 96 144
61 97 153
61 97 148
61 96 148
61 97 149
59 94 137
61 96 151
61 97 149
62 97 152
61 96 145
61 96 152
60 95 144
61 97 152
62 97 149
62 97 149
60 95 145
62 97 149
61 96 140
61 96 141
62 97 151
60 96 140
60 96 142
62 97 152
61 97 149
60 96 145
60 95 149
61 97 150
61 96 148
61 96 143
62 97 149
61 97 152
61 96 145
60 95 143
62 97 152
60 95 145
62 97 154
60 95 142
60 96 142
61 96 145
62 97 158
61 97 152
61 96 147
60 95 142
60 95 145
59 94 139
61 97 151
60 95 136
60 95 139
61 97 149
61 96 147
60 96 147
61 96 137
60 95 143
60 95 141
61 96 141
60 96 145
61 97 151
61 96 143
63 98 154
61 96 141
61 96 141
62 97 144
60 95 136
61 97 149
62 97 149
60 94 133
60 95 136
59 94 140
59 92 128
59 94 138
62 97 147
61 96 136
60 94 135
60 95 133
62 96 143
60 94 128
62 97 149
60 95 139
59 92 134
59 93 126
57 89 113
58 91 133
56 89 115
66 95 117
84 106 94
110 125 65
110 122 44
121 131 0
116 126 0
116 123 0
107 117 0
116 124 0
115 124 0
119 130 0
113 122 0
120 130 0
108 116 0
121 130 0
108 117 0
120 127 0
120 130 0
117 124 0
123 130 0
125 133 0
119 123 0
122 130 0
115 122 0
118 125 0
125 134 0
111 113 0
115 123 0
111 119 0
121 123 0
121 128 0
115 120 0
108 112 0
115 120 0
112 115 0
108 111 0
124 131 0
117 121 0
112 118 0
122 125 0
121 124 0
119 124 0
119 121 0
118 121 0
110 112 0
125 131 0
117 122 0
120 122 0
125 130 0
126 129 0
117 119 0
121 126 0
128 130 0
118 121 0
119 123 0
119 120 0
118 121 0
130 132 0
120 119 0
117 118 0
122 128 0
132 139 0
121 121 0
123 127 0
131 134 0
127 132 0
119 118 0
137 141 0
126 128 0
129 136 0
136 142 0
135 138 0
141 147 0
126 129 0
125 127 0
130 132 0
143 149 0
137 143 0
139 145 0
142 147 0
141 148 0
136 140 0
146 152 0
138 142 0
145 152 0
144 150 0
148 156 0
143 150 0
141 147 0
146 150 0
147 154 0
134 143 0
152 162 0
146 156 0
150 159 0
148 157 0
159 172 0
148 158 0
157 170 0
152 163 0
146 157 0
147 157 0
159 173 0
152 163 0
151 163 0
149 161 0
149 162 0
156 169 0
154 165 0
163 175 0
153 163 0
160 173 0
150 161 0
157 171 0
156 168 0
156 169 0
162 175 0
155 169 0
161 175 0
153 167 0
163 179 0
155 170 0
153 166 0
162 176 0
158 175 0
155 168 0
155 170 0
155 169 0
164 178 0
160 177 0
159 176 0
158 176 0
162 179 0
161 178 0
161 178 0
165 182 0
158 175 0
165 183 0
162 179 0
162 180 0
163 181 0
161 180 0
168 185 0
163 179 0
164 180 0
163 180 0
178 201 80
173 197 80
172 195 67
175 198 99
174 197 67
174 197 72
175 198 80
172 196 67
175 199 72
173 197 80
173 196 67
175 199 92
174 197 62
173 197 62
174 197 99
173 198 99
174 197 57
171 195 57
168 192 76
173 197 57
174 196 44
171 195 76
173 197 76
173 196 57
173 197 67
176 200 102
174 197 67
173 196 57
170 194 57
173 196 51
170 194 84
172 196 72
173 198 80
175 198 72
172 197 44
173 197 51
171 195 92
172 195 88
166 191 44
173 196 72
173 197 80
170 193 62
173 198 88
175 198 102
170 194 72
172 195 67
172 195 57
174 197 72
175 199 88
169 192 88
171 195 76
169 193 67
170 193 62
170 194 80
168 192 80
168 193 76
168 191 51
169 193 80
167 190 67
173 196 88
174 198 72
174 197 92
169 192 76
170 193 84
167 189 76
164 187 57
166 189 67
168 190 80
172 195 88
171 196 88
170 194 90
161 185 86
147 171 108
138 163 108
133 158 117
106 132 136
98 126 150
102 128 143
92 121 157
98 127 159
98 125 143
97 125 147
100 129 164
86 115 155
104 132 143
84 115 157
100 128 152
102 129 147
93 121 157
97 124 151
97 125 145
92 120 153
106 133 170
96 124 156
102 129 166
89 119 165
100 128 166
97 125 164
98 125 153
90 120 164
82 112 160
83 113 163
93 122 160
84 114 172
77 109 170
77 109 161
83 114 169
90 119 169
83 113 169
80 111 171
73 105 165
87 117 172
67 102 166
71 104 169
71 104 169
74 106 165
74 106 165
71 103 162
70 103 158
59 95 152
66 100 152
63 98 156
65 100 158
62 97 154
65 99 153
60 95 149
59 95 146
59 94 148
64 98 137
61 97 160
67 99 143
63 96 135
59 95 150
59 94 146
63 98 150
61 96 147
61 96 141
61 96 143
59 95 143
61 96 147
59 94 148
59 94 145
61 97 147
61 97 150
61 96 149
60 95 143
59 94 148
61 96 155
61 96 149
60 95 143
60 96 148
62 97 155
60 95 151
61 97 154
60 95 148
60 95 141
61 97 157
61 97 151
60 96 145
61 96 150
60 95 141
61 96 149
61 97 151
59 94 139
61 96 151
60 96 146
60 96 145
60 96 143
61 96 148
61 96 148
60 95 141
61 96 145
60 95 137
60 95 145
62 97 151
60 96 141
61 96 147
60 95 146
60 95 140
61 97 155
61 96 149
60 95 144
61 96 150
61 97 148
61 96 143
61 96 144
60 96 149
60 95 145
61 96 142
60 95 135
61 97 149
62 98 154
59 94 149
61 96 148
59 94 139
61 97 149
62 97 147
61 97 152
62 97 148
61 96 144
61 96 150
60 96 143
61 96 147
61 95 142
61 97 149
62 97 149
61 96 140
61 97 144
60 95 144
61 96 141
61 96 147
61 95 140
61 96 148
61 96 141
62 98 156
60 94 139
59 94 135
60 96 142
61 95 144
61 96 142
61 96 149
58 93 128
62 97 152
61 96 142
61 96 150
61 95 140
62 97 149
60 94 137
61 96 148
61 96 148
61 96 145
60 94 122
59 93 126
61 97 145
60 95 137
60 95 137
59 93 131
59 93 126
61 96 145
62 97 151
61 96 144
61 95 140
60 94 139
59 94 135
59 94 128
59 93 124
60 94 139
59 92 130
59 93 132
59 93 129
59 93 139
59 92 124
59 92 123
59 91 118
76 99 108
93 111 79
99 113 57
117 127 31
106 116 0
114 122 0
124 134 0
118 128 0
129 140 0
117 125 0
117 126 0
123 131 0
111 119 0
112 123 0
114 121 0
122 131 0
119 125 0
130 140 0
112 120 0
117 125 0
126 133 0
112 118 0
116 123 0
118 123 0
120 130 0
113 121 0
97 100 0
124 127 0
112 117 0
123 131 0
121 124 0
117 125 0
127 133 0
111 117 0
122 130 0
115 118 0
122 129 0
111 113 0
113 118 0
119 124 0
123 126 0
118 122 0
115 121 0
113 119 0
117 121 0
121 128 0
125 131 0
122 126 0
109 111 0
130 128 0
126 130 0
130 135 0
120 123 0
130 135 0
120 124 0
120 123 0
126 127 0
125 128 0
126 129 0
119 122 0
132 134 0
130 136 0
125 128 0
134 139 0
136 140 0
132 136 0
136 142 0
137 141 0
131 136 0
137 141 0
140 143 0
128 135 0
138 143 0
134 137 0
130 132 0
140 147 0
139 145 0
137 141 0
134 141 0
140 144 0
145 153 0
137 144 0
139 144 0
149 157 0
145 149 0
142 149 0
144 149 0
144 151 0
139 143 0
140 148 0
147 156 0
149 159 0
147 156 0
149 156 0
146 158 0
143 151 0
151 160 0
140 148 0
152 160 0
151 158 0
153 163 0
152 164 0
146 154 0
158 170 0
154 168 0
154 167 0
150 161 0
150 161 0
160 174 0
160 174 0
154 166 0
154 166 0
151 165 0
153 164 0
154 165 0
163 178 0
160 174 0
156 170 0
163 178 0
162 178 0
154 167 0
159 175 0
162 178 0
161 176 0
160 174 0
160 175 0
160 178 0
157 174 0
155 171 0
157 170 0
160 175 0
164 182 0
158 176 0
159 177 0
165 181 0
166 184 0
159 176 0
161 178 0
160 178 0
165 183 0
168 184 0
162 178 0
162 181 0
158 175 0
163 182 0
163 178 0
175 199 88
175 198 67
171 195 62
174 198 88
175 199 76
173 197 72
175 197 76
174 198 88
172 195 72
173 195 67
176 199 44
174 197 80
170 194 67
173 197 67
173 197 76
174 198 92
171 195 51
174 198 84
173 197 67
174 198 72
174 197 67
171 195 72
171 195 57
172 196 72
171 195 84
171 195 80
175 199 92
175 198 80
169 193 62
174 197 62
169 193 80
173 197 76
170 193 44
173 197 67
170 194 62
171 195 72
172 196 76
173 197 92
171 195 67
172 195 88
171 196 76
172 195 51
175 199 92
169 193 72
175 199 95
170 194 95
168 192 57
171 195 72
170 193 72
173 197 80
168 192 72
171 194 67
167 191 57
169 194 84
170 194 76
172 196 88
170 194 88
168 191 62
168 192 84
167 190 57
169 192 62
167 191 80
166 189 67
171 195 80
172 195 51
166 189 57
169 192 84
172 196 92
170 193 76
171 195 92
166 189 76
163 186 80
148 172 84
146 171 102
131 157 130
111 137 144
98 125 144
92 120 138
89 118 149
100 127 144
99 127 162
87 117 154
100 127 148
87 116 147
87 115 141
97 124 142
99 127 149
103 130 154
94 122 148
86 115 141
97 124 155
87 116 150
106 132 158
91 120 151
97 125 151
90 119 149
106 132 161
92 121 160
89 118 153
91 119 158
96 123 146
87 117 161
82 113 161
85 115 158
79 110 167
86 116 173
70 103 160
73 106 160
86 115 166
82 112 164
78 109 167
76 108 159
81 111 169
67 102 159
92 121 179
69 102 161
76 108 165
71 104 168
71 105 174
65 100 169
67 101 162
70 103 156
70 102 153
75 106 153
70 104 165
67 102 160
62 95 148
69 101 155
65 99 145
61 96 154
60 95 148
63 98 158
62 97 150
59 94 147
62 97 155
61 96 147
58 93 141
61 96 157
60 95 145
63 97 148
60 95 151
59 94 143
59 95 143
59 94 145
60 96 152
60 95 147
57 92 128
60 95 146
61 97 160
60 96 150
61 96 149
60 96 153
60 95 153
61 96 148
59 94 146
60 96 150
60 96 142
60 96 148
62 97 151
60 95 150
60 96 147
62 97 152
61 97 155
60 96 150
60 96 145
61 97 154
59 94 139
60 96 145
62 97 144
60 96 151
60 95 140
62 97 154
61 96 146
61 96 148
61 97 150
61 96 148
60 95 139
61 97 152
61 96 143
61 97 156
61 96 148
61 96 140
61 96 145
61 97 151
62 97 149
61 96 144
61 96 148
60 95 141
62 97 150
61 96 144
61 97 145
61 96 137
61 97 152
61 96 143
61 96 142
61 96 145
60 95 143
61 96 141
60 95 137
60 96 151
62 98 154
60 95 126
62 97 154
61 97 151
60 96 147
60 95 142
60 95 133
62 97 147
61 96 143
60 95 139
60 95 140
62 97 148
61 96 148
61 95 144
60 95 135
61 96 143
59 94 133
61 96 144
62 98 155
61 96 149
59 95 140
61 96 143
60 95 140
60 94 136
60 94 137
60 95 134
59 94 135
61 96 148
63 98 153
61 96 148
63 98 154
60 95 141
60 95 140
60 95 136
60 95 134
60 95 145
60 95 146
60 94 130
59 94 137
60 95 137
60 95 130
61 95 141
60 95 138
60 95 128
60 94 133
58 92 129
59 92 129
57 91 122
57 91 117
60 93 135
57 90 113
58 90 121
58 92 123
61 91 114
81 105 102
87 105 75
115 127 44
113 124 18
122 136 0
112 121 0
119 130 0
117 128 0
126 136 0
126 135 0
126 136 0
130 143 0
110 118 0
124 134 0
115 125 0
120 131 0
122 132 0
123 131 0
121 127 0
114 120 0
116 126 0
106 112 0
115 122 0
112 119 0
120 129 0
118 126 0
117 124 0
113 121 0
117 122 0
118 125 0
107 112 0
115 120 0
124 130 0
119 126 0
122 129 0
121 128 0
114 123 0
119 123 0
116 120 0
131 137 0
125 130 0
124 133 0
123 128 0
127 135 0
125 130 0
126 129 0
120 126 0
127 133 0
133 139 0
122 124 0
119 122 0
114 117 0
126 130 0
124 126 0
130 134 0
136 140 0
121 124 0
122 126 0
130 132 0
131 136 0
137 142 0
125 133 0
135 141 0
126 130 0
137 143 0
132 136 0
130 135 0
137 139 0
137 141 0
138 146 0
141 145 0
137 142 0
129 132 0
135 140 0
129 136 0
139 148 0
140 148 0
133 138 0
135 141 0
143 149 0
146 155 0
146 154 0
136 145 0
144 150 0
149 154 0
143 150 0
147 155 0
140 147 0
142 151 0
142 150 0
152 161 0
151 159 0
149 159 0
148 157 0
149 155 0
153 164 0
151 160 0
152 158 0
155 167 0
151 163 0
148 159 0
158 170 0
156 169 0
151 161 0
159 173 0
145 154 0
161 174 0
154 164 0
150 161 0
160 173 0
155 165 0
153 165 0
153 167 0
163 176 0
165 178 0
159 174 0
158 172 0
163 177 0
164 180 0
158 170 0
162 177 0
158 173 0
157 173 0
160 174 0
154 167 0
163 179 0
160 175 0
166 182 0
160 175 0
164 181 0
157 171 0
159 175 0
163 180 0
159 173 0
161 180 0
163 179 0
163 180 0
164 181 0
163 178 0
163 181 0
168 186 0
161 179 0
162 179 0
162 181 0
163 181 0
162 177 0
173 197 67
176 199 57
172 194 62
174 197 51
175 197 36
172 195 76
174 198 67
174 197 80
172 195 80
174 198 76
173 197 80
174 198 72
174 198 84
175 199 88
171 195 36
170 194 62
171 194 72
170 194 67
171 196 72
175 199 67
171 194 67
171 195 36
174 197 72
170 194 62
171 194 62
170 194 80
170 193 51
174 197 76
171 194 80
173 197 67
175 198 62
167 192 80
167 191 44
174 196 57
171 195 80
173 197 80
170 193 76
174 197 51
172 196 76
169 193 44
173 197 72
172 196 76
166 190 44
171 194 84
171 195 72
171 195 57
172 195 57
173 197 72
172 196 80
172 195 62
170 194 80
169 192 72
169 193 80
168 191 76
170 193 67
166 190 80
166 189 62
168 191 57
170 195 72
168 192 88
172 195 92
169 193 72
172 195 72
173 196 92
160 183 51
166 190 36
170 193 57
171 194 72
166 190 67
173 197 80
172 194 76
163 186 67
161 185 78
146 169 103
135 159 102
120 145 113
84 114 140
93 122 151
102 128 136
88 117 148
87 116 141
85 114 143
98 125 153
86 115 156
102 129 144
92 120 150
92 121 158
103 129 149
92 120 140
96 123 144
91 120 156
89 118 155
99 125 151
96 124 155
98 125 150
100 128 147
107 133 152
98 126 162
91 121 161
82 112 158
80 111 156
82 112 154
89 119 161
90 119 161
80 110 159
93 121 166
74 107 170
85 115 165
86 116 176
89 119 175
83 113 165
76 107 169
71 104 160
71 104 169
75 107 173
71 104 165
68 102 169
72 104 159
68 102 164
73 105 162
65 100 160
63 97 153
72 103 155
65 99 157
60 96 156
63 99 165
68 101 152
66 99 151
66 99 148
63 97 153
63 98 156
62 96 146
66 100 143
63 98 145
59 94 140
59 94 143
60 94 149
60 95 145
61 97 156
59 93 145
60 95 144
60 95 150
59 94 144
60 95 151
59 94 144
60 95 156
60 96 151
60 96 144
61 96 144
60 95 141
60 96 154
60 95 147
59 94 143
60 96 150
60 95 144
59 94 144
62 98 157
59 94 146
61 96 149
61 96 155
59 95 147
61 96 155
60 96 154
60 96 149
61 97 151
60 95 144
61 96 145
61 96 153
62 97 152
60 95 141
61 96 150
62 97 153
61 97 148
60 96 142
62 97 151
59 94 139
62 97 153
61 97 151
61 96 154
61 96 152
61 96 147
60 95 141
60 96 137
61 96 154
58 93 135
61 96 149
61 96 142
61 96 149
61 96 148
61 97 151
61 96 149
60 95 141
61 96 148
60 95 148
61 96 150
60 95 139
61 96 144
60 95 141
62 97 149
61 96 145
61 97 145
61 96 147
61 97 155
60 95 144
61 96 147
60 95 140
60 95 137
61 97 150
61 96 145
61 96 148
60 95 141
61 96 156
60 94 134
61 96 144
60 95 143
59 94 140
61 96 149
60 95 142
61 96 150
60 95 135
59 94 136
60 94 130
60 95 136
60 96 143
61 95 142
60 94 133
60 94 142
60 95 139
60 95 142
60 95 142
58 92 129
59 94 134
61 95 135
58 92 121
61 96 143
60 94 135
60 95 133
59 94 128
58 92 116
61 96 143
59 93 133
59 93 129
60 95 140
59 93 139
59 93 126
61 95 141
59 93 131
59 93 129
57 90 120
58 92 124
60 94 135
58 92 125
55 87 111
72 98 109
80 101 84
97 112 63
114 127 25
112 123 0
116 127 0
120 128 0
104 113 0
113 124 0
127 136 0
107 116 0
113 126 0
115 127 0
110 121 0
115 125 0
120 130 0
124 132 0
124 134 0
130 142 0
118 126 0
124 133 0
119 127 0
119 127 0
115 122 0
116 124 0
130 137 0
118 127 0
123 130 0
110 117 0
125 135 0
126 132 0
123 131 0
124 131 0
127 135 0
126 133 0
115 121 0
122 128 0
131 139 0
128 134 0
125 132 0
124 130 0
115 120 0
125 130 0
118 123 0
121 127 0
122 127 0
125 130 0
118 119 0
116 118 0
112 118 0
133 137 0
117 122 0
125 130 0
129 134 0
129 135 0
132 138 0
127 133 0
121 123 0
133 137 0
118 122 0
132 139 0
131 137 0
129 133 0
131 136 0
132 135 0
124 126 0
135 142 0
126 131 0
137 144 0
140 146 0
134 141 0
131 139 0
132 138 0
132 134 0
141 149 0
131 136 0
141 152 0
136 141 0
135 141 0
143 150 0
140 147 0
143 150 0
142 149 0
147 154 0
140 147 0
144 152 0
145 153 0
139 146 0
137 142 0
148 155 0
148 157 0
149 158 0
148 159 0
150 158 0
152 164 0
154 165 0
145 152 0
150 163 0
151 161 0
152 160 0
150 161 0
148 159 0
152 163 0
155 169 0
154 167 0
163 177 0
158 170 0
151 160 0
148 160 0
154 164 0
158 173 0
154 166 0
157 172 0
159 170 0
159 172 0
152 165 0
160 174 0
153 170 0
160 174 0
158 171 0
163 179 0
158 175 0
158 172 0
162 177 0
165 182 0
160 175 0
157 171 0
165 182 0
161 179 0
165 181 0
161 177 0
159 175 0
167 185 0
163 178 0
160 174 0
166 184 0
168 186 0
165 182 0
162 179 0
163 177 0
159 176 0
168 185 0
163 178 0
162 181 0
164 180 0
163 181 0
164 182 0
175 199 88
175 198 80
173 196 62
173 197 80
176 199 51
174 197 67
172 196 67
175 198 57
171 194 67
171 195 44
175 200 88
176 199 84
173 197 51
176 199 76
170 194 80
174 197 67
170 194 51
171 195 72
173 196 62
173 198 99
173 197 92
170 193 51
168 192 57
172 195 88
173 198 88
176 200 88
174 198 80
169 193 57
173 197 84
170 193 62
169 193 67
171 194 57
169 194 76
171 194 76
168 191 72
166 190 67
173 197 80
167 191 36
172 195 72
167 191 67
169 193 88
173 197 67
167 191 62
171 194 67
165 188 51
166 189 76
168 191 72
171 196 88
171 194 67
172 196 84
169 192 62
169 193 80
171 195 95
168 192 67
164 187 51
168 193 92
171 195 84
170 193 51
165 188 44
168 191 80
168 192 99
169 193 88
169 193 84
173 198 76
167 190 76
165 188 72
172 196 84
164 188 62
170 193 76
166 189 84
166 189 67
172 195 76
168 191 76
146 169 102
146 171 111
126 151 110
120 146 147
86 115 144
97 125 156
92 120 154
100 127 152
91 119 148
91 119 150
93 121 149
87 115 143
97 124 155
94 123 160
108 135 160
97 125 144
94 121 151
106 132 156
91 119 145
84 113 137
95 123 149
91 120 145
89 117 152
94 121 137
100 127 153
93 122 153
88 116 148
89 119 161
80 110 150
86 116 162
85 114 161
82 113 158
88 118 166
87 117 163
76 109 158
89 118 160
86 116 172
72 105 163
71 104 161
67 101 166
72 105 162
85 115 173
67 101 164
76 107 163
70 104 169
66 100 159
68 102 165
69 101 158
67 100 158
68 102 160
65 98 152
62 95 153
63 97 155
73 106 157
63 97 148
62 96 148
59 95 151
63 97 139
63 97 146
59 94 137
59 93 141
64 97 136
63 97 153
62 97 142
62 96 148
60 95 144
60 95 140
62 97 145
60 95 153
61 95 140
60 95 146
60 95 145
61 97 155
60 95 144
58 93 146
59 94 147
59 94 141
60 95 149
61 97 155
59 94 140
60 95 148
59 94 143
62 97 154
61 96 147
61 96 149
61 97 155
61 96 150
61 96 151
61 97 149
61 97 148
61 95 142
59 94 141
61 96 144
62 97 153
61 96 149
61 96 148
59 94 126
61 96 150
61 96 145
61 96 147
61 97 146
61 96 151
61 97 150
61 97 156
62 97 148
61 96 142
60 96 141
60 96 140
61 96 145
60 95 144
61 96 148
62 97 149
62 98 155
61 96 145
61 96 147
60 95 143
61 95 139
60 94 136
60 96 145
61 97 145
61 97 151
60 95 139
61 96 143
62 97 152
60 95 143
61 96 139
60 94 130
61 96 144
61 96 135
61 97 144
62 97 147
60 95 143
61 96 140
61 96 147
60 95 141
60 95 143
60 95 142
61 96 139
61 97 144
61 97 141
60 96 142
62 97 147
61 96 144
62 97 150
60 95 143
61 96 137
61 95 137
61 96 148
61 96 143
60 95 135
61 96 141
62 97 150
60 95 142
61 96 143
60 94 135
60 95 135
60 95 134
59 94 135
60 95 135
61 96 136
60 94 131
60 95 141
61 95 143
61 96 144
60 94 130
60 95 139
60 95 136
60 94 131
60 95 141
60 94 137
61 96 137
59 94 131
59 94 133
58 91 125
57 90 118
59 93 130
58 91 123
59 92 113
57 89 114
66 94 101
88 110 108
97 112 81
107 118 51
125 137 0
110 121 0
119 128 0
128 140 0
109 118 0
116 128 0
118 130 0
114 126 0
116 125 0
114 126 0
126 138 0
115 125 0
117 127 0
111 119 0
114 124 0
124 132 0
126 136 0
113 122 0
124 133 0
116 122 0
129 139 0
129 140 0
122 130 0
121 128 0
125 132 0
114 119 0
113 119 0
110 118 0
125 135 0
125 133 0
120 128 0
113 121 0
126 135 0
123 131 0
121 128 0
127 134 0
127 135 0
122 127 0
122 128 0
127 132 0
123 130 0
116 120 0
130 136 0
125 132 0
126 132 0
121 126 0
123 127 0
104 108 0
125 130 0
118 122 0
126 133 0
126 131 0
123 129 0
134 138 0
120 122 0
129 135 0
134 138 0
136 142 0
123 127 0
134 141 0
134 141 0
136 140 0
129 136 0
126 132 0
137 142 0
133 138 0
146 154 0
139 145 0
144 150 0
131 137 0
141 147 0
142 149 0
137 145 0
140 145 0
143 150 0
139 146 0
141 151 0
139 148 0
145 153 0
145 152 0
143 148 0
142 149 0
144 153 0
145 152 0
144 152 0
149 160 0
145 154 0
147 155 0
152 160 0
150 159 0
148 157 0
153 162 0
153 165 0
152 163 0
146 157 0
152 161 0
156 168 0
159 172 0
153 165 0
155 166 0
151 160 0
151 160 0
152 163 0
145 155 0
158 172 0
154 169 0
160 172 0
153 164 0
154 167 0
152 165 0
159 171 0
162 176 0
157 172 0
157 171 0
159 174 0
156 167 0
160 178 0
158 172 0
155 170 0
164 180 0
160 173 0
154 166 0
157 172 0
161 179 0
162 177 0
158 172 0
160 177 0
160 176 0
161 180 0
160 175 0
158 174 0
161 177 0
159 177 0
156 171 0
165 184 0
165 182 0
166 185 0
163 179 0
165 184 0
164 182 0
164 182 0
165 183 0
163 182 0
166 184 0
175 198 62
173 196 57
173 197 76
171 195 84
174 197 57
173 197 57
174 197 76
173 197 84
172 195 76
176 199 76
172 195 51
170 194 76
173 196 72
172 196 57
170 195 80
173 196 51
169 193 67
173 197 62
172 197 95
171 195 72
167 192 67
171 196 76
172 196 67
174 198 95
174 198 80
172 196 84
171 194 67
169 194 67
170 194 72
174 198 76
170 194 72
170 193 51
170 194 80
170 195 76
171 194 84
172 196 67
172 197 95
171 195 67
174 197 57
166 190 67
169 193 80
168 192 44
172 196 84
166 190 51
170 194 84
171 194 67
174 198 67
170 194 51
170 194 51
170 193 72
162 186 62
168 192 62
172 195 57
171 195 62
168 192 80
169 193 72
170 195 99
164 188 76
168 191 51
166 190 72
169 193 95
171 194 80
173 195 67
167 191 76
165 189 80
171 195 80
170 194 80
169 192 80
170 193 36
167 191 67
169 192 80
164 188 62
168 192 84
164 187 111
146 169 92
136 160 115
125 150 126
104 131 134
95 123 153
83 112 134
106 133 154
88 117 150
101 128 149
82 112 143
90 118 148
101 128 161
92 120 133
85 115 158
92 120 149
93 120 151
99 126 145
93 122 153
95 122 149
92 120 156
87 117 149
86 114 145
81 111 130
95 123 141
86 116 149
88 117 155
89 118 143
93 122 166
84 113 154
87 116 156
85 115 157
93 121 161
89 118 168
92 121 155
84 113 167
85 115 166
82 112 167
83 113 157
75 107 166
75 108 170
81 112 166
68 102 165
87 116 171
72 105 164
65 100 163
67 100 158
64 98 153
69 101 157
63 97 150
67 100 154
71 104 162
62 97 153
61 97 155
66 100 155
60 95 146
60 95 151
64 98 149
65 97 132
62 96 150
62 96 139
62 97 148
64 98 150
60 94 133
60 95 141
59 94 133
60 95 140
61 96 149
63 97 144
60 96 147
62 96 145
59 94 143
58 92 131
60 95 137
61 96 151
60 96 144
59 94 135
61 96 149
60 96 152
59 93 138
61 96 143
60 95 153
59 94 143
60 96 142
62 98 157
60 94 133
60 95 139
60 95 142
60 95 147
61 97 148
61 96 141
60 96 149
62 97 151
60 95 139
61 97 152
59 94 137
60 95 140
59 94 141
60 96 142
61 96 153
61 96 148
61 96 143
61 95 141
61 96 144
59 93 134
62 97 153
60 96 145
60 95 141
60 95 135
62 97 153
62 97 154
60 95 144
60 96 139
61 96 147
59 94 138
61 97 150
59 94 137
61 97 143
60 95 144
61 97 152
61 96 147
61 96 145
60 96 143
61 96 141
61 96 144
60 95 140
60 94 135
60 95 148
60 95 142
60 95 139
61 97 144
60 94 144
61 96 137
60 96 142
61 96 139
61 96 139
62 97 145
61 96 144
61 96 147
60 95 139
61 96 143
60 95 137
61 96 140
61 96 147
60 95 135
60 95 134
60 95 133
61 96 148
61 96 143
60 95 136
61 96 143
60 95 143
61 96 139
62 97 142
60 95 139
59 94 130
61 96 144
58 93 130
60 94 135
60 94 135
59 93 129
59 93 131
61 96 135
58 92 126
59 93 128
60 95 135
60 95 135
60 95 137
61 96 142
61 95 137
59 93 129
60 94 134
59 92 126
59 92 127
58 91 122
57 90 124
58 92 117
56 89 113
60 92 117
68 94 101
96 115 83
94 111 62
108 120 26
128 139 0
128 141 0
122 132 0
125 135 0
126 138 0
117 129 0
125 136 0
117 125 0
129 142 0
112 123 0
126 137 0
125 134 0
115 125 0
111 121 0
116 126 0
123 131 0
101 108 0
121 132 0
125 131 0
120 128 0
121 129 0
114 123 0
116 125 0
124 130 0
122 132 0
114 124 0
122 130 0
111 119 0
110 119 0
118 123 0
119 129 0
118 127 0
123 129 0
115 122 0
128 138 0
124 132 0
118 125 0
119 126 0
130 143 0
121 129 0
119 126 0
126 132 0
115 122 0
120 128 0
124 133 0
125 132 0
126 129 0
125 132 0
128 135 0
137 146 0
129 134 0
120 123 0
123 129 0
127 135 0
127 135 0
118 123 0
135 143 0
133 138 0
133 141 0
129 133 0
130 138 0
134 137 0
129 133 0
142 149 0
140 145 0
138 146 0
134 142 0
142 151 0
141 148 0
135 143 0
137 144 0
134 142 0
139 146 0
137 142 0
146 155 0
142 153 0
143 150 0
144 153 0
142 150 0
145 154 0
139 149 0
150 162 0
149 159 0
143 151 0
145 155 0
152 164 0
148 158 0
145 152 0
146 156 0
144 152 0
151 161 0
152 162 0
148 158 0
153 162 0
151 161 0
154 164 0
154 166 0
153 165 0
150 161 0
149 161 0
145 155 0
164 177 0
149 160 0
156 168 0
147 159 0
152 164 0
151 162 0
157 169 0
158 169 0
161 174 0
154 167 0
157 170 0
156 171 0
157 172 0
159 174 0
157 172 0
159 175 0
160 176 0
160 175 0
160 176 0
158 171 0
159 173 0
158 172 0
159 171 0
161 177 0
161 175 0
165 182 0
156 175 0
165 181 0
165 183 0
165 181 0
161 180 0
159 178 0
170 189 0
161 176 0
160 174 0
165 183 0
163 181 0
164 182 0
164 181 0
160 178 0
167 184 0
166 187 0
165 183 0
173 197 51
174 198 72
174 197 67
174 198 84
173 197 76
173 197 76
174 198 88
172 196 62
172 196 67
173 196 62
176 200 92
173 197 84
173 198 95
173 196 72
171 195 72
170 194 67
173 196 62
174 198 84
173 196 72
172 196 51
174 199 92
172 197 80
170 194 67
170 194 62
175 199 80
167 192 72
170 195 92
169 192 51
170 195 80
173 197 80
172 196 57
173 197 76
173 198 84
171 195 84
170 193 84
175 199 92
169 192 51
171 194 72
168 192 67
171 194 62
168 192 57
169 193 62
167 191 57
172 196 80
170 194 92
167 191 72
167 191 67
172 195 76
169 194 62
170 193 62
169 193 72
169 192 67
169 193 62
168 192 84
169 193 80
166 190 84
164 187 80
168 192 67
169 193 84
168 192 92
169 193 95
164 188 67
169 193 72
169 193 80
170 192 72
175 198 88
167 191 92
170 194 62
166 189 51
170 194 95
167 190 76
165 188 67
173 196 80
163 186 67
148 172 94
141 164 95
128 153 114
106 132 130
88 116 124
95 122 139
85 114 137
97 125 145
93 120 143
95 123 152
97 124 156
87 115 142
101 128 154
99 127 155
102 128 139
90 119 137
105 132 156
96 123 143
99 126 163
109 134 159
97 124 148
99 127 152
99 126 147
102 128 149
87 115 146
88 117 150
103 131 160
90 119 151
92 120 161
87 115 148
87 117 163
81 112 158
86 116 165
90 118 160
88 117 155
77 108 154
93 122 170
82 113 163
78 109 161
84 114 174
76 107 167
66 101 162
76 107 170
79 109 162
64 99 159
69 102 157
63 98 157
70 103 156
71 104 157
65 98 157
68 101 159
65 99 145
62 96 156
70 103 157
60 93 134
67 100 152
63 97 147
67 99 142
59 94 140
63 97 149
61 95 140
61 95 139
59 93 148
59 94 147
62 96 145
63 97 143
60 96 142
59 94 137
58 93 141
61 96 138
60 95 145
61 96 148
59 95 144
60 96 147
59 94 136
61 96 144
60 95 146
60 95 143
60 94 143
60 96 153
59 94 137
60 95 139
60 95 146
60 95 147
61 96 149
60 96 145
60 95 144
60 95 135
60 95 143
62 98 154
60 95 139
59 94 135
60 95 149
60 96 145
61 96 144
59 94 136
60 95 147
61 97 145
60 95 142
61 96 151
60 95 143
60 96 150
62 98 150
62 97 153
61 96 148
61 97 147
60 94 137
61 96 148
61 96 149
62 97 147
61 97 145
62 97 151
61 97 150
60 95 141
60 96 144
61 96 142
61 96 141
61 96 148
61 96 145
61 96 148
60 95 137
60 95 142
61 96 147
61 96 143
62 97 147
61 96 147
62 97 151
60 95 143
61 96 137
61 96 143
59 94 143
60 94 142
61 96 143
62 97 143
60 95 143
61 96 147
62 97 154
60 95 140
60 95 137
61 96 141
59 94 135
61 96 141
61 96 136
60 94 139
61 96 143
61 96 151
59 93 137
61 96 141
60 94 125
61 96 142
62 97 149
62 97 152
60 95 141
62 97 144
60 94 134
61 96 143
61 96 137
59 93 130
60 94 135
60 95 137
59 93 136
60 94 130
60 94 137
62 97 145
60 95 139
61 95 139
60 94 129
60 94 129
61 95 137
59 93 135
61 95 143
58 91 114
60 95 136
59 93 129
59 94 124
59 92 131
57 91 121
69 96 111
85 106 90
103 120 67
119 131 45
115 127 18
114 127 0
131 143 0
119 129 0
123 132 0
125 135 0
120 132 0
116 124 0
120 133 0
128 141 0
124 135 0
106 115 0
121 131 0
132 142 0
126 135 0
117 129 0
120 130 0
126 137 0
124 134 0
129 140 0
128 139 0
122 133 0
124 135 0
112 118 0
113 121 0
129 141 0
118 127 0
134 145 0
128 136 0
122 129 0
129 138 0
121 131 0
122 130 0
124 133 0
118 127 0
113 120 0
126 135 0
131 139 0
124 130 0
125 132 0
130 137 0
132 140 0
127 134 0
130 140 0
129 137 0
126 134 0
133 141 0
138 144 0
140 145 0
128 134 0
121 127 0
119 124 0
124 129 0
137 145 0
129 135 0
129 135 0
126 133 0
127 132 0
126 131 0
136 143 0
142 150 0
129 134 0
136 143 0
132 138 0
138 145 0
138 143 0
142 150 0
132 138 0
136 142 0
132 135 0
136 144 0
134 142 0
139 146 0
138 146 0
145 154 0
146 156 0
142 151 0
149 160 0
135 143 0
142 151 0
144 152 0
147 156 0
153 164 0
150 159 0
157 168 0
142 150 0
151 163 0
147 157 0
146 157 0
148 157 0
150 163 0
150 162 0
145 156 0
148 158 0
146 154 0
146 156 0
147 162 0
152 162 0
153 164 0
155 167 0
147 158 0
153 166 0
156 168 0
157 170 0
155 167 0
154 167 0
158 169 0
151 163 0
159 173 0
158 171 0
156 172 0
153 164 0
160 175 0
156 171 0
159 174 0
160 178 0
161 176 0
163 178 0
156 170 0
166 182 0
162 177 0
161 177 0
158 173 0
158 175 0
165 183 0
161 177 0
160 178 0
161 179 0
163 179 0
165 181 0
159 176 0
167 185 0
166 183 0
158 174 0
165 184 0
160 176 0
167 184 0
162 179 0
157 172 0
162 178 0
164 181 0
160 177 0
168 186 0
167 187 0
167 187 0
172 195 76
174 197 67
170 194 80
173 196 72
172 195 67
173 196 36
175 198 76
170 195 72
173 196 51
169 193 76
170 194 76
172 196 72
173 198 88
171 194 80
172 195 76
172 195 88
171 195 57
173 197 67
174 198 76
169 193 62
175 198 67
171 195 67
167 190 76
173 197 67
166 190 51
174 198 84
176 199 67
170 195 72
171 195 62
173 196 67
175 199 72
164 189 72
170 194 76
169 193 44
165 189 44
170 195 72
169 193 84
170 194 84
170 194 80
172 196 95
169 193 67
170 195 111
169 193 67
169 192 80
173 196 67
167 190 51
166 190 57
166 191 72
168 192 67
162 185 57
169 193 72
170 193 44
170 194 88
169 193 92
171 194 57
166 190 72
165 189 57
166 189 62
166 189 88
166 190 51
167 191 72
169 191 76
165 188 72
164 187 67
166 191 88
166 189 72
167 190 84
166 189 80
162 185 84
166 190 67
167 190 76
167 190 62
165 189 72
164 187 62
163 186 88
154 177 94
139 163 128
125 151 141
91 119 133
80 110 142
95 122 150
96 124 137
95 123 143
93 121 150
92 120 144
94 121 137
88 117 139
98 125 148
89 117 136
88 116 137
97 124 144
87 116 145
87 115 149
106 132 150
96 123 141
104 130 143
95 123 153
91 119 151
93 121 146
95 123 160
101 128 155
94 122 157
108 135 166
95 123 160
96 124 163
96 124 155
102 129 172
90 118 162
94 123 174
82 113 161
96 124 174
76 107 162
76 108 161
79 111 167
77 109 163
73 106 168
84 113 168
63 99 164
75 106 165
66 101 165
70 104 170
63 97 158
64 98 156
74 105 155
64 98 150
65 99 149
64 98 153
60 96 150
65 99 149
61 96 155
60 95 153
66 99 146
62 96 145
62 97 149
59 94 138
59 94 145
60 95 144
62 96 138
63 97 141
59 94 144
63 97 149
59 94 147
59 94 136
59 94 141
59 94 141
61 96 140
61 96 149
59 94 139
60 95 142
60 95 148
60 95 143
59 93 137
61 96 145
60 95 143
60 95 138
59 94 141
59 94 139
60 96 147
61 97 153
59 94 143
61 96 142
61 96 151
61 96 148
60 96 147
59 93 126
61 97 150
60 95 143
61 96 148
60 95 139
61 96 140
59 94 136
63 98 153
61 97 148
61 96 151
61 96 144
60 96 144
59 94 145
60 95 149
60 95 144
61 97 148
60 96 142
61 96 149
61 96 143
60 95 141
60 95 141
61 96 148
60 96 143
61 96 149
62 97 149
61 96 144
61 96 143
61 96 148
61 96 143
60 95 135
62 97 151
61 96 149
61 96 152
61 96 150
60 95 137
61 96 145
60 95 149
61 96 144
61 96 141
60 96 139
61 96 144
60 95 131
60 95 140
60 95 140
60 95 140
60 95 134
61 96 144
60 95 137
62 97 147
60 95 133
61 96 141
61 96 142
59 93 126
60 95 135
60 95 139
61 95 137
60 95 139
60 95 139
61 96 145
60 95 137
61 96 139
61 96 144
59 93 131
60 94 130
60 95 137
61 96 139
60 94 130
61 95 134
60 95 136
61 96 137
60 94 139
59 93 130
59 93 131
60 95 140
60 94 131
60 94 139
60 95 139
59 93 128
59 93 130
60 95 133
57 90 121
61 95 134
58 92 125
59 93 122
60 95 133
58 91 121
66 97 122
79 104 104
91 110 78
110 123 51
115 127 18
131 143 0
111 121 0
127 140 0
116 127 0
125 136 0
123 134 0
114 125 0
137 149 0
116 128 0
118 127 0
120 127 0
117 128 0
124 133 0
118 130 0
115 125 0
129 140 0
124 134 0
112 122 0
123 131 0
120 131 0
112 122 0
121 132 0
124 132 0
128 138 0
127 134 0
120 130 0
123 132 0
137 147 0
127 137 0
138 147 0
128 137 0
125 136 0
126 136 0
125 133 0
122 129 0
124 130 0
123 132 0
122 127 0
135 143 0
125 131 0
142 152 0
126 135 0
127 132 0
132 143 0
123 131 0
130 138 0
125 131 0
131 137 0
133 139 0
128 135 0
140 147 0
126 131 0
126 131 0
137 146 0
137 146 0
127 137 0
131 135 0
134 142 0
122 125 0
133 137 0
140 148 0
140 149 0
140 146 0
140 149 0
132 138 0
126 131 0
137 145 0
133 137 0
140 148 0
131 138 0
141 146 0
142 149 0
143 152 0
137 146 0
136 142 0
143 151 0
134 143 0
141 150 0
145 155 0
141 148 0
147 156 0
140 148 0
142 148 0
144 152 0
154 166 0
143 155 0
152 163 0
147 158 0
152 162 0
149 161 0
150 160 0
147 157 0
156 167 0
152 163 0
152 162 0
148 157 0
147 156 0
153 165 0
153 167 0
153 165 0
146 157 0
149 164 0
149 160 0
154 166 0
158 168 0
157 170 0
158 172 0
153 166 0
158 171 0
151 166 0
162 176 0
158 172 0
155 169 0
161 176 0
161 175 0
162 178 0
160 176 0
154 167 0
163 179 0
154 169 0
163 177 0
159 174 0
158 176 0
163 178 0
164 181 0
162 178 0
164 181 0
160 174 0
162 176 0
161 178 0
164 180 0
168 185 0
156 171 0
163 182 0
162 180 0
156 172 0
161 178 0
164 183 0
165 183 0
162 180 0
166 186 0
167 187 0
162 182 0
167 186 0
166 183 0
173 197 80
171 194 44
171 194 76
175 198 76
174 198 76
173 196 84
173 197 92
170 194 67
174 197 51
173 197 76
173 196 62
174 198 72
169 193 36
173 196 72
168 192 67
170 194 80
173 196 76
171 194 57
174 197 84
169 193 84
175 198 57
175 198 67
171 195 72
173 197 72
171 195 84
168 192 67
169 192 51
170 194 80
172 195 67
172 195 67
162 186 51
172 196 80
166 190 80
172 196 76
168 192 67
173 197 92
172 196 80
172 197 88
166 190 80
171 196 111
170 194 76
170 194 57
169 193 76
170 194 57
169 193 67
165 188 76
168 192 72
171 194 72
171 194 62
170 194 76
168 192 72
164 188 72
170 195 88
172 195 88
169 193 44
172 196 84
167 190 62
170 194 62
170 193 67
163 188 76
167 191 76
163 187 76
161 185 72
168 192 84
165 190 62
164 188 57
167 191 80
162 185 67
164 186 36
166 189 80
168 191 76
167 190 44
169 193 92
166 189 102
161 185 70
155 178 86
142 166 113
131 155 117
110 135 110
92 120 141
85 114 140
104 131 147
97 125 153
75 106 136
93 122 151
92 120 148
104 131 162
91 119 140
81 111 150
100 127 159
93 121 153
87 116 146
106 132 147
91 120 150
104 131 158
88 116 154
103 129 162
98 126 152
97 124 144
107 133 155
101 128 148
102 129 150
95 123 150
101 128 160
99 126 145
90 119 156
75 107 150
88 118 162
81 111 157
90 119 161
80 111 166
83 113 164
81 112 168
79 110 162
71 104 164
81 111 167
67 101 159
75 106 159
72 103 151
66 100 155
72 104 159
65 100 164
74 106 169
79 109 160
67 100 156
63 98 158
72 105 153
64 99 153
70 102 157
65 98 151
67 100 156
67 101 154
62 97 148
62 96 143
66 99 141
66 98 140
63 98 148
60 95 148
63 97 150
63 97 142
62 96 146
60 94 139
60 95 149
61 96 139
60 95 147
59 93 137
60 95 144
60 95 147
60 95 138
58 93 136
61 96 142
60 96 146
60 96 149
59 94 135
59 94 137
59 94 140
60 96 147
60 95 142
60 95 137
61 96 149
59 94 143
59 94 133
61 96 144
61 96 147
59 93 135
61 96 150
59 94 137
60 95 140
60 95 144
61 96 144
61 96 149
60 95 144
62 98 151
60 95 137
61 96 144
60 95 141
61 95 143
61 96 141
61 96 145
61 95 143
60 95 142
61 96 148
60 95 142
60 94 142
59 93 141
61 96 144
60 95 143
60 96 148
60 95 136
61 96 144
61 97 152
59 94 139
59 94 139
61 96 145
61 96 150
60 95 136
61 96 140
61 96 141
59 94 139
61 95 135
60 95 137
61 96 144
60 95 140
61 96 147
61 96 143
61 96 144
59 94 136
61 96 142
61 96 145
61 95 135
62 97 150
61 96 145
60 95 143
60 95 136
60 94 130
61 96 144
59 94 135
60 95 140
60 95 135
61 96 144
60 95 144
59 94 130
59 94 137
60 95 135
60 95 142
59 93 131
59 94 134
60 94 135
60 95 129
60 95 134
61 95 139
60 94 121
59 93 128
59 94 122
60 94 130
61 96 150
60 95 131
59 93 134
59 93 128
59 94 137
59 92 122
60 94 131
59 93 121
58 91 117
59 93 126
57 90 115
59 93 125
59 92 126
58 91 128
58 91 123
69 96 103
90 110 83
96 113 79
105 119 51
116 128 0
116 128 0
110 122 0
126 139 0
130 144 0
118 128 0
119 130 0
119 130 0
126 136 0
110 122 0
120 130 0
129 139 0
123 134 0
128 140 0
110 117 0
117 127 0
136 145 0
131 143 0
118 126 0
121 130 0
119 127 0
117 128 0
126 134 0
124 134 0
118 128 0
128 137 0
125 134 0
121 129 0
134 144 0
125 136 0
123 133 0
125 135 0
127 135 0
122 128 0
134 143 0
124 135 0
132 144 0
126 135 0
131 137 0
131 140 0
129 139 0
123 131 0
125 131 0
122 128 0
128 131 0
125 135 0
121 127 0
127 136 0
142 153 0
135 143 0
134 143 0
132 136 0
135 145 0
136 142 0
135 145 0
126 133 0
129 137 0
135 142 0
137 144 0
130 139 0
127 132 0
135 145 0
132 141 0
138 149 0
136 143 0
132 139 0
139 147 0
133 141 0
129 138 0
137 144 0
140 147 0
140 148 0
144 154 0
143 152 0
143 153 0
136 145 0
138 146 0
147 154 0
149 161 0
148 158 0
142 152 0
148 157 0
147 156 0
152 164 0
145 158 0
144 152 0
145 154 0
143 152 0
152 162 0
151 160 0
148 162 0
149 159 0
150 161 0
152 165 0
150 162 0
155 168 0
151 163 0
149 160 0
149 160 0
160 173 0
162 177 0
157 172 0
157 170 0
151 164 0
155 169 0
153 164 0
155 168 0
154 168 0
162 176 0
158 169 0
164 178 0
161 173 0
153 170 0
159 173 0
148 162 0
161 176 0
159 175 0
158 175 0
153 167 0
157 174 0
157 172 0
161 177 0
163 177 0
158 171 0
166 183 0
166 182 0
160 175 0
157 173 0
167 184 0
155 170 0
163 180 0
163 180 0
162 177 0
165 181 0
165 183 0
163 180 0
163 180 0
163 182 0
162 180 0
162 180 0
163 181 0
166 185 0
160 178 0
163 182 0
165 185 0
165 185 0
172 197 76
174 197 67
174 198 88
171 195 67
174 198 92
173 197 84
174 197 72
171 195 72
174 198 76
173 197 62
173 197 76
174 197 80
172 196 67
169 193 67
168 192 57
174 197 67
173 197 76
172 196 92
172 196 62
174 198 102
170 193 72
172 196 67
175 200 80
170 195 80
166 190 44
168 192 57
175 200 102
167 191 62
171 194 76
170 193 57
174 198 80
169 193 72
168 192 76
172 196 84
173 197 72
171 196 80
171 195 80
169 193 76
166 191 72
172 196 72
169 192 67
166 191 76
172 196 72
170 194 88
166 190 72
166 190 72
170 194 62
170 193 76
169 193 80
170 194 62
172 196 80
168 192 80
169 194 80
168 191 67
168 191 67
166 189 51
170 193 80
165 189 80
167 190 62
164 187 84
167 191 76
169 193 44
164 187 62
164 187 57
166 189 51
167 189 51
163 186 67
167 191 80
165 189 51
162 185 76
171 195 84
164 188 84
170 194 99
160 182 57
168 191 88
165 190 80
150 173 84
138 161 105
117 142 107
92 121 143
97 124 145
91 119 143
89 117 142
90 118 140
95 123 144
87 116 148
80 109 142
93 121 149
82 112 143
94 122 147
88 118 163
96 123 147
86 116 156
95 122 141
94 122 143
104 131 156
100 127 145
77 108 148
91 119 147
72 104 150
89 118 155
76 107 161
87 115 147
99 126 158
81 111 143
94 122 160
90 119 157
93 121 159
84 114 153
78 109 150
84 114 163
79 110 162
72 104 162
79 110 162
79 110 165
73 104 155
82 113 166
71 103 163
83 114 164
76 107 167
74 106 163
65 99 159
70 103 163
67 100 158
62 97 158
71 103 148
61 96 156
66 100 157
63 98 156
62 95 148
62 96 146
65 99 133
63 97 143
67 100 143
62 97 148
64 98 145
59 94 141
62 96 144
59 94 140
60 95 141
58 92 132
59 94 134
63 97 145
61 96 148
59 94 148
59 93 132
62 97 145
59 94 146
58 93 140
59 94 141
59 94 140
59 93 139
60 95 143
60 95 146
60 95 148
59 94 144
60 95 140
59 94 133
60 94 143
60 95 145
59 94 139
61 96 153
61 96 154
59 94 130
60 94 133
61 96 147
61 97 153
59 94 137
60 95 144
59 94 138
62 97 150
59 94 137
61 96 144
60 95 137
61 96 145
59 94 139
59 94 136
60 95 143
60 95 143
61 96 145
60 95 140
62 97 149
60 95 140
61 96 144
61 97 151
61 96 141
61 96 145
61 96 141
61 96 147
60 95 137
61 96 140
60 95 137
60 94 134
60 96 139
59 93 126
60 95 135
60 95 141
61 96 147
62 98 155
60 95 136
61 97 149
62 97 149
61 96 139
61 97 143
59 94 130
61 96 148
59 94 135
60 95 144
60 95 130
60 95 137
60 94 137
61 95 145
61 96 139
59 94 133
60 95 143
61 95 137
60 94 130
61 95 141
60 94 133
61 96 140
61 96 139
60 94 128
61 96 142
60 94 135
60 94 131
59 94 135
60 95 134
60 94 135
59 93 136
60 95 143
61 95 135
60 95 142
61 95 135
59 93 130
61 95 140
60 94 137
59 93 133
60 95 131
60 94 131
59 93 130
58 91 128
59 93 129
60 94 134
58 92 126
57 91 122
58 92 121
59 93 128
59 93 126
57 91 111
65 94 114
79 104 102
92 109 76
106 123 45
111 123 18
127 139 0
120 133 0
118 131 0
119 130 0
109 121 0
130 144 0
130 142 0
127 139 0
117 129 0
120 132 0
121 133 0
124 134 0
128 139 0
123 133 0
123 133 0
119 130 0
114 125 0
116 127 0
126 139 0
127 138 0
119 131 0
121 131 0
125 134 0
126 135 0
118 129 0
126 137 0
121 133 0
119 127 0
115 125 0
123 129 0
121 131 0
114 121 0
127 137 0
128 136 0
124 134 0
135 146 0
125 135 0
126 133 0
131 143 0
129 138 0
125 133 0
124 132 0
138 147 0
123 133 0
130 139 0
131 139 0
133 141 0
121 128 0
135 145 0
121 127 0
135 138 0
135 145 0
131 139 0
132 139 0
129 135 0
141 149 0
130 136 0
129 140 0
136 146 0
137 144 0
142 153 0
131 137 0
134 142 0
135 144 0
134 143 0
139 145 0
132 140 0
138 149 0
136 144 0
134 142 0
146 156 0
141 148 0
139 147 0
138 148 0
142 152 0
140 151 0
138 146 0
145 153 0
149 161 0
148 157 0
144 155 0
143 152 0
143 151 0
152 163 0
145 153 0
147 158 0
152 163 0
155 166 0
153 164 0
148 161 0
143 153 0
150 161 0
147 160 0
149 160 0
157 170 0
150 161 0
155 167 0
148 160 0
157 171 0
149 162 0
160 173 0
153 168 0
156 170 0
153 165 0
159 172 0
155 168 0
159 174 0
155 169 0
149 162 0
158 172 0
151 166 0
159 174 0
160 174 0
157 172 0
159 173 0
159 172 0
160 173 0
159 173 0
159 174 0
159 174 0
152 167 0
163 179 0
163 181 0
160 175 0
160 176 0
158 172 0
166 183 0
160 177 0
158 174 0
160 175 0
166 184 0
155 171 0
163 180 0
168 187 0
160 178 0
167 184 0
160 178 0
164 182 0
162 180 0
167 185 0
167 187 0
163 181 0
161 179 0
168 185 0
164 182 0
165 184 0
172 195 88
173 196 44
174 198 84
176 200 84
171 195 72
171 195 80
172 196 84
173 197 57
172 196 80
172 197 88
170 194 67
172 196 80
172 195 57
173 197 84
174 197 72
171 196 88
168 193 76
172 195 51
173 197 67
172 196 62
169 192 67
169 193 62
171 195 62
168 192 44
169 194 84
169 194 84
171 195 51
170 193 62
172 195 84
173 197 67
171 195 72
167 191 62
168 192 76
166 191 95
170 195 67
171 195 72
171 193 51
167 191 67
168 191 57
172 196 72
172 196 57
165 190 84
167 189 67
168 193 80
170 194 62
167 190 44
169 194 67
168 192 76
167 191 51
169 193 72
166 190 62
164 189 76
162 186 51
169 192 67
170 194 62
170 193 62
166 189 51
167 190 51
168 191 72
168 191 62
166 191 76
167 189 76
168 192 80
168 192 72
165 188 76
162 187 84
165 188 67
167 191 76
169 192 84
165 189 44
164 187 57
164 187 92
166 190 76
164 186 67
167 191 76
167 191 57
154 178 94
146 170 99
124 148 103
113 138 118
93 120 134
90 118 145
94 120 129
104 130 131
89 117 137
87 115 136
86 116 150
90 118 143
99 126 147
96 124 141
89 118 154
92 120 144
99 126 137
88 116 154
91 119 147
93 120 144
96 121 131
110 135 150
101 126 151
97 124 158
101 127 139
87 115 144
94 120 141
80 109 141
85 115 150
98 126 156
98 125 156
88 118 162
86 114 148
84 113 160
105 131 160
78 110 159
83 113 160
86 115 163
79 110 162
72 105 159
78 110 167
74 106 159
74 106 162
72 105 163
70 103 162
74 106 162
69 102 159
75 106 159
76 108 168
71 104 158
64 98 151
67 99 146
67 100 142
67 100 145
68 101 152
61 95 146
65 97 149
64 98 161
60 96 140
62 97 147
60 94 132
67 100 148
62 95 140
59 94 135
60 95 144
59 93 134
60 95 141
63 95 129
60 95 139
60 95 137
60 95 144
60 95 146
59 93 133
60 95 146
61 96 150
60 94 137
61 96 144
59 94 133
59 94 133
58 92 137
58 93 141
61 96 144
60 95 135
61 96 148
59 95 144
59 94 133
59 94 143
61 96 144
61 96 145
61 96 142
58 92 136
60 95 142
61 96 142
62 97 143
60 96 141
61 96 149
58 93 136
60 95 140
60 95 139
61 96 147
60 94 134
60 95 137
60 94 129
61 96 143
60 95 140
60 94 136
59 93 128
61 96 142
61 96 141
60 95 144
61 96 147
62 98 154
59 94 131
59 94 139
59 94 141
60 95 141
59 93 135
62 97 145
62 97 151
61 97 144
60 95 142
61 97 149
61 96 148
61 96 151
60 95 136
59 94 135
60 94 136
60 95 142
61 95 136
61 96 141
59 93 134
59 93 130
61 96 143
61 96 141
61 95 140
61 96 139
61 96 141
58 92 134
59 94 131
58 93 128
60 94 133
60 95 141
59 93 122
58 92 125
59 93 131
61 96 140
60 95 133
60 94 133
60 95 137
59 94 140
61 96 137
59 94 125
61 96 141
61 96 136
60 95 141
60 95 139
60 95 133
58 92 129
60 95 134
60 94 130
61 95 135
60 94 128
59 93 130
59 92 131
60 95 140
58 92 126
58 92 130
57 90 114
59 93 128
57 90 114
58 92 114
56 90 103
55 87 107
72 97 105
90 108 67
115 131 47
112 127 36
127 139 0
125 138 0
122 135 0
114 124 0
119 130 0
121 132 0
124 138 0
124 136 0
124 136 0
121 131 0
115 128 0
116 127 0
124 137 0
124 137 0
118 132 0
122 135 0
129 140 0
129 141 0
120 129 0
124 135 0
121 130 0
120 133 0
125 135 0
117 126 0
125 134 0
134 145 0
122 131 0
132 142 0
123 132 0
121 131 0
108 118 0
129 140 0
136 147 0
121 133 0
130 141 0
135 146 0
134 144 0
128 136 0
133 142 0
121 127 0
126 137 0
121 127 0
118 127 0
126 134 0
130 141 0
136 148 0
130 138 0
135 146 0
144 154 0
128 139 0
136 145 0
139 149 0
131 141 0
136 146 0
131 140 0
135 142 0
137 148 0
135 141 0
131 137 0
126 131 0
131 138 0
137 145 0
140 151 0
141 150 0
136 146 0
135 145 0
133 140 0
139 149 0
147 156 0
143 152 0
141 150 0
126 136 0
144 154 0
134 143 0
141 149 0
140 149 0
146 156 0
145 154 0
151 160 0
146 155 0
151 160 0
149 160 0
145 153 0
141 151 0
148 160 0
148 160 0
144 152 0
148 158 0
148 157 0
153 165 0
152 164 0
152 161 0
147 158 0
157 169 0
153 165 0
156 169 0
158 171 0
155 166 0
152 165 0
156 168 0
147 158 0
154 164 0
153 166 0
157 169 0
159 172 0
161 174 0
156 170 0
153 167 0
151 163 0
155 169 0
154 168 0
164 178 0
155 169 0
160 176 0
159 174 0
160 176 0
156 171 0
159 174 0
153 168 0
158 173 0
164 181 0
156 173 0
164 180 0
163 180 0
160 176 0
164 182 0
161 178 0
162 180 0
163 180 0
159 177 0
159 175 0
160 176 0
161 179 0
163 180 0
162 178 0
167 185 0
167 186 0
157 174 0
163 182 0
165 182 0
163 180 0
164 183 0
165 183 0
164 185 0
168 186 0
166 186 0
165 182 0
172 196 80
172 196 67
170 194 62
175 198 99
172 196 72
171 195 67
175 198 72
170 194 88
171 195 44
172 195 67
174 197 67
174 197 67
173 196 62
171 195 67
167 191 72
172 197 76
174 197 84
171 194 57
169 193 76
168 192 67
172 196 72
170 193 76
168 191 62
172 197 84
171 194 62
172 196 72
172 196 92
169 193 76
170 194 72
170 194 67
172 196 67
167 191 84
169 194 51
167 192 80
169 193 76
165 189 67
168 192 62
169 194 88
169 193 72
170 194 84
167 192 67
169 194 88
167 190 62
169 194 76
169 193 84
164 187 67
168 191 51
165 189 76
166 191 51
168 192 62
169 193 80
169 194 80
163 186 62
169 192 57
167 190 62
165 188 67
165 189 57
168 192 67
169 193 62
169 193 84
162 186 67
168 191 92
165 188 67
166 189 57
164 187 84
165 188 67
165 189 88
170 194 80
162 186 57
163 187 84
166 189 67
165 188 62
166 189 72
160 183 84
163 187 72
159 182 62
160 183 40
149 174 76
145 168 97
120 146 135
101 129 142
96 124 145
83 112 140
91 119 133
91 119 129
94 121 156
81 111 147
89 118 149
90 119 145
90 118 147
89 117 147
90 119 151
86 114 138
93 120 137
87 114 140
98 125 146
96 123 150
101 128 158
98 124 144
93 121 137
87 116 141
99 126 159
95 122 148
98 124 148
94 121 154
96 124 161
96 123 147
96 123 159
96 123 163
98 125 157
88 117 162
78 110 158
81 112 158
74 106 157
78 110 154
81 110 157
85 115 161
70 102 153
75 107 159
74 105 160
66 99 156
73 105 158
61 97 158
72 105 161
64 98 155
62 98 160
63 98 148
63 98 156
65 98 151
65 98 145
68 100 150
64 97 134
68 100 140
65 97 144
65 99 151
62 97 150
68 100 139
61 95 136
60 96 147
59 93 128
60 95 141
63 98 145
59 94 129
59 93 133
60 95 145
61 96 144
60 94 136
60 95 145
59 94 131
60 95 137
60 95 144
60 95 139
60 96 145
61 95 150
61 96 149
57 91 137
58 93 135
60 95 137
58 93 133
59 93 135
60 94 139
61 96 139
60 94 140
60 96 144
60 95 144
60 95 135
61 96 150
59 94 143
62 97 151
60 95 137
62 97 149
61 96 140
59 94 140
60 95 140
60 95 142
59 94 134
59 94 134
60 95 142
60 95 144
60 95 137
61 96 143
60 95 143
61 96 144
59 94 134
61 96 147
61 96 144
61 96 140
62 97 145
60 95 142
60 95 139
60 95 137
61 96 141
61 96 147
60 95 147
61 96 141
61 96 141
61 96 140
60 94 136
61 96 144
60 94 136
60 94 133
60 95 140
60 95 133
60 95 145
61 96 144
59 93 129
61 96 140
61 96 137
61 95 137
61 97 151
60 95 136
61 96 142
60 94 125
61 96 147
60 95 133
59 94 135
60 95 139
59 93 124
61 96 149
60 95 134
61 96 141
60 95 141
59 94 133
61 96 144
59 94 124
59 94 118
61 95 140
60 94 131
59 93 130
60 94 133
60 94 141
61 96 143
59 93 129
59 94 140
59 93 121
58 92 125
58 92 124
57 91 115
59 93 125
59 93 131
60 95 140
58 92 124
58 92 129
60 94 123
58 91 118
57 90 108
59 92 120
58 89 94
65 93 100
84 105 81
104 123 65
113 126 44
119 132 18
123 135 0
124 137 0
115 126 0
123 135 0
117 127 0
111 123 0
115 125 0
118 131 0
122 135 0
129 143 0
105 115 0
123 137 0
121 133 0
128 139 0
119 131 0
117 129 0
127 137 0
123 133 0
126 139 0
117 129 0
123 132 0
113 121 0
118 128 0
122 132 0
123 132 0
118 128 0
119 127 0
129 140 0
121 133 0
133 142 0
121 132 0
126 137 0
128 136 0
133 145 0
126 137 0
128 137 0
127 138 0
129 138 0
140 152 0
134 144 0
129 137 0
123 132 0
131 140 0
136 146 0
124 132 0
134 143 0
133 144 0
135 146 0
128 136 0
129 137 0
130 137 0
133 143 0
129 138 0
135 143 0
139 149 0
131 139 0
136 145 0
133 141 0
135 145 0
123 129 0
131 140 0
139 147 0
141 150 0
141 152 0
129 139 0
137 145 0
133 141 0
147 159 0
147 156 0
148 159 0
148 158 0
144 152 0
142 154 0
147 157 0
147 158 0
145 156 0
145 157 0
138 149 0
145 156 0
139 151 0
145 152 0
147 158 0
146 157 0
148 160 0
146 158 0
150 162 0
154 166 0
147 159 0
152 163 0
155 167 0
143 153 0
154 166 0
151 163 0
148 157 0
145 157 0
152 164 0
154 168 0
148 161 0
150 159 0
156 168 0
162 175 0
154 166 0
152 165 0
157 172 0
157 173 0
155 168 0
160 178 0
160 174 0
153 169 0
155 170 0
160 173 0
157 171 0
163 179 0
160 177 0
160 172 0
151 166 0
157 173 0
159 174 0
159 175 0
163 180 0
158 175 0
159 175 0
163 180 0
157 173 0
162 178 0
158 174 0
165 182 0
158 176 0
156 171 0
161 177 0
160 177 0
158 173 0
165 183 0
158 175 0
164 180 0
165 182 0
161 178 0
164 183 0
157 175 0
163 179 0
161 178 0
162 180 0
166 182 0
161 178 0
163 181 0
167 183 0
166 184 0
173 197 72
173 197 80
172 197 88
175 199 80
168 192 62
171 197 80
171 194 76
173 197 76
172 196 88
174 198 88
174 197 80
170 193 36
172 195 62
173 197 76
169 193 67
173 198 95
165 190 67
172 196 84
171 195 67
166 190 62
172 196 76
168 191 44
168 193 72
169 192 44
171 196 72
171 194 62
166 189 44
168 191 72
170 195 72
170 193 72
169 194 80
165 189 88
170 193 51
168 193 88
169 194 80
165 189 62
167 191 76
168 193 80
165 189 72
169 192 51
167 191 72
168 193 57
166 190 67
167 191 88
167 191 67
165 190 67
168 192 62
166 189 67
170 193 62
160 184 62
167 191 67
163 188 76
170 194 95
167 191 62
166 189 51
166 190 62
168 192 80
166 190 88
166 189 51
158 182 62
165 188 76
163 187 88
156 180 67
163 186 57
167 191 92
165 188 62
161 185 76
166 190 72
164 187 72
160 184 88
162 183 51
161 185 80
164 187 62
166 189 76
160 183 88
162 185 62
163 186 78
150 173 86
147 170 90
133 157 110
108 135 130
94 122 141
91 119 145
90 118 137
87 115 127
88 117 139
77 107 136
97 124 150
85 114 136
85 114 138
100 126 144
79 109 139
105 132 155
85 114 134
101 128 141
104 131 154
86 115 155
88 116 152
96 123 154
93 120 152
96 123 154
98 125 156
101 127 141
103 130 157
100 128 154
90 118 151
94 122 155
89 118 150
95 122 153
96 123 152
81 111 160
79 110 151
87 116 149
95 123 149
86 115 160
86 113 152
76 108 159
76 108 160
80 110 160
81 111 162
85 114 163
83 111 153
71 103 159
72 105 160
67 101 153
69 102 160
67 101 152
64 98 159
64 97 141
71 103 149
67 98 144
66 100 148
68 100 142
63 97 140
63 97 152
61 97 152
63 97 142
67 100 141
61 95 141
61 96 142
62 96 140
62 96 137
59 93 129
62 95 134
62 98 156
59 94 138
59 93 134
58 93 137
61 95 147
59 94 135
60 95 153
59 94 136
59 93 136
61 96 151
60 95 141
60 95 144
60 95 141
60 95 141
60 94 144
58 93 136
61 96 149
59 94 137
60 95 141
60 95 145
61 96 144
61 96 144
61 97 149
59 93 134
59 94 143
61 97 142
61 96 145
60 95 148
60 95 144
60 95 136
61 97 153
60 95 140
61 97 151
60 95 133
60 95 133
60 94 139
60 96 142
60 95 136
60 95 144
61 96 141
60 95 145
60 95 137
61 96 145
61 96 147
60 95 144
60 95 139
59 94 125
60 96 141
60 95 144
60 95 142
59 94 136
61 95 140
60 94 136
61 96 143
60 94 130
60 96 144
61 96 144
60 95 131
60 94 135
59 94 131
61 96 145
62 97 148
59 94 130
60 95 135
60 95 139
60 95 133
59 94 133
59 94 136
60 94 130
61 97 144
59 94 131
61 96 137
58 92 125
59 94 130
59 93 134
59 94 124
60 94 129
59 93 130
59 94 130
58 91 122
60 95 142
59 93 121
59 93 131
61 96 136
61 96 139
59 94 131
59 94 133
60 95 129
59 93 136
58 92 122
59 94 126
60 95 132
59 94 133
59 93 134
60 94 129
59 94 137
57 90 122
57 91 115
59 93 125
58 92 124
57 90 107
57 90 114
58 91 117
68 96 101
70 96 99
101 121 76
102 114 44
122 137 18
115 127 0
108 119 0
124 139 0
127 138 0
131 144 0
122 133 0
120 132 0
121 135 0
112 127 0
122 134 0
123 137 0
123 135 0
126 138 0
123 134 0
124 137 0
127 139 0
122 134 0
132 145 0
127 138 0
117 131 0
115 125 0
131 145 0
135 147 0
123 135 0
126 139 0
120 129 0
123 133 0
125 137 0
132 143 0
128 137 0
125 133 0
124 136 0
128 138 0
124 137 0
138 150 0
130 142 0
125 134 0
129 139 0
133 142 0
126 136 0
136 148 0
126 134 0
126 133 0
131 141 0
137 146 0
123 132 0
125 135 0
131 142 0
127 135 0
135 145 0
147 158 0
126 133 0
132 144 0
130 138 0
135 143 0
145 152 0
137 146 0
130 137 0
140 151 0
139 150 0
131 139 0
141 152 0
134 143 0
138 147 0
141 150 0
135 142 0
137 149 0
134 145 0
138 148 0
149 160 0
146 156 0
145 156 0
147 157 0
147 158 0
143 152 0
144 154 0
142 152 0
143 152 0
147 158 0
139 147 0
145 155 0
145 155 0
145 156 0
147 158 0
149 157 0
150 163 0
151 165 0
143 154 0
145 155 0
156 170 0
152 163 0
149 162 0
150 164 0
155 168 0
150 163 0
146 158 0
148 160 0
153 166 0
151 167 0
153 164 0
154 167 0
160 175 0
157 170 0
152 166 0
157 170 0
149 162 0
156 172 0
156 170 0
152 168 0
158 171 0
156 170 0
161 176 0
159 174 0
160 174 0
160 175 0
158 174 0
156 172 0
158 175 0
160 176 0
159 172 0
158 175 0
157 170 0
160 175 0
161 173 0
162 179 0
167 185 0
160 177 0
163 179 0
160 177 0
158 173 0
162 181 0
158 174 0
160 176 0
161 178 0
161 178 0
162 179 0
158 175 0
162 180 0
167 187 0
164 181 0
161 178 0
164 183 0
166 185 0
163 182 0
164 182 0
161 179 0
166 185 0
164 183 0
174 197 57
176 200 76
169 193 72
173 197 72
170 192 72
173 196 51
171 196 57
171 195 76
172 196 88
171 195 88
173 197 80
171 195 72
175 199 84
171 194 62
171 194 72
174 199 67
174 198 84
171 195 51
171 196 92
172 196 44
173 197 80
168 193 84
169 192 72
164 188 57
170 194 67
169 194 84
166 191 72
168 192 62
166 190 76
171 195 67
170 194 80
170 194 72
170 194 72
171 194 62
163 188 76
170 195 92
171 195 72
171 196 72
169 193 44
170 194 76
163 187 88
169 194 72
167 191 57
169 193 84
165 188 67
170 194 36
166 190 67
172 196 84
163 187 67
160 183 57
170 194 72
171 195 76
170 194 95
165 189 51
164 188 67
167 190 80
166 189 57
166 189 72
164 188 76
162 185 84
165 190 99
164 188 72
163 187 76
165 190 80
157 180 57
163 187 76
165 189 76
165 188 80
164 188 51
163 186 67
163 186 84
160 183 76
166 189 76
165 188 67
162 185 67
165 188 62
162 184 84
156 180 80
157 181 80
143 167 105
125 149 104
101 127 118
94 120 135
83 112 133
88 116 136
91 119 134
92 120 153
101 128 140
96 123 144
89 116 143
96 124 154
86 115 141
94 120 142
95 122 135
92 120 148
88 116 140
83 112 143
97 123 149
86 114 138
95 123 149
108 134 159
86 114 135
97 123 136
106 131 136
92 120 150
104 130 142
95 123 143
102 129 160
86 115 152
88 117 154
92 120 163
90 118 151
92 120 158
85 115 161
80 111 157
93 120 158
79 109 159
83 113 165
76 108 159
78 109 171
68 101 161
72 104 165
69 102 155
71 103 152
67 100 158
77 107 158
63 98 151
64 99 159
66 100 151
62 97 150
65 97 146
64 99 153
72 104 155
68 100 147
65 99 154
61 95 141
62 96 149
64 98 144
62 95 135
59 94 139
62 96 147
61 95 140
59 94 135
59 94 138
61 96 148
59 93 141
59 94 133
58 93 129
59 93 139
60 94 143
58 93 131
60 95 143
60 95 141
59 94 139
60 94 139
60 95 141
60 95 139
61 96 147
60 95 133
59 94 143
58 92 133
60 94 140
60 95 133
60 95 148
61 96 142
59 94 128
59 94 135
60 95 140
60 94 136
59 93 130
58 93 132
60 94 133
61 96 148
61 96 137
59 94 134
59 93 130
60 95 139
60 95 140
62 97 154
60 95 143
61 96 142
60 95 134
60 95 134
61 96 145
60 95 131
60 95 136
60 96 147
60 95 135
59 93 137
61 96 141
60 95 139
62 97 150
60 95 137
59 94 129
59 93 126
60 95 131
60 95 142
61 96 143
60 94 133
60 94 136
61 96 141
59 93 130
60 94 137
59 94 131
59 94 136
59 93 134
61 96 142
60 95 136
58 92 120
59 93 121
60 94 137
60 94 135
61 97 150
60 95 135
60 94 135
60 94 134
60 94 129
60 94 131
59 94 135
59 93 135
60 94 135
61 96 133
59 94 130
59 93 129
59 93 120
61 95 131
60 95 139
60 95 131
59 93 131
59 94 126
60 95 136
59 93 130
59 93 126
60 94 126
58 92 110
59 92 124
60 94 126
59 93 128
58 92 124
58 92 121
58 91 120
58 91 120
58 91 111
57 90 120
58 91 129
57 90 115
59 91 120
72 98 87
106 125 65
105 119 62
112 125 47
115 128 0
127 139 0
118 132 0
117 130 0
118 129 0
116 130 0
120 135 0
116 130 0
126 138 0
112 124 0
115 126 0
114 127 0
126 136 0
117 127 0
133 144 0
117 129 0
127 139 0
123 135 0
137 151 0
123 136 0
134 147 0
113 126 0
117 129 0
122 133 0
126 140 0
122 134 0
119 129 0
132 144 0
122 133 0
134 144 0
120 130 0
128 141 0
131 141 0
124 134 0
123 133 0
127 136 0
143 155 0
125 134 0
132 147 0
133 142 0
112 123 0
135 143 0
129 139 0
134 146 0
130 141 0
135 142 0
128 139 0
138 148 0
136 146 0
127 137 0
125 132 0
137 147 0
128 136 0
132 141 0
126 134 0
130 140 0
141 153 0
130 143 0
129 137 0
134 144 0
142 152 0
131 137 0
141 152 0
137 145 0
146 156 0
137 149 0
147 158 0
139 148 0
136 150 0
145 156 0
140 148 0
143 153 0
145 155 0
146 158 0
143 152 0
150 159 0
139 149 0
140 150 0
146 158 0
154 167 0
145 156 0
143 155 0
150 159 0
147 158 0
147 159 0
145 157 0
144 154 0
147 157 0
149 161 0
158 170 0
138 148 0
149 163 0
147 157 0
151 166 0
149 162 0
150 163 0
156 170 0
152 163 0
150 163 0
151 165 0
154 166 0
149 162 0
156 168 0
157 170 0
153 166 0
156 170 0
154 169 0
159 174 0
160 174 0
154 170 0
155 169 0
157 170 0
155 168 0
155 173 0
161 175 0
159 176 0
157 171 0
163 177 0
161 177 0
156 172 0
158 176 0
159 175 0
160 176 0
160 176 0
152 166 0
162 178 0
158 174 0
162 178 0
160 176 0
159 176 0
165 183 0
160 175 0
161 177 0
162 180 0
167 185 0
165 182 0
164 179 0
162 180 0
168 185 0
160 179 0
164 183 0
158 176 0
165 183 0
166 184 0
166 184 0
163 181 0
164 182 0
161 179 0
165 184 0
175 198 72
172 196 72
173 197 76
172 196 80
170 193 67
175 198 67
175 199 92
171 195 62
171 195 51
172 196 62
169 193 51
171 195 57
171 195 88
170 194 62
171 195 57
172 195 72
171 196 67
166 190 76
172 196 67
166 190 76
170 194 57
172 195 51
167 191 57
169 194 76
165 189 76
173 197 88
171 195 62
169 194 67
172 194 67
168 191 72
172 196 88
170 194 72
168 191 44
169 192 62
169 193 72
170 194 51
167 191 80
165 190 76
169 194 72
169 192 76
165 190 84
165 189 51
167 191 72
167 191 76
164 189 51
166 190 84
167 190 62
169 193 67
167 191 57
165 189 67
168 192 92
166 190 67
170 194 67
167 191 84
162 185 36
164 188 62
165 188 80
165 189 62
170 194 67
166 189 80
164 187 51
167 191 67
164 187 76
165 188 76
161 184 67
168 192 76
167 190 72
165 188 80
161 185 67
160 184 84
160 183 67
156 180 57
162 186 88
163 185 51
155 178 62
166 190 72
166 189 67
162 185 67
153 176 72
148 172 111
136 160 107
121 145 127
83 112 130
94 121 133
96 122 129
92 120 134
84 113 145
105 131 146
90 118 134
100 126 150
99 125 144
96 124 147
90 117 141
93 120 147
87 116 151
80 109 139
107 132 154
90 118 143
85 114 145
108 134 157
91 119 147
90 117 137
91 119 150
93 120 131
88 117 146
87 115 147
96 123 155
94 121 154
84 112 152
91 119 147
90 119 151
91 119 158
92 120 150
89 117 156
77 108 156
83 113 157
79 110 157
90 117 164
87 114 158
72 105 159
77 108 161
67 101 152
66 101 159
75 105 163
65 100 164
70 102 156
70 102 154
63 97 148
74 105 155
76 107 159
64 98 157
63 96 135
63 95 134
64 97 140
66 100 137
69 101 134
66 97 129
62 96 144
59 94 143
62 96 138
62 96 137
59 93 138
60 94 140
62 95 129
59 94 139
63 97 139
64 97 134
64 97 131
60 95 136
59 93 138
60 95 136
58 92 134
59 94 140
60 95 148
59 94 135
59 93 126
59 94 136
59 94 132
60 95 139
61 96 148
60 95 135
61 96 148
60 95 142
60 95 131
60 95 141
60 95 135
60 95 140
59 94 135
60 95 136
60 95 130
60 95 140
59 94 136
59 94 139
59 94 140
61 96 144
60 94 136
60 96 147
60 95 148
59 95 140
59 94 133
59 93 133
60 95 147
60 95 140
59 93 131
61 96 137
61 96 135
60 95 135
60 94 130
62 97 150
60 94 135
61 96 141
59 93 128
60 95 139
61 96 142
60 95 136
61 96 140
61 96 141
60 95 144
59 93 126
61 96 148
60 94 131
59 94 134
60 95 129
60 95 136
60 95 137
60 95 142
61 96 142
59 93 125
59 93 136
59 94 126
59 93 128
60 95 133
60 94 129
60 95 136
59 94 129
60 95 131
59 93 130
60 94 133
60 95 137
61 95 137
61 96 141
62 97 144
59 93 121
61 95 148
60 95 130
59 93 122
59 93 131
59 93 128
59 93 131
60 94 129
60 94 129
59 93 134
61 95 136
57 91 117
59 93 128
59 94 120
59 93 126
56 89 110
59 92 124
58 91 113
58 92 124
58 91 126
57 89 107
57 91 110
57 89 114
59 93 123
66 96 115
84 106 82
92 110 63
116 133 40
110 124 0
118 130 0
109 121 0
119 132 0
109 124 0
125 138 0
116 128 0
127 140 0
127 141 0
123 136 0
122 135 0
123 135 0
129 145 0
117 128 0
133 146 0
129 143 0
126 139 0
119 130 0
133 147 0
119 132 0
136 150 0
130 142 0
124 135 0
131 140 0
128 140 0
129 139 0
135 149 0
122 132 0
124 136 0
124 135 0
122 134 0
131 142 0
118 129 0
137 148 0
129 141 0
133 145 0
119 131 0
143 155 0
135 147 0
128 140 0
132 142 0
129 142 0
136 148 0
137 148 0
132 142 0
124 134 0
128 138 0
133 143 0
135 146 0
130 140 0
132 142 0
128 139 0
129 138 0
141 153 0
133 140 0
142 153 0
135 146 0
141 150 0
131 140 0
142 154 0
141 154 0
133 143 0
135 145 0
141 154 0
137 146 0
135 145 0
132 140 0
137 147 0
135 144 0
143 153 0
140 148 0
143 151 0
138 148 0
141 153 0
142 154 0
140 148 0
148 160 0
148 156 0
149 161 0
141 152 0
142 156 0
142 155 0
150 162 0
148 161 0
153 168 0
144 155 0
151 164 0
153 165 0
150 161 0
152 160 0
149 162 0
147 157 0
146 157 0
155 168 0
150 161 0
148 158 0
152 165 0
150 161 0
154 166 0
153 168 0
159 172 0
155 167 0
156 171 0
153 165 0
160 175 0
152 165 0
157 171 0
154 169 0
156 169 0
164 181 0
159 174 0
163 177 0
158 173 0
163 180 0
159 176 0
160 176 0
157 172 0
161 177 0
153 168 0
156 173 0
160 176 0
159 174 0
164 182 0
156 172 0
162 178 0
153 171 0
161 177 0
158 177 0
162 180 0
160 178 0
162 180 0
161 176 0
162 178 0
166 183 0
160 177 0
163 182 0
164 181 0
159 177 0
164 182 0
160 176 0
166 186 0
163 179 0
165 183 0
165 184 0
160 177 0
167 186 0
164 180 0
170 188 0
164 183 0
166 184 0
168 192 80
174 198 80
171 195 67
173 196 51
172 196 72
173 197 72
171 195 76
172 195 76
172 196 67
173 196 80
174 198 67
172 196 76
166 190 80
170 193 62
168 192 76
172 196 57
172 196 76
169 193 88
171 195 67
171 195 76
172 196 67
166 191 88
169 192 62
168 192 67
170 193 67
172 196 72
167 192 67
164 188 44
170 194 76
167 191 67
169 193 84
166 190 80
170 194 80
167 191 80
169 192 57
168 192 88
168 191 62
166 190 67
167 191 67
171 194 88
167 191 72
168 192 76
164 188 72
169 193 62
166 190 76
164 188 72
166 191 84
170 193 62
168 191 80
163 187 62
169 193 67
165 190 80
170 194 84
169 192 72
164 189 62
166 190 76
166 189 88
167 190 80
166 189 67
167 190 80
161 185 80
165 189 80
171 194 84
167 191 72
167 190 44
169 193 72
159 182 95
162 186 67
160 183 78
166 190 67
163 187 62
159 183 62
168 191 72
163 185 72
158 181 84
160 184 51
165 188 88
164 188 80
159 182 80
157 180 92
146 169 102
130 153 105
103 129 124
89 118 149
83 111 128
90 118 140
105 132 148
89 118 136
87 115 133
79 109 134
92 118 136
99 125 133
97 124 140
106 132 147
84 111 133
101 126 145
95 121 130
85 113 135
87 115 143
101 128 153
89 118 145
92 118 135
91 117 136
97 124 153
88 116 129
96 122 152
95 122 133
89 116 134
89 117 157
89 117 148
104 130 149
88 117 157
96 122 156
80 110 155
79 109 148
74 106 155
90 119 158
70 103 151
78 109 159
78 109 156
75 105 156
71 104 151
69 101 155
77 108 160
70 103 154
71 103 150
64 99 154
65 99 154
71 102 152
67 100 148
58 93 139
69 101 152
64 97 147
62 95 138
73 104 150
63 97 150
64 97 137
62 95 141
67 99 140
61 95 142
63 97 147
59 94 136
65 98 139
60 94 136
60 95 139
64 97 138
58 92 136
60 95 141
59 94 129
58 93 138
59 93 130
60 95 142
60 95 135
60 94 137
58 92 134
59 94 133
59 94 133
59 93 140
59 94 129
59 94 134
60 95 141
58 92 133
59 93 127
60 95 141
58 92 132
59 94 130
61 96 136
60 96 150
59 94 128
60 96 144
59 93 133
61 95 136
60 95 134
59 93 130
61 96 140
61 97 147
61 96 141
61 96 144
58 92 130
59 94 141
60 95 143
60 95 142
59 93 132
61 96 139
60 95 136
61 96 141
59 94 131
59 93 130
61 96 142
59 93 124
59 94 134
61 96 145
60 94 135
60 94 134
60 95 139
59 94 129
59 93 135
58 93 126
61 96 137
60 94 135
59 94 133
61 96 149
59 94 131
61 96 143
60 95 139
61 96 153
60 95 140
60 95 133
60 95 133
60 95 131
60 95 137
60 95 139
59 94 126
60 94 130
60 95 141
58 92 122
61 96 142
60 94 134
60 94 128
60 95 133
60 95 134
61 96 140
60 95 137
61 96 137
58 92 125
60 95 130
59 93 126
59 93 122
60 94 131
59 93 126
59 93 125
60 94 130
58 93 118
60 95 131
60 94 131
58 92 118
59 92 128
60 94 136
60 94 131
58 91 118
57 90 107
57 90 108
57 90 121
56 89 116
57 91 118
63 93 117
80 103 90
105 125 80
112 129 40
110 124 18
122 133 0
111 124 0
120 134 0
116 130 0
123 134 0
127 140 0
122 135 0
120 132 0
119 132 0
119 131 0
123 135 0
124 137 0
124 139 0
114 124 0
123 136 0
121 132 0
123 137 0
129 142 0
121 133 0
129 141 0
123 135 0
125 136 0
136 150 0
128 143 0
130 141 0
129 144 0
125 138 0
123 135 0
132 145 0
123 135 0
125 136 0
134 149 0
135 144 0
128 141 0
139 155 0
127 139 0
129 140 0
130 144 0
126 135 0
132 142 0
127 141 0
128 139 0
132 141 0
131 143 0
131 141 0
128 139 0
140 152 0
140 153 0
136 147 0
142 155 0
135 146 0
138 149 0
137 149 0
139 152 0
138 150 0
138 150 0
144 156 0
137 145 0
143 155 0
134 143 0
134 146 0
139 148 0
144 156 0
140 147 0
146 155 0
148 162 0
139 150 0
146 155 0
142 152 0
142 154 0
147 159 0
144 156 0
145 156 0
141 152 0
143 153 0
153 167 0
138 150 0
146 158 0
141 153 0
150 165 0
147 160 0
142 154 0
150 163 0
149 161 0
147 160 0
144 155 0
152 165 0
150 161 0
147 161 0
149 163 0
153 166 0
145 158 0
148 162 0
148 162 0
156 167 0
154 166 0
152 167 0
150 161 0
154 167 0
161 175 0
156 170 0
157 169 0
155 170 0
157 172 0
156 170 0
158 175 0
151 167 0
153 169 0
160 175 0
153 166 0
155 170 0
162 178 0
155 170 0
156 170 0
160 176 0
151 165 0
160 176 0
160 176 0
161 176 0
161 176 0
158 172 0
160 178 0
158 174 0
163 178 0
163 180 0
164 182 0
161 178 0
158 173 0
159 175 0
160 178 0
162 180 0
160 176 0
165 183 0
164 182 0
166 185 0
160 178 0
163 181 0
158 174 0
167 184 0
165 181 0
161 180 0
163 180 0
161 179 0
162 178 0
165 186 0
164 183 0
166 186 0
164 182 0
165 184 0
170 190 0
172 196 76
172 196 88
169 194 84
176 199 84
168 193 80
168 191 67
171 195 67
172 196 80
171 195 67
170 194 80
169 193 57
171 195 88
175 199 99
170 194 62
168 192 57
173 198 99
171 195 76
170 194 92
173 197 67
172 196 67
170 193 62
170 195 80
165 189 67
169 193 80
169 192 67
171 196 80
169 193 62
165 189 76
174 198 72
168 192 80
173 196 62
169 193 80
167 191 62
166 190 80
164 189 51
169 192 57
171 194 62
166 191 92
168 192 84
169 194 84
169 193 84
165 190 67
170 194 84
166 190 44
168 192 84
167 192 92
167 191 62
164 188 62
169 193 67
165 189 72
166 189 62
164 189 76
166 191 76
163 187 76
163 187 62
158 181 67
165 188 44
169 192 51
162 185 62
165 189 51
166 191 88
164 188 95
163 186 76
166 190 84
162 186 72
163 186 67
160 184 51
165 189 80
160 182 51
165 189 67
161 185 57
158 181 76
167 190 95
165 188 67
156 179 72
159 182 76
154 177 80
153 176 76
160 183 76
161 184 80
159 181 76
138 161 97
110 135 105
94 121 135
86 115 129
90 117 131
100 126 143
72 102 120
84 113 129
92 118 136
87 116 148
100 127 151
96 124 141
90 118 143
90 118 129
87 115 138
81 110 135
98 124 139
98 125 148
89 117 140
96 122 145
101 126 150
87 115 149
101 127 148
98 124 145
98 124 155
95 122 148
92 119 134
88 116 135
102 128 139
89 116 138
97 124 148
87 117 156
98 125 141
91 118 151
89 117 166
90 118 155
88 116 153
83 112 162
86 114 161
78 107 159
71 102 151
65 99 145
70 103 160
69 101 152
65 98 149
71 103 163
69 101 149
74 105 161
73 103 146
68 101 154
73 104 147
60 93 129
66 100 145
64 98 138
60 93 137
60 95 133
62 96 144
61 95 137
61 95 134
63 95 127
57 91 127
59 94 137
60 94 129
60 94 137
59 93 127
60 94 138
59 94 143
59 93 131
59 93 134
60 95 152
58 93 129
59 93 122
60 95 137
60 95 132
59 93 135
58 92 131
58 93 136
59 93 126
59 94 137
59 94 137
59 94 135
59 94 131
60 95 140
61 96 142
59 94 129
61 96 147
61 96 150
59 93 130
61 95 135
60 95 142
60 94 141
60 95 137
60 95 133
61 96 150
60 94 137
60 95 137
61 96 149
61 96 143
60 95 136
59 94 134
58 93 120
61 96 145
59 94 137
62 97 144
59 93 135
60 94 131
60 95 136
59 94 135
60 94 131
61 95 135
61 97 151
60 94 137
60 95 136
61 96 136
60 95 139
61 96 149
60 94 126
61 96 144
61 96 144
61 95 136
59 93 135
60 95 133
60 95 135
60 95 129
59 93 134
60 95 143
59 93 126
61 96 134
60 95 135
59 93 128
59 94 128
60 94 134
61 95 134
61 96 137
59 94 130
60 95 139
61 95 134
60 94 135
60 94 136
59 94 122
59 93 128
59 93 130
60 95 125
62 97 140
59 94 130
60 94 140
60 95 134
59 94 130
58 93 125
60 94 129
59 93 125
57 91 120
59 94 129
60 94 122
58 92 122
57 90 115
58 91 111
59 93 126
59 93 124
57 90 111
57 89 114
57 90 114
59 92 128
60 92 99
73 100 92
95 115 75
96 110 47
111 126 18
118 133 18
125 138 0
118 133 0
116 129 0
126 138 0
126 140 0
115 129 0
124 138 0
117 131 0
112 127 0
128 141 0
113 124 0
128 142 0
127 140 0
112 123 0
131 144 0
135 149 0
124 135 0
125 137 0
137 152 0
129 144 0
125 139 0
131 146 0
129 142 0
133 145 0
125 136 0
126 137 0
127 137 0
130 141 0
132 145 0
135 148 0
127 137 0
133 146 0
119 132 0
127 137 0
144 159 0
129 141 0
132 142 0
126 141 0
136 147 0
125 136 0
130 140 0
128 140 0
133 144 0
135 146 0
126 136 0
133 146 0
143 155 0
136 150 0
145 158 0
142 153 0
137 148 0
133 145 0
127 135 0
130 138 0
140 151 0
143 154 0
136 147 0
149 162 0
137 151 0
135 144 0
137 149 0
136 148 0
137 148 0
144 155 0
145 157 0
135 147 0
138 150 0
137 148 0
143 156 0
145 158 0
151 162 0
145 158 0
146 156 0
133 145 0
137 152 0
141 153 0
153 166 0
150 165 0
147 159 0
153 167 0
148 162 0
150 163 0
139 152 0
153 166 0
145 159 0
152 166 0
151 164 0
145 157 0
152 164 0
150 164 0
149 162 0
156 170 0
150 164 0
150 160 0
151 164 0
152 166 0
156 170 0
151 165 0
148 163 0
150 163 0
153 168 0
153 169 0
147 161 0
155 170 0
153 168 0
153 167 0
150 164 0
151 166 0
153 168 0
158 175 0
157 171 0
163 179 0
159 175 0
160 178 0
160 176 0
161 178 0
163 179 0
154 169 0
157 169 0
155 172 0
160 176 0
159 174 0
160 177 0
160 177 0
162 176 0
156 172 0
161 177 0
159 175 0
157 175 0
163 180 0
161 177 0
159 177 0
167 187 0
163 181 0
168 187 0
166 183 0
164 182 0
165 183 0
157 176 0
165 183 0
157 175 0
164 183 0
163 182 0
161 178 0
169 188 0
160 177 0
165 184 0
160 177 0
168 188 0
162 179 0
172 196 80
176 199 80
173 196 51
171 195 67
173 198 84
171 195 51
169 193 72
170 194 76
173 196 84
173 198 88
171 195 76
175 198 88
169 193 62
169 193 76
172 195 72
166 191 88
168 192 88
169 193 57
167 191 51
171 195 67
168 192 67
167 191 67
171 196 92
168 193 67
171 195 72
173 197 80
167 191 72
168 192 76
169 193 62
167 191 72
167 191 72
166 190 62
167 192 92
168 192 62
168 192 57
166 191 62
164 188 72
171 194 92
169 193 80
168 193 95
168 193 72
165 190 92
165 189 76
167 191 72
163 187 62
163 188 92
167 192 72
166 190 62
162 186 62
164 189 92
164 189 72
167 191 67
168 193 62
167 190 36
166 190 80
163 188 76
171 195 67
166 190 72
164 188 84
167 191 88
163 186 72
165 189 57
166 191 76
164 188 84
163 187 72
163 186 67
167 190 62
159 183 67
159 184 90
159 182 67
161 184 62
157 181 76
159 182 67
163 186 84
160 181 72
162 184 57
166 190 72
157 180 62
160 183 80
163 185 84
155 178 74
145 168 107
130 153 100
106 131 122
94 122 137
91 118 131
87 114 124
97 123 129
92 120 133
91 118 135
96 123 141
95 121 134
87 115 130
92 120 143
95 122 137
89 117 141
96 123 147
92 119 134
94 122 150
84 112 134
98 125 151
83 111 135
95 121 134
94 121 138
91 118 140
98 125 147
98 125 146
87 115 123
88 116 137
93 121 153
98 125 151
90 117 158
87 115 144
96 123 153
87 115 148
93 121 159
76 107 144
82 112 151
79 109 147
77 107 153
78 108 153
74 105 157
78 109 156
82 111 154
67 101 156
66 101 155
69 102 156
67 100 149
71 102 149
70 102 159
70 101 146
63 97 158
71 102 136
67 99 136
67 100 148
63 96 129
71 102 142
66 99 137
62 95 135
64 97 132
59 93 131
62 95 116
60 94 135
61 95 144
61 94 117
60 94 128
58 93 137
59 94 141
60 93 131
60 94 129
60 95 137
60 95 140
59 93 134
60 95 145
59 93 131
59 94 141
61 97 143
59 94 134
60 95 135
59 93 135
60 94 141
60 95 137
60 95 140
58 92 130
60 95 134
61 96 148
59 94 135
60 95 139
60 95 142
61 96 149
60 94 136
60 95 148
61 96 149
59 93 131
60 94 139
57 92 124
61 96 149
59 94 139
60 96 142
58 92 124
60 95 134
60 95 135
61 96 139
61 96 147
60 95 141
60 95 140
59 94 137
60 95 135
59 94 131
59 94 121
59 93 136
60 95 125
61 96 144
59 93 135
60 95 131
61 95 140
60 95 133
59 94 131
59 94 131
61 96 143
60 95 137
61 96 144
59 94 129
58 92 125
60 95 135
59 94 136
60 95 133
60 95 135
59 93 128
59 93 125
59 94 131
61 95 137
60 94 136
59 94 129
61 96 143
58 92 128
58 92 117
58 92 126
61 95 134
60 94 129
60 95 134
58 92 122
60 95 137
60 94 129
59 93 133
59 94 126
60 94 130
58 93 118
61 96 139
58 92 118
59 93 124
58 93 128
59 93 122
58 91 131
58 92 117
59 93 125
58 92 120
58 91 120
59 93 125
57 89 105
56 89 110
57 91 114
57 89 113
60 92 110
69 95 110
88 109 70
96 113 57
109 125 45
118 132 0
118 132 0
119 132 0
110 126 0
108 118 0
115 127 0
117 131 0
124 138 0
113 126 0
119 132 0
129 142 0
116 129 0
117 128 0
118 130 0
125 139 0
127 139 0
126 141 0
123 138 0
130 144 0
129 142 0
131 145 0
126 136 0
130 144 0
134 149 0
122 133 0
132 145 0
122 137 0
123 136 0
125 137 0
130 143 0
136 148 0
127 141 0
121 133 0
130 143 0
137 149 0
137 150 0
125 136 0
132 144 0
129 141 0
134 145 0
127 139 0
130 143 0
134 145 0
142 156 0
139 150 0
129 143 0
133 142 0
131 144 0
139 150 0
142 154 0
141 155 0
137 147 0
131 145 0
136 148 0
131 141 0
139 152 0
133 144 0
144 155 0
132 141 0
140 151 0
142 155 0
144 156 0
142 156 0
146 160 0
140 153 0
148 159 0
139 150 0
141 153 0
148 160 0
141 152 0
142 155 0
142 154 0
136 145 0
141 153 0
142 155 0
151 164 0
136 147 0
151 164 0
137 149 0
146 160 0
152 163 0
144 155 0
151 164 0
144 159 0
140 151 0
143 155 0
151 163 0
147 162 0
140 152 0
145 156 0
149 160 0
150 166 0
158 173 0
154 169 0
150 164 0
156 169 0
148 161 0
157 174 0
158 176 0
154 169 0
153 166 0
152 165 0
156 167 0
151 166 0
152 166 0
156 170 0
155 170 0
152 165 0
154 166 0
157 170 0
156 173 0
156 169 0
158 175 0
162 175 0
158 172 0
156 170 0
160 177 0
151 167 0
157 173 0
162 179 0
158 174 0
150 165 0
157 172 0
157 170 0
158 175 0
161 178 0
157 173 0
161 176 0
154 170 0
157 174 0
156 172 0
160 176 0
159 176 0
155 171 0
157 175 0
167 184 0
163 179 0
165 183 0
167 185 0
166 185 0
165 184 0
161 180 0
160 177 0
159 179 0
169 187 0
166 184 0
164 182 0
166 185 0
169 188 0
162 179 0
162 179 0
167 185 0
173 197 80
173 197 76
173 196 80
172 196 62
167 191 88
172 196 72
172 196 76
172 195 67
168 193 80
173 197 84
163 187 62
171 195 72
168 192 62
173 196 57
174 197 80
173 196 67
170 194 62
166 189 80
170 193 57
171 195 72
171 195 67
166 191 67
170 194 84
170 193 72
169 195 62
171 195 72
170 194 84
168 191 36
171 195 57
169 193 80
163 186 67
173 196 51
166 189 51
170 195 88
164 188 67
168 192 62
165 189 72
168 193 102
167 192 76
168 192 57
163 186 36
166 191 62
167 191 67
168 192 67
165 189 88
165 189 76
169 193 80
163 186 62
167 192 80
164 188 57
159 183 76
168 192 92
166 190 62
168 193 88
156 180 67
166 189 57
165 190 72
160 184 67
163 187 51
163 187 57
166 190 51
163 188 84
167 191 76
165 189 72
159 183 57
165 188 67
163 186 62
165 189 80
164 188 76
165 189 76
163 187 67
159 182 84
158 182 57
156 179 44
152 175 57
160 184 80
164 187 80
162 186 88
156 178 51
148 171 36
157 180 102
148 172 65
145 168 99
116 141 106
88 115 126
86 114 114
97 123 136
99 125 131
88 116 142
103 129 148
96 122 139
82 111 131
83 111 135
93 120 133
93 119 142
98 125 146
92 118 134
91 119 149
96 123 131
96 122 139
93 121 143
95 121 138
95 122 141
106 130 146
97 124 134
98 125 148
98 124 137
102 128 155
91 120 158
99 125 152
102 128 153
87 115 147
99 125 155
90 118 154
78 107 154
88 116 149
95 123 154
88 116 157
89 118 157
69 101 149
83 113 165
89 116 157
69 101 148
73 103 152
77 107 154
69 101 151
66 100 156
71 102 155
69 101 148
74 103 146
73 103 154
67 100 151
64 98 148
61 95 139
60 95 144
64 97 129
65 98 134
67 98 137
67 100 136
59 94 133
63 97 135
63 96 133
60 93 128
64 97 131
60 94 143
60 95 142
60 94 139
60 94 131
64 97 131
58 92 136
60 94 136
59 94 136
59 93 128
60 94 135
60 94 143
58 93 130
60 94 134
60 95 143
60 95 140
59 94 131
60 94 133
60 94 134
60 94 137
60 95 138
60 95 136
59 94 136
60 94 131
61 96 135
60 95 144
59 93 139
60 94 132
60 95 135
60 95 131
59 93 129
58 92 126
59 94 137
59 94 133
61 96 142
59 93 131
59 93 130
60 95 137
59 94 128
61 96 134
61 95 141
61 95 139
60 95 134
59 93 135
59 93 130
60 95 133
60 95 136
61 96 140
60 95 131
60 95 130
61 96 139
61 96 133
60 94 130
60 94 135
60 94 126
59 94 137
59 93 129
60 94 134
60 95 137
61 96 139
58 92 122
60 94 133
59 93 129
60 94 136
59 93 134
59 94 134
61 96 144
60 94 139
59 93 122
61 95 144
59 93 128
60 94 133
59 94 128
59 94 121
58 91 115
60 94 131
59 93 130
60 94 126
60 94 136
59 94 126
58 92 117
59 92 125
57 91 122
58 92 120
60 94 130
57 90 117
61 95 135
57 90 118
59 93 128
58 92 120
59 93 115
59 93 133
58 91 113
57 89 111
58 91 111
58 91 117
57 91 115
59 93 125
57 90 113
59 92 118
73 100 90
85 106 72
101 121 76
105 118 31
119 132 18
118 133 0
123 137 0
125 140 0
123 138 0
124 137 0
121 131 0
122 137 0
118 130 0
122 137 0
115 127 0
121 135 0
122 137 0
114 127 0
119 131 0
114 127 0
121 137 0
132 147 0
124 136 0
121 135 0
131 144 0
118 130 0
134 148 0
126 141 0
126 139 0
120 134 0
132 146 0
125 137 0
116 128 0
120 132 0
126 140 0
129 140 0
125 137 0
133 147 0
129 142 0
137 151 0
131 143 0
132 147 0
144 158 0
138 149 0
128 142 0
131 144 0
133 147 0
133 144 0
132 143 0
136 148 0
141 154 0
124 135 0
137 150 0
138 151 0
143 155 0
139 152 0
146 158 0
136 150 0
136 150 0
144 154 0
133 141 0
143 156 0
146 159 0
138 149 0
139 150 0
149 162 0
138 149 0
142 155 0
131 142 0
150 164 0
149 163 0
134 142 0
135 146 0
151 163 0
150 165 0
146 158 0
154 166 0
146 160 0
149 162 0
147 157 0
147 161 0
148 160 0
146 157 0
133 145 0
150 162 0
146 158 0
141 152 0
150 164 0
144 155 0
152 165 0
146 155 0
155 168 0
150 165 0
150 164 0
150 159 0
150 165 0
155 168 0
148 162 0
149 163 0
153 168 0
156 171 0
150 163 0
154 169 0
153 169 0
150 163 0
154 169 0
146 161 0
153 167 0
154 167 0
154 169 0
152 168 0
157 170 0
154 166 0
163 180 0
150 164 0
154 168 0
157 176 0
158 175 0
163 178 0
159 176 0
157 172 0
155 170 0
155 173 0
155 171 0
155 171 0
161 180 0
164 182 0
159 173 0
159 175 0
156 172 0
165 182 0
161 179 0
161 177 0
157 175 0
166 182 0
162 180 0
158 176 0
160 178 0
164 181 0
163 183 0
162 180 0
161 178 0
162 180 0
162 181 0
158 176 0
159 177 0
156 171 0
164 182 0
161 179 0
162 180 0
164 182 0
161 181 0
161 180 0
166 187 0
166 187 0
162 181 0
162 181 0
172 195 67
169 192 44
173 197 72
171 195 72
170 194 84
172 195 67
175 199 80
172 195 57
165 190 72
171 195 72
171 195 80
171 195 95
169 193 72
168 192 62
170 194 51
171 196 84
171 195 84
168 192 80
169 193 57
171 195 99
169 193 44
164 188 57
169 193 62
171 195 67
169 192 67
162 187 80
170 194 57
160 185 67
168 192 67
168 193 84
167 191 62
165 189 51
170 194 80
161 186 80
166 188 36
170 195 72
166 190 72
164 188 76
168 192 92
166 190 76
164 188 62
167 190 72
172 197 105
160 184 62
166 191 88
164 189 84
163 186 44
163 187 76
167 192 84
161 184 62
166 190 51
169 192 80
166 190 62
164 187 67
158 181 62
168 192 95
160 184 76
168 192 72
159 183 76
163 186 72
162 185 67
163 186 72
166 190 88
168 191 62
161 185 51
161 185 84
162 186 62
161 184 62
163 187 67
160 183 67
160 183 67
160 184 76
163 187 84
158 183 72
159 182 62
158 180 62
159 182 80
158 182 74
159 182 62
157 179 57
156 178 62
147 170 65
148 171 67
136 159 94
108 134 115
101 128 145
90 117 126
83 110 118
97 125 137
91 118 130
81 108 124
85 112 134
93 119 133
97 124 134
97 123 146
106 132 144
89 116 137
100 126 142
82 110 146
100 126 147
96 122 144
92 120 148
108 133 148
99 126 144
96 122 147
95 122 139
90 117 147
104 129 148
101 127 144
94 120 136
97 122 144
93 120 155
91 119 142
73 103 137
90 118 147
94 121 152
88 116 160
78 108 137
81 111 144
83 111 150
81 111 149
82 111 154
87 114 159
74 104 150
68 102 160
72 103 150
63 98 152
77 105 148
68 101 148
67 101 161
71 103 150
66 99 146
69 101 151
66 98 141
67 99 138
70 100 139
67 98 145
60 94 141
65 97 135
64 97 135
59 93 140
64 98 142
62 95 137
60 95 143
59 93 131
65 97 129
61 95 135
59 93 131
64 98 130
59 93 128
61 96 145
59 94 142
59 94 133
58 93 137
58 92 125
58 93 129
59 93 136
58 92 126
60 95 131
61 96 144
58 92 127
58 93 130
59 93 136
57 91 125
59 94 126
60 94 134
60 94 137
59 93 129
58 92 132
61 96 147
60 94 137
58 93 134
59 94 130
59 93 130
59 94 134
60 95 139
59 94 140
59 94 133
60 95 136
59 94 139
59 94 139
61 96 142
59 93 128
60 95 141
60 95 134
59 94 134
61 96 140
59 94 130
60 95 134
61 96 145
60 95 133
59 94 135
59 94 131
59 94 130
60 95 134
59 94 134
60 95 134
60 95 140
59 94 130
58 92 111
58 92 127
59 92 126
59 93 124
60 94 136
59 93 125
59 93 125
58 93 130
59 94 129
60 94 130
61 96 144
59 93 131
60 95 135
60 94 136
59 93 128
59 93 125
58 92 128
58 92 118
58 92 120
60 94 135
59 93 125
60 94 128
60 94 125
59 93 122
59 93 130
58 91 118
58 92 121
59 93 124
60 95 137
57 91 120
59 92 124
58 92 118
59 94 118
59 92 120
58 92 121
56 89 115
59 93 122
58 91 114
59 93 125
56 89 111
56 89 102
58 91 115
57 91 118
68 95 105
87 108 80
105 124 70
107 123 54
111 126 36
117 132 18
122 135 0
123 137 0
120 134 0
117 131 0
128 141 0
122 135 0
113 126 0
117 131 0
124 137 0
115 131 0
126 139 0
115 130 0
125 140 0
131 145 0
124 137 0
110 122 0
132 146 0
138 152 0
128 141 0
137 149 0
121 133 0
136 152 0
133 146 0
140 155 0
115 127 0
131 144 0
125 138 0
131 147 0
121 134 0
132 147 0
120 131 0
136 151 0
124 136 0
131 144 0
130 143 0
135 150 0
132 144 0
132 147 0
142 154 0
130 144 0
142 155 0
131 144 0
128 141 0
137 151 0
120 131 0
136 149 0
133 146 0
138 152 0
133 146 0
136 150 0
137 151 0
142 155 0
134 147 0
137 149 0
133 147 0
139 153 0
134 147 0
140 153 0
136 148 0
131 142 0
139 152 0
142 154 0
140 152 0
137 149 0
145 159 0
146 159 0
137 148 0
139 150 0
147 160 0
139 151 0
143 154 0
142 155 0
143 156 0
149 163 0
142 155 0
150 162 0
146 157 0
144 157 0
144 156 0
152 166 0
147 158 0
148 159 0
146 158 0
141 153 0
152 166 0
150 164 0
152 165 0
153 165 0
147 158 0
148 160 0
153 169 0
153 164 0
151 166 0
154 169 0
156 169 0
150 161 0
143 157 0
150 164 0
149 161 0
154 168 0
150 165 0
156 170 0
159 177 0
151 165 0
157 173 0
151 164 0
158 172 0
152 167 0
153 165 0
154 169 0
162 179 0
158 173 0
158 173 0
155 172 0
147 164 0
157 173 0
159 176 0
153 169 0
158 173 0
162 179 0
155 170 0
158 174 0
159 177 0
160 175 0
164 184 0
158 175 0
161 176 0
160 178 0
165 183 0
159 176 0
159 178 0
159 176 0
155 172 0
161 179 0
162 180 0
164 183 0
163 180 0
165 184 0
164 183 0
155 173 0
159 175 0
168 187 0
163 182 0
162 180 0
164 181 0
164 184 0
163 183 0
163 183 0
164 183 0
167 184 0
165 186 0
164 183 0
173 197 84
172 195 80
170 194 62
173 197 72
168 191 67
172 196 84
172 197 84
170 194 99
174 198 72
173 197 72
170 194 80
172 195 76
172 197 72
168 191 36
169 193 76
169 192 62
168 192 51
167 192 72
167 192 62
171 195 76
171 196 76
168 193 80
173 197 88
168 192 76
171 194 72
174 198 88
166 191 57
169 192 62
168 192 67
169 194 62
172 196 88
168 192 92
165 189 72
169 193 95
167 191 62
171 193 44
168 193 80
169 194 88
169 195 80
166 190 62
165 188 36
166 191 72
166 190 67
164 188 67
168 191 57
166 190 88
167 191 76
169 192 72
166 190 88
169 193 88
167 192 84
166 190 102
164 188 72
163 187 72
162 185 62
169 191 57
158 183 76
160 184 62
162 186 92
159 183 51
165 188 80
160 184 51
163 186 84
164 187 76
164 187 67
156 179 67
163 186 67
160 184 88
158 181 57
163 186 62
163 187 94
162 185 72
164 187 76
151 174 84
160 183 76
157 181 72
157 181 62
145 168 62
157 180 57
157 179 84
156 179 76
153 176 67
153 177 76
139 162 82
133 156 105
107 132 115
91 119 139
89 116 126
84 113 135
95 123 133
88 115 139
81 109 122
85 114 141
98 125 143
96 122 140
85 113 141
86 114 129
93 120 143
89 115 144
107 133 140
84 111 141
92 119 142
98 123 143
87 115 130
91 118 144
99 125 134
77 107 136
95 121 140
106 131 154
96 123 139
96 122 134
97 123 143
101 127 151
90 118 143
76 106 145
89 118 154
96 123 154
96 124 151
84 113 158
93 119 159
88 115 151
75 106 156
67 100 151
79 109 152
72 103 150
70 103 155
71 102 149
77 107 154
69 100 140
66 99 148
60 95 150
72 102 140
74 105 150
67 98 137
67 99 143
62 96 142
72 102 145
65 98 134
63 96 128
66 98 136
63 96 142
64 97 134
58 93 124
64 96 128
60 93 119
62 96 134
64 97 136
59 93 125
58 92 115
62 95 129
62 96 134
58 92 125
59 93 134
58 93 125
58 92 121
60 94 137
60 95 140
59 93 126
58 92 122
60 95 137
59 93 118
60 95 139
61 97 149
59 94 135
61 96 133
59 95 135
60 95 139
59 94 139
58 93 126
60 94 135
59 93 133
58 93 133
59 94 131
60 95 130
61 95 134
59 93 129
60 94 124
60 95 141
60 95 140
60 94 130
59 94 129
59 93 126
60 94 128
60 94 129
60 95 133
59 94 124
60 95 139
61 95 140
59 93 121
59 94 135
60 95 135
60 94 129
61 95 136
60 95 129
59 93 125
60 95 139
61 96 141
59 93 131
61 96 135
59 93 121
60 94 126
59 93 129
59 94 125
59 94 126
59 94 131
59 94 133
60 95 135
61 96 137
59 93 129
59 94 130
57 90 113
60 94 128
58 92 126
58 93 126
60 94 133
58 92 125
61 95 133
59 94 136
59 94 122
61 96 139
59 94 125
59 93 124
59 93 122
57 91 111
59 93 126
60 94 134
59 93 124
58 92 122
59 93 124
57 91 115
58 91 121
56 89 115
58 91 105
58 92 117
58 91 117
59 93 128
59 92 125
57 89 111
59 93 129
59 93 115
56 88 105
57 88 103
75 101 102
84 103 72
117 133 36
121 134 31
116 128 0
117 130 0
108 123 0
119 133 0
112 127 0
120 134 0
122 137 0
124 137 0
127 142 0
119 134 0
129 144 0
116 130 0
121 135 0
128 142 0
129 143 0
121 136 0
118 131 0
125 140 0
121 135 0
125 139 0
128 144 0
132 147 0
131 146 0
134 147 0
139 154 0
122 136 0
133 147 0
129 143 0
136 148 0
130 144 0
119 133 0
133 147 0
128 143 0
130 144 0
141 153 0
143 157 0
142 156 0
135 147 0
134 148 0
141 156 0
133 146 0
133 146 0
138 150 0
133 146 0
125 137 0
126 140 0
140 152 0
131 144 0
137 151 0
140 153 0
140 152 0
136 149 0
138 151 0
141 155 0
139 154 0
141 154 0
141 153 0
132 144 0
156 168 0
146 156 0
132 144 0
140 153 0
147 163 0
137 147 0
143 155 0
146 159 0
140 156 0
130 140 0
139 152 0
145 157 0
149 162 0
138 150 0
144 153 0
135 147 0
142 155 0
148 163 0
153 165 0
150 164 0
143 158 0
146 158 0
145 159 0
146 158 0
143 157 0
140 151 0
144 156 0
155 169 0
147 159 0
149 162 0
149 161 0
150 164 0
152 164 0
151 168 0
153 168 0
150 165 0
145 158 0
155 171 0
154 171 0
153 166 0
153 167 0
155 172 0
147 160 0
148 162 0
154 168 0
157 172 0
154 169 0
156 171 0
156 171 0
153 166 0
153 170 0
160 178 0
154 170 0
154 171 0
155 170 0
160 173 0
160 176 0
156 172 0
160 176 0
156 170 0
163 180 0
159 175 0
152 165 0
156 173 0
164 180 0
157 173 0
158 175 0
161 180 0
156 174 0
168 187 0
159 176 0
164 181 0
159 179 0
160 178 0
156 171 0
162 180 0
163 181 0
166 183 0
159 175 0
161 179 0
160 179 0
168 187 0
166 184 0
162 180 0
164 183 0
161 180 0
165 185 0
164 182 0
160 177 0
165 184 0
166 184 0
165 185 0
167 185 0
165 184 0
168 187 0
167 186 0
167 192 72
170 194 57
173 197 80
170 194 72
170 194 80
169 193 84
169 193 76
171 195 62
169 193 72
171 196 99
170 193 72
172 195 76
171 196 62
171 196 92
170 194 51
170 194 76
172 196 92
172 196 92
168 193 67
171 195 72
171 195 72
170 194 57
170 194 80
169 193 84
170 195 72
171 195 72
171 195 72
168 193 67
168 193 44
169 194 88
169 193 67
168 193 88
173 197 88
173 197 80
168 193 80
171 195 76
170 194 72
169 194 76
169 194 76
161 185 62
166 191 67
167 192 76
165 189 62
168 192 67
169 193 67
164 188 67
162 186 44
164 188 67
164 187 72
156 180 72
168 193 88
164 189 92
167 192 84
168 192 62
164 188 72
166 189 72
170 194 80
165 188 51
166 189 76
161 184 72
159 182 84
162 184 57
159 181 72
165 188 76
160 183 80
159 182 80
157 180 67
158 182 62
170 193 62
159 182 62
158 181 62
163 187 80
162 186 72
159 183 62
162 185 72
158 181 76
158 181 72
159 183 67
159 182 76
161 184 80
164 188 88
158 180 44
153 176 67
153 177 92
129 152 82
124 148 116
95 121 114
85 113 118
88 116 129
93 121 136
95 122 133
79 109 142
93 120 134
87 115 134
95 123 137
94 121 143
97 123 152
95 121 137
91 117 144
95 121 133
95 122 141
84 112 123
92 118 139
96 122 133
101 127 138
86 114 132
94 123 148
97 124 147
84 111 140
80 109 141
86 114 144
91 118 140
86 115 147
86 114 148
106 131 145
95 120 145
98 125 160
89 116 139
91 119 145
94 121 149
88 116 151
78 108 140
84 112 151
80 109 153
73 102 141
84 113 156
74 105 147
74 105 148
75 104 143
74 102 141
70 101 143
63 97 147
65 99 149
70 101 147
68 100 150
65 99 147
64 95 135
77 106 135
69 101 144
66 98 128
60 94 124
60 95 141
59 93 136
57 91 128
63 97 142
63 97 133
61 95 132
60 93 133
57 90 119
61 95 132
58 93 136
59 94 134
58 93 129
59 93 126
59 93 129
59 93 128
60 94 137
60 95 138
58 92 127
61 96 140
59 93 137
60 94 129
58 93 133
59 94 131
58 92 126
60 95 137
59 94 134
58 93 128
59 94 136
58 93 130
59 93 131
60 95 136
60 95 140
60 95 133
58 93 129
60 94 128
59 93 124
60 95 131
58 93 128
60 94 131
58 92 122
59 93 131
58 92 129
60 95 139
60 95 131
60 94 130
60 95 135
59 93 137
59 93 133
60 94 130
59 94 129
60 94 133
60 95 131
60 95 131
60 95 131
59 93 128
59 94 131
59 93 134
59 94 126
60 95 134
59 94 134
59 94 128
60 94 133
58 92 125
60 95 142
59 94 124
59 93 122
60 95 136
60 95 135
58 92 129
59 94 129
60 94 131
58 92 128
60 94 129
60 95 135
59 94 135
59 93 128
59 93 133
60 94 129
58 92 118
59 93 124
59 93 130
60 95 136
58 92 122
56 89 107
58 91 118
59 93 124
59 93 124
60 94 130
59 93 133
60 94 126
59 93 128
59 93 121
58 91 117
58 92 114
58 91 114
57 90 111
56 89 97
56 88 110
57 90 115
60 89 105
91 114 79
90 111 70
100 117 57
104 120 40
115 129 18
113 128 0
112 128 0
103 116 0
119 132 0
125 138 0
119 132 0
123 137 0
129 145 0
126 139 0
123 138 0
129 144 0
119 131 0
129 144 0
127 141 0
130 143 0
117 129 0
134 149 0
130 145 0
134 149 0
123 138 0
127 138 0
128 141 0
123 138 0
123 137 0
131 145 0
132 146 0
129 142 0
129 141 0
138 151 0
132 146 0
131 147 0
124 138 0
128 144 0
146 160 0
129 141 0
130 145 0
131 145 0
126 136 0
136 151 0
128 142 0
135 147 0
133 146 0
136 150 0
130 144 0
132 146 0
145 158 0
137 151 0
131 146 0
146 162 0
148 161 0
134 146 0
142 157 0
136 149 0
133 145 0
143 157 0
137 150 0
137 152 0
147 160 0
141 155 0
141 156 0
137 148 0
143 157 0
146 159 0
146 158 0
144 158 0
144 157 0
147 162 0
142 156 0
147 162 0
139 152 0
149 164 0
148 159 0
146 159 0
148 164 0
145 160 0
159 176 0
152 166 0
145 157 0
145 160 0
151 162 0
140 156 0
146 160 0
145 158 0
150 165 0
149 162 0
143 158 0
149 164 0
144 158 0
145 157 0
152 166 0
146 159 0
154 168 0
148 165 0
151 165 0
154 171 0
150 163 0
148 161 0
156 172 0
150 163 0
157 170 0
152 168 0
153 166 0
151 164 0
151 166 0
157 174 0
153 168 0
159 172 0
155 171 0
154 171 0
157 173 0
157 172 0
153 168 0
158 174 0
157 173 0
153 167 0
153 167 0
159 176 0
158 175 0
155 172 0
159 176 0
161 178 0
153 169 0
161 178 0
158 176 0
157 172 0
158 175 0
158 175 0
164 181 0
162 179 0
162 179 0
161 177 0
163 179 0
166 184 0
159 178 0
159 176 0
168 185 0
161 176 0
161 180 0
158 176 0
163 182 0
161 178 0
160 181 0
160 175 0
160 177 0
162 181 0
161 180 0
161 181 0
161 181 0
164 183 0
159 179 0
161 180 0
166 185 0
163 182 0
164 184 0
171 194 36
172 197 72
173 198 80
171 196 102
171 195 62
171 195 62
166 190 88
170 194 102
172 195 76
168 192 84
170 194 57
168 191 51
170 194 88
167 192 88
173 197 84
168 192 51
170 195 76
172 196 84
171 195 67
171 195 80
171 195 76
168 192 80
167 191 80
164 188 67
169 195 95
170 195 62
167 191 80
169 194 92
169 193 72
170 194 57
168 192 84
170 194 76
164 188 72
170 195 62
166 190 62
166 190 51
166 190 62
171 194 67
168 192 72
169 193 72
166 189 51
166 190 84
162 186 57
162 186 76
166 190 88
165 190 80
169 194 84
169 192 62
168 192 62
158 182 57
169 193 84
164 188 67
165 189 67
165 189 72
169 193 88
164 188 51
163 187 67
163 187 84
163 187 62
157 181 51
164 188 76
160 183 62
162 186 62
165 189 67
166 190 67
159 182 67
157 181 84
160 183 51
162 185 62
162 185 67
165 188 67
163 187 95
152 174 80
155 178 76
161 184 80
155 179 76
157 182 76
164 187 67
155 178 80
160 182 67
157 180 72
151 174 92
149 171 76
155 177 72
137 161 84
138 161 78
124 148 117
91 119 131
83 111 121
86 114 125
87 115 123
95 122 139
96 123 136
93 121 140
84 112 133
85 113 125
87 114 129
84 111 133
91 117 134
79 106 129
98 124 139
93 120 126
95 121 139
99 125 136
89 116 137
89 117 129
94 120 150
104 129 154
94 120 119
99 125 140
85 113 141
101 127 150
98 125 150
89 116 144
87 115 133
97 125 151
90 118 152
101 127 153
90 117 141
84 113 150
81 109 134
89 117 160
81 110 148
78 108 156
89 117 156
86 113 153
81 110 160
77 105 147
79 108 150
77 105 148
67 99 143
64 97 141
64 98 145
65 97 142
66 98 137
66 98 135
66 98 140
65 98 146
64 96 125
68 98 131
61 95 138
59 93 139
61 94 137
63 96 126
64 98 139
62 96 136
61 95 136
62 95 123
60 93 116
61 96 143
62 96 120
59 94 128
58 91 119
58 92 126
59 93 136
60 95 135
58 91 126
59 94 131
59 93 126
58 93 135
60 94 131
60 95 136
60 94 136
59 93 127
60 94 128
59 93 121
59 93 128
60 94 133
60 95 131
59 94 129
59 94 124
60 94 129
59 93 128
60 95 134
60 95 130
61 96 140
59 93 129
60 94 130
60 95 134
59 94 134
60 94 141
60 95 135
59 93 134
59 93 125
59 92 125
60 95 130
58 92 115
59 93 129
59 94 129
60 95 140
60 94 142
60 95 134
58 92 125
60 95 140
58 92 128
59 94 129
60 94 130
60 95 141
59 94 135
58 93 124
58 92 121
59 94 125
59 93 129
60 95 126
59 92 129
60 94 126
61 96 139
60 94 136
60 94 136
61 95 137
60 94 126
59 93 125
60 94 134
59 94 133
61 95 131
60 94 118
61 95 143
59 93 124
59 93 133
59 94 126
58 92 113
60 94 130
57 91 113
59 94 130
60 94 128
59 93 126
60 94 134
57 90 114
57 90 126
59 92 125
57 91 117
58 91 105
59 93 115
58 91 121
58 92 114
57 90 114
58 91 120
57 90 113
57 90 117
65 94 100
74 101 100
93 115 67
96 115 48
97 115 54
111 125 18
112 126 0
113 127 0
113 127 0
122 137 0
109 121 0
115 128 0
126 141 0
126 139 0
130 145 0
130 146 0
123 137 0
123 137 0
126 142 0
119 134 0
125 140 0
127 140 0
127 141 0
131 144 0
127 144 0
130 146 0
127 142 0
117 129 0
127 141 0
125 138 0
131 145 0
127 140 0
140 156 0
125 139 0
133 149 0
134 147 0
126 141 0
129 145 0
125 139 0
145 160 0
140 154 0
120 133 0
136 151 0
135 149 0
134 147 0
131 147 0
131 145 0
141 156 0
135 150 0
126 140 0
138 154 0
127 140 0
147 163 0
136 151 0
130 143 0
132 143 0
128 143 0
134 145 0
135 148 0
119 128 0
135 149 0
140 152 0
146 160 0
136 150 0
141 153 0
141 157 0
140 152 0
139 153 0
140 154 0
148 163 0
145 156 0
142 154 0
148 162 0
137 151 0
144 157 0
146 160 0
143 157 0
137 152 0
152 165 0
145 158 0
150 163 0
140 152 0
145 159 0
152 165 0
143 158 0
152 164 0
140 153 0
153 169 0
153 165 0
149 164 0
154 167 0
142 155 0
149 163 0
143 159 0
154 168 0
154 168 0
156 169 0
155 171 0
158 174 0
151 167 0
153 166 0
142 156 0
155 170 0
155 170 0
161 178 0
162 179 0
157 170 0
153 167 0
153 170 0
151 164 0
156 171 0
147 160 0
151 165 0
149 164 0
157 174 0
154 171 0
158 175 0
157 173 0
156 171 0
157 176 0
150 166 0
152 166 0
162 181 0
158 174 0
160 174 0
157 173 0
160 176 0
157 172 0
160 176 0
163 180 0
158 173 0
159 174 0
161 179 0
161 179 0
159 175 0
160 176 0
156 171 0
159 176 0
159 175 0
161 179 0
165 184 0
163 180 0
162 179 0
162 181 0
156 173 0
165 182 0
160 179 0
162 180 0
163 180 0
163 180 0
162 181 0
163 177 0
166 186 0
166 186 0
165 183 0
165 184 0
161 179 0
169 189 0
161 179 0
161 179 0
166 186 0
167 191 57
173 196 51
174 198 88
172 196 88
172 196 67
172 196 88
170 193 51
169 193 92
171 195 76
170 196 80
167 192 72
171 193 67
170 194 88
170 194 80
172 197 99
171 195 80
168 193 72
171 196 84
167 190 72
170 194 67
168 192 80
169 192 62
169 193 57
168 192 92
168 192 88
167 191 80
170 193 95
165 189 51
164 188 72
171 195 92
167 191 80
166 190 51
168 193 62
165 189 67
166 191 62
165 188 72
166 190 67
166 190 67
171 195 88
162 187 84
169 192 76
167 190 62
166 190 80
165 189 72
163 187 67
169 193 76
163 187 67
166 191 72
167 191 84
161 185 95
166 189 67
168 193 62
169 192 84
161 185 72
163 187 84
162 186 76
161 185 67
162 185 57
158 181 57
163 188 92
162 186 62
157 181 76
163 187 95
158 182 62
159 183 57
164 187 51
161 184 72
160 185 72
160 185 88
163 186 95
153 176 72
154 177 72
155 179 57
161 184 80
153 177 76
158 180 72
155 177 57
158 181 62
155 178 72
162 184 76
156 178 84
159 183 76
147 169 57
161 184 80
150 173 88
146 169 84
137 160 84
113 138 131
95 122 134
91 117 113
85 112 125
94 121 134
94 120 132
98 124 134
98 124 137
93 120 132
80 109 132
91 118 114
96 123 137
91 118 133
98 124 143
89 117 134
94 120 131
83 110 131
90 116 130
99 126 141
96 122 127
98 124 140
92 120 143
92 119 132
88 115 126
82 111 135
104 130 146
96 123 149
88 115 151
86 114 147
95 122 143
91 118 153
82 111 145
83 110 143
94 121 147
82 111 140
80 109 146
81 110 142
96 123 161
66 99 151
82 111 152
84 112 152
74 105 148
73 103 149
64 98 151
75 106 154
68 100 146
78 108 155
64 97 147
71 100 124
69 98 126
63 97 148
65 97 133
62 95 134
64 97 140
68 100 135
62 97 141
62 95 118
67 99 132
61 95 132
62 96 133
59 92 122
58 92 128
57 90 118
62 96 133
58 92 125
59 92 124
63 96 129
58 92 122
57 91 115
58 92 116
59 94 129
60 95 135
59 93 130
60 94 128
59 93 136
57 90 118
59 93 123
59 94 126
58 92 122
58 93 126
59 93 133
59 93 125
60 94 131
58 92 117
60 94 133
58 92 129
60 95 134
59 94 129
59 94 131
59 93 130
59 93 136
58 93 129
59 93 122
58 91 120
59 93 130
61 96 133
60 95 140
59 94 135
60 95 136
59 94 130
59 94 130
59 93 129
59 93 126
59 93 125
58 93 122
58 92 124
60 95 131
59 94 126
60 94 131
59 94 128
59 93 125
59 94 128
59 93 120
58 92 126
61 96 135
59 94 133
60 95 137
60 94 129
61 96 137
59 93 131
59 93 120
59 93 124
60 94 126
60 94 133
58 93 130
59 93 125
57 91 120
60 94 129
59 94 128
59 93 129
58 92 118
60 94 131
58 91 126
58 92 122
58 92 115
59 93 118
57 91 120
56 89 107
58 92 126
59 93 117
57 91 117
58 91 114
59 93 120
56 89 102
58 92 121
56 89 111
57 90 107
57 91 113
55 86 103
55 88 100
55 88 97
58 90 108
68 93 90
88 109 86
82 101 62
108 123 26
116 129 25
112 122 0
115 132 0
123 138 0
124 136 0
124 138 0
115 129 0
124 140 0
121 137 0
121 135 0
120 135 0
117 132 0
130 145 0
120 134 0
117 129 0
118 132 0
121 136 0
121 136 0
124 141 0
131 146 0
129 146 0
149 165 0
128 142 0
128 142 0
140 155 0
130 145 0
123 135 0
131 145 0
137 153 0
127 142 0
130 142 0
131 146 0
127 142 0
129 143 0
136 151 0
140 155 0
141 157 0
135 150 0
134 147 0
138 151 0
130 144 0
138 152 0
138 150 0
136 151 0
142 154 0
145 159 0
138 153 0
143 157 0
143 156 0
134 150 0
133 145 0
130 146 0
134 146 0
137 150 0
140 153 0
138 152 0
139 155 0
136 151 0
133 148 0
141 154 0
148 162 0
136 149 0
142 154 0
135 148 0
138 149 0
147 160 0
145 157 0
141 155 0
146 160 0
146 162 0
139 150 0
150 163 0
153 166 0
141 156 0
142 155 0
150 167 0
138 151 0
148 164 0
150 167 0
145 159 0
146 162 0
153 168 0
147 161 0
160 178 0
147 161 0
148 162 0
144 156 0
151 166 0
146 157 0
153 168 0
151 167 0
152 167 0
154 170 0
152 168 0
154 171 0
148 164 0
149 162 0
155 170 0
152 167 0
150 165 0
147 162 0
148 164 0
150 165 0
151 167 0
152 168 0
160 173 0
152 167 0
153 169 0
154 169 0
155 169 0
159 173 0
156 173 0
159 178 0
154 169 0
158 175 0
159 175 0
161 175 0
152 168 0
161 179 0
158 174 0
160 175 0
160 179 0
150 165 0
159 178 0
151 167 0
161 177 0
157 174 0
158 177 0
158 176 0
158 174 0
155 172 0
164 181 0
159 174 0
162 177 0
167 188 0
167 185 0
160 175 0
163 182 0
159 177 0
165 182 0
166 184 0
166 184 0
166 184 0
163 182 0
160 181 0
166 184 0
167 185 0
165 183 0
164 182 0
166 185 0
162 181 0
163 179 0
162 181 0
166 185 0
164 182 0
167 187 0
165 184 0
170 194 84
171 196 76
168 192 62
173 197 67
168 192 62
171 194 72
168 192 36
170 193 62
167 192 67
173 197 92
171 195 57
165 189 62
168 193 84
164 188 57
171 194 51
168 192 80
173 197 80
168 193 76
169 193 72
170 194 72
170 194 84
167 191 62
169 192 76
172 195 84
170 194 51
172 197 84
168 193 72
168 193 84
162 186 62
164 188 102
166 190 72
160 185 62
167 193 102
168 193 84
166 191 51
167 191 76
168 193 92
163 187 76
166 191 72
166 190 76
164 188 72
166 191 99
169 193 51
166 189 72
169 195 76
163 187 44
166 191 95
163 186 62
161 186 72
163 188 72
168 192 72
169 193 76
167 192 80
167 191 92
164 188 57
155 178 72
164 188 92
164 187 44
163 187 57
162 186 72
168 192 67
162 186 67
163 186 62
161 184 51
166 189 67
161 185 57
159 183 76
156 179 80
154 177 57
162 186 80
157 181 72
159 183 80
157 179 80
158 182 84
155 178 82
163 186 80
159 182 76
152 175 72
157 179 62
155 178 72
149 172 80
157 180 57
147 169 84
155 178 72
158 182 102
151 173 97
140 162 88
121 145 120
105 130 102
101 127 125
79 107 105
92 119 131
87 115 131
86 113 130
80 109 126
90 116 126
93 120 129
86 114 136
95 121 128
96 122 129
88 115 136
93 119 133
100 126 144
94 120 123
82 111 138
97 123 145
94 120 140
89 115 134
93 118 133
88 114 115
106 131 144
85 113 138
96 123 149
97 124 137
90 118 138
90 119 145
86 114 149
85 113 145
85 114 145
83 111 137
95 119 147
76 108 149
78 108 156
80 109 141
72 103 150
84 110 149
73 104 151
75 105 145
79 108 148
79 107 148
86 112 138
70 101 147
71 101 139
62 96 142
79 107 147
62 95 134
70 102 154
68 99 130
66 98 131
61 94 130
64 98 140
62 96 136
62 96 139
63 94 117
59 94 133
61 95 135
60 94 129
57 91 114
59 93 128
63 95 130
60 94 126
64 97 124
58 93 135
57 91 124
58 92 125
59 93 127
60 94 133
58 92 122
60 94 130
57 91 114
59 93 122
60 95 133
58 91 117
59 94 130
60 95 136
58 91 124
60 95 136
58 92 126
59 93 134
59 93 118
59 94 131
60 94 134
58 92 118
61 96 136
60 95 134
60 94 139
60 95 131
58 92 126
60 94 133
59 92 118
58 92 122
59 94 125
60 94 134
59 94 129
59 93 126
59 92 129
57 91 111
59 93 134
58 93 128
59 93 121
59 93 130
59 93 133
60 95 139
58 92 121
58 92 122
60 95 135
58 92 126
58 92 122
59 93 121
58 92 120
60 95 131
60 95 135
59 93 122
59 93 129
59 93 130
60 95 133
59 93 130
59 93 131
61 96 140
59 94 122
58 92 111
59 93 129
59 93 118
59 93 118
59 93 125
59 93 122
59 94 128
60 94 130
59 93 120
57 90 113
59 92 120
58 92 121
58 91 114
57 90 117
57 90 113
60 94 126
60 95 130
58 92 121
57 91 124
59 92 124
57 90 103
57 90 105
58 91 118
58 91 125
56 89 111
57 90 108
55 88 108
62 92 103
66 94 90
99 121 92
107 125 48
101 117 48
110 124 25
113 127 0
121 135 0
105 118 0
109 123 0
115 129 0
120 134 0
127 141 0
114 128 0
118 134 0
128 143 0
117 132 0
127 142 0
136 152 0
132 148 0
121 135 0
114 126 0
121 136 0
118 131 0
127 143 0
123 138 0
126 142 0
125 140 0
128 142 0
122 136 0
137 152 0
127 139 0
125 139 0
143 159 0
133 148 0
132 147 0
140 156 0
127 142 0
126 138 0
136 148 0
137 152 0
138 153 0
132 147 0
132 145 0
133 147 0
134 148 0
140 157 0
140 157 0
135 152 0
138 153 0
129 142 0
128 142 0
131 142 0
140 155 0
134 147 0
141 154 0
140 154 0
140 152 0
137 149 0
135 149 0
139 153 0
132 147 0
145 161 0
139 156 0
141 155 0
140 153 0
137 152 0
141 157 0
140 154 0
135 147 0
140 154 0
147 160 0
143 156 0
143 158 0
145 159 0
137 150 0
140 153 0
145 159 0
144 160 0
143 154 0
150 164 0
143 159 0
147 159 0
140 152 0
150 166 0
143 157 0
154 170 0
149 163 0
142 154 0
145 161 0
148 164 0
149 164 0
152 167 0
153 167 0
147 160 0
154 169 0
149 165 0
149 164 0
151 165 0
150 162 0
150 164 0
149 164 0
151 166 0
156 172 0
151 163 0
147 162 0
157 172 0
157 173 0
145 162 0
155 171 0
158 177 0
152 165 0
159 175 0
159 178 0
155 171 0
156 170 0
162 179 0
150 166 0
156 171 0
161 178 0
155 172 0
165 182 0
158 174 0
156 174 0
155 172 0
161 179 0
153 168 0
155 173 0
159 175 0
156 168 0
162 181 0
162 180 0
160 178 0
160 178 0
155 173 0
161 181 0
161 177 0
155 172 0
162 180 0
160 176 0
161 178 0
160 178 0
156 175 0
159 177 0
161 177 0
163 181 0
164 182 0
160 177 0
160 177 0
163 181 0
165 183 0
164 182 0
165 183 0
157 176 0
163 182 0
165 184 0
166 185 0
169 188 0
162 180 0
165 185 0
166 187 0
168 186 0
162 181 0
174 198 72
172 195 80
172 196 84
170 194 67
173 197 84
173 197 80
173 196 62
172 195 80
169 193 84
172 195 36
170 194 67
170 194 80
171 195 72
168 192 76
170 194 62
174 197 57
166 190 62
165 188 51
167 192 76
165 189 67
169 194 67
168 192 57
165 189 72
170 194 67
170 195 67
168 192 72
169 193 72
166 190 72
166 191 72
170 195 84
170 194 88
167 191 80
167 191 72
167 190 62
161 185 67
167 192 76
166 190 84
167 190 88
165 189 67
164 189 76
166 189 67
169 193 62
169 194 72
161 184 72
168 191 51
165 188 72
164 187 67
164 188 72
158 183 57
165 190 76
164 189 76
165 188 72
166 190 62
165 189 76
166 190 80
162 186 92
159 182 72
157 180 57
164 187 57
163 187 72
163 187 76
160 184 84
161 185 72
165 188 76
166 189 80
164 188 76
156 179 57
162 186 67
161 184 76
159 182 67
164 187 92
156 179 62
162 185 76
155 178 72
151 174 76
158 181 67
159 182 76
156 180 72
160 183 88
152 174 67
155 178 88
152 174 51
157 180 76
148 171 57
156 178 62
151 172 72
148 171 76
133 156 99
115 139 99
99 124 124
88 116 128
88 115 121
99 125 133
92 119 134
76 105 127
93 121 140
94 120 136
88 115 129
91 117 122
82 110 125
91 116 136
104 130 131
98 124 138
104 129 137
96 122 133
101 126 130
96 122 126
90 117 140
103 128 139
106 131 141
90 116 139
90 115 121
87 114 137
101 126 141
97 123 136
99 126 134
91 118 134
93 120 141
82 111 123
78 108 142
80 109 153
77 107 144
76 106 140
86 114 146
71 103 142
82 110 149
91 117 156
71 102 147
70 102 153
78 106 148
73 103 149
73 102 144
73 103 145
65 97 138
65 98 138
69 99 139
73 104 142
65 98 141
68 99 131
69 100 131
64 96 129
61 94 126
67 98 131
63 96 134
61 95 124
63 97 134
60 94 134
57 91 126
62 97 140
57 90 122
61 93 123
58 92 122
59 93 136
58 92 126
58 92 115
58 92 124
58 93 128
57 91 123
58 93 129
59 92 124
59 93 124
58 92 128
60 94 135
59 93 123
60 94 135
59 94 133
60 94 135
58 92 120
58 93 122
60 95 134
60 94 122
58 92 123
59 93 126
61 95 131
59 94 129
59 93 121
59 93 136
58 92 121
58 93 125
59 93 124
59 93 124
59 93 128
60 95 134
59 93 124
57 91 115
58 92 122
60 95 137
60 94 131
59 93 130
59 93 128
59 94 125
59 93 122
58 92 124
59 93 126
60 95 130
59 94 131
59 94 128
58 92 129
58 93 124
59 93 126
59 93 125
59 94 124
59 94 130
59 93 122
59 92 124
59 93 128
58 91 114
59 93 133
60 95 131
59 94 134
59 93 131
61 96 135
58 91 115
59 93 125
59 93 122
58 91 111
60 94 124
60 94 121
61 95 135
59 92 124
58 92 111
58 92 122
58 92 122
59 93 128
57 91 111
57 90 107
58 92 120
59 93 129
59 93 129
56 90 118
57 90 115
56 89 100
54 86 97
55 88 110
54 86 103
57 90 108
56 87 100
64 91 81
84 106 67
101 118 51
105 120 31
118 133 25
105 120 0
108 122 0
121 135 0
124 139 0
123 137 0
129 144 0
117 131 0
111 124 0
121 136 0
123 136 0
101 115 0
122 137 0
123 139 0
116 131 0
123 137 0
127 141 0
120 136 0
119 135 0
117 132 0
137 153 0
133 149 0
120 132 0
130 146 0
126 140 0
130 146 0
121 138 0
128 145 0
137 151 0
131 146 0
125 140 0
138 152 0
125 137 0
128 143 0
133 148 0
132 146 0
134 147 0
136 151 0
129 145 0
137 153 0
131 147 0
136 151 0
136 150 0
136 151 0
141 155 0
133 146 0
143 160 0
139 155 0
138 152 0
133 147 0
134 149 0
141 155 0
126 139 0
135 149 0
142 156 0
130 145 0
140 155 0
132 146 0
147 162 0
143 157 0
142 156 0
131 147 0
144 159 0
147 162 0
150 166 0
144 160 0
153 168 0
150 164 0
147 163 0
141 154 0
149 162 0
150 165 0
146 157 0
139 154 0
149 162 0
149 164 0
150 163 0
144 159 0
150 167 0
149 163 0
151 165 0
147 164 0
144 158 0
155 167 0
145 157 0
150 164 0
146 158 0
139 154 0
154 170 0
146 158 0
149 164 0
148 165 0
153 170 0
147 161 0
149 165 0
149 165 0
151 164 0
143 158 0
145 162 0
151 163 0
155 171 0
156 172 0
152 167 0
153 167 0
158 175 0
154 169 0
153 169 0
148 162 0
155 172 0
159 176 0
155 172 0
153 170 0
153 170 0
158 175 0
158 173 0
156 172 0
162 178 0
160 178 0
159 174 0
160 176 0
158 175 0
159 176 0
152 169 0
159 176 0
159 178 0
162 179 0
155 172 0
158 178 0
161 178 0
163 180 0
159 178 0
158 176 0
164 183 0
160 177 0
158 178 0
161 179 0
162 179 0
163 181 0
162 180 0
164 184 0
157 177 0
163 182 0
162 181 0
158 176 0
160 177 0
163 181 0
166 185 0
160 178 0
164 182 0
166 186 0
166 186 0
166 188 0
162 183 0
164 182 0
161 179 0
167 189 0
169 190 0
167 186 0
165 185 0
169 193 57
170 195 67
169 193 76
171 195 88
171 196 62
172 196 67
171 195 62
170 194 72
170 195 95
171 194 67
172 196 95
170 193 80
171 195 72
168 192 72
165 189 88
168 193 80
168 193 76
167 190 62
170 193 57
169 194 84
170 194 51
170 195 72
166 190 72
174 198 80
169 194 88
173 197 88
167 191 80
167 191 76
169 193 67
167 192 72
160 183 51
173 196 76
167 191 76
169 192 44
166 190 76
164 187 44
165 190 72
170 195 95
159 184 88
163 187 62
171 195 67
164 188 72
163 188 84
171 195 80
167 190 57
169 193 80
164 188 88
164 187 67
167 190 72
160 185 80
162 184 51
163 188 72
166 190 72
167 190 72
162 186 72
161 185 62
158 180 84
156 179 72
161 184 67
161 185 62
161 185 84
169 192 62
162 185 62
154 178 88
159 183 84
154 177 62
159 182 76
162 186 84
165 188 76
154 178 62
157 181 95
149 172 80
155 178 76
158 181 51
150 172 62
154 175 44
155 178 67
152 174 80
160 182 80
151 173 51
150 173 57
158 180 88
147 170 67
153 176 102
142 164 62
148 170 76
152 175 88
141 162 88
137 160 105
111 135 117
100 127 136
81 109 117
89 116 115
83 110 110
94 120 113
96 122 134
92 119 134
92 119 129
93 119 134
91 117 141
91 117 140
85 112 134
102 127 137
94 120 139
89 116 142
95 121 132
85 112 131
91 118 136
98 123 140
99 126 140
106 130 142
99 125 141
95 122 147
108 133 136
104 130 141
96 121 138
96 122 138
86 113 137
100 126 155
84 113 146
87 114 142
76 105 140
79 108 153
88 115 145
80 110 144
71 102 158
89 115 145
76 106 143
77 106 146
73 103 145
66 98 143
70 100 140
82 107 152
76 106 148
72 101 139
69 99 137
74 103 134
65 98 137
74 104 139
62 94 131
72 102 138
72 101 131
58 92 129
64 97 131
61 94 124
61 94 133
63 95 127
63 97 132
56 89 113
59 91 118
56 90 120
59 93 126
57 91 125
59 92 129
57 90 115
60 95 122
58 92 125
58 92 127
59 93 127
58 92 115
59 93 128
58 92 110
59 93 128
59 94 130
58 92 124
58 92 124
59 94 139
58 92 117
59 93 124
59 93 121
58 92 130
59 94 135
60 94 133
58 93 125
60 94 131
61 95 140
59 94 137
59 93 125
59 93 126
60 95 140
58 92 128
61 95 131
59 93 126
58 91 120
58 92 118
58 93 117
60 94 130
59 92 120
61 96 139
59 93 120
59 93 128
58 92 124
59 94 130
59 93 126
59 92 128
59 93 121
59 93 128
59 93 126
61 95 131
59 94 128
59 94 124
60 94 128
59 93 122
60 95 141
59 93 128
57 90 117
60 94 129
58 92 124
58 92 113
58 92 124
58 92 115
58 92 117
60 94 135
59 93 122
58 92 117
58 92 118
58 92 125
58 92 113
57 90 111
59 93 120
57 91 102
58 91 120
56 89 103
60 94 125
58 92 122
57 90 103
59 93 122
56 88 108
58 91 114
57 90 117
57 91 114
56 89 105
57 89 115
57 90 103
58 91 117
59 89 105
71 96 80
80 103 92
102 118 47
105 122 36
94 108 25
96 109 0
113 127 0
113 128 0
117 131 0
104 117 0
111 127 0
113 128 0
113 125 0
131 148 0
128 140 0
125 139 0
115 131 0
119 133 0
127 145 0
121 133 0
135 152 0
124 139 0
123 139 0
120 135 0
116 131 0
134 150 0
133 149 0
134 148 0
114 127 0
130 145 0
130 146 0
131 146 0
129 144 0
121 137 0
124 137 0
129 146 0
125 140 0
130 145 0
131 146 0
120 136 0
130 145 0
139 154 0
138 152 0
126 141 0
136 151 0
142 158 0
133 148 0
137 153 0
141 157 0
135 151 0
130 145 0
144 159 0
136 151 0
136 152 0
123 137 0
131 145 0
137 150 0
138 151 0
137 154 0
142 156 0
146 161 0
131 144 0
135 149 0
132 145 0
146 159 0
147 163 0
150 165 0
151 165 0
149 166 0
142 154 0
148 164 0
147 162 0
146 162 0
141 155 0
145 159 0
145 162 0
150 163 0
146 160 0
147 162 0
149 165 0
152 164 0
142 156 0
147 161 0
141 158 0
143 155 0
143 157 0
147 159 0
152 168 0
147 162 0
143 159 0
149 166 0
155 171 0
151 166 0
143 158 0
158 174 0
147 164 0
151 167 0
150 167 0
146 163 0
154 168 0
152 167 0
151 165 0
141 153 0
148 164 0
152 166 0
157 172 0
148 161 0
157 173 0
157 174 0
157 172 0
155 170 0
159 175 0
154 170 0
160 175 0
155 173 0
162 179 0
161 178 0
156 174 0
161 177 0
161 177 0
162 180 0
158 174 0
157 171 0
162 181 0
155 172 0
159 176 0
158 175 0
159 175 0
156 172 0
155 172 0
160 178 0
159 180 0
156 174 0
159 177 0
160 178 0
152 169 0
154 171 0
162 179 0
165 184 0
162 180 0
160 178 0
164 181 0
166 185 0
156 173 0
156 173 0
165 184 0
163 181 0
163 182 0
165 185 0
165 182 0
164 185 0
159 178 0
162 183 0
160 180 0
164 184 0
158 177 0
166 184 0
166 185 0
163 182 0
165 184 0
165 185 0
164 181 0
164 184 0
165 186 0
172 196 62
170 194 67
168 191 44
168 191 67
171 195 80
170 194 51
175 198 80
166 189 44
167 191 80
172 196 76
170 193 57
173 197 62
173 196 88
172 196 67
173 198 84
165 190 72
173 196 57
172 196 72
168 192 62
168 192 72
169 193 84
170 195 62
169 194 76
167 191 76
167 191 25
168 192 72
167 192 67
167 191 62
167 192 84
165 190 57
167 191 95
167 191 51
168 192 72
164 187 57
166 191 80
161 186 72
170 194 67
171 194 67
167 191 57
163 187 88
168 193 84
162 186 72
170 193 51
167 192 80
171 195 95
164 188 62
167 192 84
164 189 84
164 189 84
162 186 67
164 187 62
166 189 57
165 190 67
162 186 80
165 189 84
163 188 88
165 189 95
164 188 95
164 188 72
164 187 72
160 185 84
159 183 76
159 183 99
161 184 51
157 180 62
160 184 76
152 176 57
162 186 76
157 179 84
158 181 80
153 176 88
156 179 57
153 176 57
160 183 88
150 174 84
160 181 62
155 179 67
155 178 67
142 165 57
159 181 92
152 176 72
154 175 72
156 179 76
141 163 76
148 169 57
156 178 76
155 177 76
143 166 57
137 159 80
123 146 84
107 131 100
82 110 118
91 118 122
81 109 107
90 117 120
86 114 131
96 121 125
91 118 128
92 118 118
88 115 124
87 115 126
87 114 136
82 110 124
96 122 138
78 105 118
104 129 144
96 121 139
90 116 134
92 118 118
103 127 129
96 122 143
98 124 137
98 123 147
97 124 139
76 105 128
88 114 129
88 116 137
84 112 138
90 117 143
104 128 148
82 110 140
85 112 139
96 122 153
86 113 144
83 112 155
83 111 144
71 102 141
77 106 150
84 112 153
76 105 135
80 107 145
74 103 140
71 100 136
67 99 137
70 101 140
77 106 142
68 99 137
66 99 146
67 98 125
64 97 129
74 103 133
71 101 130
67 98 127
67 99 133
71 101 108
63 96 124
60 93 126
58 92 129
62 95 114
58 92 124
60 94 131
63 96 136
56 89 113
57 90 102
59 93 128
58 92 130
58 92 124
57 90 110
58 92 127
60 94 125
57 91 126
58 92 123
58 92 118
59 93 126
58 92 128
59 93 120
60 95 139
59 93 127
59 92 125
60 95 136
59 94 126
59 93 133
57 91 113
58 93 122
59 93 122
58 92 128
59 94 128
57 91 122
60 94 125
59 94 131
58 92 126
59 93 128
56 90 115
59 93 126
58 92 115
58 91 126
58 92 124
59 94 134
59 93 129
60 94 133
60 95 133
61 96 130
59 94 130
60 95 135
59 93 125
59 93 113
58 93 133
60 95 135
58 91 110
60 94 122
61 95 135
59 93 128
60 94 136
58 92 125
58 92 118
57 91 110
59 93 126
58 92 113
60 94 125
57 90 107
57 91 115
58 92 117
58 92 120
57 90 115
59 93 125
59 93 122
57 90 118
59 93 125
57 90 117
59 94 124
56 90 100
56 89 107
59 93 125
58 92 117
58 92 115
58 91 110
57 90 121
58 91 113
59 92 107
57 90 115
57 89 118
57 90 108
56 88 102
56 89 105
54 84 86
65 93 92
87 110 76
96 115 60
106 121 31
109 124 18
113 127 0
122 136 0
117 131 0
118 134 0
116 132 0
113 127 0
115 129 0
96 110 0
124 141 0
111 125 0
125 139 0
118 133 0
123 136 0
125 140 0
130 145 0
134 149 0
119 133 0
127 144 0
125 138 0
129 146 0
132 148 0
140 156 0
130 146 0
123 139 0
131 145 0
115 132 0
125 142 0
131 146 0
132 147 0
132 147 0
126 140 0
131 146 0
134 148 0
129 143 0
130 144 0
131 146 0
134 151 0
138 154 0
132 150 0
130 145 0
137 155 0
132 145 0
135 151 0
132 149 0
136 150 0
141 157 0
141 156 0
136 152 0
139 154 0
145 159 0
140 154 0
142 156 0
146 163 0
139 152 0
138 152 0
146 160 0
146 161 0
144 158 0
147 163 0
145 162 0
139 155 0
145 157 0
141 156 0
139 153 0
140 155 0
156 171 0
145 159 0
141 154 0
138 152 0
149 165 0
139 154 0
141 155 0
144 158 0
142 158 0
152 168 0
147 160 0
147 164 0
140 156 0
143 156 0
146 161 0
145 160 0
147 165 0
147 164 0
151 169 0
149 163 0
145 157 0
150 166 0
148 162 0
145 159 0
148 166 0
144 160 0
146 162 0
152 170 0
149 164 0
154 171 0
154 171 0
155 169 0
158 177 0
150 166 0
150 164 0
148 162 0
151 166 0
156 171 0
155 170 0
151 164 0
155 171 0
153 168 0
157 174 0
150 165 0
156 171 0
156 172 0
155 171 0
159 176 0
153 170 0
154 168 0
161 179 0
156 173 0
156 174 0
158 174 0
164 178 0
157 174 0
156 173 0
160 178 0
153 170 0
160 175 0
162 180 0
164 184 0
162 181 0
162 179 0
161 179 0
160 178 0
164 181 0
159 176 0
159 176 0
159 176 0
163 180 0
161 180 0
165 184 0
164 184 0
159 179 0
162 182 0
161 179 0
160 175 0
162 181 0
164 184 0
164 184 0
162 179 0
164 183 0
164 183 0
167 186 0
163 182 0
161 180 0
163 184 0
166 185 0
159 178 0
165 185 0
166 187 0
166 186 0
164 184 0
168 186 0
169 194 80
170 194 57
172 197 72
175 199 80
172 196 95
167 192 67
171 196 76
174 198 80
170 194 62
164 189 67
173 197 76
167 191 51
167 192 67
171 195 72
171 196 80
169 193 67
168 193 67
168 193 76
172 196 72
167 192 72
171 196 76
171 196 72
169 193 72
165 189 76
165 189 72
166 190 67
167 191 57
167 191 76
165 189 44
164 188 62
168 192 92
163 186 57
170 194 72
166 190 62
165 188 51
163 186 72
168 192 84
163 188 76
165 189 72
166 190 57
165 190 99
164 189 51
167 191 76
162 185 57
164 188 76
162 186 51
166 190 80
162 186 72
161 185 72
163 187 80
167 191 80
169 192 80
168 192 84
161 184 72
166 190 80
161 184 84
164 188 92
157 181 88
161 184 57
163 186 80
163 186 84
162 186 80
162 185 67
166 189 76
165 189 72
165 188 57
154 178 80
159 183 84
158 182 57
152 174 67
164 187 57
155 177 76
158 182 80
160 182 62
156 179 72
162 184 62
152 175 80
155 179 72
149 172 51
165 188 92
158 180 76
155 176 72
159 181 84
152 174 84
155 178 80
152 173 57
143 164 84
151 172 70
145 167 70
138 160 94
112 136 94
108 132 114
96 121 122
90 116 105
84 111 129
99 125 139
88 115 133
104 128 131
94 121 133
86 112 115
80 108 127
97 123 130
93 120 109
87 115 124
97 123 133
82 110 131
97 123 136
79 106 129
97 122 128
97 123 148
100 124 140
101 126 146
104 130 131
85 113 132
91 118 140
93 119 132
92 119 131
95 122 144
99 125 135
92 119 140
102 127 147
84 111 147
96 121 135
76 105 140
95 120 147
74 106 147
74 104 142
72 102 142
85 112 149
68 98 143
68 100 147
78 107 149
79 106 145
82 109 148
78 105 140
70 101 140
66 98 146
67 98 133
64 97 128
70 100 139
75 103 128
60 92 115
66 98 133
69 99 131
65 97 135
70 100 120
75 104 135
61 93 107
63 96 125
60 94 128
58 91 128
58 92 129
63 96 135
57 91 121
56 89 119
56 90 101
60 94 126
59 94 135
58 92 129
56 90 113
58 92 122
58 91 121
59 93 121
57 91 115
57 91 115
58 92 121
58 92 116
59 93 128
59 92 124
58 91 126
58 93 121
60 95 135
57 90 115
58 93 124
59 93 136
60 94 128
59 94 128
59 93 128
59 93 125
59 93 121
59 93 126
58 92 122
59 94 131
58 92 122
58 92 122
59 94 126
58 92 122
59 94 129
60 95 131
59 93 117
58 91 118
60 94 136
59 93 130
58 91 129
58 92 125
59 94 126
59 93 128
60 94 124
59 93 124
58 91 114
58 92 121
59 93 130
59 93 124
58 92 115
57 91 118
59 93 121
59 93 128
58 91 113
60 94 136
60 94 122
59 94 128
59 93 118
59 93 122
59 94 130
60 94 125
57 91 122
57 90 124
58 91 120
60 94 125
57 90 111
59 93 121
58 92 122
58 92 114
59 93 117
58 92 121
57 90 107
55 87 102
55 88 86
58 92 115
56 89 111
54 86 100
55 87 92
56 88 97
56 88 115
71 96 88
93 113 72
98 115 57
95 113 54
99 113 25
103 118 0
120 135 0
120 136 0
114 130 0
113 126 0
117 133 0
116 131 0
112 129 0
114 128 0
116 131 0
115 130 0
119 135 0
121 135 0
122 136 0
122 138 0
125 141 0
117 134 0
120 134 0
132 148 0
122 137 0
130 145 0
132 147 0
129 146 0
125 142 0
128 142 0
131 147 0
125 140 0
134 150 0
133 147 0
133 148 0
129 143 0
131 144 0
134 148 0
136 151 0
135 151 0
136 152 0
142 159 0
130 145 0
132 148 0
133 149 0
139 156 0
148 163 0
139 155 0
139 156 0
137 153 0
135 152 0
143 160 0
139 156 0
137 153 0
144 161 0
140 154 0
152 168 0
136 150 0
132 147 0
140 155 0
136 151 0
143 159 0
137 155 0
147 165 0
145 161 0
144 157 0
146 162 0
146 163 0
145 163 0
128 142 0
143 158 0
140 156 0
146 161 0
150 166 0
147 163 0
145 164 0
146 157 0
146 159 0
146 161 0
139 152 0
146 161 0
146 162 0
143 159 0
153 168 0
142 155 0
148 163 0
146 163 0
149 163 0
149 168 0
147 161 0
151 168 0
153 168 0
142 157 0
160 175 0
152 167 0
155 172 0
154 170 0
151 167 0
149 164 0
155 173 0
144 159 0
147 163 0
155 171 0
150 166 0
155 171 0
152 170 0
154 171 0
159 175 0
152 169 0
155 171 0
156 173 0
153 170 0
158 173 0
161 178 0
157 175 0
158 174 0
156 173 0
150 168 0
161 178 0
161 180 0
161 179 0
160 176 0
157 175 0
155 171 0
147 162 0
157 173 0
159 176 0
158 174 0
161 178 0
156 174 0
160 178 0
160 179 0
159 175 0
159 177 0
153 169 0
159 176 0
159 175 0
161 179 0
161 178 0
162 182 0
157 175 0
158 177 0
162 180 0
164 184 0
159 179 0
164 183 0
163 182 0
163 182 0
160 177 0
165 184 0
159 177 0
162 181 0
160 179 0
161 180 0
163 183 0
162 181 0
159 178 0
158 175 0
160 178 0
163 183 0
165 183 0
165 184 0
161 178 0
165 184 0
165 186 0
165 185 0
174 198 80
171 196 80
170 194 76
173 197 72
174 198 72
168 192 80
171 195 57
170 193 84
169 195 92
171 195 76
167 191 72
170 194 80
169 193 72
169 194 67
171 196 80
170 194 67
171 194 72
170 194 84
166 190 72
166 190 62
168 192 92
168 192 62
166 190 36
172 196 92
167 191 72
168 192 51
170 194 57
163 187 57
165 189 76
167 192 80
164 188 88
168 193 105
165 189 84
167 192 76
164 188 72
165 189 72
160 184 72
168 192 62
169 192 92
168 192 67
163 187 80
164 189 88
164 187 72
166 190 88
163 187 95
167 191 80
167 191 67
166 191 95
163 188 88
170 193 88
158 182 67
160 183 57
164 187 95
162 186 67
162 184 72
162 185 72
159 181 72
167 190 88
157 180 72
161 184 84
161 184 67
156 180 67
166 189 88
157 180 76
159 181 72
168 193 92
159 181 67
165 188 72
160 183 84
164 187 92
156 178 80
161 184 44
157 180 72
158 182 72
151 173 76
159 183 88
147 169 51
156 179 80
155 178 67
155 178 88
149 171 51
155 178 84
152 174 62
144 166 62
149 172 62
151 173 76
152 174 51
156 177 95
147 169 80
148 169 65
117 139 78
116 139 90
97 121 107
96 122 126
71 100 104
87 115 120
85 113 117
75 104 124
85 111 134
94 120 144
88 114 115
100 126 141
84 110 134
87 113 113
93 119 129
90 117 130
99 124 142
93 120 140
91 117 128
83 110 132
103 126 143
82 111 128
97 123 133
90 116 127
90 117 135
92 119 122
93 120 137
94 121 139
101 126 134
90 117 147
95 121 150
100 126 155
90 116 138
81 110 143
77 108 147
84 112 140
71 103 149
80 108 141
76 106 146
83 111 149
87 112 135
80 107 144
71 101 145
89 111 140
69 99 134
75 103 140
72 103 151
67 99 140
71 101 145
76 106 135
68 100 145
76 106 132
66 99 143
59 92 122
66 97 121
65 95 107
67 97 122
62 94 121
61 94 120
63 96 125
61 94 129
60 93 122
58 91 117
65 97 115
61 95 121
58 92 128
59 93 134
60 94 136
58 93 121
57 91 118
60 95 129
58 92 122
58 91 117
58 92 118
58 92 124
59 93 122
60 94 126
59 93 131
57 91 110
57 91 110
57 91 120
58 93 122
59 94 122
58 92 127
60 95 131
58 92 120
58 92 125
59 93 120
58 92 122
58 92 122
59 93 122
59 93 128
59 93 124
60 94 125
58 92 126
58 93 130
59 94 120
59 93 125
60 94 126
58 92 114
59 93 130
60 95 130
58 91 115
58 92 124
60 95 133
58 92 115
58 92 124
59 93 128
58 92 122
57 91 111
58 92 120
59 93 128
59 93 130
58 92 128
59 93 122
58 92 125
57 91 111
58 92 122
59 93 114
57 91 117
56 89 110
59 93 118
58 92 122
58 92 128
58 92 111
57 91 113
57 90 111
58 93 125
59 93 133
59 93 130
57 89 113
58 91 113
59 93 125
55 88 105
55 88 117
58 91 122
57 90 113
57 90 103
57 90 105
56 88 107
58 92 108
58 91 114
54 85 92
72 97 78
87 109 70
87 106 54
101 116 25
104 120 36
112 128 0
118 134 0
114 128 0
107 120 0
110 127 0
126 142 0
120 134 0
117 132 0
115 130 0
123 138 0
128 143 0
131 146 0
133 149 0
120 135 0
126 143 0
134 151 0
109 123 0
126 140 0
125 138 0
126 142 0
120 133 0
121 137 0
130 147 0
128 142 0
120 134 0
129 144 0
123 139 0
140 156 0
136 151 0
125 139 0
136 151 0
128 145 0
136 152 0
140 156 0
133 150 0
138 154 0
137 152 0
132 149 0
130 145 0
133 150 0
132 147 0
137 153 0
142 159 0
142 161 0
133 148 0
137 154 0
141 158 0
143 158 0
132 149 0
152 167 0
134 147 0
136 150 0
145 162 0
145 160 0
140 156 0
136 149 0
143 160 0
146 162 0
134 148 0
136 152 0
142 159 0
141 156 0
141 157 0
141 154 0
142 158 0
151 169 0
139 153 0
137 153 0
140 157 0
141 155 0
145 160 0
142 156 0
146 162 0
138 152 0
154 172 0
144 160 0
141 156 0
145 162 0
148 165 0
147 163 0
155 171 0
151 169 0
146 162 0
150 166 0
143 157 0
150 168 0
147 163 0
139 155 0
141 155 0
147 161 0
148 165 0
152 170 0
151 167 0
152 168 0
149 163 0
151 168 0
146 163 0
154 170 0
152 167 0
147 161 0
159 174 0
150 167 0
152 168 0
152 169 0
156 174 0
157 173 0
150 163 0
156 173 0
161 178 0
155 172 0
162 178 0
156 173 0
164 183 0
151 167 0
162 181 0
159 175 0
156 172 0
160 179 0
154 173 0
155 172 0
161 179 0
157 175 0
163 181 0
161 178 0
150 167 0
160 177 0
158 177 0
165 184 0
163 180 0
162 182 0
155 173 0
161 179 0
160 177 0
162 182 0
158 176 0
160 178 0
161 179 0
159 177 0
157 175 0
162 181 0
159 178 0
163 180 0
165 183 0
164 184 0
162 181 0
159 176 0
163 181 0
161 182 0
166 185 0
165 184 0
163 182 0
162 179 0
163 183 0
162 183 0
169 190 0
168 188 0
170 191 0
162 181 0
167 185 0
169 188 0
166 184 0
167 186 0
171 195 62
171 195 62
174 198 92
171 195 84
175 199 80
170 194 67
168 192 72
169 194 88
170 194 92
172 197 88
167 191 72
171 194 80
168 191 57
170 194 62
171 195 72
167 192 62
170 194 72
169 195 88
170 194 80
164 189 80
166 191 80
169 193 67
165 190 72
166 190 57
170 193 67
171 196 80
167 192 84
167 193 88
168 192 67
167 191 88
164 189 80
168 192 84
168 192 84
166 190 88
167 192 67
170 194 92
169 193 88
167 192 84
164 188 80
161 184 44
171 195 95
163 186 72
170 194 88
163 186 76
167 191 84
168 192 67
167 192 105
165 189 84
166 189 62
164 188 72
159 184 80
166 190 72
161 184 67
163 187 84
154 176 36
162 186 92
162 185 67
158 181 62
167 190 95
161 184 57
156 180 88
163 187 76
159 182 76
162 185 76
160 183 76
163 185 84
163 187 88
155 178 67
161 185 80
158 182 57
154 178 80
163 186 72
153 175 62
164 188 95
151 174 80
159 182 76
159 182 84
152 175 72
162 184 84
149 172 67
151 174 76
151 175 80
160 183 92
148 170 84
156 179 57
152 175 80
154 177 92
150 170 51
148 170 80
153 175 82
138 159 80
127 150 100
111 135 107
98 123 111
84 112 118
94 121 131
98 122 124
83 110 115
88 114 129
92 119 134
79 106 114
99 125 133
94 119 133
83 110 124
82 109 125
85 111 109
97 123 144
88 113 118
95 121 128
101 125 135
87 112 126
97 121 124
95 122 134
88 115 118
95 121 139
96 122 122
85 112 127
100 125 139
100 124 141
86 114 138
88 115 131
99 124 150
97 121 138
93 119 144
83 111 142
91 118 153
86 112 157
87 115 151
85 112 134
86 111 142
95 119 155
78 105 150
97 118 139
88 112 150
72 100 136
70 100 137
60 92 130
69 99 135
73 103 142
73 102 134
70 100 122
68 99 131
69 98 110
61 93 114
59 93 110
71 100 118
65 97 121
61 95 127
60 94 119
61 95 128
58 92 122
59 92 111
62 95 111
56 90 108
57 90 116
58 91 124
57 91 118
56 89 110
57 91 119
59 93 124
59 93 126
59 93 127
58 92 122
59 94 130
56 89 113
58 92 124
59 93 124
56 89 120
58 92 120
58 92 128
59 93 124
58 92 119
59 93 128
58 92 122
59 93 126
57 91 111
58 92 114
59 93 124
60 94 122
56 89 121
58 92 120
60 94 130
60 95 135
57 90 111
59 93 129
57 89 113
59 93 118
57 90 115
58 92 113
59 93 125
59 93 124
57 91 117
58 92 115
57 91 118
59 93 131
58 92 120
58 91 108
59 93 117
58 92 115
58 91 117
58 91 122
58 91 120
57 91 124
57 90 113
59 93 118
58 91 121
57 91 121
59 94 124
57 90 103
58 92 122
59 94 128
57 90 124
60 94 129
58 92 117
59 92 118
59 93 126
59 93 117
57 90 114
58 92 117
57 90 113
56 89 108
57 91 114
58 91 121
57 90 113
57 91 110
58 91 117
56 88 99
57 91 110
55 88 113
56 89 107
55 87 108
60 90 102
68 94 78
81 102 65
87 108 67
107 123 31
112 126 0
113 129 0
112 127 0
111 126 0
110 125 0
102 117 0
116 131 0
120 134 0
114 130 0
116 133 0
116 131 0
124 141 0
116 133 0
134 151 0
125 142 0
120 136 0
120 136 0
124 141 0
119 137 0
127 141 0
126 143 0
126 142 0
128 143 0
136 151 0
138 153 0
125 142 0
129 147 0
135 151 0
131 148 0
134 151 0
137 154 0
131 147 0
135 150 0
131 148 0
130 145 0
130 148 0
134 149 0
131 147 0
137 153 0
130 145 0
140 157 0
125 142 0
136 151 0
134 149 0
140 156 0
142 158 0
134 150 0
139 155 0
144 159 0
130 146 0
137 153 0
142 159 0
144 162 0
148 165 0
144 161 0
139 155 0
134 149 0
132 146 0
142 157 0
145 163 0
149 164 0
137 153 0
144 161 0
144 160 0
144 161 0
147 162 0
140 155 0
140 157 0
143 159 0
143 158 0
142 159 0
151 166 0
140 155 0
143 159 0
145 160 0
150 165 0
148 164 0
146 161 0
149 166 0
150 165 0
142 158 0
148 163 0
145 162 0
150 166 0
154 171 0
152 169 0
147 165 0
151 166 0
148 166 0
152 166 0
137 154 0
150 166 0
155 171 0
144 160 0
150 168 0
149 165 0
153 169 0
151 169 0
154 171 0
150 165 0
158 174 0
157 175 0
155 170 0
152 168 0
159 175 0
162 179 0
157 174 0
161 178 0
159 174 0
156 174 0
154 172 0
159 176 0
151 171 0
150 166 0
157 175 0
156 173 0
159 177 0
158 175 0
153 169 0
157 175 0
158 176 0
155 174 0
155 172 0
158 175 0
157 175 0
165 183 0
163 182 0
157 175 0
155 171 0
158 175 0
159 177 0
158 175 0
163 183 0
164 184 0
154 169 0
162 178 0
161 180 0
160 181 0
158 175 0
159 177 0
165 184 0
160 178 0
156 173 0
162 181 0
164 183 0
169 187 0
158 179 0
165 185 0
163 182 0
163 181 0
165 185 0
160 179 0
162 180 0
162 182 0
162 181 0
163 182 0
163 182 0
164 184 0
165 184 0
165 184 0
160 179 0
166 185 0
163 180 0
165 185 0
171 195 80
174 198 102
167 190 57
172 194 57
167 191 72
169 194 88
169 192 51
171 197 95
167 191 80
169 193 72
170 194 62
167 191 72
168 192 67
162 186 62
170 195 51
169 193 72
168 192 67
169 194 88
166 191 76
163 187 57
169 194 88
170 194 51
170 193 57
168 192 57
164 189 67
170 194 67
164 188 51
169 193 76
172 197 111
162 186 67
169 193 88
168 192 72
169 192 72
169 193 62
168 193 84
163 187 44
163 186 72
169 193 92
166 190 57
163 186 88
173 197 76
168 191 76
168 192 72
170 193 84
166 190 92
166 189 76
162 185 72
159 183 80
165 187 67
161 185 72
166 189 80
166 189 76
159 183 76
168 192 84
160 183 62
158 181 80
171 194 92
165 188 102
161 185 57
167 191 92
161 185 80
167 190 57
155 179 72
160 182 80
162 185 95
160 183 88
159 183 95
165 188 84
159 182 84
162 184 84
157 179 72
157 180 72
157 180 84
151 174 92
164 188 84
146 169 51
157 180 84
157 179 57
157 179 84
153 175 67
155 178 95
151 174 72
159 181 80
157 179 92
150 171 80
146 169 51
145 167 80
145 167 80
141 163 62
141 162 84
148 169 67
134 156 80
136 158 90
117 140 102
96 121 111
95 121 129
94 121 118
89 114 118
96 121 100
95 121 128
98 124 122
83 111 120
87 114 126
99 123 124
103 127 129
85 113 124
90 116 120
97 123 137
91 118 131
103 128 139
97 122 122
106 131 141
89 116 134
85 112 135
99 125 125
82 110 123
96 123 141
91 117 142
98 124 140
90 118 133
92 119 147
80 108 136
88 114 117
97 122 143
85 113 140
76 106 141
71 103 139
90 114 135
83 110 130
94 118 150
85 111 146
84 109 142
80 106 130
88 112 141
75 103 130
83 108 141
76 103 138
68 99 128
66 100 144
63 96 131
73 103 124
67 97 115
67 98 126
67 98 119
66 98 129
71 98 102
66 98 136
69 99 119
67 97 114
63 95 120
61 94 114
64 96 131
62 95 119
56 90 108
57 91 103
59 93 126
60 93 117
58 91 103
57 91 114
58 91 118
58 91 122
57 91 120
59 93 130
58 92 121
58 92 120
59 92 124
60 94 129
60 94 135
58 92 131
58 92 117
58 92 117
57 90 112
59 93 122
58 92 118
59 94 128
56 89 120
60 94 122
58 92 125
58 92 120
58 91 118
58 92 120
60 94 129
57 90 114
59 92 114
60 94 135
58 93 121
57 90 108
60 94 131
58 92 129
57 90 118
61 95 134
58 92 118
58 92 117
57 90 114
58 91 114
58 91 115
58 92 118
57 91 110
59 93 128
59 93 122
57 90 111
59 93 129
58 92 117
58 91 113
59 94 128
55 87 107
58 92 115
58 91 114
60 94 126
58 91 118
56 90 108
57 90 112
56 89 100
57 91 111
60 94 122
55 88 108
58 92 114
58 91 120
57 90 111
57 91 111
58 91 130
56 89 108
56 89 103
56 88 103
56 88 105
57 89 110
53 86 99
56 89 110
56 88 103
58 88 90
63 91 84
75 97 72
84 107 76
95 112 60
98 115 18
111 125 25
108 123 0
99 113 0
124 140 0
109 122 0
109 124 0
112 128 0
115 133 0
110 125 0
117 134 0
120 136 0
127 141 0
122 135 0
121 137 0
122 139 0
124 139 0
124 141 0
126 140 0
112 129 0
132 147 0
121 136 0
124 139 0
119 136 0
133 149 0
140 155 0
128 145 0
122 139 0
120 135 0
131 147 0
130 147 0
134 150 0
134 151 0
141 157 0
137 155 0
122 138 0
137 154 0
129 146 0
131 144 0
135 154 0
147 163 0
146 164 0
141 158 0
131 148 0
133 148 0
135 151 0
138 155 0
139 156 0
138 155 0
136 152 0
145 161 0
149 166 0
140 156 0
146 163 0
143 160 0
142 158 0
137 155 0
147 163 0
140 158 0
147 164 0
138 154 0
134 147 0
141 158 0
149 166 0
138 156 0
138 153 0
143 160 0
139 155 0
145 160 0
150 165 0
149 167 0
149 163 0
146 162 0
144 157 0
144 161 0
146 160 0
148 164 0
146 163 0
153 169 0
154 171 0
144 158 0
151 166 0
145 161 0
153 171 0
143 158 0
144 161 0
146 161 0
148 161 0
150 167 0
148 164 0
154 168 0
146 162 0
153 169 0
148 165 0
147 161 0
146 163 0
149 165 0
150 167 0
152 168 0
146 163 0
151 169 0
160 177 0
151 168 0
150 167 0
157 174 0
160 176 0
160 176 0
156 172 0
154 171 0
158 174 0
151 168 0
155 172 0
155 173 0
147 165 0
159 176 0
158 175 0
153 171 0
156 171 0
157 174 0
152 170 0
159 176 0
152 167 0
153 171 0
156 175 0
158 176 0
160 178 0
163 181 0
160 178 0
159 175 0
162 179 0
157 174 0
158 175 0
162 182 0
160 178 0
160 178 0
163 181 0
159 177 0
158 176 0
164 182 0
163 180 0
157 173 0
164 182 0
158 176 0
163 180 0
162 182 0
162 182 0
159 177 0
162 179 0
162 182 0
162 180 0
160 179 0
164 183 0
162 182 0
160 179 0
162 181 0
166 185 0
159 177 0
163 181 0
162 182 0
161 178 0
162 182 0
164 183 0
166 185 0
165 186 0
166 185 0
164 184 0
169 193 72
172 197 84
171 195 62
175 200 80
171 195 76
169 193 67
165 189 67
169 194 102
171 194 80
169 194 84
175 198 67
170 194 51
170 195 80
173 197 76
170 194 95
169 193 76
171 194 51
171 195 88
169 193 84
168 192 62
170 194 92
173 197 88
169 193 84
169 193 88
165 189 57
165 190 72
167 192 72
169 192 57
170 195 76
165 189 62
165 190 80
164 188 72
161 186 80
170 194 57
170 195 80
168 191 62
164 189 84
167 191 80
163 187 72
167 191 84
169 192 84
162 186 76
170 193 99
169 191 76
160 184 44
167 190 80
164 187 67
168 192 72
167 190 92
163 186 57
164 187 80
163 186 72
163 187 92
163 186 72
170 193 88
165 188 72
169 193 95
164 188 95
158 181 76
160 183 62
164 187 76
155 178 80
153 176 72
160 183 72
152 176 84
159 182 92
156 180 80
165 189 99
156 179 84
156 179 67
155 177 80
154 176 72
157 181 105
152 176 62
153 176 76
150 173 76
161 184 84
161 184 76
161 183 88
141 163 62
155 178 76
154 176 67
151 173 57
149 171 72
156 178 67
150 172 72
145 167 57
148 170 67
149 170 67
141 162 76
141 162 80
150 172 76
137 159 84
125 147 100
109 132 92
102 128 143
81 109 110
91 118 126
89 115 125
87 114 120
99 124 128
76 105 124
89 116 119
91 117 125
97 122 132
99 123 121
88 115 117
99 123 132
86 113 134
80 107 122
86 113 119
100 125 148
83 111 128
97 121 132
88 115 126
97 121 131
101 126 132
90 117 130
96 122 127
95 121 134
102 126 132
100 125 142
87 114 138
89 117 146
91 117 131
87 114 141
88 114 144
92 118 144
72 101 142
84 112 144
72 102 126
83 108 132
83 108 138
92 115 140
79 105 136
72 101 127
81 105 136
78 106 148
71 99 126
74 103 134
62 94 114
63 95 117
71 100 123
63 96 130
74 104 121
62 93 120
71 102 115
68 99 125
57 90 116
58 93 124
60 93 122
59 91 110
58 92 114
61 94 119
60 92 119
60 93 115
57 91 126
56 90 113
58 91 121
57 91 121
58 92 120
58 92 120
59 92 129
58 92 124
59 93 120
57 90 118
58 92 128
57 91 118
58 92 130
57 91 120
58 92 119
58 92 124
58 92 124
58 92 122
58 92 120
60 94 129
57 90 105
59 93 124
57 91 113
59 93 124
58 92 120
59 93 125
58 91 120
59 92 121
59 93 125
58 92 121
58 92 115
58 91 121
57 91 107
57 91 118
59 93 122
60 95 122
57 91 108
57 90 113
59 93 126
59 93 126
58 91 122
57 91 117
59 93 125
57 90 108
60 94 131
59 93 125
58 92 121
59 93 121
60 95 128
58 91 115
57 90 115
59 92 118
59 92 114
58 92 118
60 95 129
56 89 103
56 89 113
57 91 110
59 94 121
57 91 107
57 90 114
56 89 110
58 92 115
56 89 105
58 92 120
57 90 103
57 91 113
56 89 113
56 88 108
57 90 100
56 88 102
55 87 95
56 89 108
71 97 88
80 102 76
92 111 57
95 113 47
114 131 31
105 119 0
106 121 0
105 120 0
111 126 0
118 133 0
120 136 0
118 132 0
113 128 0
124 143 0
117 134 0
120 135 0
107 123 0
127 144 0
115 132 0
120 136 0
111 126 0
120 137 0
126 144 0
121 136 0
119 133 0
122 137 0
123 138 0
126 143 0
134 149 0
122 138 0
120 135 0
129 146 0
129 145 0
131 148 0
138 154 0
118 134 0
133 149 0
134 148 0
131 149 0
131 144 0
135 152 0
136 151 0
136 151 0
134 151 0
139 156 0
148 166 0
129 147 0
135 151 0
146 163 0
146 164 0
135 152 0
141 156 0
138 155 0
140 156 0
135 150 0
134 150 0
140 156 0
139 157 0
135 152 0
135 150 0
141 158 0
141 158 0
140 156 0
142 160 0
145 160 0
140 157 0
143 159 0
136 151 0
147 163 0
140 156 0
146 162 0
148 165 0
148 164 0
141 156 0
141 156 0
144 159 0
136 152 0
138 152 0
149 165 0
146 162 0
160 177 0
142 159 0
144 159 0
149 166 0
146 164 0
145 161 0
149 165 0
151 168 0
153 170 0
150 167 0
152 171 0
151 167 0
150 168 0
147 163 0
142 159 0
147 164 0
154 170 0
149 164 0
154 171 0
147 165 0
156 173 0
150 167 0
151 168 0
153 170 0
151 168 0
158 176 0
146 164 0
158 173 0
154 169 0
149 165 0
149 165 0
153 170 0
158 175 0
160 178 0
155 172 0
152 168 0
157 174 0
149 164 0
162 180 0
157 173 0
158 174 0
161 180 0
159 176 0
159 178 0
157 173 0
161 178 0
163 181 0
161 179 0
151 167 0
157 176 0
157 174 0
155 172 0
155 172 0
157 176 0
159 179 0
158 176 0
152 168 0
160 178 0
163 181 0
160 180 0
157 175 0
162 179 0
160 179 0
158 177 0
162 180 0
162 178 0
159 177 0
163 181 0
157 175 0
157 175 0
164 185 0
157 174 0
165 185 0
164 182 0
163 181 0
161 180 0
163 182 0
163 184 0
165 185 0
164 182 0
160 179 0
165 185 0
162 181 0
162 182 0
163 181 0
164 185 0
163 183 0
164 183 0
166 185 0
163 182 0
162 183 0
171 195 84
172 196 62
172 196 51
170 194 67
171 195 76
171 194 51
173 198 76
171 196 80
171 195 67
168 192 57
172 197 80
169 193 92
167 191 76
171 195 67
168 193 84
169 193 76
167 191 57
169 193 72
166 190 72
167 191 72
173 196 72
169 193 72
166 190 72
171 195 76
173 197 76
167 191 51
170 194 80
170 193 51
167 191 72
167 191 72
165 189 84
169 192 80
168 192 72
169 192 80
167 190 80
170 193 72
169 192 84
165 188 67
163 187 80
168 192 72
166 189 88
167 191 88
167 190 57
165 189 57
168 192 88
167 190 92
163 187 88
166 189 99
163 187 76
164 188 84
165 189 88
173 195 92
167 190 67
166 189 95
157 180 80
165 189 102
164 188 95
160 183 62
169 193 67
159 182 80
169 192 92
165 188 76
160 183 76
162 186 80
155 177 92
164 187 99
160 182 102
162 185 72
161 184 84
157 180 80
151 174 76
156 177 88
155 179 88
156 179 80
163 185 72
159 183 76
155 177 95
157 180 80
154 176 84
158 181 92
161 184 92
160 183 95
152 174 88
142 164 67
146 168 62
148 171 88
143 164 62
149 171 84
139 161 72
149 170 72
156 178 105
138 159 57
145 166 51
139 161 99
106 129 84
112 135 105
90 116 113
88 114 129
88 115 120
92 119 125
74 102 110
91 117 118
88 114 111
89 115 131
91 117 127
75 103 115
85 111 120
93 118 129
90 116 127
87 113 121
86 113 122
89 115 133
92 117 115
93 118 127
90 117 133
97 122 134
94 120 140
96 122 144
104 126 135
85 113 139
96 121 146
93 119 140
102 127 147
86 113 134
87 114 134
87 115 142
92 118 135
89 115 149
90 115 139
80 107 130
93 115 140
83 108 134
86 108 125
92 114 143
76 101 126
70 100 134
67 97 129
76 101 122
66 97 128
67 99 135
76 104 127
70 100 117
69 98 113
67 99 129
71 101 125
71 101 129
67 98 117
74 104 126
65 95 112
59 91 115
61 93 104
62 93 114
61 94 130
69 99 113
60 93 124
57 91 119
57 90 124
59 91 114
56 90 111
56 89 103
58 91 111
56 90 120
57 90 115
58 92 121
59 93 118
60 95 131
59 92 115
58 91 121
58 92 118
59 93 125
59 93 120
57 91 123
58 91 117
60 95 133
58 92 114
57 90 105
58 92 125
57 90 117
58 92 117
59 94 130
57 91 113
57 90 107
58 92 110
59 94 130
57 91 118
59 94 125
57 90 118
58 92 113
55 88 96
57 90 118
58 92 126
59 94 129
58 91 110
57 90 115
56 88 102
59 93 125
58 92 125
59 93 115
58 92 118
59 92 121
58 92 121
56 90 103
59 93 128
59 93 125
59 93 126
57 91 125
57 90 111
57 90 117
59 93 122
57 90 118
57 90 105
57 90 114
59 93 120
58 91 108
58 92 108
58 91 117
58 92 110
56 89 113
56 89 103
57 91 115
57 91 113
57 90 107
55 88 100
58 91 111
57 90 111
56 89 100
56 89 108
65 94 88
75 100 82
81 102 65
89 107 63
98 114 40
96 112 26
106 119 0
115 130 0
113 127 0
115 130 0
113 129 0
103 119 0
105 121 0
114 130 0
116 131 0
132 148 0
120 136 0
118 133 0
117 132 0
112 124 0
115 130 0
113 129 0
122 136 0
115 131 0
126 142 0
126 143 0
130 147 0
127 143 0
127 143 0
126 141 0
129 144 0
134 152 0
134 151 0
129 143 0
135 152 0
137 153 0
125 140 0
126 142 0
126 141 0
138 154 0
125 140 0
132 149 0
134 150 0
126 142 0
128 143 0
136 153 0
130 146 0
129 146 0
134 151 0
142 159 0
138 153 0
138 152 0
136 154 0
136 151 0
127 143 0
133 151 0
130 146 0
145 162 0
143 159 0
136 151 0
143 162 0
141 159 0
146 162 0
141 159 0
140 155 0
140 157 0
144 158 0
145 161 0
148 166 0
135 151 0
140 155 0
146 164 0
144 161 0
140 156 0
146 164 0
142 158 0
138 154 0
150 167 0
146 164 0
150 168 0
142 160 0
145 162 0
151 169 0
145 162 0
135 151 0
141 158 0
144 161 0
145 161 0
154 169 0
141 157 0
142 159 0
158 176 0
151 166 0
149 168 0
148 166 0
151 166 0
143 157 0
149 165 0
154 172 0
150 167 0
154 169 0
154 169 0
149 166 0
159 176 0
158 174 0
155 172 0
155 173 0
156 174 0
154 171 0
156 173 0
158 176 0
153 172 0
149 166 0
155 174 0
151 167 0
157 174 0
157 176 0
152 170 0
159 177 0
160 180 0
154 171 0
160 177 0
153 169 0
154 170 0
158 175 0
160 179 0
160 180 0
155 171 0
155 174 0
156 175 0
159 176 0
156 174 0
156 173 0
155 174 0
154 171 0
163 181 0
156 175 0
159 178 0
164 182 0
159 179 0
163 182 0
161 179 0
163 184 0
161 180 0
159 177 0
162 182 0
159 177 0
161 180 0
159 178 0
156 175 0
164 183 0
165 185 0
160 180 0
162 179 0
161 180 0
166 186 0
162 180 0
164 183 0
163 181 0
163 182 0
167 186 0
160 179 0
165 186 0
166 185 0
161 182 0
161 181 0
161 181 0
167 189 0
163 182 0
162 180 0
162 183 0
163 183 0
165 185 0
174 198 80
172 196 62
169 194 72
174 197 76
170 195 51
169 193 67
170 195 67
170 196 95
174 198 88
170 194 57
170 193 57
169 193 36
172 196 72
171 195 80
166 190 72
170 194 76
169 194 95
168 193 67
167 192 72
163 189 80
170 194 88
167 191 80
166 191 76
164 188 57
170 194 84
168 193 84
168 192 76
167 191 72
169 193 72
169 193 99
173 196 76
169 192 62
168 192 72
164 188 88
169 192 72
167 190 67
169 193 99
169 192 88
172 195 88
164 188 99
161 184 88
164 188 72
167 191 57
167 191 88
172 196 95
163 187 76
170 192 84
166 190 92
163 187 92
164 187 84
159 181 76
165 188 99
167 190 95
169 192 80
164 186 92
169 193 102
164 187 92
161 186 102
161 183 92
167 189 99
160 183 76
163 186 92
164 186 72
154 177 57
160 182 76
167 189 108
159 182 80
168 190 95
157 179 76
161 184 92
160 183 95
154 176 80
163 185 88
158 181 108
162 184 102
159 181 80
162 185 80
157 180 88
151 172 72
159 182 92
154 177 88
154 176 84
146 169 88
148 170 84
149 172 88
151 173 95
146 168 80
142 165 67
150 171 67
141 163 62
147 167 67
149 171 80
142 164 72
143 165 74
120 142 97
114 136 105
104 128 103
90 114 118
86 114 110
106 131 126
80 108 110
82 110 119
96 122 121
91 118 125
96 121 131
89 116 117
85 111 121
95 120 115
97 122 136
92 117 125
101 125 129
100 125 138
92 119 141
97 123 132
78 106 120
90 115 122
85 112 117
100 124 127
106 130 143
96 122 133
101 125 128
90 116 132
96 122 138
84 112 129
88 115 134
95 120 138
88 114 149
77 107 143
84 108 125
85 110 133
87 112 132
84 110 138
89 110 130
91 115 131
78 103 122
74 103 135
78 104 134
76 104 143
75 104 131
70 100 132
67 96 115
70 100 132
72 101 129
63 92 120
65 96 107
68 98 117
72 102 110
69 99 115
65 96 126
72 101 105
60 92 106
69 100 113
60 93 120
57 90 107
59 91 115
59 94 125
60 93 117
55 88 110
57 91 110
57 90 115
57 91 117
56 88 111
58 91 120
59 93 120
61 95 135
59 93 122
58 92 111
58 92 120
57 91 125
57 91 110
57 90 118
55 88 110
59 92 121
57 90 110
58 92 121
58 92 129
58 92 114
60 94 126
57 90 113
60 94 135
59 93 118
58 92 114
56 89 97
57 90 114
57 91 120
58 91 117
58 92 120
58 92 124
57 91 113
59 92 118
57 90 100
58 92 120
59 92 126
60 94 128
59 94 128
58 91 115
58 91 118
59 93 117
58 92 117
57 91 118
59 93 118
57 90 120
57 90 113
58 92 120
57 90 95
59 93 115
57 90 108
55 88 111
57 90 111
57 91 113
58 91 114
56 90 108
56 89 102
56 89 107
58 91 114
56 89 113
59 93 120
57 90 103
57 91 102
56 89 107
56 89 113
57 89 114
55 88 102
56 88 99
54 86 88
55 86 99
56 87 95
79 102 65
74 96 70
92 111 62
91 108 36
113 129 44
111 126 0
114 128 0
104 120 0
101 115 0
110 124 0
101 113 0
113 130 0
118 135 0
112 126 0
113 129 0
109 126 0
120 135 0
116 133 0
114 131 0
122 138 0
121 137 0
120 137 0
124 140 0
122 138 0
120 135 0
127 142 0
134 150 0
126 143 0
131 147 0
122 140 0
124 142 0
122 138 0
129 143 0
123 140 0
128 146 0
133 151 0
129 146 0
128 142 0
122 139 0
130 148 0
125 142 0
134 150 0
136 153 0
136 154 0
140 156 0
135 154 0
134 152 0
134 149 0
138 155 0
141 159 0
140 157 0
137 154 0
135 150 0
142 160 0
138 154 0
135 152 0
143 157 0
133 148 0
143 159 0
140 155 0
146 163 0
138 155 0
142 160 0
141 155 0
143 161 0
135 150 0
145 163 0
146 162 0
151 169 0
147 163 0
154 171 0
136 153 0
148 165 0
138 154 0
144 161 0
144 163 0
149 166 0
147 165 0
151 167 0
149 165 0
143 161 0
156 172 0
138 154 0
148 165 0
141 159 0
149 164 0
150 169 0
146 162 0
151 169 0
144 161 0
157 175 0
152 170 0
154 170 0
153 171 0
153 171 0
155 173 0
149 166 0
150 165 0
146 162 0
161 178 0
154 172 0
154 170 0
150 167 0
154 171 0
153 171 0
154 171 0
158 176 0
153 169 0
157 175 0
151 170 0
154 170 0
159 177 0
159 176 0
156 172 0
151 170 0
156 174 0
158 175 0
161 178 0
155 173 0
159 177 0
155 172 0
156 172 0
155 173 0
159 177 0
152 167 0
156 173 0
159 179 0
161 181 0
159 179 0
158 176 0
160 180 0
161 179 0
161 178 0
156 175 0
156 173 0
159 179 0
164 183 0
156 173 0
157 174 0
164 184 0
156 176 0
164 182 0
158 178 0
161 180 0
159 177 0
162 180 0
161 180 0
163 182 0
158 176 0
164 185 0
158 178 0
158 178 0
159 177 0
164 183 0
166 187 0
163 183 0
162 181 0
157 174 0
164 183 0
165 184 0
159 178 0
163 182 0
157 176 0
166 187 0
168 189 0
166 186 0
166 184 0
163 184 0
163 184 0
164 184 0
168 188 0
162 181 0
163 183 0
168 192 57
171 195 80
172 197 76
170 193 72
169 193 72
172 196 76
170 194 67
171 196 95
168 191 57
171 195 72
170 195 95
167 191 57
171 195 67
168 192 84
168 192 67
168 193 57
172 195 62
168 192 67
170 194 80
164 187 57
171 194 57
169 193 62
169 194 92
169 192 76
167 190 80
172 195 76
165 189 102
167 191 72
174 196 76
167 191 108
169 192 72
167 191 67
166 190 72
167 191 80
165 189 72
171 195 88
168 192 88
167 190 92
164 188 67
167 191 95
162 185 72
167 191 92
167 190 84
164 187 80
160 183 99
164 187 80
170 193 108
165 188 84
165 189 105
172 195 95
167 190 105
166 189 99
166 189 88
171 195 92
168 191 84
164 187 108
164 188 88
160 183 92
169 193 102
157 180 84
160 184 88
163 186 105
160 183 84
159 181 84
158 182 76
158 180 80
155 178 76
160 183 80
154 177 80
161 184 102
156 179 92
148 171 67
152 175 62
159 182 88
161 183 84
149 172 67
154 178 72
161 184 95
160 183 88
157 179 84
151 172 76
145 167 67
143 165 76
147 168 80
142 164 72
154 175 84
138 159 67
152 173 51
141 163 80
140 161 72
142 163 62
140 161 62
146 167 67
136 156 62
128 148 74
125 147 94
110 131 76
96 119 90
89 114 107
92 117 102
89 116 133
92 119 118
87 114 99
93 118 121
93 118 118
85 112 132
92 119 124
90 116 128
102 127 135
98 122 120
96 122 133
90 116 131
101 125 129
91 116 138
106 130 145
88 115 131
90 116 122
96 121 126
107 131 140
91 117 119
76 105 129
93 118 124
101 127 148
82 112 138
91 116 133
89 116 139
72 101 141
86 111 141
105 126 139
86 113 147
77 101 117
89 113 139
78 105 138
82 109 135
89 111 128
81 108 141
74 100 125
74 101 124
79 105 130
62 94 130
61 94 131
77 105 121
69 97 121
67 96 113
71 102 122
66 96 103
67 97 124
66 96 110
66 96 101
72 100 106
61 95 121
59 91 111
59 91 114
63 96 125
56 89 100
58 90 103
61 93 108
57 90 107
57 91 114
56 89 110
58 92 118
58 92 126
58 91 110
58 92 130
56 89 112
57 90 111
57 90 126
56 89 111
58 92 111
58 92 113
58 91 117
57 91 120
56 90 113
56 89 111
60 94 129
58 92 111
56 89 114
56 88 97
56 89 103
60 95 126
58 92 121
57 91 122
57 90 110
57 90 110
57 90 111
58 92 120
57 91 117
57 91 121
59 93 117
57 91 118
59 92 114
58 91 117
57 90 113
56 89 113
57 90 118
58 92 115
58 92 120
57 91 107
57 91 113
56 90 108
58 92 117
58 91 117
56 89 107
58 91 115
58 92 121
59 93 118
58 92 114
57 91 121
57 91 111
57 89 107
58 92 125
56 89 113
58 92 115
57 90 108
59 93 117
57 90 110
58 91 118
57 90 102
55 87 102
57 91 117
58 92 113
55 87 92
56 88 107
54 86 97
56 85 76
53 84 94
80 103 88
93 114 72
95 113 47
108 123 25
110 125 18
118 134 0
113 128 0
115 129 0
109 123 0
121 138 0
113 128 0
104 118 0
117 132 0
124 139 0
117 134 0
116 131 0
125 142 0
118 135 0
121 137 0
111 127 0
130 146 0
123 141 0
121 134 0
123 138 0
117 132 0
130 146 0
123 140 0
120 139 0
115 131 0
134 153 0
127 143 0
122 139 0
128 144 0
141 158 0
129 145 0
129 147 0
133 149 0
131 149 0
147 164 0
132 150 0
130 148 0
137 153 0
132 147 0
133 149 0
140 156 0
140 158 0
135 152 0
131 147 0
128 146 0
135 150 0
139 157 0
135 151 0
128 144 0
135 153 0
132 149 0
140 159 0
150 167 0
144 162 0
139 155 0
142 159 0
146 162 0
133 150 0
145 162 0
140 159 0
138 157 0
140 156 0
145 162 0
147 164 0
148 165 0
147 164 0
145 164 0
149 166 0
143 158 0
137 155 0
139 158 0
139 157 0
142 158 0
150 166 0
145 163 0
144 160 0
153 169 0
146 162 0
150 166 0
150 167 0
133 148 0
149 165 0
150 165 0
154 172 0
145 164 0
145 160 0
138 154 0
138 152 0
151 168 0
149 165 0
152 170 0
150 169 0
149 168 0
153 170 0
145 163 0
153 168 0
152 169 0
151 169 0
157 174 0
147 164 0
157 174 0
152 168 0
164 183 0
159 177 0
155 173 0
146 164 0
155 171 0
151 170 0
153 171 0
151 169 0
160 179 0
158 175 0
159 176 0
157 176 0
153 170 0
150 168 0
159 179 0
155 172 0
146 164 0
158 176 0
151 167 0
157 176 0
157 175 0
161 179 0
153 170 0
155 175 0
157 174 0
165 182 0
157 176 0
156 173 0
158 176 0
161 180 0
162 180 0
160 181 0
161 180 0
160 179 0
160 178 0
160 178 0
159 178 0
168 187 0
161 180 0
158 177 0
159 176 0
164 183 0
162 183 0
164 184 0
160 179 0
162 179 0
161 180 0
160 178 0
162 183 0
158 178 0
165 185 0
163 181 0
162 180 0
161 179 0
164 182 0
162 181 0
166 186 0
159 179 0
164 185 0
166 186 0
163 182 0
165 185 0
162 183 0
165 183 0
164 184 0
162 184 0
167 188 0
161 180 0
167 191 67
171 194 62
169 193 84
171 196 76
172 196 84
170 194 72
170 195 108
169 193 80
168 193 76
165 189 51
169 193 76
173 196 67
173 197 84
165 190 80
168 192 84
167 191 102
170 194 72
167 191 72
166 190 72
170 195 102
168 192 76
172 196 76
170 195 88
168 191 72
169 194 99
167 191 62
170 194 84
167 190 57
168 192 95
169 192 102
168 193 99
168 191 88
167 190 72
169 192 80
165 188 84
165 189 88
174 197 122
171 195 84
165 189 84
165 189 92
158 182 80
172 195 92
167 190 95
162 184 92
171 195 111
168 191 76
160 184 95
166 190 102
168 192 92
170 194 95
159 183 95
165 188 88
160 183 76
166 189 72
165 188 84
165 188 80
164 187 88
164 186 95
162 186 92
163 186 103
161 183 80
161 184 72
164 188 102
165 187 102
163 187 114
156 180 84
163 185 92
160 182 99
158 181 92
163 186 95
158 181 72
162 185 88
152 174 62
159 180 92
158 181 92
157 179 84
164 186 88
155 177 92
151 172 76
154 176 76
156 178 72
155 178 95
146 167 57
156 178 105
147 169 88
153 174 92
146 167 80
150 171 84
146 168 67
144 164 76
137 158 80
148 170 72
144 165 62
142 163 92
140 160 76
151 173 88
125 146 76
123 145 95
106 129 129
94 120 122
84 111 117
84 110 122
84 111 122
96 121 115
84 110 118
80 108 114
98 123 119
93 118 123
97 122 129
94 118 110
101 126 128
105 129 137
101 125 136
78 106 121
95 121 139
91 117 126
99 123 141
93 118 131
85 112 113
99 123 127
104 128 141
115 137 150
99 125 140
91 118 133
83 109 124
88 114 139
106 130 147
90 115 130
85 112 138
91 115 131
71 101 124
83 106 129
85 110 120
91 114 137
93 112 118
83 108 123
85 105 114
75 99 114
86 108 120
74 102 124
70 101 124
70 100 120
73 103 119
81 108 109
70 99 104
64 95 106
69 98 114
68 98 119
66 96 103
60 93 120
61 93 99
64 96 109
62 94 121
62 93 97
61 93 118
61 94 128
61 93 108
57 91 115
55 88 94
60 93 115
56 89 107
58 92 110
58 91 128
56 90 107
57 91 107
57 91 115
58 91 117
57 90 107
58 92 113
57 91 110
57 91 120
57 91 110
55 88 114
58 92 115
58 91 107
58 92 125
57 91 113
59 93 131
58 92 114
58 91 115
58 92 111
59 93 127
55 88 105
58 92 125
56 88 105
57 89 107
59 93 122
58 91 122
59 93 128
58 91 123
59 93 120
58 91 114
58 92 111
58 92 120
59 94 120
59 93 118
58 91 110
59 92 113
59 93 118
57 91 114
56 89 99
57 90 118
57 90 111
59 93 121
56 89 102
58 91 117
56 89 99
56 89 102
58 92 130
58 91 110
58 91 125
57 89 114
56 89 111
56 89 110
57 89 102
55 87 99
56 89 108
56 89 111
54 87 97
58 92 117
55 87 102
54 86 103
57 88 100
65 93 90
72 96 72
91 112 60
89 107 65
103 122 51
104 120 18
105 118 18
119 133 0
106 121 0
117 133 0
121 137 0
112 127 0
106 121 0
125 142 0
110 124 0
115 129 0
123 138 0
117 131 0
117 131 0
119 135 0
119 135 0
118 133 0
116 131 0
121 138 0
129 146 0
130 148 0
126 143 0
129 147 0
121 140 0
128 144 0
120 137 0
136 153 0
128 145 0
127 144 0
132 149 0
130 149 0
127 145 0
134 150 0
139 156 0
139 156 0
131 148 0
127 144 0
138 155 0
136 152 0
127 144 0
142 160 0
139 158 0
134 152 0
128 143 0
132 148 0
147 164 0
139 158 0
136 154 0
139 156 0
140 157 0
133 150 0
131 149 0
136 154 0
140 159 0
131 147 0
140 156 0
138 155 0
138 156 0
137 155 0
147 166 0
144 162 0
148 165 0
144 164 0
147 165 0
153 171 0
146 164 0
145 162 0
138 155 0
148 163 0
139 155 0
140 157 0
144 162 0
141 156 0
146 162 0
149 166 0
141 159 0
148 166 0
155 172 0
140 157 0
143 161 0
143 160 0
144 162 0
140 158 0
153 171 0
153 171 0
142 160 0
145 161 0
142 159 0
150 167 0
142 154 0
147 163 0
154 171 0
153 171 0
152 171 0
152 170 0
149 165 0
146 162 0
151 171 0
148 165 0
156 175 0
149 168 0
158 174 0
153 172 0
156 176 0
158 175 0
158 178 0
151 170 0
152 170 0
145 163 0
150 167 0
158 175 0
156 174 0
157 174 0
152 171 0
154 171 0
158 178 0
161 179 0
159 177 0
154 172 0
156 175 0
158 175 0
165 184 0
162 180 0
153 172 0
161 178 0
155 173 0
161 182 0
160 179 0
158 177 0
155 174 0
157 176 0
156 173 0
151 170 0
159 178 0
158 177 0
162 178 0
159 177 0
159 179 0
160 178 0
165 185 0
159 176 0
157 175 0
157 175 0
155 174 0
164 184 0
159 180 0
162 180 0
163 181 0
161 182 0
162 181 0
162 181 0
159 177 0
160 178 0
160 179 0
163 182 0
166 187 0
167 186 0
161 180 0
163 181 0
160 179 0
165 183 0
163 182 0
168 187 0
166 185 0
164 185 0
163 181 0
163 182 0
165 186 0
167 189 0
159 177 0
163 182 0
167 189 0
171 195 84
173 196 57
164 189 57
169 193 62
170 194 62
170 194 76
170 194 67
170 194 88
169 192 62
168 192 72
171 195 51
171 196 92
168 192 76
167 191 51
171 194 80
167 191 72
164 187 51
174 198 92
166 191 99
171 194 76
170 193 67
167 191 80
166 190 84
170 193 88
167 191 67
169 192 95
173 197 111
172 196 95
171 194 99
170 194 84
175 198 92
170 194 105
171 193 95
168 192 88
172 196 99
168 192 102
169 194 99
166 189 80
168 192 102
170 193 84
166 191 88
161 186 88
167 190 95
166 190 111
170 193 95
166 190 105
159 182 102
160 183 92
167 191 105
167 190 95
171 193 99
164 188 88
166 190 111
166 190 99
163 187 84
161 186 125
164 186 84
163 185 92
167 190 102
165 188 95
171 194 105
161 185 88
163 185 88
155 178 92
161 183 80
164 188 102
160 184 84
155 177 72
163 185 95
157 181 95
150 172 76
160 183 102
163 185 84
161 183 95
153 175 108
161 184 95
160 181 92
156 178 84
158 180 95
149 171 84
163 185 99
155 176 84
147 170 57
147 168 76
152 173 88
154 176 99
157 179 92
148 170 84
157 179 99
144 165 105
153 174 92
149 170 80
139 160 57
135 155 84
141 161 72
140 159 72
125 145 36
122 142 99
115 137 114
95 120 105
91 117 118
93 119 122
103 128 128
87 113 105
84 112 117
86 113 114
93 118 121
98 124 124
94 120 129
102 126 136
80 107 118
100 123 124
96 121 126
96 121 124
95 121 137
102 126 131
90 115 111
102 125 126
88 114 116
86 113 124
89 115 139
85 112 128
82 108 121
87 114 126
92 117 129
90 115 131
89 115 129
83 108 133
80 109 139
91 113 124
97 119 130
97 118 139
80 107 140
84 107 118
86 108 135
85 110 133
81 105 118
89 110 124
80 105 121
68 97 115
71 99 122
78 106 124
72 103 114
72 102 124
69 99 120
71 101 111
70 99 111
77 105 103
73 103 113
66 95 97
65 96 115
60 92 116
63 94 105
62 94 113
59 91 103
60 92 122
62 94 121
56 90 118
60 93 108
57 90 103
59 93 128
60 94 120
58 90 114
59 92 121
57 90 110
57 90 102
59 93 117
58 91 122
57 90 109
57 89 110
57 90 120
57 91 113
59 93 124
57 91 118
57 91 109
56 89 102
58 91 115
58 93 125
59 93 115
60 94 118
58 91 110
58 92 124
57 90 115
58 91 121
57 91 105
58 92 128
59 93 122
58 91 118
58 92 117
57 91 105
57 92 113
57 90 115
56 88 111
57 90 111
59 92 120
57 90 113
58 91 118
58 91 118
59 93 121
58 92 114
56 88 107
57 90 114
56 89 108
56 90 110
57 91 108
57 90 110
55 88 113
56 90 110
54 87 103
56 88 100
57 90 107
56 89 105
56 88 100
55 88 110
56 88 107
55 87 107
56 88 99
56 88 110
55 87 105
54 85 100
53 84 94
60 91 100
78 103 78
77 101 88
74 97 70
85 103 40
104 121 51
96 110 18
103 118 18
100 113 0
104 120 0
113 128 0
105 119 0
108 124 0
105 120 0
108 123 0
116 130 0
117 132 0
112 128 0
112 126 0
121 138 0
111 127 0
115 132 0
116 131 0
131 148 0
122 139 0
124 142 0
126 142 0
127 144 0
117 131 0
118 135 0
128 144 0
134 152 0
124 140 0
128 146 0
121 136 0
129 147 0
129 146 0
130 146 0
131 147 0
138 155 0
127 145 0
141 157 0
141 159 0
132 149 0
131 150 0
140 160 0
134 150 0
130 147 0
141 157 0
139 156 0
140 156 0
120 138 0
144 161 0
133 150 0
139 157 0
132 151 0
133 150 0
141 157 0
140 159 0
139 157 0
132 150 0
141 159 0
135 152 0
142 158 0
149 165 0
136 155 0
147 165 0
142 159 0
141 159 0
147 165 0
148 164 0
137 155 0
141 157 0
140 157 0
148 165 0
147 163 0
139 156 0
151 169 0
152 171 0
141 158 0
141 157 0
147 164 0
151 168 0
150 165 0
142 161 0
149 164 0
144 160 0
154 171 0
148 166 0
145 165 0
143 158 0
144 160 0
142 159 0
146 163 0
156 175 0
152 170 0
150 167 0
158 177 0
152 170 0
149 167 0
150 168 0
157 174 0
148 165 0
155 174 0
162 182 0
150 165 0
156 172 0
158 174 0
155 171 0
155 170 0
149 166 0
148 166 0
153 171 0
151 169 0
154 172 0
147 163 0
150 168 0
162 182 0
165 183 0
154 171 0
151 168 0
160 180 0
157 175 0
154 173 0
155 172 0
154 169 0
161 182 0
156 178 0
155 172 0
156 175 0
159 178 0
154 171 0
157 175 0
160 177 0
161 177 0
156 173 0
162 179 0
161 179 0
157 176 0
159 179 0
160 179 0
163 182 0
158 176 0
163 183 0
163 182 0
159 179 0
163 183 0
159 178 0
159 178 0
160 179 0
162 180 0
160 178 0
162 181 0
165 185 0
160 181 0
162 182 0
162 181 0
163 183 0
160 177 0
162 181 0
160 179 0
160 181 0
164 185 0
163 183 0
165 184 0
162 181 0
163 183 0
164 183 0
160 179 0
163 182 0
168 189 0
166 188 0
167 188 0
162 182 0
165 183 0
164 183 0
165 186 0
164 186 0
167 188 0
173 197 67
169 194 62
167 192 62
171 195 57
172 196 84
172 197 88
169 193 88
167 191 72
170 194 72
171 195 62
169 193 88
166 190 80
169 193 67
168 192 51
170 195 80
170 193 51
170 194 84
171 195 102
169 193 80
172 196 88
171 194 84
170 193 80
165 189 51
168 192 88
166 189 84
171 195 84
171 194 80
166 189 67
173 197 102
168 192 92
167 190 84
169 194 111
166 190 84
167 190 84
169 194 105
169 192 102
170 194 99
168 193 99
169 192 80
164 188 108
167 191 99
169 193 99
166 190 88
169 192 95
167 189 88
166 189 108
163 187 88
169 193 105
167 190 99
163 186 92
170 194 99
167 190 102
163 186 95
164 187 102
164 187 76
168 191 107
169 192 102
168 191 111
165 188 102
158 180 80
165 188 120
165 188 76
156 179 80
169 191 99
167 190 80
164 186 84
160 183 72
164 187 122
160 182 92
164 186 88
156 179 76
160 182 102
161 183 88
161 182 99
157 180 88
158 180 84
152 174 84
155 176 120
151 173 105
157 178 105
155 177 114
146 169 99
152 175 62
151 173 105
156 178 88
150 171 80
144 164 76
157 179 97
151 172 108
146 168 84
150 172 95
132 152 80
142 163 67
142 161 76
144 164 67
140 160 72
145 165 92
135 154 84
108 130 78
102 125 108
98 122 107
83 109 111
88 113 113
110 134 125
101 124 120
89 115 113
92 116 114
90 116 115
83 110 117
92 117 115
91 116 129
91 117 131
94 120 117
106 129 134
85 111 128
94 119 122
99 123 122
101 124 112
92 118 116
104 129 136
84 111 131
92 118 128
88 115 134
74 104 126
98 122 135
90 118 124
90 115 127
86 112 124
89 113 128
92 112 117
89 113 137
99 119 121
92 116 123
93 115 115
91 112 121
90 111 119
75 103 130
76 103 114
72 100 121
75 100 114
65 95 121
72 100 110
72 101 105
61 94 124
66 96 117
69 98 110
74 102 111
67 95 112
68 98 103
66 96 108
70 101 113
56 88 99
61 93 107
62 93 107
61 93 100
60 92 111
61 93 110
56 89 99
60 92 108
56 89 102
58 91 105
58 91 116
57 90 110
55 88 99
57 90 120
58 91 118
57 91 115
56 89 116
57 90 105
57 90 107
57 90 107
57 91 113
57 91 103
58 92 108
57 90 117
57 91 114
58 92 120
57 91 113
59 93 115
57 90 102
57 90 115
57 90 120
57 91 118
59 93 130
56 89 110
57 91 111
58 91 115
57 90 108
59 93 122
58 92 102
58 92 115
57 91 114
56 89 105
56 88 113
55 88 97
56 88 107
57 90 111
57 90 110
56 89 117
59 92 121
57 89 105
58 92 108
56 89 105
56 88 105
55 88 102
56 89 103
57 89 110
56 88 111
56 89 105
57 91 118
55 88 102
57 91 114
57 91 108
54 86 97
57 90 110
54 85 86
56 88 100
54 85 82
54 86 94
51 82 82
59 89 100
65 91 86
77 100 70
92 111 67
85 103 40
94 108 25
103 118 18
115 129 0
114 129 0
111 127 0
92 106 0
106 122 0
98 113 0
112 126 0
108 124 0
114 129 0
116 131 0
117 132 0
117 134 0
112 128 0
108 124 0
121 137 0
113 127 0
123 141 0
115 131 0
127 144 0
124 141 0
123 141 0
127 143 0
119 136 0
120 136 0
133 151 0
123 141 0
134 151 0
136 152 0
133 152 0
136 154 0
127 143 0
131 147 0
126 141 0
131 149 0
125 140 0
135 152 0
122 138 0
126 144 0
126 142 0
132 149 0
132 150 0
124 139 0
133 150 0
135 153 0
143 160 0
138 154 0
139 157 0
140 157 0
135 153 0
130 146 0
139 157 0
134 151 0
136 154 0
140 157 0
144 163 0
133 150 0
143 160 0
145 164 0
139 156 0
139 157 0
144 161 0
141 157 0
143 161 0
139 155 0
153 170 0
140 157 0
146 165 0
150 169 0
142 159 0
149 166 0
143 159 0
152 171 0
152 168 0
146 162 0
147 164 0
140 155 0
150 165 0
150 168 0
145 163 0
154 172 0
150 169 0
151 169 0
145 164 0
145 162 0
147 165 0
151 168 0
152 167 0
151 168 0
153 173 0
154 171 0
146 162 0
150 167 0
149 166 0
143 159 0
156 174 0
151 169 0
148 166 0
154 173 0
150 168 0
155 174 0
154 171 0
155 173 0
155 172 0
155 174 0
157 176 0
150 169 0
150 166 0
154 172 0
155 173 0
152 171 0
148 167 0
154 171 0
155 173 0
157 174 0
157 174 0
156 175 0
162 182 0
156 175 0
156 174 0
159 179 0
157 176 0
157 175 0
158 176 0
164 184 0
156 173 0
155 175 0
160 177 0
152 170 0
160 179 0
157 177 0
159 177 0
157 176 0
157 175 0
161 181 0
159 177 0
158 178 0
163 181 0
161 181 0
165 185 0
165 185 0
163 182 0
162 180 0
165 184 0
161 179 0
160 179 0
165 185 0
165 186 0
161 181 0
161 182 0
163 183 0
159 177 0
164 184 0
168 187 0
163 183 0
162 181 0
165 184 0
163 183 0
166 186 0
158 178 0
163 183 0
160 180 0
160 179 0
167 185 0
167 188 0
164 183 0
159 177 0
164 183 0
167 188 0
166 187 0
164 187 0
167 187 0
165 185 0
166 189 0
168 192 67
170 194 80
170 194 51
172 196 72
167 192 76
166 190 76
165 189 72
171 195 95
169 193 62
164 189 80
169 193 72
171 194 80
172 196 72
169 193 88
169 194 62
166 190 62
174 198 72
170 193 62
168 192 92
172 196 76
170 194 67
173 196 84
168 191 84
171 195 95
165 189 84
170 194 95
169 193 108
169 192 99
165 189 84
169 193 67
169 193 80
169 193 95
164 188 76
163 187 92
164 189 92
167 190 95
171 194 99
171 194 105
166 189 84
166 189 105
169 193 102
170 193 80
168 190 95
173 195 84
166 189 88
167 192 105
165 188 99
169 192 120
165 188 92
169 193 102
163 186 92
165 188 99
169 192 99
164 187 99
163 187 80
167 190 108
157 180 72
168 190 114
172 194 105
165 188 76
165 188 108
164 187 102
161 182 95
167 190 99
166 188 92
158 180 84
163 185 114
158 181 84
166 189 102
164 186 105
161 184 111
161 183 92
159 181 92
160 183 102
155 178 108
164 186 84
158 180 105
156 177 108
157 179 95
150 171 84
156 178 111
157 179 88
149 170 95
152 173 84
153 175 99
153 175 84
144 166 84
144 165 76
143 164 76
151 172 102
144 165 67
141 162 76
144 165 44
146 167 84
138 159 67
149 169 88
137 157 62
135 154 67
127 146 76
108 128 80
102 124 103
98 122 107
102 126 124
79 105 102
77 103 103
86 112 122
85 111 111
94 118 115
81 109 120
86 111 114
93 118 117
90 116 117
89 115 128
83 110 114
94 119 130
100 125 118
96 120 128
88 113 120
81 108 112
102 127 128
104 128 117
107 131 136
101 125 135
80 107 128
93 119 138
79 106 121
78 107 133
92 115 140
90 116 137
91 114 129
90 113 132
78 106 125
93 115 127
82 106 114
88 111 130
93 116 123
88 110 120
86 109 110
82 106 108
73 100 110
75 104 100
72 99 107
66 97 130
73 100 121
65 97 111
66 97 117
78 106 103
68 98 113
67 95 110
65 96 105
63 94 111
69 98 107
58 91 113
60 93 122
57 89 94
59 91 101
55 88 99
61 93 107
55 88 104
56 88 99
57 90 120
56 88 110
57 90 102
57 90 107
57 90 105
57 90 113
58 92 117
57 90 111
57 90 105
57 90 100
56 88 100
57 91 115
57 90 95
55 88 100
57 90 114
55 87 100
57 91 115
57 91 115
54 87 102
55 88 107
55 88 102
55 87 97
58 91 117
55 88 103
58 92 117
56 90 114
55 88 102
57 91 118
58 91 111
57 90 115
58 92 105
55 87 103
56 89 107
56 89 108
56 89 107
59 92 125
57 90 108
56 88 97
57 90 115
59 93 118
56 89 94
55 87 99
57 91 108
55 87 100
56 89 102
56 89 102
57 90 102
55 88 102
55 87 102
55 87 99
57 89 110
55 87 105
57 90 110
56 89 99
55 87 100
55 87 102
53 84 95
55 86 92
58 89 102
66 93 86
74 96 72
85 104 51
83 101 54
93 109 44
102 118 18
109 124 0
108 124 0
98 113 0
100 116 0
110 125 0
105 121 0
110 126 0
103 120 0
110 124 0
107 121 0
119 135 0
107 123 0
114 130 0
107 121 0
102 118 0
120 134 0
119 134 0
128 145 0
112 127 0
127 143 0
118 133 0
117 132 0
116 131 0
126 144 0
124 139 0
121 137 0
122 140 0
127 145 0
131 149 0
125 140 0
142 159 0
117 134 0
136 154 0
132 150 0
135 151 0
126 144 0
125 142 0
135 151 0
118 135 0
137 155 0
135 151 0
126 144 0
143 161 0
137 156 0
138 156 0
128 146 0
133 150 0
143 160 0
145 164 0
137 155 0
126 141 0
140 158 0
138 157 0
146 165 0
135 152 0
138 155 0
146 161 0
137 155 0
147 166 0
144 162 0
141 158 0
141 160 0
144 162 0
140 159 0
149 168 0
145 161 0
142 157 0
139 156 0
139 154 0
141 159 0
156 173 0
151 171 0
144 163 0
143 160 0
148 166 0
150 169 0
147 164 0
146 162 0
147 165 0
143 161 0
146 163 0
152 169 0
144 161 0
150 168 0
143 160 0
147 166 0
143 161 0
153 172 0
150 169 0
148 165 0
146 163 0
154 174 0
147 165 0
151 170 0
149 166 0
142 162 0
154 174 0
145 160 0
159 175 0
160 179 0
149 166 0
154 171 0
155 173 0
150 168 0
155 173 0
154 174 0
156 172 0
155 173 0
144 161 0
157 174 0
155 174 0
152 171 0
153 172 0
156 175 0
154 171 0
149 169 0
154 170 0
160 178 0
157 176 0
159 178 0
159 178 0
155 173 0
156 174 0
154 173 0
157 175 0
158 174 0
152 168 0
160 177 0
162 179 0
163 183 0
153 172 0
159 178 0
155 173 0
162 181 0
158 178 0
163 184 0
156 174 0
151 170 0
158 177 0
163 182 0
166 186 0
161 180 0
164 182 0
160 179 0
167 188 0
159 179 0
158 179 0
162 183 0
164 183 0
164 184 0
168 188 0
161 179 0
162 181 0
165 183 0
162 179 0
167 186 0
164 183 0
161 180 0
163 183 0
168 190 0
164 187 0
166 185 0
166 186 0
161 181 0
165 186 0
159 179 0
165 186 0
166 188 0
164 185 0
168 188 0
168 189 0
161 180 0
162 182 0
163 184 0
166 187 0
171 196 80
168 192 72
170 194 88
170 196 84
172 196 67
166 191 88
170 194 76
167 191 57
162 186 57
174 197 95
169 193 72
166 189 57
170 194 84
165 189 57
171 194 72
172 195 76
167 191 76
176 199 102
174 198 88
174 197 108
169 192 80
174 197 88
171 195 92
171 195 111
169 193 92
171 195 102
169 193 84
163 187 80
170 194 80
168 191 95
168 192 92
172 195 108
178 201 102
166 190 80
173 197 102
168 191 99
170 193 88
168 191 95
171 195 105
172 195 108
170 193 102
173 197 102
167 191 76
165 187 76
175 198 108
168 191 80
165 188 102
165 189 102
164 187 80
166 190 95
165 189 84
169 192 108
161 184 95
169 192 84
166 190 120
169 192 111
170 192 92
165 189 111
170 193 117
159 182 88
157 180 76
160 183 99
171 194 114
158 180 102
167 188 88
170 191 108
159 181 99
168 190 111
160 181 99
161 183 108
156 179 95
158 180 95
151 174 92
158 180 80
158 180 92
158 180 95
151 172 99
163 184 111
155 177 88
150 172 105
156 178 84
159 181 99
138 161 88
155 176 111
152 174 95
151 171 105
151 171 84
143 164 72
149 170 99
144 166 76
148 169 92
140 160 67
144 164 80
138 159 88
136 157 88
149 168 88
139 159 67
128 147 67
131 150 76
134 154 74
125 145 86
109 131 102
95 118 92
80 106 95
95 120 125
87 113 108
90 115 110
98 123 136
84 111 120
86 112 118
88 114 118
109 132 137
86 110 111
91 116 120
110 132 137
100 125 127
91 116 115
90 115 129
92 118 122
89 115 120
95 119 124
103 128 142
92 119 128
101 124 128
82 109 132
90 115 137
95 118 128
89 114 136
88 111 122
101 122 124
85 108 120
78 106 126
88 113 119
92 114 117
93 115 121
91 112 108
84 109 115
86 110 101
92 114 109
74 102 116
78 105 116
76 105 108
76 104 114
78 105 118
78 106 117
61 92 118
61 93 106
69 97 107
67 96 110
66 96 100
57 88 92
61 93 108
68 100 114
62 93 110
57 89 103
61 91 97
54 86 107
57 90 115
64 95 107
61 91 99
58 89 99
55 88 102
58 90 120
57 91 103
56 88 108
55 88 94
55 87 102
57 91 115
56 89 107
56 88 113
55 88 103
58 91 114
56 89 108
57 90 111
56 89 118
57 90 108
55 87 108
57 89 103
58 91 111
55 87 99
56 89 95
57 91 117
59 93 117
61 95 130
58 92 113
57 90 103
55 89 100
55 87 102
55 88 105
56 89 105
56 90 100
58 92 122
56 90 105
55 88 102
57 90 115
56 88 107
55 87 107
53 84 100
55 88 97
57 89 103
56 89 105
57 90 105
58 92 120
55 88 94
56 88 107
57 90 102
54 86 105
57 89 107
55 87 107
57 90 115
57 90 111
53 85 80
56 89 100
52 82 80
54 86 102
53 84 94
53 84 88
62 90 84
74 96 67
91 111 57
93 110 47
104 121 44
86 102 25
99 114 0
101 115 0
116 131 0
103 117 0
93 109 0
102 118 0
102 117 0
112 127 0
106 122 0
102 117 0
116 131 0
117 135 0
119 136 0
111 125 0
113 128 0
127 143 0
118 134 0
136 154 0
120 137 0
119 136 0
117 136 0
125 140 0
127 144 0
122 140 0
131 147 0
131 148 0
130 148 0
121 139 0
114 131 0
116 131 0
128 145 0
119 135 0
125 142 0
131 149 0
124 141 0
132 149 0
130 147 0
124 141 0
126 143 0
135 154 0
128 146 0
129 145 0
132 150 0
137 155 0
136 154 0
133 150 0
142 159 0
134 152 0
140 158 0
139 159 0
145 164 0
139 158 0
143 160 0
141 160 0
135 152 0
138 157 0
142 160 0
133 151 0
144 163 0
141 156 0
141 158 0
139 158 0
137 154 0
145 161 0
150 168 0
146 162 0
144 162 0
153 171 0
142 160 0
143 161 0
144 161 0
149 167 0
145 162 0
152 168 0
148 167 0
136 155 0
151 171 0
141 158 0
147 165 0
150 169 0
143 160 0
139 158 0
146 162 0
151 169 0
142 160 0
155 174 0
150 168 0
149 166 0
152 170 0
149 166 0
152 171 0
146 164 0
145 163 0
159 178 0
149 167 0
148 166 0
141 159 0
154 173 0
152 172 0
156 175 0
153 171 0
153 169 0
149 166 0
150 167 0
155 173 0
148 167 0
150 165 0
150 168 0
156 175 0
153 172 0
156 174 0
163 182 0
154 173 0
162 182 0
154 175 0
155 174 0
157 175 0
154 172 0
150 168 0
156 173 0
157 176 0
159 176 0
149 168 0
158 176 0
154 170 0
156 173 0
153 172 0
164 184 0
165 184 0
161 179 0
159 177 0
155 175 0
164 184 0
159 179 0
149 169 0
161 179 0
159 178 0
156 173 0
161 180 0
161 181 0
156 175 0
163 183 0
159 179 0
161 179 0
163 184 0
159 177 0
160 178 0
163 184 0
167 186 0
161 181 0
166 185 0
160 180 0
162 181 0
162 182 0
162 182 0
158 178 0
166 187 0
163 184 0
165 185 0
162 179 0
171 190 0
161 181 0
167 186 0
166 186 0
162 184 0
167 186 0
165 185 0
162 181 0
160 180 0
164 184 0
163 183 0
164 183 0
159 179 0
166 186 0
163 183 0
159 180 0
160 180 0
167 191 84
168 192 67
171 195 62
173 196 84
172 196 76
167 190 57
168 192 62
166 190 84
176 198 62
168 193 84
170 194 67
171 194 80
164 189 62
168 192 80
171 193 80
169 192 80
167 190 95
167 191 80
172 195 95
167 190 57
169 192 80
167 192 99
172 196 92
164 188 80
166 189 84
170 193 102
173 196 95
169 193 108
173 196 105
170 193 88
163 187 80
171 194 120
163 186 57
163 187 95
172 195 92
170 193 76
166 190 92
168 192 99
171 195 95
171 195 102
166 189 105
171 194 111
170 193 99
171 194 117
166 188 84
169 192 92
171 194 122
167 190 99
167 190 111
169 191 105
158 181 84
160 184 97
164 187 95
167 191 114
162 185 97
171 193 110
163 186 103
160 183 92
161 183 80
154 177 76
164 188 105
160 182 95
161 184 99
166 189 100
163 185 76
163 187 102
160 183 111
164 188 95
158 181 88
158 181 88
160 183 95
158 180 105
155 178 95
155 177 99
162 185 105
156 177 92
157 179 92
159 182 111
154 176 99
159 180 102
154 175 88
151 172 72
154 175 108
160 182 95
153 175 92
147 168 80
155 176 95
139 160 76
145 165 62
133 154 72
151 172 92
147 167 102
149 170 99
147 168 102
145 166 92
134 153 57
142 161 95
124 142 62
140 160 84
137 157 99
110 129 82
108 128 95
107 127 90
107 131 113
98 121 122
93 118 109
101 126 121
85 109 111
91 115 115
96 121 119
92 116 126
92 119 129
102 127 129
101 126 137
97 122 131
98 122 125
104 127 124
95 119 126
99 123 133
98 123 116
89 116 122
102 126 123
101 124 120
106 129 131
96 121 117
90 117 132
96 120 135
90 115 113
94 119 125
88 114 123
92 115 113
103 123 128
96 117 120
96 117 113
89 112 117
99 121 111
93 115 107
99 118 106
92 116 111
93 116 117
75 102 115
86 111 117
84 111 120
68 96 105
68 99 114
70 98 100
69 97 100
74 101 110
85 111 95
62 92 103
73 101 88
68 96 97
57 87 97
60 92 107
61 92 102
54 87 98
58 90 90
57 90 103
57 90 114
55 88 100
57 90 113
56 89 99
57 90 105
55 88 99
56 89 99
57 90 103
57 90 113
57 91 110
56 89 103
56 88 108
56 89 111
56 89 99
57 90 114
55 88 99
55 88 99
57 90 118
56 88 110
56 89 120
56 89 97
57 91 105
55 88 99
56 89 108
56 89 100
59 93 114
56 89 103
59 92 121
57 90 107
56 88 99
57 91 111
57 89 111
59 93 113
58 91 105
57 90 118
57 91 107
55 88 102
55 88 86
56 88 108
56 88 108
54 86 86
57 89 108
54 87 97
58 91 115
57 90 108
55 88 102
56 88 103
55 88 99
54 87 92
52 84 82
56 89 102
53 84 84
53 83 99
56 89 105
56 88 108
55 88 102
62 91 100
60 89 76
82 104 74
85 107 67
84 105 60
92 109 25
89 106 47
95 111 25
101 116 0
108 122 0
108 123 0
102 119 0
107 121 0
113 129 0
109 126 0
111 124 0
110 126 0
99 117 0
114 129 0
107 122 0
112 128 0
123 139 0
105 120 0
117 135 0
122 140 0
117 132 0
121 137 0
110 128 0
117 132 0
128 145 0
112 130 0
128 147 0
126 143 0
117 135 0
131 148 0
131 150 0
123 141 0
126 143 0
129 147 0
129 147 0
116 133 0
124 142 0
130 147 0
127 145 0
128 144 0
136 154 0
126 142 0
128 146 0
125 142 0
125 143 0
133 150 0
131 149 0
134 150 0
140 159 0
131 150 0
142 160 0
136 156 0
137 155 0
133 149 0
130 150 0
142 161 0
135 151 0
143 161 0
141 159 0
136 155 0
138 154 0
145 161 0
139 159 0
145 160 0
143 160 0
142 159 0
148 168 0
147 165 0
145 163 0
150 169 0
147 165 0
145 164 0
151 171 0
151 169 0
149 168 0
152 172 0
139 158 0
148 166 0
147 166 0
148 168 0
147 164 0
149 166 0
148 166 0
150 166 0
152 172 0
144 160 0
146 164 0
142 158 0
150 169 0
150 168 0
142 158 0
143 160 0
146 162 0
153 172 0
149 168 0
156 175 0
156 174 0
150 169 0
157 175 0
154 173 0
150 169 0
145 164 0
154 173 0
156 176 0
156 175 0
150 167 0
155 174 0
147 163 0
148 166 0
150 168 0
150 168 0
154 172 0
153 171 0
162 180 0
153 168 0
153 171 0
154 172 0
153 172 0
150 166 0
157 177 0
157 176 0
153 171 0
151 166 0
156 173 0
150 167 0
159 176 0
157 176 0
158 179 0
157 176 0
159 178 0
156 174 0
159 179 0
160 179 0
157 176 0
164 184 0
156 175 0
156 175 0
167 186 0
162 179 0
158 177 0
162 181 0
154 172 0
162 181 0
156 174 0
156 175 0
165 185 0
159 177 0
161 179 0
160 176 0
160 181 0
159 179 0
164 184 0
158 176 0
165 185 0
163 181 0
163 182 0
163 182 0
161 179 0
163 185 0
163 180 0
159 180 0
161 181 0
161 183 0
159 178 0
162 181 0
159 178 0
167 187 0
164 184 0
164 183 0
164 184 0
164 183 0
164 185 0
163 183 0
163 183 0
166 187 0
166 186 0
163 183 0
167 187 0
166 185 0
164 184 0
165 183 0
169 194 57
165 189 51
168 191 57
171 195 84
171 195 51
168 192 57
170 194 84
170 193 76
171 195 80
174 198 84
172 196 88
171 195 80
170 195 95
173 196 92
171 195 80
170 193 102
174 197 92
170 194 76
170 193 105
175 198 105
170 193 80
174 196 76
169 192 88
169 194 111
163 188 99
167 191 84
172 196 117
172 195 108
172 196 88
165 188 67
172 195 99
169 194 99
173 197 92
168 191 102
165 188 84
170 193 102
174 198 111
173 196 111
171 194 99
168 191 102
166 189 88
169 193 102
170 192 105
165 187 80
169 193 108
166 189 100
165 188 88
169 192 110
160 183 57
172 196 130
160 182 86
168 190 103
167 190 111
167 191 120
162 185 100
170 192 108
161 184 88
158 181 108
166 188 114
166 189 102
170 192 92
164 186 95
164 187 114
163 186 88
159 181 95
153 175 105
162 184 105
162 185 105
162 184 76
162 184 99
153 175 88
155 178 95
156 179 105
158 181 84
169 190 111
155 178 105
159 180 108
159 180 102
161 183 108
157 179 95
160 182 111
152 173 102
159 179 99
155 176 95
150 171 92
141 163 76
155 177 84
143 163 84
146 167 80
149 170 102
141 162 67
134 155 62
153 174 99
143 163 95
144 162 72
142 162 88
145 165 95
140 161 88
137 156 84
130 150 99
140 159 84
121 139 76
118 138 78
114 136 97
87 111 107
90 115 109
101 124 114
78 105 94
99 123 121
71 98 97
92 116 105
91 116 115
92 116 114
84 111 110
89 115 118
94 119 133
84 111 118
89 115 117
97 121 124
91 116 104
104 129 120
91 116 115
102 126 137
102 126 126
91 116 118
96 121 115
98 123 136
91 115 128
105 127 125
93 118 113
88 112 100
111 130 116
94 114 114
111 131 121
98 120 119
93 116 99
101 124 98
103 126 121
100 124 111
89 112 107
90 116 103
77 105 113
71 99 115
65 95 105
79 106 116
89 115 94
77 105 111
67 98 102
71 99 100
59 89 98
64 93 92
64 94 95
63 92 90
64 92 94
56 88 91
63 94 95
57 88 95
53 85 102
59 91 106
58 89 105
59 91 94
56 88 105
56 88 95
54 86 103
54 86 94
56 89 107
57 91 102
56 89 107
57 90 108
57 90 113
54 86 92
57 90 113
55 87 95
56 88 103
56 89 113
56 89 110
56 88 95
56 89 104
54 87 90
58 91 117
57 91 115
55 88 102
56 89 114
57 90 95
58 91 117
56 89 105
56 88 103
54 87 78
56 89 110
56 88 103
58 91 114
54 86 100
55 88 95
55 87 103
56 89 97
56 89 113
55 88 111
55 88 100
55 87 94
57 90 103
54 85 99
54 87 90
54 86 94
55 88 100
55 87 114
58 91 117
55 88 97
55 87 99
53 85 95
55 88 99
54 85 90
53 84 86
58 89 92
53 79 78
69 93 76
81 102 62
89 107 40
82 101 47
85 102 25
96 113 25
102 117 0
105 121 0
102 116 0
108 124 0
99 115 0
107 121 0
101 115 0
110 126 0
109 123 0
101 115 0
108 123 0
113 129 0
125 141 0
115 130 0
121 136 0
106 123 0
116 132 0
114 130 0
113 130 0
115 133 0
119 136 0
120 138 0
120 137 0
126 143 0
124 141 0
124 141 0
109 125 0
133 151 0
121 138 0
130 147 0
125 145 0
136 154 0
122 140 0
120 137 0
131 150 0
125 143 0
124 141 0
126 144 0
143 164 0
137 155 0
121 139 0
138 155 0
131 149 0
138 157 0
127 144 0
125 143 0
135 152 0
141 159 0
143 163 0
134 152 0
141 159 0
133 150 0
140 159 0
145 163 0
140 160 0
148 167 0
140 157 0
135 153 0
146 163 0
143 160 0
146 164 0
136 154 0
139 158 0
143 160 0
140 158 0
140 157 0
142 160 0
153 173 0
148 168 0
143 161 0
142 162 0
143 162 0
144 163 0
146 165 0
145 164 0
136 153 0
146 163 0
148 165 0
144 162 0
146 164 0
137 156 0
146 163 0
148 166 0
147 166 0
146 165 0
154 174 0
143 161 0
148 166 0
145 164 0
147 166 0
154 172 0
153 172 0
149 168 0
152 171 0
147 166 0
149 167 0
156 173 0
153 171 0
155 172 0
155 176 0
146 166 0
162 181 0
151 170 0
153 171 0
156 176 0
153 173 0
153 173 0
153 172 0
154 172 0
152 169 0
155 173 0
156 175 0
155 174 0
154 171 0
158 178 0
155 172 0
156 175 0
155 174 0
155 173 0
152 171 0
157 176 0
158 178 0
157 175 0
153 171 0
155 172 0
156 175 0
156 177 0
158 179 0
155 173 0
163 181 0
164 184 0
158 177 0
162 179 0
157 175 0
152 173 0
162 182 0
166 186 0
158 177 0
158 176 0
157 175 0
158 179 0
163 183 0
159 177 0
156 176 0
163 184 0
158 178 0
159 178 0
165 185 0
159 179 0
148 168 0
164 186 0
160 178 0
160 179 0
165 186 0
161 181 0
165 185 0
161 181 0
165 185 0
161 178 0
165 186 0
166 186 0
157 177 0
159 179 0
163 185 0
163 182 0
166 186 0
163 184 0
163 183 0
165 185 0
164 184 0
163 184 0
164 183 0
157 178 0
167 187 0
166 189 0
166 186 0
163 181 0
167 187 0
167 187 0
166 186 0
169 193 72
165 189 72
173 197 76
164 188 84
173 197 84
171 194 88
171 194 72
166 190 57
168 192 84
170 193 80
173 197 95
174 198 102
170 193 67
171 195 88
171 195 80
171 194 99
167 191 80
174 197 95
172 195 80
165 189 80
172 196 80
169 193 72
169 193 80
167 191 92
169 192 92
165 188 88
170 194 67
166 190 76
171 193 92
171 194 92
169 191 76
167 190 84
171 194 99
166 189 102
167 191 80
169 192 114
169 192 92
161 185 80
169 191 95
168 191 102
170 193 99
167 191 84
159 182 84
170 192 80
165 189 76
167 191 120
166 189 95
164 188 95
165 188 102
164 187 84
164 187 72
166 188 99
166 189 95
169 192 80
158 181 88
163 186 97
169 192 94
163 186 99
168 191 107
168 190 102
164 187 102
169 191 80
167 190 97
167 190 108
164 185 108
161 184 88
155 177 97
156 177 103
164 186 108
161 184 95
164 186 102
156 179 99
155 178 80
157 179 92
152 174 88
159 182 84
156 178 92
159 181 95
162 184 95
148 169 102
150 171 99
160 181 88
156 177 108
158 178 108
154 175 80
154 176 105
154 175 99
151 173 88
145 166 80
151 171 92
149 169 92
146 165 76
142 162 92
144 165 67
151 171 80
144 164 95
141 160 88
144 164 84
136 156 80
132 152 57
135 154 76
137 156 80
117 135 100
111 130 95
100 121 76
99 121 92
85 109 94
100 124 122
80 107 94
112 135 125
88 113 117
95 120 105
90 115 120
94 119 126
92 117 124
102 125 121
94 119 114
92 118 136
110 132 133
99 123 131
116 138 142
104 128 103
95 120 124
95 120 125
98 122 124
98 122 133
87 113 124
97 119 112
90 115 115
98 123 128
84 110 114
103 124 111
94 115 112
94 115 106
110 131 93
102 123 105
101 123 107
101 121 90
102 126 115
94 117 88
85 108 102
82 107 104
87 112 100
76 102 103
78 105 88
68 96 98
70 99 102
67 94 100
82 109 97
69 98 99
65 93 92
67 95 86
68 97 99
61 91 99
66 94 84
60 90 94
62 93 99
58 89 95
58 90 100
52 83 88
56 89 100
54 86 113
54 87 92
54 86 94
55 87 100
55 88 90
56 89 110
56 89 99
57 91 111
56 89 97
55 88 97
55 88 105
55 87 107
58 91 105
55 87 92
55 88 105
57 91 100
57 90 113
54 86 92
57 90 105
56 89 97
57 90 107
55 87 102
54 87 103
57 89 108
56 88 105
55 87 100
58 91 114
56 88 103
55 88 99
58 91 110
56 89 100
54 87 88
57 89 103
55 87 95
56 88 102
55 88 102
56 88 105
55 88 97
55 88 92
54 86 90
53 84 100
54 86 102
56 89 90
54 87 82
53 85 88
55 87 94
53 84 92
51 81 86
49 78 78
56 86 88
65 92 92
74 98 84
64 89 72
77 96 47
77 95 54
88 105 31
99 115 18
90 105 18
101 115 0
112 129 0
109 125 0
109 125 0
97 112 0
99 112 0
99 115 0
116 132 0
101 117 0
114 131 0
108 125 0
113 129 0
111 125 0
104 120 0
103 119 0
116 132 0
113 131 0
125 141 0
116 131 0
117 134 0
109 125 0
131 147 0
115 130 0
116 133 0
131 148 0
125 142 0
116 134 0
134 152 0
118 138 0
125 142 0
127 143 0
133 150 0
135 154 0
118 134 0
132 152 0
132 150 0
130 147 0
129 148 0
123 141 0
132 150 0
130 147 0
141 159 0
136 154 0
127 142 0
135 154 0
139 157 0
124 143 0
140 158 0
141 160 0
135 153 0
134 152 0
135 152 0
149 168 0
138 158 0
145 165 0
143 162 0
138 158 0
151 170 0
127 146 0
147 166 0
134 152 0
143 161 0
139 158 0
143 160 0
146 165 0
140 159 0
140 157 0
143 159 0
140 158 0
145 161 0
149 167 0
148 164 0
146 164 0
147 167 0
148 164 0
147 165 0
149 168 0
142 160 0
152 169 0
154 173 0
155 174 0
152 170 0
149 166 0
147 164 0
144 161 0
144 162 0
149 168 0
151 170 0
157 175 0
145 162 0
154 174 0
150 168 0
156 174 0
143 162 0
148 165 0
150 170 0
156 176 0
159 178 0
154 171 0
153 169 0
160 180 0
153 171 0
154 171 0
159 177 0
155 173 0
157 177 0
157 175 0
158 177 0
160 177 0
152 170 0
159 178 0
157 174 0
160 179 0
149 166 0
156 175 0
157 175 0
158 177 0
148 167 0
160 178 0
159 177 0
164 184 0
153 171 0
158 177 0
155 172 0
158 178 0
157 177 0
152 171 0
160 181 0
157 176 0
153 172 0
161 179 0
160 179 0
160 180 0
159 178 0
156 176 0
163 182 0
162 180 0
161 180 0
165 184 0
165 185 0
166 185 0
159 177 0
156 175 0
160 179 0
152 170 0
166 185 0
164 183 0
162 182 0
163 183 0
162 181 0
158 179 0
165 185 0
162 180 0
165 184 0
161 178 0
159 179 0
159 178 0
163 182 0
167 187 0
166 185 0
166 187 0
159 179 0
164 183 0
166 188 0
160 179 0
161 181 0
164 184 0
164 183 0
162 183 0
165 185 0
162 181 0
165 186 0
163 182 0
165 185 0
163 181 0
161 181 0
162 184 0
165 185 0
166 189 0
168 187 0
164 186 0
170 193 67
169 193 76
169 193 72
172 196 72
173 197 80
172 196 51
173 197 80
168 192 76
173 197 80
170 193 72
172 196 80
173 195 88
170 194 72
172 194 88
172 195 105
172 195 88
172 196 84
169 192 84
172 195 99
170 193 99
176 199 102
166 189 67
168 192 76
172 195 95
170 194 108
172 196 92
165 187 88
168 193 99
170 193 105
170 194 102
170 193 84
163 187 92
169 191 105
168 192 88
170 193 105
167 191 102
170 194 95
169 193 102
172 196 95
168 191 95
166 189 92
171 194 111
164 188 57
161 183 88
167 191 102
169 191 95
166 189 92
161 184 105
165 189 108
174 196 125
165 189 88
167 191 99
164 187 95
169 192 114
164 187 105
161 184 84
163 186 102
160 182 76
163 186 105
160 183 82
159 182 92
167 190 99
164 187 80
160 183 95
162 186 108
159 181 70
168 190 120
162 185 111
148 171 57
167 189 92
167 189 128
162 185 99
162 184 88
163 185 102
156 179 80
163 185 105
156 178 92
154 176 80
157 178 92
159 180 108
155 177 114
149 170 84
157 179 92
146 167 92
145 166 76
154 174 105
160 182 92
151 172 105
144 165 88
148 169 84
153 173 99
149 170 76
158 179 84
138 158 80
142 161 80
150 169 92
147 167 84
143 162 92
128 147 80
142 161 76
128 146 62
146 165 84
138 156 82
116 135 57
111 130 92
111 130 92
99 122 96
84 109 97
96 121 110
88 113 121
95 119 117
98 121 113
95 119 111
95 120 120
118 140 142
97 121 114
97 122 114
99 124 108
97 121 111
88 115 118
83 110 124
104 126 131
76 104 103
111 132 121
106 129 113
96 118 107
107 129 120
98 121 100
107 129 125
108 129 94
110 130 107
103 123 113
111 130 105
104 128 100
84 107 115
106 127 119
101 123 100
101 123 86
97 121 94
89 111 99
85 109 100
90 114 94
78 104 100
81 105 90
90 116 106
73 101 99
85 110 86
75 101 97
66 94 92
68 99 115
65 93 102
71 99 106
63 93 88
71 99 100
60 91 91
57 89 100
62 93 95
56 87 97
62 92 102
53 85 94
56 89 109
55 87 99
56 90 110
56 88 103
54 86 105
56 89 100
55 87 99
55 87 90
54 87 88
56 89 99
55 87 86
56 89 103
55 87 103
57 91 113
54 86 97
57 90 100
56 88 105
55 88 97
54 85 72
57 90 108
56 88 105
56 88 92
57 90 90
55 88 100
55 88 86
57 89 105
54 87 86
56 89 99
56 89 113
54 86 99
57 90 111
55 87 100
55 88 113
56 89 102
53 85 97
56 89 105
54 87 90
56 88 92
54 86 99
54 86 95
53 85 90
52 84 86
53 84 82
54 86 100
55 87 107
53 84 95
56 88 108
56 89 100
57 88 97
70 94 78
73 97 80
68 89 57
90 110 70
93 111 51
96 112 36
99 117 18
109 123 18
108 123 0
102 117 0
97 112 0
112 128 0
107 121 0
112 127 0
105 119 0
115 131 0
101 117 0
105 120 0
98 114 0
114 131 0
110 127 0
116 132 0
112 129 0
108 122 0
113 128 0
112 129 0
123 140 0
116 133 0
115 131 0
123 138 0
113 129 0
127 143 0
115 132 0
115 133 0
128 144 0
135 153 0
119 135 0
129 146 0
122 138 0
113 129 0
125 143 0
130 146 0
129 148 0
123 141 0
139 156 0
123 140 0
135 151 0
136 155 0
132 150 0
124 143 0
122 139 0
137 156 0
134 152 0
133 150 0
136 154 0
140 158 0
135 153 0
135 151 0
137 154 0
145 164 0
142 160 0
138 157 0
135 153 0
141 159 0
134 152 0
137 156 0
141 161 0
146 165 0
135 155 0
143 160 0
142 160 0
136 154 0
135 153 0
148 167 0
136 152 0
145 162 0
152 170 0
146 164 0
131 147 0
140 157 0
137 155 0
145 165 0
151 170 0
155 174 0
147 166 0
150 167 0
142 160 0
144 162 0
153 174 0
149 167 0
144 163 0
147 165 0
148 168 0
149 167 0
147 167 0
145 162 0
150 169 0
150 170 0
154 175 0
156 177 0
146 165 0
158 176 0
154 172 0
150 169 0
151 170 0
151 170 0
150 170 0
156 175 0
154 174 0
151 169 0
158 177 0
161 181 0
156 174 0
156 176 0
149 167 0
151 169 0
155 173 0
152 171 0
156 175 0
151 171 0
156 174 0
147 165 0
154 172 0
154 172 0
154 174 0
149 169 0
157 175 0
157 176 0
155 174 0
155 174 0
161 180 0
157 177 0
155 174 0
160 179 0
162 182 0
152 171 0
157 176 0
160 179 0
164 182 0
158 178 0
164 185 0
162 182 0
161 180 0
162 183 0
163 182 0
161 182 0
161 181 0
160 178 0
163 182 0
156 176 0
158 179 0
162 181 0
164 183 0
161 180 0
155 173 0
159 179 0
161 180 0
161 182 0
157 176 0
161 179 0
161 181 0
163 184 0
162 182 0
164 184 0
161 182 0
162 182 0
160 179 0
164 185 0
162 180 0
165 186 0
161 180 0
162 182 0
162 181 0
166 186 0
167 188 0
165 186 0
167 188 0
161 181 0
165 183 0
167 190 0
166 186 0
164 184 0
164 184 0
169 191 0
170 191 0
164 185 0
165 185 0
168 188 0
163 184 0
163 183 0
164 185 0
174 198 76
170 195 72
167 191 62
167 191 44
173 196 88
169 194 95
171 195 84
172 195 95
173 196 84
173 197 67
168 191 88
174 198 88
169 193 95
172 195 84
171 195 92
175 197 114
171 194 88
171 194 99
172 197 80
168 192 92
171 194 88
166 189 84
173 197 102
175 198 105
169 193 80
170 192 95
174 198 99
169 193 99
167 190 84
171 195 92
169 193 108
172 195 114
165 189 92
167 190 92
167 191 108
168 191 105
169 192 102
172 194 92
166 190 105
169 193 95
163 187 51
166 189 92
164 187 92
163 185 95
166 190 92
171 195 105
171 194 108
166 190 88
161 185 115
168 191 114
171 194 105
164 187 92
165 188 108
161 184 95
165 187 105
161 186 100
159 182 78
168 191 118
161 184 95
161 184 99
162 185 99
162 184 80
164 186 99
160 183 84
164 185 67
163 185 95
158 180 102
158 180 94
162 184 102
156 180 105
158 180 102
156 178 90
153 175 102
157 179 84
155 176 99
152 173 111
152 174 102
156 177 88
158 180 95
161 182 120
157 178 84
150 171 88
158 179 120
155 176 108
155 175 95
154 174 99
150 171 99
148 169 105
147 169 99
136 156 76
150 170 111
140 159 84
147 167 99
145 166 105
143 163 76
136 156 84
136 155 99
131 151 67
141 161 102
127 146 62
130 149 51
132 151 80
120 137 84
136 155 67
121 139 82
111 130 84
101 121 102
102 123 108
89 112 113
85 110 113
92 115 103
86 110 102
97 120 123
86 111 112
95 119 92
96 119 125
91 116 113
97 121 105
98 123 120
87 111 110
90 115 111
99 123 114
97 122 120
106 130 130
105 128 124
119 140 115
99 123 113
85 109 109
100 120 95
114 134 98
107 127 109
82 106 113
111 130 106
98 119 102
114 134 98
109 129 103
102 124 105
111 131 84
113 132 76
103 124 88
102 123 99
95 116 94
86 111 97
78 105 110
82 108 108
88 113 94
75 103 99
69 96 82
69 96 95
61 91 105
67 96 82
63 93 100
69 98 100
71 98 88
68 97 94
63 92 94
66 95 86
57 88 92
59 92 107
59 89 99
55 87 105
57 89 100
53 84 84
55 87 105
56 88 88
53 84 102
57 89 108
53 85 76
55 87 99
56 88 100
55 88 101
53 85 92
56 89 100
55 87 92
54 86 88
55 88 100
56 89 94
56 88 107
55 87 97
54 86 90
57 90 104
54 86 100
55 87 99
55 88 97
56 89 100
55 88 102
56 89 102
55 88 110
56 88 102
53 85 95
55 86 100
56 88 105
52 83 88
56 89 90
56 88 102
54 86 90
55 87 97
54 86 88
53 84 82
54 86 90
53 83 94
54 86 95
54 86 94
53 85 94
56 87 95
58 88 84
57 86 88
64 90 65
65 87 51
75 95 51
78 96 40
75 92 54
99 117 51
98 115 31
101 115 0
91 104 0
102 117 0
88 103 0
98 114 0
111 126 0
111 126 0
107 121 0
106 122 0
116 132 0
102 119 0
102 119 0
111 127 0
103 119 0
116 132 0
115 133 0
109 124 0
112 128 0
108 124 0
114 130 0
117 136 0
114 131 0
119 138 0
122 140 0
121 138 0
126 143 0
123 139 0
125 142 0
122 140 0
112 130 0
121 138 0
127 145 0
130 148 0
127 144 0
126 145 0
124 142 0
123 142 0
134 154 0
126 144 0
130 147 0
133 151 0
120 139 0
127 145 0
133 151 0
124 141 0
133 151 0
131 148 0
140 157 0
134 152 0
132 150 0
130 148 0
135 151 0
135 153 0
133 152 0
135 154 0
136 154 0
142 161 0
136 155 0
148 166 0
148 167 0
137 152 0
139 160 0
151 170 0
141 160 0
146 166 0
140 160 0
146 165 0
142 162 0
139 159 0
148 167 0
147 166 0
147 165 0
150 170 0
145 164 0
134 155 0
151 170 0
148 168 0
151 171 0
146 166 0
144 161 0
155 172 0
147 168 0
148 167 0
150 169 0
144 163 0
145 165 0
155 174 0
143 162 0
150 168 0
154 174 0
152 172 0
151 170 0
149 166 0
153 172 0
153 172 0
151 168 0
154 172 0
153 172 0
155 175 0
152 170 0
157 177 0
154 173 0
148 165 0
156 174 0
152 169 0
159 179 0
152 168 0
159 179 0
156 176 0
151 169 0
150 168 0
156 176 0
154 173 0
151 170 0
156 174 0
154 172 0
155 175 0
159 180 0
156 177 0
155 174 0
155 174 0
159 177 0
151 168 0
151 167 0
153 171 0
164 183 0
155 173 0
160 179 0
157 177 0
154 173 0
159 179 0
161 180 0
159 178 0
158 178 0
160 179 0
157 176 0
159 177 0
158 178 0
158 176 0
158 178 0
162 182 0
158 179 0
164 183 0
164 184 0
158 177 0
160 181 0
156 174 0
157 177 0
155 174 0
159 180 0
155 174 0
158 177 0
160 180 0
167 187 0
161 182 0
163 184 0
157 177 0
158 179 0
163 182 0
161 181 0
155 175 0
160 180 0
163 185 0
164 183 0
159 179 0
161 180 0
165 185 0
162 182 0
161 180 0
165 185 0
164 184 0
166 187 0
166 187 0
166 185 0
167 190 0
159 180 0
164 184 0
163 184 0
165 186 0
165 184 0
165 185 0
167 188 0
163 183 0
166 185 0
160 181 0
166 186 0
169 193 76
170 194 76
171 195 84
165 189 57
168 192 72
168 193 76
173 196 84
173 196 102
173 196 95
169 192 88
173 196 88
170 194 76
172 195 102
173 195 88
171 196 105
171 194 88
178 200 105
171 195 99
173 196 105
171 194 99
173 197 92
169 193 105
171 195 88
169 193 99
167 189 95
165 189 92
170 193 99
173 197 108
175 198 120
170 193 102
172 195 92
171 195 102
168 191 80
168 192 88
170 193 102
168 191 80
160 184 84
177 201 122
170 194 102
164 188 120
165 189 92
169 192 95
172 195 117
169 191 108
172 195 114
166 189 102
165 188 84
174 197 99
162 185 102
163 186 92
165 189 84
164 188 102
168 191 108
165 188 99
166 188 92
167 189 95
163 186 99
160 183 76
159 182 92
162 185 107
163 186 102
163 186 97
166 188 105
160 183 92
163 186 92
160 184 99
164 186 84
158 180 99
154 176 108
162 184 105
161 183 99
163 186 102
158 180 99
162 184 107
153 175 84
159 181 88
153 175 80
158 180 80
163 184 114
159 181 99
154 175 99
153 175 88
155 176 72
160 181 108
153 175 84
154 176 111
164 184 105
143 165 76
158 178 108
155 175 111
152 172 111
143 163 80
156 176 111
155 175 95
146 166 88
138 157 95
133 153 62
138 157 88
142 162 84
136 155 84
137 155 88
139 158 80
125 144 92
113 131 67
129 146 86
127 146 57
115 133 84
104 125 79
101 122 90
88 112 94
98 123 125
89 111 110
85 111 105
83 108 108
87 111 110
96 119 120
87 111 118
97 121 123
93 117 110
96 120 113
93 117 103
83 111 113
92 118 108
88 113 100
91 116 97
109 130 122
90 113 111
102 123 115
106 128 107
107 128 104
95 118 95
100 122 89
113 133 99
112 133 102
112 134 84
113 132 82
102 124 88
112 134 86
111 132 76
100 121 102
96 119 98
90 113 94
90 113 70
91 114 86
75 101 92
85 108 97
78 104 82
78 105 95
75 100 74
67 95 86
75 102 94
70 98 94
72 99 84
67 93 92
67 94 82
66 93 84
59 89 88
61 93 99
60 91 90
55 86 85
56 89 99
59 92 107
58 91 114
55 88 99
54 86 99
54 86 91
54 86 90
55 87 102
54 86 86
53 85 92
52 83 91
55 88 86
57 89 102
54 85 92
55 88 97
55 87 92
54 86 99
57 90 102
54 85 97
55 87 102
55 87 99
54 86 92
56 88 105
57 90 100
56 89 100
56 88 102
56 88 103
52 83 82
53 85 92
55 87 94
56 89 102
53 85 88
56 89 107
52 83 86
54 85 95
54 86 94
55 87 92
53 85 97
51 82 90
56 88 105
54 85 88
52 83 92
50 81 78
59 86 80
72 97 78
74 98 60
81 103 72
86 105 44
74 94 57
89 105 31
82 99 25
89 103 18
100 116 18
97 113 0
107 123 0
103 120 0
109 124 0
97 113 0
100 116 0
99 115 0
102 118 0
96 112 0
103 119 0
114 129 0
110 126 0
128 146 0
112 127 0
106 125 0
109 125 0
124 143 0
109 125 0
122 138 0
118 135 0
101 118 0
120 137 0
111 128 0
122 139 0
114 131 0
122 139 0
110 128 0
125 144 0
118 136 0
124 140 0
124 142 0
133 151 0
125 143 0
116 134 0
122 138 0
127 144 0
136 152 0
124 143 0
123 142 0
120 138 0
135 153 0
134 151 0
142 160 0
129 149 0
120 138 0
141 159 0
133 152 0
139 156 0
134 152 0
132 150 0
147 166 0
139 157 0
142 162 0
135 154 0
126 144 0
135 154 0
137 157 0
129 147 0
142 161 0
134 153 0
136 156 0
136 155 0
132 150 0
148 164 0
142 160 0
143 161 0
138 156 0
127 146 0
139 159 0
144 164 0
146 164 0
143 161 0
149 168 0
149 165 0
133 150 0
137 155 0
147 165 0
146 164 0
155 175 0
150 171 0
146 168 0
148 167 0
144 163 0
149 169 0
142 161 0
145 163 0
149 169 0
150 168 0
149 167 0
152 169 0
147 165 0
154 173 0
152 172 0
153 173 0
155 174 0
150 168 0
153 170 0
148 164 0
151 170 0
159 179 0
155 176 0
138 157 0
153 173 0
157 177 0
153 173 0
153 173 0
150 171 0
155 173 0
154 174 0
146 165 0
150 170 0
150 167 0
152 169 0
156 174 0
156 176 0
154 174 0
154 174 0
154 174 0
154 173 0
153 173 0
160 179 0
156 174 0
154 174 0
158 177 0
165 185 0
153 172 0
158 177 0
158 177 0
151 169 0
154 173 0
163 181 0
157 177 0
163 183 0
154 171 0
154 173 0
155 174 0
154 175 0
154 174 0
159 177 0
155 175 0
158 179 0
161 180 0
164 183 0
162 181 0
162 181 0
165 183 0
161 181 0
156 176 0
163 184 0
161 182 0
160 180 0
161 180 0
161 182 0
157 175 0
166 185 0
159 178 0
162 182 0
165 187 0
164 184 0
165 185 0
164 184 0
163 183 0
165 185 0
165 185 0
164 184 0
167 188 0
160 181 0
161 182 0
161 183 0
160 181 0
168 188 0
164 184 0
162 181 0
163 184 0
166 186 0
164 185 0
165 185 0
159 179 0
166 187 0
163 185 0
164 184 0
166 187 0
162 183 0
164 184 0
166 189 0
159 181 0
168 188 0
172 196 76
171 194 88
175 199 95
172 196 92
173 196 108
169 194 84
172 195 80
171 195 95
173 197 80
170 194 76
172 195 67
174 198 108
174 198 105
169 193 95
167 192 102
172 196 102
170 193 84
175 198 117
170 193 92
172 195 92
172 196 95
174 197 102
172 195 114
175 198 111
167 191 92
172 195 88
167 190 92
167 190 92
171 193 105
167 190 95
176 199 120
165 189 95
167 189 84
167 190 84
171 194 88
170 193 95
164 186 88
169 193 95
167 190 99
172 195 117
168 193 95
164 187 95
162 186 67
167 191 95
172 195 105
165 188 67
163 187 80
162 184 99
163 186 84
164 187 92
163 187 110
170 193 102
165 189 80
169 191 95
163 185 90
164 187 99
170 192 105
153 175 72
165 189 115
165 188 84
153 175 80
163 185 99
161 183 120
165 187 113
165 188 94
159 182 84
163 186 99
159 181 105
159 182 99
163 185 99
166 188 99
164 186 117
161 183 88
155 177 99
163 186 114
158 180 105
159 182 92
156 179 99
148 169 88
154 176 95
164 185 80
160 183 102
160 181 105
147 168 95
155 176 95
148 169 102
152 172 99
151 172 95
153 174 114
156 176 95
136 156 88
153 174 111
152 172 108
144 165 80
139 159 84
150 169 102
137 157 84
135 155 84
145 166 80
141 159 99
139 158 92
135 154 76
139 158 76
132 150 84
128 145 62
124 141 78
108 126 78
139 157 107
111 130 84
100 121 92
100 121 110
91 115 113
83 106 109
104 127 120
83 109 109
95 119 120
93 118 122
97 121 114
107 130 111
100 124 107
98 122 105
87 113 103
104 128 105
89 113 114
98 121 110
103 125 114
107 130 124
109 131 113
107 126 105
106 125 100
113 132 88
111 132 107
120 142 99
104 125 97
112 132 88
119 140 86
107 129 86
110 132 92
94 116 100
106 127 100
96 117 105
92 114 99
90 115 92
91 115 72
77 102 90
88 113 99
92 114 78
85 109 80
75 102 88
72 100 97
69 98 86
68 95 72
66 95 88
60 88 81
64 93 82
61 92 88
64 93 94
61 91 86
55 87 90
57 86 78
53 84 82
53 84 94
56 89 107
53 85 84
55 87 100
53 85 78
52 83 70
53 84 99
53 85 82
53 84 79
52 84 80
54 86 92
52 84 78
52 84 95
55 87 103
53 84 97
54 85 95
53 85 88
56 88 100
53 84 82
53 85 95
53 85 99
56 88 95
56 89 94
55 87 97
55 87 99
56 89 100
54 86 92
54 87 99
54 86 97
54 86 97
52 84 76
55 87 94
54 86 100
54 86 82
54 86 80
54 85 86
54 85 90
53 84 102
56 85 78
54 84 84
64 89 65
73 97 62
65 89 72
73 92 70
78 98 54
80 99 36
83 101 40
86 102 25
91 107 18
105 119 0
116 132 0
94 110 0
110 126 0
109 124 0
106 121 0
99 115 0
111 127 0
121 136 0
103 119 0
105 122 0
114 130 0
102 119 0
113 130 0
112 129 0
104 121 0
116 132 0
114 131 0
109 127 0
111 128 0
114 131 0
120 136 0
124 140 0
117 133 0
115 133 0
116 134 0
106 124 0
121 137 0
121 139 0
123 143 0
128 144 0
117 134 0
133 151 0
128 146 0
131 149 0
128 147 0
143 163 0
129 147 0
131 150 0
129 147 0
113 132 0
139 156 0
128 147 0
134 152 0
126 142 0
130 149 0
138 156 0
129 146 0
125 143 0
130 148 0
131 149 0
127 146 0
142 161 0
133 149 0
133 152 0
134 153 0
140 158 0
145 165 0
139 158 0
146 165 0
131 150 0
140 160 0
138 155 0
147 169 0
138 156 0
139 157 0
142 160 0
140 160 0
144 161 0
145 163 0
148 167 0
145 164 0
138 156 0
135 153 0
144 162 0
147 167 0
148 165 0
129 147 0
152 172 0
143 162 0
144 160 0
147 166 0
150 169 0
156 177 0
146 165 0
146 165 0
142 160 0
158 177 0
144 162 0
147 163 0
149 169 0
151 170 0
151 169 0
160 181 0
158 176 0
152 171 0
150 170 0
153 173 0
143 162 0
146 165 0
144 163 0
154 173 0
156 177 0
153 171 0
148 167 0
153 171 0
154 173 0
159 177 0
152 170 0
145 164 0
152 171 0
157 176 0
158 177 0
152 172 0
152 172 0
156 175 0
156 176 0
154 174 0
158 177 0
163 184 0
163 181 0
161 181 0
158 175 0
156 174 0
153 172 0
161 180 0
157 176 0
157 177 0
156 175 0
157 177 0
153 172 0
159 178 0
152 170 0
161 179 0
158 177 0
157 176 0
151 171 0
152 170 0
159 178 0
162 182 0
164 184 0
160 180 0
158 176 0
159 180 0
157 178 0
157 177 0
160 180 0
153 172 0
155 176 0
161 181 0
163 184 0
159 179 0
162 181 0
160 180 0
158 179 0
165 185 0
161 181 0
157 177 0
158 178 0
159 177 0
162 181 0
159 179 0
161 180 0
158 176 0
164 185 0
166 187 0
161 180 0
161 182 0
166 187 0
163 184 0
163 183 0
168 189 0
162 181 0
163 184 0
171 192 0
162 181 0
167 187 0
162 183 0
157 177 0
163 184 0
165 185 0
166 187 0
165 186 0
157 177 0
165 187 0
164 186 0
170 192 0
168 189 0
165 185 0
163 182 0
167 191 72
166 190 84
173 196 99
175 198 105
169 193 76
169 193 88
172 196 88
172 194 92
174 197 105
172 196 84
171 195 92
172 194 95
175 198 92
174 197 99
168 192 76
176 199 111
167 191 76
170 194 99
172 196 88
174 197 105
173 196 92
174 197 108
171 195 84
167 191 84
172 195 114
170 194 95
168 191 84
170 194 117
170 194 72
169 192 80
172 195 108
172 196 102
166 190 84
169 192 105
167 191 102
172 196 114
168 192 111
168 191 105
167 190 80
170 193 95
164 187 92
166 190 80
169 192 105
166 190 84
172 195 117
165 188 103
168 191 111
161 185 92
168 191 107
170 194 103
160 183 76
164 188 99
164 187 95
167 190 111
168 190 114
160 183 92
158 182 103
162 185 99
156 179 86
160 183 102
166 189 99
166 188 113
163 187 105
159 181 95
162 185 95
162 184 111
160 182 111
157 180 80
161 183 103
161 184 102
160 182 80
159 182 95
164 186 120
170 192 122
154 176 84
152 174 95
156 179 84
156 178 99
153 175 76
157 179 102
155 177 102
145 168 99
154 175 102
162 183 88
140 161 76
150 172 95
152 174 88
157 178 117
156 177 105
146 166 105
160 179 130
141 161 80
153 173 92
142 163 80
152 173 102
157 176 108
135 155 76
148 169 99
137 157 76
139 158 84
129 147 84
134 152 92
136 154 88
133 151 80
137 155 84
122 140 76
116 133 62
120 139 88
103 122 88
106 125 94
106 126 94
100 121 111
92 112 95
105 127 115
93 117 103
82 108 115
95 120 108
93 117 114
94 119 120
112 134 133
96 121 122
104 127 111
99 122 105
105 127 121
102 124 113
96 121 100
110 132 105
99 121 94
113 133 108
108 126 99
106 127 92
106 127 94
113 135 99
115 135 74
111 131 90
115 134 88
114 134 99
118 136 90
113 134 88
99 118 80
106 126 84
94 118 97
104 125 88
99 119 84
97 121 94
93 116 74
81 106 88
89 114 80
84 109 82
80 103 70
76 100 70
75 98 60
64 92 74
67 94 70
66 94 95
54 83 74
68 95 65
56 87 97
59 89 95
56 86 83
61 91 94
53 84 86
54 87 90
52 84 72
54 85 88
52 83 76
52 83 82
54 86 86
52 83 82
55 87 94
54 86 88
53 84 99
56 88 89
54 85 95
54 85 88
53 84 94
55 87 88
55 87 95
55 88 107
53 84 84
53 84 74
56 88 103
54 86 99
52 82 80
54 86 94
54 86 90
55 88 102
54 86 80
53 85 88
56 88 95
54 85 95
53 85 92
52 83 88
53 85 92
55 86 74
55 87 92
58 85 86
55 83 76
57 84 67
64 90 76
75 96 40
66 86 47
88 107 60
96 113 25
79 97 36
85 101 25
96 111 36
86 103 25
76 91 0
86 101 0
100 116 0
95 108 0
101 115 0
95 112 0
90 105 0
118 134 0
103 118 0
102 117 0
111 126 0
108 124 0
105 121 0
101 117 0
104 121 0
103 119 0
101 117 0
108 125 0
120 136 0
105 123 0
119 137 0
112 131 0
127 144 0
114 131 0
121 138 0
112 129 0
114 130 0
119 137 0
120 138 0
110 128 0
120 139 0
118 135 0
123 139 0
128 146 0
116 132 0
135 154 0
130 151 0
123 138 0
127 146 0
126 144 0
129 147 0
125 145 0
135 153 0
127 146 0
140 158 0
131 151 0
141 158 0
141 159 0
129 146 0
128 146 0
129 148 0
138 156 0
134 151 0
136 156 0
135 153 0
143 163 0
141 162 0
134 153 0
139 157 0
142 160 0
136 154 0
138 158 0
139 159 0
130 149 0
139 157 0
145 168 0
147 166 0
145 165 0
150 171 0
142 161 0
145 164 0
135 153 0
144 162 0
146 166 0
144 164 0
145 164 0
145 164 0
149 170 0
145 163 0
143 160 0
148 169 0
141 160 0
140 158 0
147 165 0
149 168 0
148 165 0
142 159 0
151 170 0
152 171 0
147 167 0
142 159 0
151 170 0
144 162 0
154 175 0
148 168 0
151 169 0
153 173 0
150 169 0
153 172 0
150 169 0
153 173 0
156 175 0
148 166 0
157 176 0
155 176 0
152 171 0
155 172 0
154 173 0
151 170 0
154 173 0
150 170 0
150 171 0
156 174 0
155 174 0
154 175 0
160 179 0
156 176 0
155 176 0
149 171 0
159 176 0
155 173 0
159 180 0
152 167 0
157 176 0
159 181 0
154 174 0
152 170 0
158 177 0
160 180 0
154 173 0
157 176 0
161 180 0
159 180 0
155 176 0
158 177 0
157 175 0
160 178 0
156 176 0
156 173 0
163 182 0
157 177 0
160 181 0
158 177 0
149 166 0
162 181 0
156 173 0
163 183 0
155 175 0
159 179 0
164 185 0
166 184 0
164 184 0
165 188 0
162 181 0
165 185 0
156 177 0
162 183 0
160 181 0
158 177 0
161 181 0
159 179 0
168 188 0
167 188 0
158 179 0
166 187 0
164 185 0
163 182 0
163 183 0
165 185 0
161 180 0
163 183 0
165 186 0
163 182 0
162 182 0
168 189 0
165 183 0
164 184 0
165 186 0
165 186 0
167 187 0
167 187 0
165 186 0
166 187 0
166 189 0
162 182 0
158 177 0
164 185 0
166 187 0
167 189 0
164 185 0
167 187 0
166 189 0
175 199 95
170 194 67
175 198 80
173 197 114
168 192 62
170 194 72
169 192 72
172 195 76
173 197 102
174 197 105
170 193 62
171 194 72
170 194 92
169 192 92
172 194 95
170 193 92
172 195 88
172 195 99
176 200 120
171 193 99
174 196 99
173 196 105
171 194 92
178 201 111
170 193 105
176 199 114
168 191 95
174 196 99
167 191 84
163 187 92
170 193 99
175 198 105
164 188 102
170 193 99
170 193 95
170 194 102
169 192 88
165 188 95
169 193 95
168 192 105
169 193 88
165 189 80
159 182 84
166 189 95
162 185 92
172 195 108
167 190 84
167 190 92
164 188 114
161 184 88
165 189 103
168 192 108
169 192 111
171 194 111
173 195 111
167 191 99
157 180 99
164 187 94
164 187 95
159 181 92
161 184 114
163 186 92
160 183 88
160 182 88
158 181 78
168 190 114
156 179 95
164 186 108
158 181 80
157 179 86
160 182 92
153 176 84
157 180 105
152 174 80
153 175 72
158 179 88
156 178 72
157 179 105
155 176 99
150 171 95
154 176 92
151 174 84
150 172 95
158 180 111
162 183 120
150 170 108
153 174 105
145 165 92
146 167 88
154 175 102
157 178 92
149 169 105
159 179 114
142 161 84
145 166 84
142 161 80
138 158 76
144 163 92
142 161 84
138 157 80
133 151 72
139 158 102
132 150 84
125 145 62
139 158 92
130 148 80
134 152 80
120 138 95
123 140 72
119 137 92
114 133 99
108 128 94
107 127 108
89 111 84
93 116 105
85 108 102
86 112 100
98 121 110
99 123 111
109 131 124
96 120 113
105 128 113
97 121 107
97 120 100
97 121 103
100 123 99
105 128 94
99 119 82
108 127 97
111 131 95
110 130 80
100 121 95
116 135 82
110 131 97
114 133 80
110 130 94
108 127 78
125 141 65
117 136 92
102 121 80
107 128 74
96 115 80
94 117 99
96 116 76
90 115 86
100 123 88
88 112 90
84 107 72
88 108 70
86 109 72
77 102 86
70 95 67
75 100 84
87 108 62
67 90 74
78 101 65
66 92 70
58 86 65
60 89 72
52 80 80
56 87 82
53 84 88
52 84 88
53 85 92
53 85 82
52 83 84
53 85 99
53 84 95
53 84 78
52 83 84
53 84 102
54 85 97
51 82 76
53 85 99
50 80 78
57 90 94
54 85 92
56 89 95
52 83 86
53 84 86
54 86 76
53 84 82
55 87 78
52 83 90
53 84 88
53 84 88
52 83 89
53 84 84
54 86 86
53 84 86
51 82 84
53 85 82
59 87 88
56 85 80
60 84 70
57 84 70
67 88 65
68 89 65
80 98 54
85 101 40
81 100 54
77 93 25
84 100 25
89 103 25
94 107 18
93 108 18
98 114 0
95 109 0
98 112 0
96 112 0
93 107 0
100 114 0
101 117 0
109 124 0
94 108 0
109 125 0
110 127 0
111 127 0
120 136 0
106 122 0
117 134 0
115 131 0
123 141 0
107 122 0
108 124 0
109 124 0
118 135 0
115 130 0
112 128 0
119 136 0
117 133 0
122 138 0
113 130 0
127 146 0
118 136 0
131 149 0
111 128 0
114 131 0
119 136 0
124 143 0
136 154 0
130 149 0
129 145 0
133 151 0
119 136 0
129 148 0
128 146 0
129 147 0
130 149 0
140 158 0
121 139 0
137 154 0
129 145 0
129 148 0
126 144 0
131 149 0
135 154 0
139 159 0
135 152 0
138 156 0
135 153 0
137 157 0
140 159 0
124 143 0
139 156 0
135 154 0
139 160 0
138 156 0
137 156 0
139 158 0
129 148 0
131 148 0
145 164 0
132 152 0
139 158 0
142 161 0
145 161 0
155 176 0
147 166 0
153 171 0
140 159 0
148 168 0
140 160 0
150 169 0
142 160 0
147 167 0
150 170 0
143 162 0
145 164 0
150 169 0
143 163 0
147 168 0
155 173 0
144 163 0
147 167 0
157 178 0
150 169 0
152 171 0
148 166 0
159 179 0
140 159 0
149 168 0
157 177 0
144 163 0
139 159 0
152 169 0
155 176 0
140 159 0
155 176 0
149 168 0
150 169 0
151 170 0
150 168 0
154 172 0
152 171 0
147 165 0
152 172 0
155 174 0
157 176 0
150 169 0
148 166 0
151 172 0
157 176 0
157 177 0
147 164 0
155 176 0
151 168 0
158 177 0
162 181 0
145 163 0
159 179 0
158 177 0
160 181 0
154 174 0
158 178 0
155 174 0
156 174 0
151 168 0
157 176 0
158 177 0
155 174 0
160 180 0
156 174 0
156 174 0
157 178 0
159 180 0
157 177 0
157 177 0
155 174 0
164 182 0
160 179 0
158 178 0
154 174 0
165 184 0
163 183 0
155 173 0
167 189 0
160 181 0
164 185 0
161 182 0
160 181 0
156 176 0
163 183 0
164 183 0
164 184 0
160 180 0
157 178 0
164 184 0
161 180 0
166 186 0
162 181 0
159 181 0
157 176 0
165 187 0
156 176 0
164 185 0
164 186 0
160 181 0
161 182 0
166 186 0
162 185 0
171 193 0
170 193 0
164 185 0
162 181 0
165 184 0
164 185 0
165 185 0
164 185 0
162 183 0
164 184 0
162 183 0
166 187 0
166 187 0
161 181 0
169 191 0
162 180 0
165 186 0
162 183 0
166 186 0
173 197 95
170 194 92
169 193 80
170 193 84
171 194 80
172 195 67
173 197 88
170 193 92
173 196 76
168 191 108
171 194 76
170 194 80
170 193 108
172 195 80
167 190 114
179 202 108
175 198 108
171 195 105
170 193 105
168 191 102
168 191 99
170 194 111
165 188 92
173 196 99
172 194 80
169 192 102
173 196 95
173 197 120
162 186 95
167 190 92
172 195 92
165 189 72
175 198 117
172 195 95
170 193 88
165 189 95
171 195 99
168 191 122
167 191 88
169 192 111
167 191 108
170 193 111
167 191 80
161 185 76
167 190 105
167 190 120
166 189 114
167 190 99
163 186 80
167 191 105
157 180 90
166 190 92
165 188 88
162 186 99
169 192 97
164 187 84
168 190 99
165 187 67
160 183 88
157 180 72
154 177 105
165 188 111
163 185 88
152 175 92
153 175 92
165 187 88
163 186 99
163 185 117
157 179 95
160 183 67
163 187 105
164 185 95
164 187 102
159 182 95
161 183 99
159 181 108
148 170 108
161 183 105
162 184 95
159 181 102
142 163 76
148 169 105
148 170 72
154 175 99
149 170 99
156 176 111
156 177 99
156 176 117
142 163 84
153 174 99
155 176 99
142 163 88
138 157 76
141 162 84
143 162 92
135 155 92
148 167 105
150 169 99
129 148 84
134 153 84
142 162 84
138 157 88
137 157 72
124 142 95
128 146 76
136 154 80
127 145 88
128 146 84
129 146 88
124 141 94
119 138 80
98 116 78
114 133 102
104 123 100
86 107 80
101 122 109
89 112 99
99 121 108
85 109 103
94 119 95
93 118 115
87 112 94
98 121 114
90 114 95
98 122 110
106 127 103
112 134 103
102 126 100
110 129 99
109 129 95
118 138 72
109 129 70
115 135 94
122 142 70
117 136 76
103 125 74
121 139 90
120 139 80
116 135 74
112 133 84
109 129 86
101 119 82
105 125 74
100 118 67
95 117 75
92 115 74
96 118 74
101 125 76
98 120 65
106 125 62
89 111 76
82 105 67
86 107 70
85 106 51
84 104 51
78 98 47
79 99 40
68 91 60
80 103 65
68 93 60
62 88 82
60 88 74
55 86 74
53 83 72
50 80 88
51 80 82
54 85 82
52 83 80
51 81 86
52 83 84
53 84 88
53 84 92
52 83 80
54 86 86
51 81 80
53 85 84
51 81 84
53 85 80
54 85 88
51 82 74
55 87 92
53 84 88
53 85 88
52 83 92
56 86 90
52 83 84
53 82 88
54 81 57
63 90 70
59 83 67
62 86 57
74 95 62
66 88 44
78 98 60
81 99 47
87 105 40
67 85 36
86 103 36
89 106 57
96 112 31
91 106 18
90 104 18
80 95 0
89 104 0
83 95 0
89 104 0
88 104 0
90 105 0
99 114 0
88 104 0
89 105 0
112 127 0
102 118 0
108 125 0
108 125 0
105 119 0
111 129 0
103 118 0
106 123 0
99 114 0
108 123 0
113 130 0
116 133 0
118 136 0
121 139 0
112 129 0
109 126 0
117 134 0
123 142 0
118 134 0
119 137 0
119 137 0
115 132 0
112 129 0
127 144 0
125 143 0
121 139 0
125 142 0
119 136 0
113 131 0
123 142 0
116 136 0
124 140 0
121 138 0
125 143 0
135 154 0
126 145 0
144 162 0
127 145 0
126 146 0
122 139 0
138 157 0
127 146 0
127 145 0
137 156 0
131 149 0
126 143 0
132 149 0
130 148 0
134 153 0
137 156 0
134 153 0
142 162 0
138 157 0
137 157 0
133 151 0
148 168 0
146 165 0
143 163 0
129 148 0
136 154 0
141 160 0
143 162 0
144 162 0
136 154 0
133 154 0
147 165 0
146 166 0
144 163 0
151 172 0
143 161 0
149 169 0
142 162 0
156 177 0
137 156 0
146 166 0
151 172 0
144 162 0
154 173 0
148 169 0
137 156 0
158 178 0
144 164 0
157 178 0
150 171 0
144 164 0
139 158 0
148 166 0
152 172 0
151 169 0
143 163 0
155 173 0
143 162 0
147 165 0
159 179 0
148 168 0
150 169 0
148 166 0
163 183 0
153 173 0
157 177 0
158 179 0
146 165 0
150 170 0
152 171 0
149 168 0
150 169 0
154 175 0
153 172 0
157 178 0
157 176 0
153 173 0
158 178 0
150 169 0
156 174 0
156 177 0
158 177 0
158 179 0
151 166 0
158 177 0
153 171 0
158 177 0
158 178 0
158 177 0
160 179 0
155 174 0
159 179 0
158 179 0
161 180 0
152 173 0
158 178 0
159 178 0
159 180 0
156 177 0
162 181 0
158 179 0
155 172 0
159 179 0
156 174 0
160 180 0
158 178 0
161 182 0
159 179 0
160 180 0
160 179 0
162 182 0
157 178 0
157 178 0
161 180 0
164 184 0
155 175 0
158 178 0
161 180 0
165 185 0
162 183 0
159 180 0
161 182 0
158 179 0
165 186 0
163 183 0
163 185 0
162 184 0
155 175 0
165 186 0
161 182 0
160 179 0
166 185 0
163 183 0
166 187 0
162 183 0
163 184 0
166 187 0
164 183 0
162 184 0
159 178 0
163 184 0
164 185 0
169 191 0
166 187 0
159 179 0
163 183 0
165 185 0
165 187 0
166 187 0
163 184 0
163 184 0
165 186 0
164 185 0
162 184 0
166 187 0
176 199 95
171 194 88
168 192 80
176 198 95
172 195 84
175 198 76
175 198 76
176 199 95
173 196 84
172 194 88
177 200 102
169 192 84
171 194 99
168 191 99
173 197 88
176 198 108
171 194 99
176 199 108
172 196 108
169 193 88
175 197 92
168 192 111
173 196 108
170 192 76
166 190 92
171 195 111
168 190 80
173 196 108
172 195 95
169 192 102
167 191 95
168 192 80
164 188 76
169 192 95
164 187 108
171 194 92
166 191 84
163 187 92
174 198 114
171 194 99
166 189 84
166 190 99
169 192 102
169 192 95
164 188 84
164 187 108
170 193 102
167 190 92
161 185 114
170 193 88
162 185 88
158 181 80
166 190 102
162 186 95
160 183 88
164 188 99
162 184 88
162 185 92
165 189 108
162 184 84
160 183 111
166 189 100
160 183 72
155 178 92
157 179 88
163 186 99
161 183 88
158 181 94
161 184 108
161 183 99
161 183 92
169 190 102
161 183 99
157 178 102
159 180 80
167 190 105
156 178 108
155 177 92
150 172 108
157 179 102
153 175 102
156 178 99
148 169 108
150 171 95
157 178 105
143 164 99
149 170 88
147 168 92
153 173 105
129 149 88
157 178 111
150 170 99
148 168 102
157 177 111
152 172 108
146 166 102
150 169 114
137 157 80
143 161 108
143 161 111
134 153 80
137 156 76
141 160 84
137 155 84
133 150 80
150 169 99
128 145 80
132 150 84
126 143 76
120 137 76
121 136 88
105 122 72
91 109 61
97 118 76
90 111 73
89 111 67
94 116 106
101 123 100
97 119 94
87 111 108
89 114 110
81 105 105
94 118 100
99 123 111
84 109 92
94 116 99
98 117 92
111 132 121
125 143 92
101 123 80
107 128 82
116 135 70
112 131 70
116 135 72
111 128 74
119 138 60
123 139 67
108 129 72
110 130 74
117 135 65
116 137 70
98 119 65
107 128 67
103 123 60
89 110 74
90 112 84
92 113 68
92 113 84
101 123 51
96 115 51
95 115 57
80 101 57
90 110 36
87 108 60
99 119 47
91 110 57
89 108 51
89 108 54
94 113 36
70 87 40
85 106 54
67 89 57
71 94 65
66 89 57
62 86 86
55 81 67
62 86 44
51 80 67
55 82 67
58 86 72
55 84 79
63 89 70
56 84 72
58 85 60
59 86 76
48 78 76
57 83 72
57 83 67
62 87 74
57 86 82
53 81 70
62 89 82
59 84 62
63 86 67
60 85 76
65 91 74
68 88 62
83 103 57
72 91 51
78 96 44
71 92 57
78 96 40
76 93 40
80 97 40
91 107 31
78 94 40
91 108 25
83 98 18
95 111 0
89 106 0
101 116 0
92 106 0
94 109 0
92 105 0
93 109 0
89 106 0
99 113 0
89 104 0
96 110 0
95 111 0
109 125 0
83 98 0
119 135 0
97 112 0
105 121 0
109 127 0
102 117 0
119 135 0
94 110 0
107 123 0
113 131 0
126 143 0
117 134 0
110 128 0
115 131 0
99 117 0
122 140 0
99 115 0
127 145 0
123 141 0
127 144 0
108 125 0
122 140 0
123 139 0
125 141 0
125 142 0
125 143 0
115 134 0
131 149 0
120 137 0
128 146 0
118 136 0
134 154 0
125 142 0
127 144 0
129 149 0
124 141 0
128 146 0
121 139 0
133 151 0
135 154 0
140 158 0
130 149 0
133 152 0
139 158 0
130 149 0
141 161 0
135 154 0
128 143 0
135 153 0
128 147 0
148 166 0
133 150 0
144 164 0
137 156 0
134 153 0
144 163 0
131 149 0
144 164 0
142 159 0
131 148 0
147 166 0
138 158 0
144 163 0
146 166 0
140 160 0
143 163 0
150 170 0
148 168 0
143 163 0
131 149 0
151 171 0
149 168 0
148 167 0
147 166 0
146 166 0
151 169 0
154 173 0
145 165 0
140 161 0
146 166 0
139 158 0
152 173 0
146 166 0
144 164 0
145 165 0
148 166 0
150 168 0
154 174 0
146 166 0
154 172 0
150 170 0
155 174 0
150 171 0
152 173 0
153 173 0
148 168 0
151 168 0
148 166 0
161 180 0
155 176 0
167 187 0
152 171 0
150 168 0
158 178 0
143 160 0
151 170 0
155 175 0
149 167 0
154 173 0
157 178 0
151 170 0
158 176 0
154 173 0
160 182 0
155 175 0
149 167 0
156 176 0
151 171 0
154 173 0
152 171 0
159 180 0
158 178 0
161 181 0
156 176 0
161 182 0
157 177 0
155 176 0
156 176 0
154 173 0
161 182 0
162 181 0
154 173 0
158 177 0
153 172 0
159 181 0
164 183 0
164 185 0
161 182 0
160 182 0
165 186 0
157 177 0
164 184 0
154 175 0
149 169 0
160 180 0
159 179 0
158 179 0
156 177 0
164 185 0
160 180 0
160 179 0
160 180 0
159 179 0
163 183 0
159 179 0
164 184 0
162 180 0
164 185 0
157 177 0
166 186 0
162 183 0
161 182 0
165 186 0
159 179 0
162 182 0
164 186 0
161 182 0
162 183 0
164 185 0
157 177 0
171 192 0
169 190 0
162 183 0
163 183 0
165 186 0
168 189 0
165 185 0
164 185 0
168 188 0
164 183 0
164 184 0
163 184 0
168 190 0
162 183 0
163 184 0
167 189 0
166 188 0
165 186 0
167 187 0
165 189 62
176 198 99
172 196 84
175 198 92
173 196 84
170 193 88
171 194 92
168 192 80
173 196 102
166 190 95
178 201 99
174 197 102
174 197 108
171 195 92
171 194 95
172 195 95
170 193 95
173 196 114
173 196 108
166 190 102
173 196 120
168 191 99
171 194 99
177 199 102
173 196 111
167 190 95
169 193 84
167 191 105
168 192 108
166 189 95
171 194 92
172 196 130
173 196 105
167 190 76
173 197 111
168 192 84
168 192 95
163 187 84
166 189 99
165 189 92
165 189 88
164 188 95
165 188 99
169 192 102
166 188 95
162 186 80
168 192 80
161 186 114
163 186 80
165 188 92
165 189 99
165 189 95
166 189 122
165 188 111
161 184 92
162 186 88
171 194 102
161 184 92
164 187 102
164 187 95
157 180 76
158 181 88
164 188 95
167 189 103
159 182 84
154 176 67
166 188 102
160 183 92
158 181 99
157 180 92
153 176 100
157 179 84
160 183 99
167 189 114
158 181 102
161 182 117
151 174 95
158 180 108
161 183 105
152 174 84
152 173 102
153 174 99
155 175 99
150 171 102
155 176 102
157 177 105
159 179 108
158 179 92
151 172 102
149 170 84
152 173 95
145 165 108
144 164 95
150 170 102
145 165 88
142 161 102
157 177 108
144 164 88
145 164 95
137 157 84
146 165 92
137 156 80
132 149 95
127 144 84
138 156 80
136 154 72
121 139 84
127 144 80
123 140 72
123 140 84
133 151 86
119 136 82
118 135 82
119 136 70
102 121 76
101 122 82
105 124 103
99 120 99
95 119 90
100 121 105
88 112 86
96 120 95
103 127 111
99 121 90
98 121 94
109 131 80
103 124 76
106 128 67
128 146 72
120 139 62
113 131 72
110 129 65
115 133 70
114 133 67
120 138 70
115 133 62
122 140 78
118 137 72
116 137 74
109 129 65
114 133 60
102 122 70
103 122 74
93 115 70
82 100 65
100 123 74
95 115 67
99 120 60
88 110 60
94 114 51
102 124 60
106 125 31
78 98 54
89 108 47
87 104 31
85 104 36
92 110 51
91 108 0
89 106 44
89 107 44
79 96 25
88 105 47
79 97 42
77 95 51
67 88 47
76 94 36
88 108 57
75 95 40
59 81 40
68 90 51
72 92 62
70 92 60
74 94 60
65 87 65
65 86 57
79 101 51
71 92 62
75 94 62
63 85 67
70 91 54
71 88 36
83 101 51
63 82 44
85 103 36
61 81 51
85 103 25
87 105 36
89 106 31
81 98 25
73 91 47
83 99 25
79 94 31
87 103 0
87 102 18
91 106 0
91 104 0
99 114 0
86 100 0
84 97 0
101 115 0
83 100 0
105 121 0
93 108 0
99 114 0
90 105 0
107 123 0
104 119 0
104 119 0
99 116 0
101 115 0
110 124 0
107 123 0
110 126 0
101 118 0
103 120 0
103 119 0
105 121 0
113 130 0
112 130 0
114 130 0
116 134 0
124 140 0
109 126 0
109 126 0
118 136 0
112 129 0
106 123 0
121 138 0
133 152 0
122 141 0
123 142 0
123 141 0
117 133 0
104 122 0
104 122 0
115 132 0
128 146 0
126 144 0
125 142 0
133 152 0
118 136 0
129 148 0
129 147 0
116 134 0
133 151 0
134 151 0
130 149 0
138 157 0
122 140 0
136 155 0
120 137 0
132 150 0
126 144 0
134 154 0
132 152 0
134 152 0
135 153 0
134 153 0
141 161 0
142 160 0
141 161 0
139 155 0
136 156 0
133 152 0
134 153 0
141 161 0
140 156 0
142 161 0
139 158 0
152 169 0
142 161 0
139 158 0
151 171 0
148 164 0
137 156 0
147 165 0
145 165 0
140 161 0
141 160 0
140 159 0
145 164 0
150 170 0
148 166 0
145 165 0
145 165 0
147 167 0
148 170 0
152 173 0
148 167 0
151 170 0
144 164 0
152 172 0
151 170 0
147 166 0
144 164 0
157 177 0
153 173 0
154 175 0
150 169 0
159 178 0
142 162 0
152 172 0
151 170 0
155 174 0
152 171 0
154 174 0
149 167 0
151 171 0
152 172 0
155 174 0
152 171 0
152 171 0
153 172 0
156 176 0
150 170 0
156 177 0
158 179 0
164 184 0
157 175 0
157 176 0
157 177 0
157 178 0
158 178 0
153 174 0
151 170 0
159 177 0
152 172 0
154 174 0
160 182 0
152 172 0
146 164 0
157 177 0
151 170 0
156 177 0
159 180 0
159 179 0
160 179 0
156 176 0
160 179 0
160 181 0
157 176 0
152 171 0
155 174 0
163 183 0
159 179 0
157 178 0
164 183 0
157 175 0
160 182 0
152 172 0
156 176 0
161 181 0
160 179 0
161 182 0
160 180 0
158 178 0
155 175 0
161 180 0
162 184 0
155 177 0
157 178 0
161 182 0
165 186 0
166 185 0
163 183 0
158 178 0
163 184 0
165 185 0
158 179 0
165 185 0
160 180 0
162 181 0
163 185 0
159 180 0
167 186 0
160 180 0
167 187 0
163 183 0
163 184 0
164 186 0
160 179 0
166 187 0
159 180 0
164 183 0
163 184 0
169 190 0
164 185 0
166 186 0
166 186 0
167 188 0
165 186 0
166 187 0
164 185 0
167 187 0
165 187 0
172 194 0
165 185 0
167 189 0
159 179 0
165 186 0
172 196 80
175 197 76
167 190 57
174 197 95
173 196 99
176 199 108
171 194 80
169 192 76
173 196 99
165 189 76
175 199 99
171 193 99
174 197 84
169 192 88
171 194 111
174 198 80
169 193 99
171 196 95
174 197 122
166 189 102
167 190 84
165 188 84
168 191 99
167 191 102
176 199 102
172 195 120
168 192 99
165 189 105
167 191 84
173 196 102
171 195 95
172 195 92
171 195 105
173 196 105
166 189 92
170 194 111
168 192 111
170 193 102
166 189 102
167 190 99
169 192 84
161 185 84
172 195 111
166 189 105
167 190 88
162 185 88
168 192 99
160 182 67
164 187 92
166 190 92
158 181 92
166 189 105
164 186 102
163 186 113
160 183 111
167 190 95
164 187 78
158 181 84
165 188 108
162 185 80
166 189 105
164 187 92
163 186 80
165 187 95
165 187 97
163 186 105
159 181 102
165 187 114
157 179 80
164 186 105
159 182 84
163 185 99
158 180 99
157 179 92
160 182 114
158 180 88
162 184 124
162 183 99
161 182 72
157 178 99
151 172 95
151 172 99
160 181 102
147 168 95
154 175 95
154 174 95
155 176 95
158 179 92
154 175 99
151 171 88
148 168 108
149 168 95
159 180 117
144 164 95
152 172 99
155 175 111
151 170 102
142 162 88
137 157 95
144 163 95
141 161 88
141 159 95
141 160 76
146 165 92
130 149 67
151 169 105
135 153 92
125 142 67
137 154 88
134 151 76
134 150 72
114 130 62
116 133 72
119 136 78
108 124 88
113 133 82
107 125 80
96 115 82
98 117 82
94 116 92
85 109 110
101 124 107
90 114 107
90 114 107
98 121 82
104 126 90
104 125 88
108 130 92
104 124 74
122 143 67
123 141 74
113 133 72
106 126 67
116 136 51
115 133 57
129 148 72
111 129 47
134 151 51
118 138 57
106 126 62
108 126 57
120 139 54
110 130 54
91 111 62
102 122 57
102 121 47
99 119 60
107 126 47
90 110 60
93 114 44
94 113 36
109 127 40
92 111 54
97 115 44
89 107 31
101 118 47
104 121 31
87 105 36
95 111 25
78 93 25
87 103 0
102 116 18
89 104 0
84 100 25
61 77 31
82 97 31
78 94 36
91 107 31
69 86 0
94 111 25
83 98 25
78 96 44
80 96 44
77 92 25
77 93 31
91 108 47
89 106 18
90 106 44
83 100 36
88 105 31
83 100 31
84 101 31
79 95 25
92 107 40
80 95 25
90 105 18
74 90 18
88 104 25
87 101 0
77 90 0
105 120 18
85 99 0
86 100 0
89 104 0
86 101 0
96 111 0
93 109 0
89 104 0
86 102 0
90 105 0
90 105 0
113 128 0
88 103 0
103 120 0
107 123 0
106 122 0
91 106 0
109 126 0
107 124 0
108 124 0
118 134 0
105 121 0
93 109 0
104 119 0
116 133 0
115 130 0
110 126 0
109 126 0
114 131 0
103 120 0
113 130 0
119 138 0
107 125 0
113 130 0
122 138 0
122 139 0
106 124 0
105 120 0
109 127 0
128 147 0
113 131 0
115 132 0
127 145 0
127 146 0
133 151 0
121 139 0
116 134 0
126 143 0
116 134 0
125 143 0
123 140 0
122 139 0
134 153 0
134 151 0
129 147 0
122 139 0
135 153 0
136 154 0
130 148 0
132 150 0
128 147 0
135 152 0
139 158 0
142 161 0
137 156 0
130 148 0
129 149 0
135 154 0
133 153 0
134 153 0
133 152 0
140 159 0
135 154 0
142 162 0
134 154 0
139 157 0
139 157 0
138 157 0
141 159 0
135 153 0
140 159 0
145 164 0
138 157 0
139 159 0
132 150 0
146 166 0
141 160 0
146 166 0
144 164 0
154 175 0
142 161 0
143 161 0
140 159 0
143 162 0
145 164 0
142 162 0
150 169 0
146 166 0
139 158 0
155 174 0
154 174 0
139 158 0
157 177 0
150 169 0
143 164 0
151 171 0
148 168 0
147 166 0
146 166 0
151 169 0
154 175 0
149 169 0
147 166 0
157 175 0
146 165 0
149 168 0
145 164 0
155 176 0
150 169 0
148 168 0
159 181 0
155 175 0
153 172 0
149 168 0
152 171 0
160 180 0
153 173 0
160 181 0
154 174 0
155 172 0
154 174 0
152 171 0
158 179 0
155 173 0
156 175 0
154 172 0
153 173 0
153 173 0
159 180 0
157 177 0
157 177 0
157 177 0
161 181 0
150 171 0
158 178 0
157 177 0
155 174 0
156 174 0
162 182 0
160 179 0
156 174 0
158 179 0
159 179 0
160 179 0
164 185 0
160 179 0
155 176 0
157 177 0
155 175 0
161 180 0
158 177 0
161 181 0
162 181 0
159 179 0
164 185 0
159 180 0
165 185 0
165 184 0
162 183 0
157 177 0
163 184 0
167 187 0
162 184 0
157 176 0
164 184 0
159 179 0
161 180 0
158 180 0
164 186 0
159 182 0
163 185 0
163 184 0
164 186 0
167 188 0
160 181 0
160 179 0
157 177 0
157 177 0
158 179 0
162 183 0
163 184 0
162 183 0
165 187 0
162 184 0
164 185 0
165 186 0
162 184 0
164 184 0
163 183 0
167 188 0
166 188 0
164 185 0
164 185 0
167 188 0
164 186 0
167 189 0
165 186 0
163 184 0
163 184 0
161 182 0
174 198 80
171 194 102
173 196 84
174 197 99
169 193 108
171 194 88
178 200 102
178 201 120
170 194 84
168 191 105
167 190 67
171 194 84
174 197 92
174 197 80
171 196 108
172 195 117
172 195 108
173 196 99
172 196 105
168 191 84
175 199 114
168 192 99
171 195 102
171 194 80
168 191 92
170 194 95
174 197 117
173 197 105
169 193 95
166 190 88
166 190 111
174 198 108
169 192 114
167 190 99
169 193 92
164 187 95
167 190 80
169 193 102
172 196 117
174 198 111
168 191 114
168 191 102
163 186 92
167 191 95
163 187 84
162 186 99
166 190 80
164 187 95
160 183 99
161 184 84
171 194 105
164 187 102
168 192 120
164 187 103
166 190 124
161 184 99
166 189 111
157 181 72
160 183 113
168 191 95
163 186 84
166 189 102
160 182 102
165 188 95
162 185 84
154 177 97
156 179 88
155 179 80
155 177 88
157 179 78
158 180 84
156 178 90
157 180 84
156 178 99
150 172 80
163 184 84
161 183 114
157 179 88
155 177 84
150 172 84
152 173 102
154 175 105
147 169 88
151 172 88
154 176 105
156 177 88
161 182 105
154 175 88
155 176 99
156 177 95
156 176 114
145 165 102
147 167 108
143 162 88
153 175 84
135 155 80
140 159 88
140 159 99
149 168 99
142 161 84
150 170 92
154 173 114
143 161 99
133 152 76
124 142 62
131 149 72
148 165 117
127 144 76
126 144 84
123 140 84
116 134 72
121 137 80
123 140 67
115 131 72
118 134 70
115 132 65
107 125 92
81 100 72
116 135 97
101 121 94
110 130 95
98 118 70
95 116 90
105 127 110
101 122 84
95 117 86
104 126 78
116 136 76
108 129 76
114 135 72
127 143 65
132 150 70
112 132 84
120 138 36
133 152 54
121 140 54
121 141 54
135 154 54
125 144 60
126 146 44
116 135 60
109 129 40
122 141 47
104 123 54
122 140 47
103 123 60
108 128 44
96 115 36
105 124 54
95 115 44
92 111 47
108 126 44
101 121 40
94 112 18
98 114 0
95 113 36
94 112 18
94 110 0
93 109 0
94 110 18
89 104 0
96 111 0
90 105 0
88 102 0
83 98 18
88 103 0
94 108 0
79 93 0
101 116 0
90 104 0
85 99 0
91 105 0
85 100 0
74 89 0
90 105 0
85 99 0
77 92 18
82 98 18
73 87 0
86 101 0
82 97 25
91 107 0
97 112 0
82 97 0
87 102 0
83 97 0
78 93 0
89 102 0
86 101 0
89 103 0
102 118 0
102 118 0
82 97 0
104 120 0
77 92 0
89 104 0
93 109 0
79 95 0
99 114 0
105 121 0
93 109 0
94 109 0
108 124 0
100 116 0
93 109 0
110 127 0
112 129 0
100 117 0
84 101 0
99 115 0
101 118 0
101 117 0
106 123 0
112 129 0
111 128 0
114 131 0
120 137 0
123 139 0
115 133 0
105 121 0
115 131 0
113 130 0
117 135 0
119 136 0
107 124 0
122 140 0
124 142 0
124 143 0
110 128 0
114 132 0
116 133 0
131 148 0
126 145 0
125 144 0
118 135 0
119 135 0
137 156 0
127 145 0
129 147 0
122 140 0
127 146 0
138 158 0
126 145 0
133 153 0
119 139 0
136 156 0
124 143 0
134 151 0
141 160 0
139 159 0
132 152 0
127 146 0
129 145 0
127 144 0
119 136 0
137 154 0
138 157 0
130 148 0
144 163 0
139 160 0
142 160 0
130 148 0
140 161 0
133 154 0
144 164 0
137 156 0
145 166 0
143 164 0
140 160 0
141 160 0
146 166 0
143 162 0
143 162 0
137 155 0
145 164 0
140 158 0
145 164 0
150 169 0
142 160 0
142 162 0
146 165 0
152 173 0
135 154 0
147 168 0
147 167 0
141 160 0
137 157 0
151 170 0
142 163 0
151 173 0
154 176 0
138 157 0
152 173 0
148 167 0
148 168 0
146 166 0
146 166 0
153 174 0
159 177 0
144 165 0
157 179 0
141 160 0
155 174 0
151 169 0
155 176 0
150 170 0
154 174 0
144 163 0
146 165 0
155 174 0
152 173 0
154 174 0
153 173 0
153 174 0
157 176 0
150 170 0
153 171 0
164 186 0
160 182 0
157 175 0
157 177 0
157 176 0
152 172 0
156 177 0
154 174 0
157 177 0
160 179 0
157 176 0
152 171 0
160 180 0
160 181 0
157 178 0
157 178 0
153 173 0
160 178 0
151 171 0
153 173 0
154 175 0
159 176 0
157 176 0
155 175 0
161 181 0
159 179 0
155 176 0
160 183 0
160 180 0
152 173 0
162 183 0
160 180 0
163 184 0
158 180 0
158 179 0
160 180 0
164 184 0
164 186 0
160 179 0
159 180 0
164 185 0
159 178 0
165 187 0
166 187 0
160 180 0
161 182 0
163 184 0
166 185 0
162 183 0
162 183 0
158 179 0
166 187 0
164 184 0
156 176 0
162 181 0
162 182 0
161 181 0
164 187 0
159 179 0
161 182 0
162 182 0
158 179 0
165 186 0
169 191 0
165 185 0
160 179 0
163 186 0
164 184 0
166 188 0
165 187 0
167 187 0
167 189 0
163 185 0
164 187 0
165 186 0
165 186 0
164 187 0
163 183 0
165 187 0
165 187 0
166 186 0
167 188 0
165 186 0
170 193 76
175 197 114
174 196 80
174 198 92
177 200 114
169 192 84
173 196 111
170 194 95
172 195 88
175 198 108
171 194 102
173 196 80
171 195 88
170 194 95
170 194 92
175 198 114
169 192 92
171 194 114
174 198 111
167 191 80
172 195 120
173 197 120
165 188 84
161 184 80
168 190 92
170 193 95
168 192 99
166 190 84
167 190 72
167 190 80
167 191 102
171 194 108
167 191 92
170 193 102
167 190 95
171 194 111
168 191 99
176 200 117
169 193 99
166 189 84
161 184 51
162 186 92
165 189 76
162 185 84
167 191 102
165 189 111
170 193 108
172 194 80
167 190 90
166 189 92
159 183 105
162 186 102
162 186 94
165 188 88
165 188 103
165 189 78
163 186 92
162 185 105
155 178 92
169 192 94
161 183 102
158 181 95
153 177 105
166 189 99
159 182 92
165 187 88
161 184 102
161 184 88
155 176 84
156 178 95
153 176 84
162 184 99
152 175 102
161 183 105
159 180 72
152 175 84
159 182 102
158 180 92
153 175 108
155 177 102
157 180 99
151 173 92
157 178 95
156 178 84
152 173 76
155 176 95
154 175 102
140 161 84
153 175 108
159 180 95
158 177 105
150 170 117
145 164 92
146 166 67
145 165 80
151 171 114
154 174 95
153 173 88
137 156 92
140 160 88
142 161 102
139 158 92
129 148 84
152 170 111
143 162 102
137 155 84
123 141 76
125 143 84
128 145 84
128 146 72
132 148 92
116 132 80
120 137 76
125 142 76
125 141 76
114 130 72
98 115 60
112 128 84
110 129 74
86 104 57
97 116 57
100 120 80
100 122 95
105 126 86
104 126 95
116 136 108
119 139 99
107 127 76
105 126 60
128 147 74
131 148 72
122 140 67
129 146 57
126 146 65
128 145 57
139 158 47
135 153 62
131 150 60
130 148 54
129 148 40
129 147 40
116 135 54
119 137 44
111 130 47
118 134 40
108 128 44
109 128 40
104 122 40
104 121 25
103 120 0
114 131 25
96 114 31
93 110 18
101 117 18
101 117 18
114 131 0
96 111 18
109 125 0
91 105 0
102 119 0
102 117 0
101 117 0
96 112 0
81 95 0
88 103 0
96 110 0
85 99 0
93 106 0
89 104 0
109 125 0
90 104 0
100 116 0
93 109 0
83 97 0
90 103 0
97 111 0
95 110 0
91 106 0
85 99 0
90 105 0
88 101 0
85 100 0
91 104 0
93 108 0
96 110 0
91 105 0
78 92 0
91 105 0
93 109 0
103 120 0
86 101 0
92 106 0
83 96 0
95 111 0
92 108 0
93 108 0
98 115 0
104 120 0
95 111 0
95 111 0
103 119 0
107 123 0
111 127 0
96 111 0
102 118 0
107 124 0
111 127 0
112 129 0
103 119 0
118 134 0
108 125 0
119 134 0
110 127 0
101 117 0
120 137 0
118 135 0
101 118 0
118 134 0
115 134 0
117 136 0
114 132 0
118 135 0
120 137 0
116 132 0
124 142 0
108 126 0
115 132 0
108 125 0
121 138 0
115 133 0
118 135 0
112 131 0
126 144 0
122 140 0
128 148 0
127 144 0
117 136 0
128 145 0
126 146 0
126 143 0
122 140 0
132 151 0
126 146 0
134 155 0
123 142 0
129 148 0
136 156 0
130 148 0
133 153 0
134 152 0
126 146 0
125 144 0
134 152 0
139 159 0
139 159 0
134 154 0
141 160 0
140 159 0
132 150 0
133 154 0
141 160 0
142 162 0
149 170 0
139 159 0
137 157 0
148 168 0
149 169 0
142 162 0
140 161 0
135 154 0
146 165 0
137 156 0
144 163 0
146 165 0
143 162 0
135 156 0
145 166 0
145 164 0
140 159 0
141 159 0
144 163 0
151 171 0
148 167 0
146 166 0
144 163 0
150 169 0
137 156 0
142 164 0
148 168 0
150 171 0
149 169 0
145 166 0
147 168 0
154 174 0
151 171 0
149 170 0
140 160 0
149 169 0
153 173 0
141 161 0
151 172 0
156 177 0
153 174 0
157 180 0
152 172 0
157 178 0
159 179 0
155 173 0
152 170 0
149 169 0
153 172 0
153 172 0
156 175 0
158 178 0
155 175 0
150 170 0
158 179 0
155 176 0
152 170 0
154 175 0
155 174 0
161 181 0
162 181 0
154 173 0
154 175 0
158 179 0
157 178 0
156 175 0
158 179 0
157 177 0
159 178 0
161 180 0
161 183 0
160 181 0
154 174 0
157 180 0
162 183 0
165 186 0
161 182 0
161 182 0
157 179 0
160 180 0
158 180 0
154 173 0
155 176 0
164 184 0
159 181 0
161 182 0
158 178 0
157 178 0
162 183 0
161 180 0
159 179 0
160 180 0
166 183 0
163 183 0
160 180 0
164 184 0
165 186 0
158 178 0
164 184 0
165 187 0
164 185 0
163 184 0
157 176 0
163 182 0
166 188 0
165 186 0
167 188 0
163 183 0
165 187 0
161 181 0
168 190 0
165 184 0
158 178 0
160 179 0
163 184 0
163 184 0
165 186 0
162 183 0
167 188 0
167 188 0
165 185 0
164 185 0
163 182 0
163 184 0
161 183 0
166 185 0
168 188 0
165 186 0
162 184 0
167 188 0
164 185 0
166 186 0
168 188 0
166 188 0
166 189 0
160 181 0
167 189 0
167 187 0
168 191 57
173 195 95
171 194 67
174 197 99
173 196 84
174 197 108
171 194 80
172 196 102
169 192 88
172 196 114
173 196 88
172 195 105
170 194 80
175 198 120
175 197 95
168 191 92
174 198 88
167 192 88
172 196 108
176 199 114
166 189 105
171 194 102
167 190 99
172 196 102
165 189 88
173 196 105
171 194 99
171 194 95
160 184 95
169 193 108
161 184 92
173 196 92
171 195 117
170 194 80
171 195 105
161 184 67
167 191 99
164 188 67
167 192 84
165 188 102
167 190 84
166 189 114
164 187 88
168 192 105
157 180 57
167 190 95
166 190 102
163 186 97
168 192 130
162 186 84
169 193 102
167 190 108
160 183 76
158 181 90
164 187 99
167 189 113
166 188 80
158 181 95
160 183 88
159 182 72
161 184 92
159 181 82
161 184 92
160 183 111
163 185 84
160 183 111
161 183 105
168 191 111
158 181 88
161 184 115
161 184 88
155 177 108
162 184 114
162 185 84
158 180 105
166 189 99
159 181 88
162 184 105
149 171 76
155 176 84
153 174 105
156 178 108
165 187 117
152 173 111
155 176 95
155 177 102
151 172 92
157 179 105
153 174 99
152 172 108
155 176 111
151 172 95
149 169 114
154 174 84
150 170 92
149 169 102
150 171 88
155 174 111
158 177 114
150 169 99
150 169 114
144 162 80
147 166 99
139 157 95
141 159 99
133 151 92
139 158 92
135 152 84
136 154 92
130 147 84
142 159 111
124 140 76
113 130 72
121 138 67
112 127 67
119 134 88
110 127 74
110 126 82
101 118 60
92 107 76
93 111 88
102 120 90
91 110 78
90 110 74
105 123 94
113 132 72
109 128 62
108 130 74
109 131 74
118 136 57
128 146 60
121 140 44
131 149 57
132 151 60
127 146 62
128 146 51
138 156 36
140 158 31
133 150 44
119 136 0
124 144 36
121 138 31
109 126 25
114 131 31
117 135 25
107 122 18
109 127 31
104 121 25
102 120 36
124 141 0
98 114 0
104 120 18
120 136 0
107 126 0
113 129 0
98 115 0
101 117 0
118 135 0
94 110 0
93 109 0
107 123 0
93 108 0
96 111 0
92 107 0
103 119 0
99 114 0
107 123 0
111 127 0
98 114 0
106 121 0
80 96 0
106 121 0
81 95 0
88 103 0
92 106 0
103 118 0
90 105 0
90 104 0
98 113 0
91 105 0
91 106 0
109 122 0
94 110 0
96 111 0
86 99 0
85 101 0
88 103 0
92 105 0
90 105 0
97 112 0
103 118 0
96 112 0
87 103 0
79 94 0
92 108 0
106 123 0
92 108 0
100 115 0
106 123 0
109 125 0
108 125 0
112 129 0
103 119 0
106 122 0
118 135 0
113 130 0
111 127 0
105 122 0
101 119 0
113 130 0
102 119 0
110 129 0
112 131 0
114 131 0
120 137 0
108 125 0
122 140 0
102 120 0
115 130 0
121 140 0
119 136 0
109 127 0
117 133 0
122 140 0
106 124 0
107 125 0
122 141 0
121 140 0
128 146 0
122 140 0
116 134 0
119 137 0
118 136 0
121 139 0
130 148 0
115 133 0
123 142 0
132 152 0
127 146 0
116 136 0
125 144 0
137 154 0
122 142 0
128 146 0
143 162 0
125 144 0
133 151 0
137 157 0
135 154 0
127 147 0
138 154 0
133 150 0
145 164 0
141 161 0
138 158 0
137 156 0
144 163 0
139 158 0
141 159 0
140 157 0
138 157 0
137 156 0
133 152 0
145 164 0
142 163 0
143 162 0
141 161 0
148 169 0
136 155 0
143 162 0
144 164 0
141 160 0
143 164 0
148 168 0
140 158 0
151 171 0
145 164 0
133 153 0
150 169 0
145 163 0
143 164 0
145 166 0
139 159 0
150 168 0
143 163 0
148 169 0
149 165 0
150 171 0
153 174 0
147 167 0
157 175 0
145 164 0
153 173 0
146 167 0
145 164 0
146 166 0
150 171 0
145 165 0
156 175 0
156 178 0
152 172 0
151 171 0
158 179 0
154 175 0
148 167 0
153 174 0
151 172 0
160 181 0
151 170 0
154 174 0
156 178 0
154 175 0
157 175 0
155 175 0
153 171 0
152 170 0
153 171 0
154 174 0
163 184 0
157 179 0
151 171 0
156 178 0
159 180 0
147 167 0
157 177 0
158 180 0
159 178 0
161 183 0
160 181 0
157 179 0
161 182 0
160 179 0
153 173 0
160 180 0
154 176 0
165 186 0
160 181 0
153 173 0
163 184 0
155 175 0
161 181 0
158 178 0
152 172 0
164 183 0
165 184 0
165 185 0
155 175 0
163 182 0
164 185 0
164 186 0
162 182 0
162 183 0
166 186 0
160 179 0
161 182 0
165 185 0
166 186 0
158 180 0
159 181 0
168 188 0
165 186 0
162 184 0
162 181 0
160 181 0
164 185 0
163 184 0
158 179 0
163 183 0
164 183 0
166 187 0
168 191 0
159 181 0
158 178 0
162 182 0
166 187 0
164 185 0
164 184 0
161 182 0
166 187 0
162 182 0
163 186 0
165 183 0
165 188 0
162 182 0
166 187 0
160 181 0
168 189 0
164 185 0
167 188 0
167 187 0
164 184 0
168 188 0
163 183 0
170 192 0
166 190 0
163 185 0
164 186 0
166 187 0
166 187 0
164 184 0
172 195 108
172 196 80
177 201 120
174 198 111
175 198 95
173 197 102
170 193 84
174 198 111
167 190 72
173 196 99
173 196 108
168 192 84
170 194 88
176 199 108
169 192 92
173 196 80
171 195 99
173 197 108
167 191 84
173 195 108
165 189 88
171 194 105
172 195 102
170 194 95
167 190 84
174 198 117
163 186 76
170 193 99
168 192 80
169 192 111
168 191 105
166 190 92
168 192 102
168 191 114
172 196 120
169 192 95
167 191 84
171 194 95
166 190 99
166 189 95
169 193 80
163 187 88
168 191 125
158 181 80
166 189 88
170 194 108
167 190 108
164 188 99
160 184 80
168 190 95
165 188 110
164 188 76
165 189 95
165 188 84
156 180 76
161 185 76
166 189 88
160 184 108
161 184 95
159 181 88
159 182 92
160 183 92
161 185 99
162 185 102
158 181 95
155 178 105
159 182 92
164 187 105
160 182 99
164 186 86
158 181 105
159 182 100
157 178 92
154 176 102
158 179 102
158 180 80
159 181 108
155 177 102
147 168 99
148 170 84
161 183 95
153 175 92
163 185 95
142 163 84
155 177 99
148 170 80
147 168 88
150 171 76
152 173 92
141 162 88
143 164 88
149 170 92
147 167 92
152 172 108
151 170 120
155 175 114
149 168 92
148 168 95
152 172 95
144 163 99
151 170 102
140 158 95
140 159 95
136 154 99
139 157 80
144 163 88
144 163 102
132 150 80
134 152 80
135 153 95
138 155 99
136 154 88
131 148 76
125 141 62
124 141 80
123 140 72
131 146 84
109 125 47
109 125 67
108 123 76
106 122 76
114 131 84
116 134 78
117 135 74
101 120 60
105 124 70
125 144 86
123 142 78
121 139 76
111 131 80
130 148 57
117 136 51
131 150 36
137 154 47
138 156 31
129 149 40
130 147 31
129 149 31
137 153 31
123 139 31
139 156 18
124 141 0
126 143 0
125 142 0
124 139 0
116 132 18
113 132 18
122 140 0
122 139 0
116 134 0
105 122 0
112 129 0
107 124 0
120 137 0
106 123 0
106 121 0
91 107 0
96 113 0
104 121 0
115 131 0
104 120 0
90 107 0
102 119 0
87 101 0
93 109 0
106 123 0
97 113 0
101 116 0
100 116 0
91 108 0
90 105 0
85 100 0
86 102 0
94 110 0
103 120 0
99 114 0
90 105 0
103 119 0
85 100 0
95 110 0
106 121 0
107 123 0
100 116 0
92 107 0
90 105 0
94 110 0
100 116 0
109 125 0
84 100 0
96 111 0
96 112 0
101 116 0
94 110 0
96 112 0
107 122 0
112 129 0
111 126 0
108 124 0
96 111 0
95 112 0
104 120 0
105 122 0
110 126 0
118 135 0
109 126 0
109 126 0
115 132 0
110 126 0
111 127 0
110 126 0
103 119 0
109 127 0
108 124 0
104 120 0
113 131 0
108 125 0
119 137 0
122 139 0
114 131 0
126 146 0
120 139 0
109 127 0
114 132 0
116 134 0
122 140 0
114 133 0
120 137 0
123 142 0
118 137 0
128 147 0
122 140 0
135 153 0
123 143 0
116 136 0
124 143 0
132 150 0
125 142 0
116 132 0
122 140 0
122 141 0
132 151 0
128 147 0
128 146 0
135 156 0
136 155 0
122 140 0
140 159 0
130 148 0
140 158 0
132 151 0
137 157 0
136 156 0
144 163 0
129 148 0
148 169 0
141 162 0
143 162 0
143 163 0
148 169 0
146 165 0
140 161 0
141 160 0
133 151 0
144 164 0
145 165 0
144 164 0
141 161 0
144 165 0
146 163 0
142 162 0
139 159 0
143 164 0
144 164 0
147 167 0
146 165 0
150 170 0
144 164 0
138 158 0
144 162 0
150 171 0
144 163 0
143 164 0
139 157 0
145 165 0
152 173 0
155 176 0
145 165 0
150 170 0
145 164 0
149 168 0
153 172 0
154 175 0
149 171 0
149 170 0
150 170 0
149 167 0
150 170 0
145 164 0
148 168 0
156 176 0
150 169 0
152 170 0
147 167 0
150 169 0
156 176 0
159 180 0
153 174 0
158 179 0
152 172 0
148 167 0
153 173 0
157 177 0
145 164 0
158 179 0
154 175 0
154 176 0
159 180 0
159 179 0
158 179 0
159 179 0
154 173 0
158 179 0
155 175 0
155 177 0
159 180 0
157 176 0
157 177 0
158 178 0
160 180 0
159 181 0
156 177 0
156 177 0
154 175 0
151 172 0
166 186 0
165 186 0
160 180 0
158 179 0
158 177 0
158 179 0
159 180 0
153 173 0
162 184 0
162 181 0
162 181 0
163 185 0
162 184 0
161 180 0
162 184 0
165 186 0
160 178 0
163 183 0
157 176 0
162 184 0
160 181 0
156 176 0
164 185 0
160 180 0
162 182 0
162 183 0
160 178 0
153 172 0
162 183 0
165 187 0
161 181 0
164 184 0
159 179 0
169 190 0
158 178 0
161 182 0
160 179 0
164 184 0
159 179 0
161 182 0
165 184 0
160 181 0
166 188 0
160 181 0
167 188 0
164 186 0
160 180 0
162 183 0
166 187 0
170 192 0
163 183 0
166 187 0
169 192 0
165 186 0
168 191 0
165 187 0
162 183 0
165 187 0
165 187 0
167 190 0
168 190 0
162 183 0
166 187 0
162 184 0
165 186 0
164 186 0
176 199 114
176 199 102
175 198 92
175 198 95
171 195 92
175 199 102
172 196 80
174 197 88
170 194 84
174 198 105
174 197 95
171 195 92
168 191 72
169 192 80
171 195 117
172 195 95
172 194 117
171 194 111
169 193 88
168 191 88
173 195 92
173 196 95
169 193 92
171 195 102
169 193 114
168 191 102
174 198 114
170 193 105
167 191 95
168 192 92
172 195 108
168 191 102
171 195 111
165 189 76
172 194 92
166 189 88
169 193 92
169 192 95
171 194 84
169 193 72
164 189 92
168 191 99
165 188 80
162 186 102
167 190 72
171 195 92
158 181 99
171 195 105
167 191 117
171 195 105
169 192 108
171 193 111
158 180 76
160 183 84
163 186 80
166 189 99
160 183 94
162 185 78
163 186 92
162 185 88
159 182 84
164 188 108
170 193 111
167 189 99
164 187 111
166 189 99
159 181 108
161 183 95
162 184 80
167 190 111
157 180 76
160 183 105
157 180 92
160 184 102
159 181 84
155 178 88
157 180 99
156 179 88
154 176 74
163 185 92
160 182 92
150 171 99
157 177 108
153 174 84
156 178 114
149 170 80
153 175 102
150 171 88
154 175 108
147 168 92
151 171 92
161 182 105
155 175 108
152 172 95
148 168 102
152 172 95
139 158 72
142 161 99
139 158 99
142 162 80
147 167 111
145 163 102
148 168 76
152 171 105
131 149 72
140 158 80
139 159 67
140 158 92
139 157 80
138 154 102
128 146 67
124 141 72
117 134 67
122 140 57
110 127 72
133 149 84
122 138 84
126 144 67
118 135 76
121 135 94
114 130 65
114 130 60
107 126 47
117 135 78
105 123 76
113 131 62
110 130 54
126 143 92
118 136 54
127 146 47
135 155 31
123 140 51
131 149 25
123 140 47
133 149 25
132 150 25
133 150 40
132 149 25
142 159 36
127 144 0
122 138 18
120 134 0
129 148 0
138 155 0
123 140 0
123 142 0
123 140 0
106 125 0
113 130 0
116 134 0
121 139 0
103 119 0
121 138 0
108 124 0
113 130 0
107 124 0
103 118 0
107 124 0
117 133 0
107 124 0
96 111 0
92 108 0
108 124 0
108 124 0
114 130 0
87 103 0
94 109 0
94 109 0
101 118 0
95 112 0
98 113 0
104 119 0
100 117 0
105 120 0
97 113 0
88 104 0
103 120 0
97 112 0
95 110 0
123 138 0
98 114 0
92 105 0
107 122 0
101 117 0
105 123 0
103 117 0
90 106 0
98 112 0
100 116 0
78 94 0
108 124 0
96 112 0
113 129 0
112 129 0
118 136 0
98 113 0
98 115 0
112 129 0
107 125 0
112 129 0
113 129 0
100 118 0
110 127 0
117 136 0
117 135 0
97 113 0
119 136 0
103 120 0
117 136 0
123 141 0
115 133 0
116 133 0
102 119 0
118 137 0
126 145 0
111 129 0
125 144 0
124 143 0
109 125 0
119 137 0
109 128 0
119 138 0
123 143 0
124 142 0
116 135 0
121 139 0
115 134 0
126 144 0
124 140 0
125 144 0
113 132 0
132 150 0
133 152 0
126 144 0
135 153 0
130 150 0
135 154 0
133 153 0
131 150 0
133 153 0
130 148 0
127 145 0
127 146 0
140 159 0
130 149 0
131 149 0
118 136 0
130 148 0
134 154 0
133 153 0
139 159 0
127 146 0
131 151 0
140 159 0
140 158 0
134 154 0
138 156 0
138 158 0
146 165 0
140 161 0
137 158 0
145 166 0
146 166 0
147 164 0
135 154 0
135 154 0
148 167 0
140 160 0
147 168 0
145 165 0
139 159 0
147 168 0
143 165 0
145 165 0
148 168 0
140 159 0
154 175 0
145 166 0
148 168 0
152 172 0
145 165 0
149 168 0
141 161 0
149 168 0
149 170 0
143 162 0
153 173 0
150 170 0
150 172 0
147 167 0
149 169 0
144 164 0
148 168 0
137 156 0
156 174 0
156 177 0
154 174 0
152 173 0
147 168 0
144 163 0
153 174 0
154 175 0
152 172 0
147 167 0
150 171 0
157 177 0
158 177 0
158 179 0
150 170 0
156 176 0
156 177 0
161 183 0
158 178 0
155 177 0
156 176 0
152 172 0
159 179 0
155 176 0
157 177 0
162 184 0
150 170 0
152 172 0
159 181 0
155 175 0
160 179 0
158 178 0
159 179 0
155 177 0
158 177 0
158 179 0
157 178 0
156 175 0
161 181 0
159 180 0
161 181 0
160 179 0
148 167 0
160 181 0
162 182 0
159 179 0
164 184 0
158 179 0
163 185 0
158 179 0
159 180 0
161 182 0
163 184 0
163 186 0
158 179 0
162 182 0
161 182 0
157 178 0
164 185 0
158 178 0
158 179 0
163 183 0
159 178 0
164 185 0
161 181 0
164 184 0
160 180 0
156 177 0
163 184 0
160 181 0
163 183 0
169 190 0
163 184 0
160 179 0
166 188 0
158 179 0
163 185 0
161 181 0
163 183 0
164 185 0
162 184 0
162 182 0
163 184 0
164 185 0
167 188 0
157 177 0
163 184 0
162 182 0
161 183 0
163 184 0
165 185 0
164 185 0
167 187 0
162 181 0
169 191 0
163 184 0
165 186 0
168 190 0
165 186 0
167 190 0
167 189 0
165 184 0
164 185 0
160 181 0
166 186 0
165 186 0
173 197 76
174 197 102
176 198 105
171 194 99
172 195 92
173 196 99
177 200 111
172 195 105
171 195 99
176 199 92
166 189 80
170 193 95
171 195 88
177 201 120
175 198 102
173 196 99
172 196 117
167 191 95
167 191 88
172 196 102
170 194 92
169 192 88
170 193 92
173 196 114
168 192 111
177 201 125
169 193 105
170 193 92
167 191 99
169 192 92
171 195 102
164 187 111
167 190 99
167 190 72
177 199 95
164 187 84
165 189 108
170 194 84
166 189 105
167 190 84
161 185 84
162 186 84
163 187 80
165 189 80
167 189 88
166 190 102
167 191 108
164 188 99
158 181 80
169 192 102
172 195 111
165 188 92
161 184 88
168 191 88
167 190 84
159 182 80
159 182 90
160 183 108
165 188 102
165 188 105
163 187 113
169 193 114
158 182 92
166 189 95
159 182 78
159 182 92
163 185 80
164 187 107
157 180 88
158 181 102
155 177 105
151 173 80
165 187 102
159 182 99
158 180 99
162 185 92
150 173 99
161 182 95
156 177 105
161 182 125
152 174 92
153 175 99
148 170 95
159 181 114
159 181 108
153 175 111
155 178 95
154 175 88
156 178 99
157 178 95
153 174 105
151 172 92
146 167 88
146 166 102
157 177 111
153 174 120
143 164 80
145 165 80
153 173 108
151 170 95
148 168 99
148 167 99
143 162 99
146 165 84
139 156 111
144 163 84
137 155 72
131 150 80
138 154 108
121 139 57
136 154 62
128 146 76
133 150 99
136 152 95
120 136 67
123 141 72
123 140 62
132 149 62
120 136 76
121 137 67
116 133 62
114 132 60
100 117 57
107 125 65
125 143 60
128 146 76
128 144 57
119 135 31
117 134 60
128 147 40
130 149 40
137 156 31
142 160 18
144 162 25
132 152 0
130 147 0
134 153 25
132 150 25
133 152 0
131 148 0
128 145 0
129 145 0
129 148 0
128 145 0
122 139 0
129 145 0
116 133 0
123 141 0
117 136 0
101 119 0
118 136 0
103 119 0
103 121 0
101 118 0
96 114 0
105 122 0
112 127 0
122 139 0
104 120 0
108 125 0
107 125 0
103 120 0
105 123 0
119 136 0
106 123 0
106 122 0
99 116 0
99 116 0
102 117 0
99 116 0
98 113 0
93 109 0
89 103 0
101 117 0
107 123 0
92 109 0
99 115 0
100 117 0
117 134 0
105 121 0
89 106 0
96 112 0
87 103 0
97 113 0
102 118 0
88 104 0
101 117 0
103 119 0
102 119 0
106 123 0
104 121 0
107 123 0
106 122 0
97 113 0
109 125 0
86 101 0
104 120 0
108 126 0
93 109 0
106 123 0
104 121 0
116 133 0
114 131 0
98 117 0
108 126 0
120 137 0
111 129 0
113 129 0
106 123 0
119 136 0
117 137 0
109 127 0
113 131 0
121 137 0
109 128 0
116 135 0
113 130 0
105 122 0
125 143 0
127 145 0
127 145 0
118 136 0
116 135 0
125 143 0
110 128 0
121 139 0
127 145 0
119 137 0
118 137 0
127 146 0
123 142 0
122 140 0
122 141 0
130 148 0
126 146 0
123 141 0
126 145 0
139 158 0
125 144 0
131 150 0
130 151 0
122 140 0
134 156 0
133 153 0
126 145 0
136 156 0
141 161 0
134 152 0
134 153 0
133 150 0
137 155 0
139 157 0
139 159 0
139 160 0
139 160 0
140 159 0
137 158 0
137 156 0
143 163 0
139 159 0
142 162 0
139 162 0
146 167 0
143 163 0
143 161 0
142 162 0
147 167 0
141 159 0
141 162 0
143 162 0
133 152 0
146 166 0
137 157 0
149 170 0
151 170 0
155 176 0
140 160 0
149 170 0
147 168 0
154 175 0
141 160 0
146 166 0
150 171 0
149 170 0
150 171 0
146 165 0
152 173 0
154 174 0
153 174 0
142 163 0
144 164 0
156 175 0
148 167 0
149 169 0
150 168 0
139 158 0
154 173 0
151 172 0
157 178 0
154 174 0
154 173 0
159 179 0
149 169 0
152 173 0
149 169 0
145 165 0
152 173 0
152 172 0
151 171 0
155 176 0
154 174 0
156 176 0
161 182 0
150 168 0
152 174 0
159 180 0
159 180 0
152 172 0
160 181 0
159 177 0
160 181 0
153 174 0
160 180 0
163 183 0
156 178 0
151 171 0
156 177 0
158 179 0
159 182 0
158 178 0
151 171 0
158 179 0
158 179 0
158 178 0
158 179 0
163 182 0
160 181 0
160 182 0
154 176 0
157 176 0
157 177 0
156 176 0
163 184 0
165 186 0
162 185 0
160 180 0
161 181 0
160 178 0
158 177 0
159 179 0
162 183 0
161 181 0
160 181 0
162 180 0
162 182 0
160 179 0
160 181 0
164 185 0
160 181 0
159 180 0
160 181 0
161 181 0
160 179 0
167 187 0
159 178 0
168 190 0
159 180 0
163 183 0
164 184 0
164 186 0
161 180 0
161 182 0
163 185 0
164 186 0
166 187 0
166 188 0
167 189 0
160 182 0
167 187 0
165 186 0
167 187 0
165 186 0
161 182 0
160 180 0
162 182 0
159 180 0
165 187 0
168 190 0
168 189 0
171 192 0
168 190 0
166 187 0
160 180 0
163 185 0
165 187 0
167 188 0
167 189 0
167 189 0
166 189 0
168 191 0
172 196 99
174 197 108
175 198 105
174 197 99
172 195 88
176 198 108
167 190 92
175 199 102
173 197 102
168 191 76
169 192 84
172 195 99
173 196 102
165 188 88
170 193 95
171 195 92
170 193 88
174 198 108
162 186 92
175 199 114
171 194 111
174 197 84
170 193 102
165 189 84
172 195 99
173 196 117
162 186 88
171 194 84
173 196 111
166 189 84
164 188 95
172 196 92
161 183 84
170 193 108
165 188 88
165 188 67
170 193 88
170 193 92
164 188 99
163 187 99
169 192 122
169 192 95
164 187 99
168 192 105
158 180 88
163 187 114
167 190 117
166 189 99
161 185 99
163 186 102
162 185 108
167 191 108
163 185 76
162 185 111
166 190 95
162 184 88
168 191 120
165 187 95
162 185 95
162 185 90
165 188 111
159 183 92
160 183 80
161 185 84
163 186 84
164 186 95
167 190 102
160 183 84
159 182 92
160 181 102
163 185 94
157 179 88
155 176 105
154 177 99
161 182 105
160 182 80
159 180 95
159 181 92
155 177 114
157 179 95
160 182 102
168 189 95
156 177 108
155 176 105
149 170 92
163 184 105
153 174 105
163 184 102
156 177 114
152 173 105
153 173 111
151 172 92
153 173 114
149 170 102
148 168 120
143 163 95
154 174 111
149 168 95
144 164 80
149 169 99
142 163 72
146 165 88
145 164 108
130 149 76
141 159 95
147 164 92
148 167 88
143 162 84
134 152 84
129 148 51
141 159 84
135 153 95
132 149 92
136 155 67
125 142 80
123 141 57
128 144 84
123 140 76
116 133 62
126 142 62
120 136 44
108 124 36
115 132 65
122 138 65
125 142 62
104 120 47
117 134 36
121 137 44
124 143 25
127 144 0
124 143 0
124 141 36
151 169 44
138 156 25
136 154 25
128 145 25
133 151 0
142 161 0
129 146 0
132 149 0
136 153 0
123 143 0
127 144 0
119 137 0
132 152 0
125 142 0
116 133 0
123 141 0
120 138 0
121 139 0
116 133 0
127 144 0
119 137 0
120 137 0
115 132 0
112 129 0
116 132 0
100 116 0
106 125 0
107 124 0
91 107 0
116 134 0
124 140 0
115 133 0
105 122 0
106 124 0
103 121 0
92 108 0
110 127 0
96 113 0
110 127 0
96 112 0
95 111 0
87 104 0
87 105 0
105 120 0
99 115 0
99 114 0
113 128 0
107 123 0
108 125 0
106 123 0
97 113 0
118 135 0
94 113 0
101 119 0
99 116 0
109 126 0
98 114 0
100 116 0
98 115 0
112 129 0
116 132 0
106 123 0
110 127 0
102 118 0
104 121 0
116 134 0
106 123 0
110 127 0
102 119 0
104 121 0
106 125 0
115 132 0
99 117 0
110 128 0
120 138 0
111 129 0
101 118 0
118 136 0
116 133 0
109 126 0
124 143 0
116 135 0
121 139 0
118 136 0
112 130 0
122 139 0
123 141 0
125 143 0
121 141 0
118 136 0
128 146 0
130 150 0
124 141 0
132 151 0
124 142 0
123 142 0
123 143 0
127 145 0
138 157 0
129 148 0
135 154 0
126 144 0
129 149 0
117 134 0
133 151 0
136 154 0
141 158 0
127 147 0
131 151 0
136 156 0
126 145 0
142 161 0
138 157 0
131 151 0
129 149 0
137 156 0
133 152 0
137 155 0
129 147 0
139 159 0
139 159 0
133 153 0
136 155 0
142 162 0
142 162 0
136 157 0
136 155 0
134 154 0
134 155 0
140 161 0
138 157 0
141 162 0
148 169 0
145 165 0
139 161 0
146 166 0
147 168 0
140 159 0
142 162 0
136 156 0
148 167 0
143 160 0
138 158 0
146 166 0
145 166 0
153 172 0
146 167 0
148 167 0
148 168 0
154 174 0
144 163 0
157 178 0
151 170 0
149 168 0
146 167 0
148 169 0
144 164 0
142 161 0
137 155 0
145 165 0
153 175 0
150 169 0
152 174 0
158 178 0
150 170 0
160 180 0
149 169 0
153 174 0
151 171 0
155 174 0
151 171 0
152 172 0
146 168 0
156 176 0
154 174 0
154 173 0
153 174 0
152 171 0
154 175 0
155 175 0
155 176 0
158 178 0
153 172 0
150 172 0
157 176 0
160 181 0
153 172 0
160 180 0
157 175 0
153 173 0
159 179 0
160 181 0
158 180 0
158 178 0
158 179 0
155 175 0
156 177 0
155 176 0
161 182 0
160 182 0
151 169 0
160 181 0
154 176 0
156 178 0
162 182 0
153 173 0
156 177 0
162 184 0
159 182 0
162 182 0
157 177 0
163 184 0
163 183 0
163 184 0
162 182 0
163 185 0
164 185 0
163 185 0
159 179 0
156 177 0
164 185 0
157 178 0
163 182 0
160 181 0
159 179 0
162 183 0
163 186 0
164 186 0
161 182 0
164 184 0
164 183 0
162 181 0
164 185 0
168 189 0
165 185 0
167 187 0
165 185 0
162 182 0
160 180 0
162 183 0
165 188 0
161 183 0
157 178 0
166 186 0
166 186 0
164 184 0
166 188 0
162 183 0
164 186 0
163 183 0
163 184 0
170 191 0
165 187 0
164 186 0
167 189 0
163 184 0
166 188 0
162 183 0
166 189 0
162 185 0
166 186 0
166 187 0
167 188 0
166 188 0
165 187 0
163 184 0
171 193 0
169 191 0
171 195 102
181 204 122
172 195 67
175 198 95
171 195 99
172 195 95
177 200 128
173 196 84
171 195 105
169 193 84
173 196 102
174 197 102
174 197 95
173 195 102
177 200 114
176 199 114
170 193 117
170 194 72
175 197 120
171 194 92
172 196 108
168 192 120
174 197 95
172 195 117
170 194 102
168 192 95
170 192 102
166 190 102
175 198 102
169 193 95
166 189 95
169 192 114
171 195 111
163 186 95
167 189 80
172 196 105
169 192 76
173 196 102
162 186 76
161 184 84
166 189 80
164 187 92
168 192 88
166 189 99
166 189 88
166 190 105
165 188 72
163 187 67
157 181 92
168 191 92
165 188 92
162 186 114
164 187 95
166 189 95
157 180 88
160 183 95
162 185 117
164 186 99
160 183 80
160 183 107
163 187 100
161 184 92
158 181 84
156 179 97
163 187 88
155 178 99
162 185 105
146 169 84
164 186 114
158 180 105
159 181 95
165 187 102
162 184 122
159 182 88
162 184 102
161 183 105
161 184 114
148 170 72
150 171 99
156 178 88
158 179 108
157 179 105
162 184 99
155 176 95
159 181 108
159 181 114
155 175 114
148 170 88
155 176 95
152 172 108
148 168 102
155 175 99
157 178 95
151 171 108
146 167 99
150 169 99
144 164 84
143 164 62
151 170 105
162 181 128
140 161 92
146 165 95
144 164 99
140 159 80
140 158 99
150 170 102
147 165 105
139 158 88
131 151 72
138 156 88
135 154 80
129 147 72
146 163 95
141 160 84
125 143 62
141 158 99
135 153 72
134 151 76
133 150 72
124 142 62
120 136 62
114 130 57
121 138 62
111 128 57
125 141 57
119 135 47
129 147 44
121 138 57
122 140 25
122 138 36
138 155 44
138 156 25
148 166 25
142 161 44
131 151 0
133 152 0
136 156 25
145 164 25
138 157 0
137 157 0
138 157 0
127 145 0
122 139 0
123 141 0
115 133 0
124 143 0
117 136 0
123 141 0
119 137 0
113 129 0
107 124 0
120 137 0
105 124 0
120 138 0
105 124 0
118 135 0
123 141 0
122 139 0
107 123 0
117 134 0
100 116 0
114 131 0
104 123 0
102 119 0
105 123 0
103 121 0
96 112 0
105 121 0
105 122 0
104 121 0
113 131 0
97 114 0
94 111 0
100 116 0
95 110 0
105 121 0
106 122 0
103 119 0
94 111 0
94 111 0
107 125 0
112 129 0
91 107 0
107 123 0
111 127 0
104 119 0
113 130 0
102 118 0
104 120 0
103 119 0
102 119 0
96 112 0
97 113 0
120 138 0
102 120 0
108 126 0
112 129 0
112 129 0
112 130 0
116 133 0
112 130 0
108 126 0
108 125 0
115 132 0
110 127 0
118 135 0
113 131 0
115 133 0
107 125 0
129 148 0
123 139 0
118 137 0
114 130 0
122 140 0
120 138 0
120 138 0
115 134 0
125 143 0
120 139 0
112 131 0
119 137 0
132 152 0
122 141 0
112 131 0
127 145 0
130 148 0
127 147 0
114 133 0
131 150 0
127 145 0
127 146 0
141 160 0
122 141 0
133 153 0
127 147 0
128 145 0
131 151 0
126 145 0
145 164 0
129 149 0
132 151 0
126 144 0
138 158 0
135 155 0
131 151 0
144 165 0
140 160 0
140 159 0
131 150 0
139 159 0
130 150 0
146 166 0
130 150 0
132 152 0
145 164 0
141 160 0
147 168 0
136 154 0
144 163 0
140 160 0
146 167 0
133 153 0
147 168 0
138 157 0
146 165 0
135 156 0
138 158 0
135 154 0
149 170 0
148 170 0
140 161 0
141 161 0
143 164 0
146 165 0
134 152 0
155 176 0
149 169 0
152 172 0
149 169 0
146 169 0
155 176 0
148 168 0
144 162 0
149 170 0
152 172 0
143 163 0
145 164 0
149 170 0
146 167 0
153 174 0
152 174 0
150 170 0
141 161 0
156 178 0
153 173 0
148 168 0
155 175 0
146 167 0
154 173 0
151 172 0
153 174 0
155 175 0
150 171 0
155 177 0
153 173 0
153 173 0
162 184 0
152 172 0
152 172 0
157 180 0
155 175 0
149 168 0
156 174 0
154 175 0
157 180 0
155 175 0
156 177 0
157 179 0
156 175 0
161 182 0
155 177 0
155 176 0
157 177 0
155 175 0
158 179 0
160 182 0
159 178 0
162 184 0
159 182 0
157 177 0
154 175 0
158 178 0
165 187 0
162 184 0
159 180 0
161 182 0
154 174 0
160 182 0
162 183 0
161 183 0
161 182 0
162 184 0
156 176 0
159 179 0
160 180 0
163 183 0
160 181 0
165 186 0
158 179 0
158 180 0
159 180 0
159 181 0
163 183 0
162 183 0
165 185 0
161 182 0
162 183 0
159 180 0
162 181 0
159 181 0
162 183 0
166 187 0
157 178 0
159 179 0
162 183 0
164 186 0
156 178 0
165 186 0
165 184 0
160 181 0
155 176 0
165 186 0
168 190 0
155 175 0
171 190 0
165 186 0
162 183 0
163 183 0
168 189 0
162 184 0
168 190 0
165 187 0
168 190 0
165 186 0
162 183 0
160 182 0
163 184 0
170 193 0
159 181 0
167 188 0
167 189 0
169 190 0
165 187 0
164 184 0
168 189 0
167 190 0
167 189 0
167 189 0
164 186 0
164 186 0
168 192 57
171 194 92
173 196 92
177 199 114
177 200 117
173 197 99
168 191 72
173 195 92
174 198 122
169 192 99
170 194 95
172 194 105
170 193 95
170 193 88
169 192 105
170 193 95
171 195 99
167 190 76
166 189 99
177 201 117
172 195 99
175 198 92
169 193 95
166 189 84
170 194 88
166 189 88
166 189 102
169 193 95
167 190 105
167 191 84
167 190 88
177 200 102
163 186 95
161 185 80
163 186 62
165 189 92
167 191 102
171 195 105
167 190 80
168 190 88
170 193 108
162 186 102
166 190 95
158 182 72
165 188 99
163 187 108
164 188 92
163 186 114
161 184 95
164 188 108
163 187 99
164 188 80
162 184 72
165 187 95
165 188 102
160 183 88
167 191 117
160 183 95
159 181 99
163 187 102
161 184 92
161 184 95
164 186 95
164 187 102
160 182 84
158 180 84
162 184 108
158 180 105
164 186 111
157 180 99
161 183 84
168 190 102
163 186 99
150 172 88
159 181 99
157 179 99
169 191 122
154 177 92
158 179 102
157 179 92
160 182 88
160 181 102
160 181 108
163 184 102
157 178 105
158 180 105
153 175 84
161 182 105
145 166 76
157 178 108
151 172 72
145 165 88
150 171 108
154 174 84
154 175 99
151 170 122
148 167 95
147 167 120
147 165 92
152 171 108
149 169 108
152 172 105
149 168 99
149 166 105
132 151 72
133 152 80
148 167 92
131 150 88
142 161 84
147 166 95
141 159 92
145 164 84
129 147 80
142 160 95
137 156 72
133 151 76
128 147 62
129 147 57
125 141 62
130 147 62
120 136 67
128 145 51
119 136 62
131 148 62
121 139 51
118 135 44
129 148 51
141 160 44
120 137 36
133 152 36
127 145 25
137 155 36
144 163 44
139 158 36
129 149 25
137 155 25
144 164 0
141 161 36
140 159 0
136 155 0
135 155 0
137 155 0
131 149 0
116 134 0
123 140 0
120 138 0
120 138 0
112 131 0
116 133 0
129 147 0
121 139 0
121 138 0
105 123 0
113 130 0
107 125 0
119 136 0
111 129 0
112 128 0
113 130 0
104 121 0
109 125 0
115 133 0
110 126 0
97 114 0
102 119 0
110 127 0
110 128 0
111 129 0
112 130 0
104 122 0
113 129 0
107 124 0
105 121 0
101 118 0
102 119 0
96 111 0
102 118 0
108 126 0
105 121 0
104 121 0
95 111 0
113 130 0
103 120 0
110 128 0
92 109 0
100 118 0
112 129 0
104 122 0
107 124 0
121 138 0
106 124 0
99 116 0
112 129 0
104 122 0
109 128 0
106 123 0
125 143 0
109 127 0
119 137 0
121 139 0
112 130 0
124 143 0
125 141 0
111 130 0
118 136 0
111 131 0
115 132 0
109 125 0
115 131 0
115 134 0
115 132 0
124 141 0
122 141 0
123 143 0
115 133 0
127 145 0
125 143 0
113 131 0
109 125 0
123 143 0
135 153 0
118 137 0
129 149 0
115 133 0
121 139 0
128 146 0
121 139 0
125 143 0
131 150 0
122 142 0
124 145 0
138 159 0
132 153 0
135 154 0
131 151 0
133 152 0
132 152 0
131 150 0
135 155 0
120 139 0
130 151 0
129 148 0
140 160 0
129 147 0
141 160 0
139 159 0
135 155 0
134 154 0
145 166 0
134 154 0
144 165 0
136 156 0
137 157 0
135 154 0
134 154 0
139 159 0
145 165 0
143 163 0
135 156 0
127 147 0
139 159 0
144 164 0
144 165 0
142 160 0
137 157 0
142 162 0
139 157 0
148 167 0
139 160 0
146 167 0
149 169 0
145 167 0
144 164 0
149 170 0
145 166 0
150 171 0
151 172 0
146 167 0
156 176 0
147 167 0
146 167 0
141 159 0
151 172 0
146 167 0
141 161 0
153 172 0
146 167 0
152 171 0
153 172 0
154 175 0
149 170 0
149 170 0
146 164 0
142 162 0
152 173 0
151 172 0
152 174 0
147 167 0
153 174 0
155 174 0
152 174 0
155 176 0
158 179 0
146 167 0
152 172 0
154 175 0
151 173 0
149 170 0
158 179 0
156 177 0
148 169 0
152 174 0
158 179 0
160 183 0
156 177 0
150 169 0
158 179 0
155 175 0
158 179 0
154 176 0
161 182 0
159 180 0
155 176 0
159 180 0
152 174 0
159 179 0
157 179 0
154 175 0
162 182 0
158 180 0
163 184 0
161 181 0
154 176 0
159 179 0
161 183 0
147 167 0
160 183 0
158 178 0
163 183 0
161 182 0
156 174 0
153 172 0
160 180 0
158 179 0
163 185 0
156 175 0
158 180 0
159 178 0
155 175 0
158 179 0
160 182 0
165 186 0
160 180 0
157 176 0
161 182 0
164 185 0
160 181 0
162 184 0
163 184 0
154 175 0
162 184 0
158 180 0
163 183 0
161 181 0
163 184 0
162 184 0
161 182 0
164 186 0
165 185 0
165 187 0
162 183 0
164 186 0
156 179 0
167 188 0
159 182 0
164 184 0
163 183 0
162 184 0
164 187 0
163 184 0
165 186 0
162 182 0
166 189 0
166 187 0
163 184 0
166 188 0
168 190 0
164 185 0
162 182 0
165 187 0
164 186 0
164 186 0
166 188 0
166 188 0
166 187 0
164 186 0
165 186 0
165 187 0
167 190 0
165 186 0
175 198 108
173 197 108
178 200 92
177 200 102
170 193 88
176 198 105
175 198 99
176 200 105
170 192 84
170 194 99
171 195 108
175 198 95
176 200 120
170 194 111
171 195 92
169 192 80
168 192 84
171 194 92
170 193 76
161 185 80
174 197 111
168 192 111
170 193 92
166 189 102
166 189 92
165 188 99
170 195 114
167 191 92
167 190 99
163 187 99
165 188 76
168 191 99
168 192 105
172 195 105
167 192 111
168 192 105
165 189 84
168 191 105
166 189 72
168 191 111
166 189 108
174 197 92
167 190 99
159 182 95
168 192 102
168 191 88
164 187 92
164 187 92
165 189 117
167 190 94
156 180 88
168 191 95
161 184 76
160 183 95
166 190 108
162 186 114
164 188 108
160 184 102
168 190 95
165 188 88
165 188 111
166 189 95
161 184 105
163 186 105
160 183 80
165 189 84
163 186 108
162 184 92
160 183 94
155 177 88
162 185 117
164 186 107
161 184 92
161 183 67
165 187 102
161 182 99
155 177 102
156 178 99
159 182 88
155 177 95
155 177 76
158 180 99
160 182 95
162 183 111
159 180 102
157 177 111
154 176 102
148 169 95
150 172 84
157 178 105
151 171 105
151 172 84
158 179 99
156 177 105
162 182 111
147 168 102
153 173 88
158 177 114
153 173 95
143 162 92
149 169 95
136 156 95
146 165 102
150 169 108
148 166 114
143 161 88
141 160 72
142 160 95
140 159 76
141 160 95
133 152 67
138 157 72
133 151 88
140 159 84
134 152 62
137 155 84
129 146 88
133 150 67
131 151 72
131 149 67
134 152 57
125 143 36
121 139 25
129 146 62
116 133 51
120 139 44
131 149 51
121 140 44
129 147 36
139 158 44
139 158 51
136 154 36
140 158 25
139 158 25
126 146 0
136 155 0
143 164 0
132 150 0
132 151 0
144 164 0
130 149 0
134 152 0
133 151 0
118 135 0
120 139 0
120 137 0
128 147 0
115 134 0
122 142 0
121 139 0
123 143 0
124 143 0
119 138 0
125 143 0
109 125 0
122 140 0
111 129 0
106 124 0
114 131 0
121 140 0
108 126 0
103 120 0
113 130 0
107 125 0
105 122 0
112 130 0
123 141 0
101 118 0
106 124 0
108 126 0
107 124 0
115 132 0
116 133 0
100 117 0
109 126 0
98 115 0
107 125 0
113 129 0
119 137 0
115 132 0
110 127 0
108 125 0
119 137 0
115 132 0
108 126 0
118 136 0
107 124 0
114 132 0
114 134 0
111 129 0
109 127 0
106 122 0
110 128 0
109 126 0
94 111 0
106 123 0
113 130 0
116 133 0
113 131 0
119 137 0
120 138 0
112 130 0
104 122 0
120 137 0
115 132 0
119 137 0
112 130 0
114 132 0
124 142 0
106 124 0
106 124 0
119 136 0
116 134 0
120 136 0
126 144 0
122 142 0
127 146 0
113 130 0
132 150 0
116 134 0
111 129 0
123 141 0
133 152 0
127 145 0
121 140 0
132 149 0
116 135 0
130 150 0
133 151 0
131 151 0
127 147 0
131 151 0
122 140 0
131 150 0
126 147 0
130 150 0
138 158 0
128 148 0
132 152 0
138 158 0
132 152 0
127 147 0
122 141 0
137 155 0
140 159 0
125 146 0
145 164 0
135 154 0
138 158 0
128 148 0
134 154 0
141 162 0
139 159 0
135 153 0
145 164 0
144 164 0
144 164 0
149 169 0
142 163 0
137 156 0
142 162 0
150 171 0
148 168 0
144 164 0
139 160 0
142 162 0
148 169 0
140 158 0
153 175 0
146 167 0
141 162 0
147 166 0
145 165 0
157 179 0
155 175 0
149 169 0
137 158 0
142 162 0
150 170 0
150 172 0
151 172 0
151 171 0
146 167 0
140 160 0
149 169 0
145 166 0
154 174 0
151 170 0
143 165 0
144 164 0
147 169 0
153 174 0
144 162 0
158 179 0
152 173 0
148 170 0
155 177 0
153 173 0
152 172 0
146 167 0
153 174 0
148 170 0
151 172 0
152 173 0
154 176 0
150 172 0
152 174 0
149 169 0
161 182 0
158 179 0
150 170 0
152 172 0
158 180 0
153 173 0
159 181 0
152 172 0
155 177 0
159 180 0
161 182 0
156 177 0
151 173 0
159 176 0
158 180 0
154 175 0
154 172 0
160 180 0
158 180 0
153 175 0
157 178 0
151 172 0
150 171 0
163 184 0
155 174 0
161 183 0
154 176 0
158 179 0
163 184 0
152 172 0
160 183 0
163 184 0
156 177 0
165 185 0
159 179 0
161 183 0
163 183 0
157 179 0
164 184 0
162 183 0
164 187 0
162 183 0
159 179 0
163 183 0
160 181 0
162 182 0
164 185 0
160 181 0
159 179 0
160 180 0
167 189 0
164 186 0
163 182 0
161 183 0
161 182 0
164 184 0
164 184 0
162 182 0
162 183 0
165 186 0
164 185 0
161 181 0
167 189 0
168 189 0
166 188 0
166 187 0
162 184 0
165 184 0
160 183 0
167 189 0
169 189 0
164 186 0
165 186 0
165 187 0
166 187 0
167 188 0
162 182 0
166 186 0
160 180 0
161 181 0
164 184 0
162 185 0
166 188 0
162 183 0
169 190 0
171 192 0
167 188 0
160 181 0
170 193 0
168 190 0
165 185 0
167 189 0
170 193 92
170 193 92
175 198 95
176 200 105
175 197 102
173 196 111
175 198 95
169 192 88
174 196 102
169 192 92
174 197 92
173 197 111
173 197 105
171 195 99
170 194 92
170 194 95
168 191 95
169 193 117
167 191 108
170 193 92
171 195 95
167 190 95
162 185 80
169 193 114
167 190 80
171 193 95
173 196 111
169 192 88
166 190 102
169 193 99
171 194 114
170 194 122
171 194 95
172 195 105
169 192 80
166 189 92
168 192 92
170 193 92
169 192 99
170 194 108
163 186 92
171 194 108
165 189 108
162 186 108
164 187 76
160 184 84
169 192 105
164 187 105
162 186 102
165 189 95
164 188 105
163 186 67
163 186 88
165 188 88
156 179 84
163 187 108
156 179 92
158 181 95
163 186 105
166 189 95
158 181 92
163 187 108
167 190 97
169 192 111
161 185 99
154 177 84
163 186 99
153 176 80
152 175 90
162 184 105
157 179 92
155 177 76
162 185 92
151 173 84
159 181 95
154 176 111
163 186 108
158 181 111
152 173 76
164 187 95
159 180 105
151 172 92
159 180 102
158 179 92
154 175 88
161 182 95
157 178 122
147 169 102
151 172 99
160 181 105
159 179 102
152 173 92
157 178 105
150 170 105
151 171 80
157 177 99
157 178 95
160 179 99
154 175 95
144 164 111
152 172 84
161 179 117
154 173 99
143 162 84
138 157 76
143 161 92
142 160 92
148 168 84
142 160 88
148 166 105
130 148 84
140 160 80
131 149 72
145 164 76
135 153 80
133 151 80
126 144 57
123 140 62
132 150 67
124 143 51
127 146 57
134 152 57
126 145 25
124 142 25
128 145 51
130 148 44
139 158 62
136 155 36
133 152 51
133 153 36
136 155 36
123 142 36
136 156 36
139 159 36
141 162 0
143 162 0
133 152 0
137 156 0
137 158 0
133 152 0
140 161 0
138 158 0
136 153 0
132 151 0
129 147 0
128 146 0
133 152 0
134 155 0
124 144 0
129 149 0
122 140 0
122 140 0
114 132 0
121 139 0
116 134 0
110 128 0
120 138 0
104 121 0
113 130 0
117 135 0
112 130 0
122 140 0
105 123 0
93 110 0
109 128 0
113 130 0
119 137 0
126 144 0
82 99 0
105 123 0
123 142 0
97 115 0
109 126 0
97 114 0
110 128 0
118 135 0
107 124 0
108 126 0
114 132 0
106 124 0
107 125 0
112 130 0
113 130 0
116 133 0
112 129 0
109 126 0
106 125 0
108 126 0
116 134 0
124 143 0
114 132 0
115 131 0
109 126 0
96 114 0
104 121 0
122 140 0
125 143 0
121 141 0
110 128 0
134 152 0
122 140 0
119 137 0
116 135 0
118 136 0
122 141 0
122 140 0
110 129 0
117 135 0
123 143 0
119 137 0
116 135 0
126 145 0
127 148 0
126 144 0
137 156 0
117 135 0
113 130 0
124 142 0
116 135 0
125 143 0
127 147 0
123 142 0
120 139 0
129 149 0
122 143 0
117 137 0
128 148 0
134 153 0
124 143 0
125 143 0
124 142 0
128 148 0
138 157 0
132 152 0
127 146 0
134 154 0
129 149 0
141 162 0
123 144 0
141 160 0
127 146 0
136 155 0
136 155 0
135 156 0
139 159 0
138 159 0
135 154 0
147 167 0
139 158 0
136 156 0
141 161 0
128 147 0
145 165 0
140 159 0
132 152 0
137 157 0
137 158 0
140 161 0
136 155 0
140 159 0
144 165 0
127 147 0
151 170 0
143 163 0
149 169 0
145 165 0
151 171 0
150 171 0
149 171 0
149 170 0
141 162 0
134 155 0
149 172 0
137 157 0
140 160 0
143 164 0
144 163 0
154 174 0
146 166 0
150 170 0
154 175 0
157 177 0
153 173 0
150 170 0
156 178 0
147 168 0
151 171 0
145 164 0
154 172 0
148 170 0
147 168 0
156 178 0
151 171 0
141 163 0
151 172 0
159 180 0
147 167 0
151 171 0
155 175 0
158 178 0
151 172 0
148 169 0
150 170 0
154 174 0
156 175 0
158 179 0
157 178 0
149 170 0
148 169 0
161 183 0
157 178 0
160 181 0
155 175 0
155 176 0
160 181 0
164 186 0
163 184 0
159 179 0
155 175 0
155 175 0
155 177 0
157 177 0
156 177 0
165 184 0
159 180 0
154 175 0
158 179 0
158 179 0
160 179 0
154 176 0
151 170 0
156 175 0
161 183 0
162 184 0
156 178 0
166 187 0
161 179 0
149 170 0
161 181 0
162 185 0
161 182 0
160 181 0
155 178 0
161 181 0
165 184 0
161 181 0
166 187 0
164 184 0
162 183 0
162 183 0
158 180 0
160 181 0
165 187 0
158 179 0
165 187 0
165 185 0
164 187 0
163 184 0
159 181 0
166 185 0
160 182 0
160 180 0
159 181 0
166 188 0
164 186 0
165 187 0
162 184 0
162 182 0
166 188 0
163 185 0
165 188 0
168 190 0
164 186 0
161 181 0
162 184 0
161 182 0
165 187 0
164 187 0
164 185 0
163 185 0
167 190 0
170 191 0
165 187 0
166 187 0
163 184 0
162 183 0
167 189 0
167 188 0
167 189 0
166 187 0
165 186 0
167 188 0
164 185 0
163 185 0
166 186 0
168 190 0
167 190 0
165 187 0
168 190 0
167 187 0
175 199 92
167 191 72
174 197 108
174 197 108
170 194 95
168 191 84
173 196 99
173 196 102
170 192 92
174 198 102
175 197 114
173 197 102
172 195 95
170 194 67
161 184 72
174 197 92
174 198 111
169 193 95
171 195 84
169 192 108
169 192 102
167 191 95
172 195 88
166 189 99
165 188 105
169 192 95
165 189 88
173 197 114
171 195 120
168 192 95
167 191 108
167 190 76
167 190 99
169 193 92
165 189 80
172 195 84
167 190 92
165 189 76
168 191 92
166 189 72
162 185 72
166 189 99
172 195 95
166 190 92
168 191 88
162 186 99
166 190 99
169 192 108
159 181 92
160 184 99
164 187 92
162 186 95
170 194 105
166 190 102
162 184 95
163 186 88
166 188 111
159 182 80
162 185 99
160 183 108
163 187 102
165 187 84
169 192 120
153 176 92
161 184 108
165 188 95
161 183 95
168 191 99
157 179 92
172 195 108
163 185 102
160 182 92
156 178 76
160 182 84
164 186 92
164 187 99
153 175 72
158 180 99
158 180 88
160 183 105
150 171 92
156 178 99
153 175 92
161 183 99
153 174 80
157 178 95
166 187 117
144 165 76
154 175 92
154 176 102
152 173 84
157 179 105
156 176 92
161 183 108
144 165 99
154 174 102
150 170 105
153 173 108
141 160 102
144 163 88
151 171 99
152 171 99
142 161 99
145 164 102
144 163 102
142 162 99
148 167 88
151 171 95
145 164 99
140 159 92
137 156 72
139 158 80
144 162 92
148 166 88
138 156 72
130 148 67
141 160 57
125 142 62
131 149 51
132 150 62
116 135 36
134 153 57
120 139 36
132 150 51
122 141 44
117 135 51
124 143 44
124 143 36
136 155 44
140 159 51
145 165 25
138 159 0
137 156 25
129 147 44
139 159 0
127 146 25
145 165 0
148 169 0
142 163 0
146 166 0
141 160 0
126 143 0
130 148 0
129 147 0
119 139 0
132 151 0
135 153 0
122 141 0
129 148 0
126 144 0
127 146 0
124 142 0
126 146 0
115 134 0
125 144 0
119 136 0
114 132 0
123 142 0
111 128 0
119 138 0
122 140 0
106 124 0
118 135 0
101 119 0
115 133 0
110 128 0
120 138 0
105 122 0
99 116 0
117 135 0
125 143 0
100 117 0
124 142 0
124 142 0
110 127 0
109 127 0
105 122 0
102 119 0
118 136 0
103 122 0
125 143 0
108 125 0
106 123 0
118 136 0
113 131 0
110 129 0
123 141 0
114 132 0
118 134 0
103 120 0
118 135 0
118 136 0
118 136 0
110 128 0
129 148 0
109 126 0
116 134 0
124 142 0
113 130 0
116 134 0
112 129 0
125 143 0
109 127 0
123 143 0
117 136 0
117 136 0
122 140 0
121 139 0
110 129 0
117 136 0
122 142 0
125 144 0
122 141 0
117 136 0
128 147 0
116 134 0
125 144 0
117 135 0
121 139 0
138 156 0
130 148 0
125 143 0
122 141 0
130 149 0
134 153 0
132 150 0
123 143 0
134 153 0
121 142 0
135 155 0
125 144 0
127 147 0
134 154 0
130 148 0
124 144 0
140 161 0
133 153 0
136 156 0
131 151 0
146 165 0
138 158 0
130 150 0
127 146 0
144 165 0
142 163 0
136 157 0
138 157 0
150 172 0
134 152 0
134 154 0
144 165 0
136 155 0
154 175 0
138 159 0
146 167 0
145 165 0
144 163 0
143 163 0
133 154 0
140 160 0
141 163 0
142 164 0
141 160 0
149 171 0
139 160 0
147 168 0
145 165 0
144 165 0
146 166 0
148 169 0
140 160 0
143 164 0
147 167 0
136 156 0
145 165 0
150 171 0
157 178 0
153 175 0
152 171 0
151 173 0
139 159 0
149 168 0
150 171 0
148 171 0
150 171 0
151 170 0
150 170 0
153 173 0
152 174 0
150 171 0
152 172 0
157 178 0
153 175 0
153 174 0
148 168 0
157 178 0
152 173 0
149 167 0
154 173 0
155 178 0
157 178 0
155 176 0
153 175 0
152 173 0
153 174 0
153 173 0
154 175 0
157 177 0
154 176 0
153 173 0
149 171 0
152 174 0
151 172 0
157 175 0
159 181 0
154 173 0
153 173 0
162 184 0
161 182 0
155 175 0
161 184 0
160 181 0
159 180 0
161 183 0
163 183 0
155 177 0
160 182 0
154 175 0
162 182 0
161 181 0
159 181 0
160 179 0
159 180 0
160 181 0
161 182 0
155 174 0
158 179 0
161 183 0
164 184 0
156 175 0
155 176 0
162 183 0
160 180 0
159 179 0
158 179 0
160 179 0
160 182 0
162 183 0
154 175 0
161 182 0
166 188 0
161 181 0
159 180 0
162 181 0
162 184 0
165 187 0
159 181 0
160 181 0
160 181 0
166 187 0
165 187 0
163 183 0
159 178 0
159 180 0
165 185 0
157 176 0
160 181 0
165 188 0
166 187 0
166 187 0
155 175 0
165 187 0
162 185 0
164 185 0
161 181 0
167 188 0
165 186 0
169 191 0
161 182 0
168 190 0
166 188 0
165 187 0
165 185 0
159 179 0
164 186 0
168 188 0
164 184 0
160 181 0
166 188 0
162 184 0
160 182 0
166 188 0
166 186 0
166 186 0
167 189 0
169 190 0
165 187 0
168 190 0
164 185 0
170 191 0
174 196 102
172 196 92
175 198 111
172 195 102
173 196 95
172 195 95
169 192 105
172 195 99
172 194 95
172 195 88
172 195 105
169 192 95
170 193 92
171 195 108
167 190 76
171 194 84
171 194 88
168 191 84
173 197 111
171 194 102
170 194 92
171 195 108
164 187 84
170 194 105
171 195 105
167 189 92
169 193 80
172 195 92
173 196 108
166 190 102
163 186 102
168 192 99
168 192 88
171 194 102
166 190 92
166 189 92
172 196 114
164 186 88
167 190 92
166 189 88
170 193 105
165 188 105
166 189 88
160 183 108
169 192 105
166 189 84
163 187 84
166 189 92
167 190 92
160 182 72
167 191 114
167 190 108
163 186 88
161 184 88
159 183 99
163 186 95
165 187 111
151 174 84
163 185 92
159 181 92
156 179 99
159 183 102
160 182 92
158 180 80
164 186 99
159 181 88
165 188 105
161 184 99
162 185 108
166 188 102
161 183 84
155 177 102
157 179 108
162 185 108
159 180 99
162 184 99
163 185 105
168 190 99
154 176 80
160 182 88
157 179 95
153 175 95
164 186 105
158 180 108
152 175 88
162 183 105
165 186 114
162 183 95
155 176 99
151 171 95
160 181 84
156 176 92
147 167 92
153 175 95
155 175 108
159 178 120
160 181 114
158 178 92
155 175 80
154 173 114
148 167 92
146 167 72
141 161 80
156 174 114
142 162 105
145 163 92
147 166 88
159 178 105
149 167 95
144 163 105
143 162 95
137 154 80
144 162 84
144 162 72
136 155 51
131 150 72
127 146 67
129 147 76
135 154 62
121 140 36
130 149 67
123 141 51
134 153 36
132 150 67
141 160 51
119 139 51
145 165 57
125 145 0
129 149 0
142 162 36
135 153 25
153 173 25
143 163 0
141 161 0
144 164 25
146 165 0
146 167 0
142 161 0
138 158 0
141 161 0
130 149 0
145 164 0
134 152 0
115 135 0
141 161 0
130 151 0
130 150 0
129 148 0
118 138 0
118 138 0
133 151 25
120 140 0
120 138 0
126 145 0
123 142 0
114 131 0
113 132 0
121 140 0
122 140 0
113 132 0
119 138 0
119 137 0
123 141 0
118 136 0
110 128 0
122 141 0
102 120 0
125 142 0
105 122 0
120 137 0
106 124 0
107 125 0
108 126 0
113 131 0
115 133 0
113 131 0
119 138 0
111 129 0
111 129 0
109 127 0
115 134 0
118 135 0
113 131 0
111 128 0
115 133 0
118 136 0
124 142 0
113 132 0
116 134 0
110 128 0
114 132 0
121 140 0
118 135 0
118 138 0
110 128 0
125 144 0
113 130 0
121 139 0
127 145 0
129 147 0
116 134 0
124 142 0
122 140 0
120 139 0
123 141 0
113 131 0
121 141 0
126 145 0
122 140 0
131 150 0
124 143 0
126 143 0
125 145 0
123 143 0
128 147 0
126 144 0
126 144 0
122 140 0
127 145 0
119 138 0
114 133 0
124 143 0
133 152 0
128 147 0
135 155 0
135 155 0
126 146 0
131 149 0
126 146 0
135 154 0
129 149 0
130 150 0
126 143 0
133 154 0
134 154 0
138 159 0
138 158 0
141 159 0
138 157 0
123 143 0
134 153 0
133 153 0
139 159 0
144 165 0
138 159 0
139 159 0
142 162 0
134 154 0
148 168 0
134 155 0
134 153 0
140 161 0
131 151 0
133 153 0
138 158 0
137 158 0
139 159 0
150 171 0
147 168 0
137 156 0
138 158 0
147 167 0
138 158 0
145 164 0
150 171 0
148 169 0
143 164 0
145 166 0
150 170 0
146 167 0
139 160 0
141 161 0
151 171 0
150 172 0
150 170 0
149 170 0
143 164 0
140 159 0
143 164 0
155 176 0
151 171 0
150 170 0
143 162 0
151 172 0
144 165 0
154 174 0
158 178 0
146 167 0
159 178 0
149 169 0
151 172 0
157 178 0
156 177 0
153 175 0
155 177 0
146 166 0
149 170 0
157 178 0
163 183 0
151 173 0
148 168 0
152 173 0
155 176 0
158 180 0
157 179 0
156 178 0
159 180 0
155 175 0
151 171 0
153 173 0
154 176 0
158 179 0
162 185 0
154 175 0
158 179 0
161 183 0
159 181 0
156 176 0
160 183 0
150 171 0
155 176 0
152 173 0
155 177 0
155 176 0
156 177 0
161 183 0
158 180 0
161 183 0
160 181 0
163 185 0
164 185 0
162 183 0
158 176 0
160 180 0
157 178 0
162 183 0
161 182 0
161 184 0
162 182 0
158 177 0
162 182 0
163 182 0
160 181 0
163 185 0
162 185 0
154 175 0
165 186 0
158 180 0
160 181 0
161 182 0
160 183 0
154 175 0
160 182 0
163 184 0
162 184 0
161 182 0
158 180 0
161 180 0
157 178 0
164 185 0
161 183 0
164 184 0
163 185 0
166 187 0
163 184 0
160 179 0
159 180 0
165 186 0
162 183 0
166 187 0
163 185 0
162 183 0
166 187 0
167 189 0
160 182 0
165 187 0
167 189 0
166 186 0
162 184 0
161 182 0
169 191 0
162 183 0
164 184 0
165 188 0
161 182 0
167 188 0
166 187 0
164 186 0
166 187 0
167 187 0
168 190 0
168 190 0
165 186 0
167 187 0
162 184 0
164 186 0
166 188 0
168 191 0
165 186 0
166 188 0
174 197 88
176 198 108
175 198 92
172 194 76
175 198 105
171 194 80
175 197 108
169 193 84
174 197 105
174 197 102
170 193 99
169 193 67
170 193 95
170 194 92
172 196 120
168 191 99
172 194 84
169 193 95
175 198 111
171 194 105
171 195 108
169 191 88
167 191 88
168 192 105
167 190 88
173 196 99
164 188 84
169 191 99
168 191 102
169 193 92
166 189 111
172 195 105
160 182 84
168 191 92
164 187 92
165 188 84
168 191 99
166 189 111
167 191 99
168 192 114
171 195 99
166 189 102
168 192 108
167 190 99
169 193 105
162 186 84
164 187 88
164 187 88
166 189 99
161 184 102
161 184 92
164 187 105
167 189 95
161 184 102
163 186 102
168 193 95
163 186 88
166 189 120
164 186 76
158 181 84
149 172 76
154 176 88
162 185 84
164 186 88
166 189 108
163 185 105
163 187 105
163 186 92
155 178 62
165 188 114
164 186 95
160 182 92
156 179 92
163 185 88
166 189 95
155 177 84
156 178 102
158 180 120
168 190 125
162 184 99
159 180 111
161 182 88
158 180 102
153 175 88
158 179 102
160 182 92
156 178 114
161 182 111
162 183 102
150 171 99
160 180 102
154 174 88
153 174 72
158 179 105
155 176 99
159 180 117
146 166 67
143 164 88
150 170 105
152 172 114
144 164 80
149 168 88
142 161 88
147 167 99
150 169 92
139 157 99
149 167 95
149 168 84
134 152 95
149 168 99
142 160 95
136 155 67
140 158 76
135 154 72
141 160 95
134 151 88
135 153 67
128 148 57
134 151 62
134 152 72
123 141 51
128 146 44
130 149 67
132 150 51
133 153 44
132 150 51
129 148 25
134 153 51
136 156 57
139 159 57
138 158 44
136 156 36
133 153 0
142 163 0
143 164 36
131 149 0
141 163 25
146 167 0
151 173 0
149 169 0
128 148 0
138 157 0
141 162 0
140 157 0
134 153 0
128 148 0
129 147 25
129 147 0
125 143 0
129 148 0
121 141 0
123 142 0
129 148 0
107 126 0
117 137 0
120 138 0
122 142 0
127 145 0
120 139 0
107 125 0
116 135 0
125 143 0
107 126 0
123 142 0
114 133 0
125 143 0
115 134 0
122 141 0
113 132 0
103 122 0
101 120 0
119 137 0
108 127 0
118 136 0
116 134 0
94 113 0
107 124 0
107 125 0
108 125 0
117 136 0
117 134 0
123 139 0
114 132 0
114 132 0
122 140 0
107 125 0
124 142 0
108 127 0
119 139 0
113 133 0
114 133 0
112 129 0
115 134 0
121 140 0
122 141 0
114 133 0
124 143 0
125 144 0
123 141 0
122 141 0
122 141 0
126 146 0
114 132 0
120 139 0
122 140 0
123 142 0
127 146 0
131 151 0
120 139 0
120 138 0
113 131 0
120 140 0
130 149 0
118 138 0
131 150 0
126 145 0
131 151 0
140 159 0
121 140 0
116 134 0
128 148 0
139 160 0
131 149 0
133 152 0
125 143 0
135 156 0
130 150 0
131 153 0
122 141 0
131 151 0
129 149 0
136 156 0
140 160 0
142 160 0
134 154 0
129 148 0
146 168 0
135 156 0
147 167 0
126 145 0
133 151 0
140 161 0
144 165 0
135 154 0
129 149 0
125 144 0
144 165 0
130 149 0
134 154 0
136 158 0
149 169 0
134 154 0
140 161 0
135 156 0
143 164 0
142 161 0
145 166 0
140 159 0
142 162 0
143 162 0
146 167 0
143 163 0
144 164 0
147 169 0
149 168 0
149 171 0
147 167 0
141 161 0
143 163 0
139 160 0
143 163 0
148 169 0
144 165 0
144 165 0
147 167 0
149 170 0
140 161 0
146 166 0
145 165 0
148 170 0
148 170 0
146 168 0
146 165 0
149 169 0
147 167 0
148 167 0
149 170 0
149 170 0
146 167 0
152 172 0
154 173 0
153 173 0
150 171 0
155 177 0
151 170 0
144 164 0
152 174 0
150 171 0
151 171 0
153 174 0
155 176 0
150 169 0
154 176 0
162 181 0
157 177 0
163 183 0
153 173 0
156 177 0
148 170 0
153 172 0
158 178 0
158 178 0
157 178 0
152 173 0
159 180 0
156 178 0
160 181 0
157 178 0
159 180 0
160 180 0
158 180 0
159 179 0
161 181 0
155 177 0
156 175 0
158 178 0
159 181 0
158 179 0
163 185 0
156 176 0
151 172 0
163 185 0
155 178 0
159 179 0
163 185 0
168 190 0
158 179 0
161 182 0
161 182 0
166 187 0
159 179 0
163 185 0
156 177 0
158 179 0
161 183 0
162 184 0
157 179 0
155 176 0
159 181 0
152 172 0
157 176 0
165 187 0
161 183 0
166 188 0
164 185 0
164 185 0
159 180 0
169 191 0
164 186 0
164 185 0
166 187 0
165 187 0
166 187 0
162 182 0
160 181 0
159 181 0
164 186 0
167 189 0
164 186 0
162 182 0
165 185 0
169 191 0
167 188 0
167 188 0
163 184 0
163 185 0
164 185 0
166 187 0
164 186 0
163 183 0
165 186 0
160 181 0
167 189 0
163 185 0
165 186 0
163 184 0
161 183 0
163 185 0
163 185 0
166 189 0
166 187 0
164 186 0
166 188 0
163 185 0
166 187 0
164 186 0
167 190 0
169 191 0
167 188 0
163 185 0
175 198 95
172 195 92
175 198 114
173 197 105
177 200 99
171 194 102
171 194 117
177 200 111
171 194 102
169 192 95
173 196 88
174 196 95
165 188 84
168 192 88
172 195 99
171 194 88
174 198 84
167 190 108
172 195 95
173 197 122
170 193 88
167 191 84
172 196 108
177 200 114
168 191 95
171 194 120
173 197 102
164 187 95
168 191 99
171 194 99
169 193 95
169 191 84
163 186 88
169 193 102
168 191 99
166 189 102
171 194 95
172 195 95
167 190 102
162 185 84
167 191 111
162 185 105
166 189 88
167 191 105
161 185 95
171 194 95
171 195 108
164 188 105
165 188 102
160 183 84
168 191 95
165 189 102
164 186 92
167 190 88
157 180 84
161 183 95
168 191 99
158 181 80
160 182 76
161 184 84
162 185 102
159 181 108
163 186 99
160 182 99
159 181 88
159 182 102
166 188 108
158 181 88
159 181 92
154 175 76
156 177 84
160 184 88
164 187 95
147 169 88
163 184 84
162 184 92
152 174 76
160 182 108
159 181 99
158 179 88
155 178 111
171 193 99
156 178 99
159 181 117
162 184 102
155 176 72
161 182 111
160 180 95
160 181 102
156 177 84
159 181 114
160 180 111
154 174 88
155 175 102
144 164 92
153 173 105
160 180 88
159 180 99
149 170 88
154 173 117
154 174 92
156 175 102
154 174 105
155 174 105
147 167 92
141 161 76
147 166 84
138 157 67
157 177 105
146 165 92
150 170 88
141 159 84
124 144 62
148 167 76
139 159 67
129 148 72
140 158 76
138 157 57
131 150 62
126 146 51
139 159 62
144 163 72
125 143 51
138 157 72
132 150 51
142 163 44
128 146 57
142 161 44
137 156 36
130 150 25
140 159 25
143 162 36
146 168 0
144 165 25
139 158 0
151 171 0
139 159 0
145 165 0
141 161 0
141 161 0
138 155 0
141 161 0
131 152 0
120 140 0
119 140 0
131 150 0
133 152 0
124 143 0
133 152 0
128 148 0
133 153 0
129 148 0
128 146 0
125 144 0
129 147 0
118 136 0
120 139 0
111 129 0
117 136 0
130 149 0
122 141 0
127 145 0
113 131 0
116 135 0
117 134 0
129 148 0
126 145 0
122 140 0
110 127 0
115 133 0
125 142 0
114 133 0
99 117 0
125 143 0
116 133 0
116 136 0
129 149 0
126 144 0
121 139 0
110 127 0
118 136 0
121 140 0
113 131 0
119 139 0
114 132 0
117 136 0
120 137 0
120 139 0
115 133 0
115 134 0
112 130 0
128 147 0
125 145 0
127 146 0
126 145 0
128 147 0
113 130 0
116 135 0
111 130 0
117 135 0
123 142 0
131 151 0
122 140 0
115 133 0
122 140 0
113 130 0
130 148 0
123 143 0
129 150 0
115 134 0
125 146 0
127 146 0
122 141 0
129 148 0
126 148 0
133 153 0
127 147 0
136 156 0
120 139 0
126 144 0
132 152 0
130 150 0
133 152 0
132 152 0
122 141 0
128 148 0
122 142 0
120 140 0
133 153 0
130 149 0
125 145 0
125 145 0
128 148 0
135 155 0
131 151 0
133 153 0
144 164 0
137 157 0
133 153 0
124 144 0
137 158 0
143 165 0
140 160 0
146 167 0
141 161 0
135 156 0
144 164 0
140 161 0
136 156 0
139 158 0
142 163 0
146 166 0
145 165 0
144 163 0
134 155 0
140 160 0
143 165 0
141 162 0
143 164 0
154 175 0
142 163 0
143 162 0
149 170 0
148 169 0
144 165 0
146 167 0
142 163 0
141 160 0
149 170 0
147 168 0
146 167 0
150 172 0
154 173 0
149 170 0
150 170 0
148 169 0
155 177 0
152 173 0
156 178 0
152 174 0
146 167 0
150 170 0
152 172 0
150 169 0
157 177 0
151 171 0
150 169 0
146 167 0
156 176 0
152 174 0
148 170 0
156 177 0
160 180 0
155 176 0
160 182 0
150 171 0
144 165 0
152 174 0
157 178 0
161 182 0
156 176 0
152 174 0
154 176 0
155 176 0
157 178 0
156 178 0
152 173 0
156 178 0
158 179 0
157 178 0
148 168 0
154 176 0
160 181 0
157 178 0
160 183 0
161 184 0
158 179 0
154 175 0
164 186 0
159 179 0
156 177 0
158 179 0
162 183 0
158 180 0
162 184 0
159 180 0
157 179 0
158 178 0
161 184 0
159 178 0
163 183 0
161 182 0
157 176 0
164 185 0
157 178 0
159 180 0
161 182 0
168 189 0
151 171 0
159 180 0
165 185 0
158 178 0
166 187 0
164 186 0
162 184 0
162 181 0
164 187 0
164 185 0
160 181 0
163 185 0
163 183 0
165 185 0
165 186 0
163 184 0
161 179 0
162 182 0
162 184 0
161 182 0
165 186 0
166 185 0
159 182 0
166 188 0
164 187 0
161 182 0
162 185 0
162 182 0
159 179 0
166 186 0
167 187 0
164 185 0
166 188 0
165 187 0
167 187 0
160 182 0
165 185 0
167 188 0
163 185 0
167 189 0
159 179 0
164 186 0
167 189 0
164 185 0
163 184 0
165 185 0
158 178 0
161 181 0
164 185 0
161 181 0
168 190 0
164 185 0
164 187 0
167 188 0
165 185 0
166 188 0
165 187 0
167 187 0
169 189 0
167 189 0
167 189 0
167 188 0
175 199 99
177 200 92
174 197 111
171 194 99
178 201 125
173 196 120
175 198 105
174 197 99
173 195 76
174 197 102
167 190 72
170 193 99
177 200 114
175 198 105
171 195 84
170 193 76
173 196 114
164 187 76
167 190 92
170 193 99
166 189 67
171 194 99
169 192 99
165 188 92
173 196 114
165 188 84
168 191 105
167 190 108
163 187 80
169 193 84
171 195 92
167 190 92
166 189 102
166 190 84
169 192 102
169 193 108
168 192 102
168 191 95
167 190 80
163 187 105
167 190 92
165 187 105
169 192 111
161 184 102
165 188 102
168 191 92
165 189 102
164 188 80
162 184 88
165 188 76
168 191 95
167 191 92
161 185 95
164 187 108
163 186 84
166 189 114
170 193 114
155 178 102
155 177 92
163 186 76
162 185 72
168 190 88
158 181 102
163 187 99
164 186 92
168 191 108
156 178 84
161 184 95
163 186 102
165 188 111
159 181 80
158 181 95
164 187 95
160 181 105
160 182 111
165 188 117
159 181 99
156 178 95
166 188 122
159 181 99
160 182 99
160 181 105
160 182 88
157 178 117
158 180 76
149 170 99
152 173 88
154 175 102
147 168 95
152 173 80
153 174 111
157 179 95
155 177 102
151 172 57
148 167 102
149 169 80
153 173 102
152 173 84
152 172 102
151 171 102
144 164 84
155 175 95
153 173 102
142 161 76
153 173 88
154 174 84
158 178 92
140 159 95
149 168 84
151 169 95
143 163 80
132 152 80
143 162 92
133 151 76
145 165 51
134 153 76
144 164 67
142 161 80
130 150 62
136 155 57
132 152 57
121 140 44
146 165 51
139 157 36
144 164 25
135 154 57
142 163 36
139 160 25
137 156 0
145 164 51
127 148 25
145 165 25
140 159 0
144 164 25
147 167 0
150 171 36
144 165 0
133 153 0
134 155 0
141 159 0
141 162 0
134 155 0
136 156 0
140 159 0
140 161 0
134 153 0
134 153 0
139 158 0
127 145 0
125 144 0
124 142 0
128 148 0
117 136 0
129 147 0
119 137 0
118 137 0
133 152 0
120 139 0
120 139 0
126 146 0
115 134 0
112 131 0
120 140 0
122 141 0
135 154 0
119 137 0
115 134 0
116 134 0
101 119 0
119 137 0
110 127 0
116 134 0
110 127 0
113 132 0
118 137 0
112 131 0
124 142 0
134 153 0
111 129 0
127 147 0
126 145 0
114 133 0
126 146 0
121 140 0
117 136 0
112 131 0
122 140 0
104 122 0
115 133 0
100 118 0
124 143 0
122 140 0
114 133 0
124 144 0
120 138 0
114 132 0
129 148 0
122 142 0
125 144 0
121 140 0
113 133 0
129 148 0
121 139 0
120 138 0
137 156 0
113 133 0
112 131 0
126 145 0
128 148 0
121 141 0
122 142 0
124 144 0
117 138 0
125 145 0
129 149 0
130 148 0
131 150 0
125 145 0
121 141 0
136 157 0
129 148 0
119 138 0
131 151 0
135 154 0
118 137 0
139 159 0
134 154 0
134 154 0
139 156 0
127 147 0
128 148 0
132 151 0
138 159 0
141 159 0
131 150 0
135 156 0
145 166 0
135 156 0
132 151 0
143 163 0
134 155 0
131 152 0
144 164 0
144 164 0
144 165 0
135 155 0
133 152 0
144 164 0
144 165 0
139 159 0
134 155 0
143 163 0
142 162 0
139 159 0
142 162 0
144 164 0
141 162 0
150 172 0
144 163 0
141 161 0
142 163 0
146 167 0
145 165 0
145 165 0
145 165 0
151 173 0
141 161 0
146 166 0
152 170 0
145 167 0
139 159 0
149 170 0
148 169 0
147 166 0
152 173 0
150 172 0
151 172 0
150 173 0
156 177 0
148 169 0
159 179 0
147 166 0
157 178 0
151 172 0
152 172 0
146 167 0
158 180 0
153 174 0
152 173 0
154 174 0
156 177 0
152 174 0
150 170 0
153 174 0
154 176 0
152 173 0
155 175 0
150 172 0
157 177 0
151 169 0
155 176 0
156 177 0
157 179 0
158 179 0
153 174 0
151 171 0
154 175 0
153 171 0
152 172 0
156 178 0
158 179 0
163 184 0
162 182 0
165 187 0
157 178 0
163 184 0
155 176 0
155 175 0
159 180 0
156 178 0
159 180 0
159 181 0
160 181 0
159 181 0
158 178 0
157 179 0
157 179 0
160 180 0
158 179 0
159 180 0
159 179 0
161 182 0
161 183 0
163 184 0
159 180 0
161 182 0
165 187 0
162 183 0
159 180 0
163 184 0
160 183 0
157 178 0
161 182 0
160 181 0
157 178 0
163 184 0
157 178 0
159 178 0
164 186 0
158 179 0
165 186 0
161 184 0
162 182 0
155 176 0
163 183 0
164 185 0
156 178 0
165 186 0
162 183 0
160 180 0
162 182 0
166 188 0
166 185 0
165 189 0
165 185 0
165 187 0
161 184 0
158 179 0
168 189 0
162 184 0
162 185 0
163 184 0
162 184 0
160 181 0
168 190 0
165 186 0
164 186 0
165 187 0
162 184 0
165 187 0
165 188 0
167 188 0
167 189 0
164 187 0
164 187 0
167 189 0
163 182 0
167 187 0
164 185 0
166 189 0
161 181 0
166 188 0
168 190 0
168 190 0
162 183 0
164 185 0
162 185 0
166 189 0
170 192 0
165 187 0
170 194 99
170 193 99
169 192 102
177 200 125
172 195 84
175 197 102
172 194 67
174 197 99
177 200 102
168 192 95
164 188 80
173 196 88
168 193 92
172 195 95
176 199 108
175 198 105
168 191 92
174 198 102
169 192 88
168 192 99
170 194 84
171 194 92
167 191 92
172 195 80
175 198 92
168 190 105
167 190 99
170 194 128
166 190 72
168 192 95
172 196 84
169 192 84
170 194 84
167 191 102
162 184 84
171 194 108
161 184 92
167 190 105
162 185 105
161 185 76
166 190 95
168 191 76
171 195 122
171 194 125
168 191 88
166 190 84
169 192 111
169 192 117
164 187 92
161 184 92
165 188 88
165 190 92
164 188 84
168 192 84
158 181 62
168 191 99
160 183 108
164 186 102
167 190 99
158 181 95
159 182 84
165 188 92
160 183 105
165 189 111
167 189 92
163 185 102
160 182 102
158 181 84
156 178 84
162 184 92
154 177 88
161 184 80
165 187 95
155 177 88
155 177 95
159 181 84
154 176 80
152 174 84
157 178 105
159 181 111
156 178 108
156 177 76
157 178 92
164 186 114
156 177 76
149 169 95
158 180 105
160 181 92
165 186 117
164 185 105
156 176 88
159 180 80
158 179 102
154 175 108
157 178 92
166 187 105
145 165 80
149 170 102
152 172 105
155 175 114
148 168 92
146 166 88
143 163 84
145 165 80
153 173 108
145 164 102
150 170 80
156 175 99
152 172 105
152 171 92
145 165 80
131 150 67
140 158 84
140 161 44
138 158 44
144 163 72
143 162 72
133 154 57
134 153 57
147 166 51
140 159 57
146 165 62
133 153 51
147 166 44
143 164 25
138 158 51
133 153 36
141 161 51
138 159 25
140 160 25
146 167 36
143 164 0
143 164 25
139 160 36
145 167 0
136 157 0
141 160 0
148 170 0
146 167 36
142 162 0
142 163 0
139 160 0
134 155 0
133 153 0
141 162 0
137 157 0
135 154 0
137 157 0
131 150 0
131 150 0
131 151 0
130 148 0
124 143 0
127 147 0
125 143 0
130 149 0
122 141 0
134 153 0
128 146 0
130 149 0
123 141 0
126 146 0
113 132 0
115 132 0
122 141 0
122 140 0
124 143 0
121 140 0
123 142 0
128 147 0
118 137 0
121 141 0
128 148 0
118 137 0
125 143 0
123 142 0
114 132 0
119 137 0
117 135 0
118 137 0
125 144 0
112 130 0
119 139 0
111 128 0
124 143 0
112 130 0
125 143 0
114 133 0
116 135 0
110 128 0
116 135 0
108 127 0
122 141 0
125 146 0
118 137 0
127 145 0
128 147 0
127 147 0
114 133 0
117 135 0
130 149 0
129 148 0
127 147 0
126 145 0
121 139 0
131 150 0
127 146 0
126 146 0
123 143 0
130 148 0
133 151 0
125 145 0
134 153 0
137 157 0
138 157 0
134 154 0
127 147 0
128 148 0
137 157 0
139 159 0
132 153 0
128 148 0
129 149 0
132 150 0
136 157 0
136 157 0
133 154 0
132 150 0
141 162 0
125 144 0
134 155 0
145 165 0
136 156 0
133 154 0
142 163 0
129 150 0
134 154 0
141 162 0
145 166 0
139 161 0
137 157 0
139 160 0
143 163 0
136 157 0
141 161 0
146 167 0
143 163 0
144 166 0
146 166 0
145 167 0
136 157 0
146 169 0
145 165 0
147 167 0
146 164 0
150 171 0
145 167 0
136 157 0
144 165 0
141 163 0
142 163 0
151 172 0
147 168 0
148 167 0
151 171 0
148 168 0
141 161 0
153 174 0
145 166 0
145 166 0
147 167 0
146 165 0
150 171 0
148 167 0
153 175 0
154 176 0
148 168 0
157 178 0
149 170 0
153 172 0
147 168 0
141 162 0
154 176 0
146 167 0
150 170 0
153 174 0
150 172 0
151 171 0
152 172 0
155 176 0
155 176 0
155 175 0
151 171 0
153 175 0
150 172 0
155 177 0
157 180 0
154 175 0
153 173 0
160 182 0
156 177 0
155 176 0
155 176 0
149 167 0
159 179 0
152 173 0
151 173 0
158 179 0
159 182 0
160 183 0
156 177 0
151 173 0
153 172 0
157 180 0
158 177 0
156 178 0
156 177 0
155 177 0
161 181 0
160 181 0
159 180 0
159 180 0
154 174 0
160 181 0
159 180 0
154 173 0
155 177 0
163 184 0
160 181 0
156 178 0
155 178 0
159 181 0
164 185 0
156 175 0
160 182 0
161 183 0
158 178 0
165 187 0
159 180 0
158 178 0
155 176 0
162 183 0
164 185 0
160 181 0
160 182 0
161 182 0
157 177 0
158 178 0
163 185 0
165 186 0
159 183 0
164 186 0
162 185 0
163 184 0
166 187 0
166 188 0
166 188 0
155 174 0
160 181 0
167 189 0
162 184 0
167 187 0
165 186 0
158 181 0
165 188 0
162 184 0
162 184 0
163 185 0
160 182 0
162 183 0
163 184 0
164 187 0
163 185 0
164 184 0
164 185 0
167 188 0
167 188 0
168 190 0
162 182 0
165 187 0
162 183 0
167 187 0
165 186 0
167 188 0
169 189 0
164 186 0
163 184 0
169 190 0
166 188 0
165 186 0
163 185 0
168 191 0
165 187 0
166 188 0
167 190 0
166 187 0
167 189 0
162 184 0
167 189 0
164 186 0
177 200 92
177 200 108
172 194 108
177 200 108
170 194 76
173 195 111
175 197 92
172 196 99
178 201 120
176 199 108
173 196 92
169 193 99
176 199 137
171 194 92
169 192 88
165 189 84
170 193 95
167 191 105
176 199 114
163 186 80
172 195 92
174 196 92
173 197 92
169 193 102
165 188 88
167 191 99
168 192 102
168 192 95
174 196 117
164 187 128
171 194 99
168 191 88
168 191 108
170 194 95
170 193 92
169 192 92
167 190 84
170 193 102
163 186 84
164 187 105
163 187 80
166 189 84
165 188 76
169 193 117
164 187 111
165 189 88
167 191 84
160 184 84
166 188 99
164 188 102
160 183 76
159 182 99
170 193 122
169 191 102
163 186 76
162 186 95
159 182 84
169 191 111
161 184 88
167 190 95
167 189 102
162 184 84
159 182 84
158 181 80
165 188 99
158 180 80
169 192 108
164 185 95
159 181 99
160 182 72
158 181 102
160 182 88
155 177 88
158 180 117
157 180 95
163 186 95
159 180 102
163 184 88
155 176 88
162 184 88
160 182 99
156 177 95
155 178 95
162 184 114
156 178 95
154 175 92
153 174 99
157 177 92
151 173 88
157 177 76
147 168 80
160 180 99
164 185 111
161 182 99
155 176 114
158 179 95
163 183 102
157 177 114
152 173 92
151 171 99
154 175 92
148 167 95
143 163 72
162 181 128
156 175 108
156 175 114
139 159 72
153 172 99
148 167 88
153 174 84
145 164 72
147 168 62
147 166 80
141 160 62
144 164 51
144 165 57
141 161 57
141 160 84
141 161 62
121 140 57
141 160 36
138 157 36
133 153 36
134 154 51
126 146 25
136 156 25
131 151 36
138 157 36
130 150 25
139 160 0
143 164 44
133 154 25
150 171 0
146 167 44
140 161 0
149 169 25
147 168 0
144 166 0
138 159 0
143 164 0
136 157 0
141 162 0
136 156 0
133 154 0
128 148 0
129 148 0
128 147 0
138 158 0
128 149 0
141 161 0
126 147 0
136 157 0
132 152 0
132 152 0
131 151 0
124 144 0
138 157 0
122 140 0
131 151 0
113 132 0
121 141 0
120 138 0
124 144 0
117 135 0
123 142 0
127 147 0
122 140 0
123 143 0
118 136 0
127 145 0
112 131 0
119 138 0
116 134 0
120 140 0
126 144 0
129 148 0
105 123 0
107 127 0
129 147 0
120 138 0
137 156 0
124 143 0
129 147 0
129 147 0
112 130 0
116 135 0
135 153 0
116 136 0
128 146 0
121 140 0
120 140 0
123 141 0
114 133 0
137 156 0
128 149 0
121 140 0
118 137 0
125 145 0
131 151 0
128 146 0
126 144 0
130 149 0
127 148 0
132 152 0
129 148 0
124 145 0
130 150 0
124 144 0
119 139 0
118 136 0
134 153 0
135 155 0
128 148 0
127 148 0
125 145 0
122 141 0
137 157 0
133 153 0
133 154 0
131 152 0
132 151 0
134 154 0
136 156 0
124 144 0
140 160 0
132 152 0
128 147 0
133 154 0
137 157 0
138 158 0
139 157 0
134 155 0
130 150 0
138 159 0
145 165 0
135 156 0
135 156 0
145 166 0
136 157 0
130 149 0
132 152 0
136 157 0
139 159 0
144 162 0
140 160 0
144 165 0
133 153 0
142 161 0
144 165 0
143 164 0
140 161 0
140 161 0
140 161 0
151 170 0
146 166 0
143 165 0
142 164 0
138 159 0
140 162 0
141 161 0
145 166 0
139 160 0
147 169 0
145 166 0
143 165 0
136 157 0
157 177 0
152 174 0
150 170 0
151 172 0
144 164 0
150 170 0
152 174 0
146 167 0
154 176 0
151 173 0
148 167 0
151 173 0
157 177 0
149 171 0
154 176 0
151 172 0
157 178 0
155 175 0
140 161 0
152 175 0
150 170 0
150 173 0
152 173 0
150 169 0
160 182 0
158 178 0
152 174 0
149 169 0
155 177 0
153 174 0
155 176 0
158 180 0
157 176 0
159 180 0
152 173 0
155 177 0
153 175 0
154 176 0
158 179 0
159 181 0
155 175 0
151 170 0
148 170 0
155 177 0
160 182 0
157 176 0
162 184 0
155 177 0
158 180 0
155 175 0
159 180 0
160 181 0
159 181 0
161 183 0
165 187 0
162 182 0
163 184 0
157 178 0
157 178 0
151 171 0
160 182 0
159 179 0
160 182 0
159 181 0
158 178 0
160 181 0
156 179 0
163 186 0
165 186 0
162 184 0
163 183 0
158 178 0
160 180 0
163 184 0
165 186 0
160 181 0
158 179 0
163 184 0
162 185 0
163 185 0
163 184 0
163 185 0
160 181 0
166 187 0
162 184 0
159 180 0
168 189 0
165 187 0
161 182 0
159 179 0
152 173 0
156 178 0
160 181 0
165 188 0
160 181 0
162 184 0
164 185 0
161 181 0
168 190 0
167 189 0
162 184 0
165 186 0
161 184 0
166 188 0
169 190 0
167 190 0
166 186 0
165 187 0
166 189 0
167 189 0
166 188 0
161 183 0
168 190 0
165 187 0
163 183 0
164 185 0
164 186 0
166 188 0
167 189 0
166 186 0
169 191 0
165 186 0
166 187 0
167 189 0
162 185 0
165 186 0
167 189 0
167 188 0
165 187 0
164 187 0
168 191 0
162 183 0
166 187 0
162 183 0
174 196 95
173 196 92
176 199 99
171 195 95
178 201 111
170 193 92
173 197 105
169 193 80
167 190 72
176 199 108
173 197 120
168 191 80
173 195 95
166 189 95
171 195 102
171 195 88
173 197 99
170 194 105
166 190 95
175 198 92
174 197 99
169 192 80
171 195 84
171 195 99
172 196 99
169 192 84
171 195 108
171 194 95
170 194 80
162 187 105
167 190 99
167 190 102
167 191 99
163 186 88
171 195 111
166 190 105
170 193 105
167 191 88
174 198 117
164 188 108
168 192 99
164 187 72
164 187 88
163 186 92
164 187 102
166 190 108
167 190 102
166 189 95
163 186 80
164 188 114
164 187 99
161 184 95
161 185 92
164 187 92
165 187 72
166 189 102
169 191 102
168 192 114
160 183 72
163 185 88
166 189 105
158 181 84
157 180 99
165 187 102
156 178 76
164 187 99
158 180 108
161 184 111
160 182 105
163 185 92
154 175 76
162 184 76
159 182 95
157 178 99
162 183 102
156 178 80
155 177 72
168 190 133
164 185 99
153 175 80
164 186 105
155 177 95
153 174 76
161 183 88
154 175 102
157 178 62
163 184 92
153 175 88
158 179 117
157 178 84
157 179 84
162 183 120
158 179 95
157 177 99
146 167 95
159 181 88
160 180 95
153 173 108
153 173 67
143 164 88
151 172 105
152 172 92
148 168 102
159 178 111
157 176 108
156 176 105
150 169 80
150 169 108
147 166 99
147 166 76
151 170 84
146 166 76
153 172 80
157 176 99
142 161 72
137 157 51
138 158 67
143 163 51
143 163 67
146 164 72
137 157 57
136 154 44
141 161 36
141 161 62
136 156 25
135 155 44
149 169 44
147 167 25
136 156 25
144 166 25
137 159 25
147 169 0
145 166 0
142 162 0
149 170 0
150 171 0
137 158 0
146 167 0
154 175 0
143 164 0
144 165 0
147 168 0
137 158 0
141 163 0
141 160 0
136 157 0
140 160 0
136 156 0
137 158 0
132 152 0
127 147 0
129 150 0
137 159 0
138 157 0
128 148 0
125 144 0
125 145 0
130 149 0
127 147 0
126 145 0
127 146 0
116 135 0
116 135 0
130 149 0
127 147 0
120 139 0
128 147 0
120 139 0
134 153 0
117 137 0
124 144 0
121 141 0
115 133 0
111 129 0
119 138 0
106 124 0
122 142 0
121 140 0
123 142 0
116 136 0
121 140 0
117 137 0
128 148 0
117 137 0
108 129 0
120 138 0
114 133 0
127 145 0
117 137 0
126 145 0
125 145 0
122 140 0
134 152 0
115 135 0
111 130 0
129 149 0
130 150 0
125 145 0
127 147 0
126 145 0
136 157 0
130 151 0
127 146 0
127 148 0
138 159 0
127 147 0
126 146 0
129 148 0
130 150 0
137 156 0
127 147 0
137 157 0
134 153 0
126 146 0
127 146 0
124 143 0
122 140 0
137 157 0
116 136 0
132 153 0
141 160 0
127 148 0
125 144 0
139 159 0
134 155 0
130 150 0
136 156 0
134 153 0
143 163 0
132 152 0
141 163 0
139 159 0
146 166 0
140 159 0
128 149 0
140 161 0
137 158 0
136 156 0
140 160 0
137 158 0
141 161 0
141 162 0
134 156 0
148 167 0
144 164 0
143 165 0
138 157 0
142 163 0
140 160 0
142 163 0
140 160 0
141 162 0
138 160 0
148 168 0
146 167 0
143 164 0
137 157 0
146 165 0
144 165 0
139 158 0
146 168 0
143 164 0
146 169 0
148 170 0
146 168 0
150 172 0
147 167 0
140 161 0
146 168 0
146 165 0
149 169 0
152 173 0
145 166 0
144 165 0
154 174 0
148 167 0
145 167 0
144 167 0
144 166 0
146 169 0
146 168 0
151 172 0
148 168 0
148 171 0
152 173 0
144 165 0
153 174 0
153 174 0
156 177 0
152 172 0
153 172 0
151 171 0
158 179 0
159 179 0
154 173 0
153 174 0
154 176 0
157 178 0
150 172 0
151 171 0
155 177 0
157 177 0
159 181 0
156 177 0
157 178 0
153 175 0
154 175 0
156 178 0
157 179 0
150 170 0
157 179 0
150 171 0
157 177 0
155 176 0
160 182 0
154 174 0
158 181 0
155 177 0
160 181 0
158 181 0
161 181 0
163 184 0
160 180 0
161 183 0
153 174 0
156 176 0
153 174 0
159 181 0
162 183 0
163 185 0
163 184 0
158 178 0
161 182 0
165 187 0
163 186 0
167 189 0
163 182 0
151 173 0
158 180 0
160 181 0
154 175 0
162 183 0
161 182 0
161 182 0
163 185 0
160 182 0
157 178 0
162 183 0
158 179 0
158 180 0
157 178 0
160 182 0
166 188 0
166 188 0
162 183 0
157 179 0
163 186 0
165 186 0
160 183 0
162 184 0
159 180 0
163 184 0
167 189 0
158 179 0
165 187 0
165 186 0
168 190 0
163 186 0
162 182 0
163 184 0
163 184 0
164 186 0
164 186 0
166 187 0
165 187 0
163 186 0
165 186 0
165 187 0
164 186 0
165 186 0
162 182 0
168 191 0
165 187 0
165 188 0
168 189 0
163 185 0
161 182 0
163 184 0
166 187 0
167 188 0
161 183 0
168 190 0
164 186 0
167 189 0
164 186 0
168 188 0
168 191 0
168 190 0
168 190 0
165 187 0
172 195 111
172 195 72
170 193 76
173 196 102
175 197 92
171 194 76
176 199 120
173 196 84
170 192 99
171 194 84
171 194 108
171 194 108
172 195 117
170 193 92
174 198 88
172 195 102
173 196 99
169 193 99
171 195 102
164 187 88
173 197 111
172 195 102
173 197 111
172 196 80
166 189 95
171 194 117
165 188 88
170 194 99
168 191 84
170 193 102
165 188 88
167 190 105
161 184 80
167 190 92
163 185 76
167 191 95
170 193 111
171 194 108
165 188 84
174 196 92
168 191 95
166 189 92
168 191 92
165 189 105
165 188 95
168 192 88
166 189 92
165 188 76
164 187 99
166 189 108
165 188 95
167 191 102
165 189 92
167 190 114
164 187 102
157 180 80
165 188 117
164 187 99
164 187 99
164 188 105
168 191 105
166 189 95
165 188 92
157 180 80
157 179 84
163 185 92
163 185 88
167 189 111
169 192 122
166 189 99
153 175 84
159 181 108
162 184 108
160 182 84
157 179 88
155 178 99
165 187 117
160 182 105
163 185 80
163 186 111
165 187 102
159 181 88
157 178 99
157 179 92
160 181 99
152 174 72
153 174 88
162 183 105
151 171 95
157 179 84
152 173 76
157 177 95
156 177 105
162 183 102
152 172 88
168 188 108
149 170 92
151 170 88
153 173 88
154 175 67
157 177 95
159 180 99
147 168 72
159 178 117
150 170 88
154 173 105
153 173 88
149 169 84
163 182 111
152 172 95
150 171 80
149 168 84
145 164 84
144 163 76
149 169 80
144 163 80
138 157 36
143 162 67
151 171 67
136 155 57
130 151 25
139 159 0
139 159 44
128 148 36
142 163 0
126 146 36
139 159 44
147 168 36
149 170 0
139 159 0
143 164 25
149 170 44
143 164 0
149 170 0
141 162 25
149 171 0
151 172 0
154 175 0
140 161 0
147 168 0
147 168 0
148 170 0
139 159 0
141 161 0
144 166 0
129 150 0
136 157 0
130 150 0
127 147 0
132 152 0
133 153 0
141 161 0
135 155 0
132 153 0
132 152 0
140 160 0
125 144 0
131 151 0
122 141 0
128 148 0
128 148 0
125 145 0
134 153 0
126 146 0
129 149 0
128 147 0
119 139 0
117 137 0
129 148 0
121 140 0
113 132 0
124 142 0
125 144 0
128 146 0
118 138 0
124 143 0
120 140 0
128 147 0
135 155 0
131 149 0
125 144 0
128 148 0
129 149 0
134 154 0
123 143 0
138 159 0
129 147 0
135 155 0
120 139 0
128 147 0
126 146 0
134 153 0
122 142 0
129 149 0
126 145 0
135 154 0
130 149 0
131 150 0
130 149 0
136 155 0
130 149 0
125 142 0
130 150 0
123 144 0
129 147 0
132 152 0
123 142 0
137 158 0
131 150 0
136 158 0
124 144 0
139 160 0
128 147 0
123 144 0
124 145 0
133 154 0
140 159 0
126 145 0
121 140 0
129 148 0
141 160 0
133 153 0
136 156 0
135 154 0
130 149 0
135 156 0
138 159 0
135 154 0
143 163 0
130 151 0
139 159 0
138 158 0
137 158 0
142 164 0
141 162 0
140 160 0
138 157 0
139 158 0
135 154 0
148 169 0
134 154 0
140 161 0
151 171 0
138 158 0
136 157 0
133 153 0
142 162 0
133 153 0
140 160 0
139 160 0
143 163 0
147 170 0
152 173 0
137 158 0
141 162 0
146 167 0
155 176 0
145 166 0
147 168 0
143 164 0
147 168 0
138 160 0
151 172 0
151 171 0
154 176 0
149 171 0
149 168 0
149 171 0
141 161 0
152 173 0
151 172 0
148 168 0
145 167 0
147 167 0
154 173 0
157 177 0
148 170 0
157 178 0
149 171 0
155 177 0
143 163 0
147 169 0
150 171 0
149 171 0
150 173 0
153 174 0
148 167 0
147 167 0
154 177 0
160 182 0
153 173 0
147 167 0
152 173 0
155 177 0
156 177 0
157 177 0
156 178 0
157 179 0
156 177 0
159 181 0
157 179 0
157 178 0
157 179 0
156 178 0
154 174 0
155 175 0
160 180 0
161 181 0
159 180 0
159 181 0
149 171 0
151 173 0
157 178 0
161 183 0
155 178 0
163 186 0
159 180 0
159 181 0
155 176 0
158 180 0
159 181 0
158 178 0
161 183 0
156 177 0
159 181 0
156 177 0
163 185 0
162 182 0
158 179 0
158 180 0
163 184 0
162 181 0
159 180 0
161 183 0
163 185 0
163 184 0
160 181 0
162 182 0
157 177 0
159 181 0
159 180 0
162 184 0
161 182 0
161 182 0
164 184 0
165 188 0
162 184 0
164 186 0
161 182 0
162 183 0
165 187 0
163 184 0
163 186 0
164 185 0
164 187 0
164 186 0
165 186 0
163 184 0
165 187 0
162 183 0
161 182 0
160 181 0
163 184 0
164 186 0
165 187 0
166 187 0
161 182 0
163 184 0
166 187 0
159 180 0
168 190 0
163 186 0
166 188 0
164 186 0
165 189 0
163 186 0
164 188 0
161 183 0
163 185 0
165 186 0
166 189 0
163 186 0
163 185 0
165 187 0
166 188 0
167 189 0
165 187 0
165 185 0
167 190 0
163 184 0
167 189 0
161 181 0
169 191 0
164 185 0
168 189 0
166 188 0
165 186 0
165 186 0
166 188 0
163 187 0
174 197 108
176 198 117
174 196 80
175 198 102
170 194 95
174 197 102
170 193 76
179 201 105
173 196 99
166 190 88
173 196 95
172 196 108
174 197 102
169 192 105
173 196 105
165 189 108
170 193 105
170 194 117
168 190 99
170 193 102
172 194 92
177 199 102
171 194 92
167 190 88
167 190 88
171 196 102
166 190 105
166 190 84
163 185 95
170 194 95
167 191 80
171 194 99
168 192 80
164 187 99
169 193 105
167 191 95
168 191 80
171 194 105
171 195 125
175 198 122
168 191 117
168 192 102
168 191 105
169 192 84
163 186 80
161 184 99
169 193 122
165 188 80
166 189 99
161 184 84
167 190 111
164 187 95
162 184 88
157 180 99
158 182 84
163 185 105
167 190 111
155 178 72
165 187 95
159 181 95
159 182 76
166 189 105
162 183 95
158 181 99
169 192 122
165 188 105
160 183 84
161 183 84
163 185 95
158 179 111
163 184 99
166 189 117
157 179 72
164 186 105
162 185 84
168 189 108
165 186 111
151 172 84
149 171 88
159 181 92
160 182 95
156 178 92
151 172 99
162 184 88
167 189 111
165 187 114
165 186 111
166 187 108
158 180 95
159 180 92
153 174 80
157 178 114
157 178 76
155 176 99
154 175 76
147 167 67
165 185 108
156 178 92
163 183 84
158 179 105
157 177 88
148 167 92
163 183 105
155 175 92
149 169 99
164 184 95
154 175 88
155 175 99
160 179 95
150 170 84
154 174 80
160 180 95
153 173 62
144 164 72
148 167 76
149 168 62
142 161 72
141 161 72
130 149 36
149 169 57
145 164 36
144 164 44
150 170 67
136 157 25
142 163 44
147 167 36
146 167 25
149 170 36
137 158 0
147 168 51
141 162 25
150 171 44
150 171 25
145 166 0
139 159 0
142 162 0
144 163 0
145 165 0
148 169 0
144 166 0
153 174 0
137 157 0
142 163 0
145 166 0
134 154 0
134 155 0
140 161 0
133 154 0
135 156 0
131 152 0
141 161 0
136 156 0
124 144 0
139 158 0
127 147 0
119 139 0
130 150 0
139 160 0
128 147 0
117 137 0
123 142 0
137 157 0
122 142 0
128 147 0
130 150 0
138 157 0
127 147 0
125 145 0
125 143 0
127 147 0
124 143 0
135 155 0
122 141 0
127 147 0
112 132 0
126 146 0
123 143 0
133 153 0
111 131 0
136 156 0
133 152 0
124 143 0
122 141 0
125 144 0
132 151 0
119 138 0
127 148 0
124 145 0
122 142 0
121 140 0
133 153 0
118 137 0
131 152 0
133 152 0
131 150 0
127 147 0
125 144 0
124 144 0
129 149 0
131 149 0
123 142 0
120 141 0
126 144 0
131 151 0
129 149 0
132 152 0
131 151 0
134 154 0
125 146 0
135 156 0
125 146 0
136 154 0
124 144 0
131 149 0
127 147 0
142 162 0
137 157 0
136 155 0
139 161 0
133 152 0
143 163 0
128 148 0
130 151 0
135 156 0
135 155 0
145 165 0
144 165 0
138 158 0
143 164 0
139 160 0
139 160 0
140 160 0
134 153 0
130 149 0
140 159 0
138 160 0
132 153 0
135 155 0
135 156 0
138 156 0
138 160 0
140 161 0
137 158 0
146 167 0
135 155 0
151 173 0
137 159 0
153 174 0
135 156 0
141 161 0
144 165 0
142 164 0
146 167 0
150 172 0
141 162 0
146 167 0
147 168 0
149 169 0
143 163 0
150 170 0
151 171 0
145 165 0
134 154 0
148 169 0
144 164 0
146 166 0
155 176 0
145 165 0
149 170 0
150 171 0
147 168 0
149 170 0
152 174 0
146 167 0
146 167 0
149 171 0
145 166 0
150 173 0
155 177 0
152 174 0
154 175 0
154 174 0
154 176 0
155 176 0
161 182 0
151 172 0
158 179 0
154 177 0
155 176 0
152 173 0
158 179 0
158 178 0
150 171 0
159 179 0
156 178 0
149 171 0
152 172 0
153 175 0
153 175 0
156 178 0
149 171 0
155 176 0
157 179 0
159 181 0
159 180 0
159 180 0
156 177 0
151 172 0
156 176 0
160 182 0
162 183 0
157 179 0
151 171 0
161 182 0
162 183 0
159 180 0
154 176 0
155 176 0
161 182 0
156 178 0
158 179 0
160 182 0
152 172 0
160 181 0
162 184 0
159 179 0
161 182 0
161 182 0
159 181 0
160 181 0
154 175 0
168 191 0
163 184 0
162 183 0
158 181 0
166 187 0
158 180 0
161 183 0
163 184 0
162 184 0
160 182 0
163 184 0
161 182 0
162 185 0
161 182 0
163 186 0
165 187 0
159 180 0
165 187 0
164 185 0
161 182 0
163 184 0
160 181 0
167 188 0
164 185 0
164 187 0
160 181 0
161 183 0
164 186 0
166 188 0
168 189 0
162 182 0
165 187 0
163 186 0
165 187 0
165 187 0
161 182 0
167 189 0
163 184 0
163 185 0
166 188 0
164 188 0
162 182 0
166 188 0
162 185 0
164 185 0
156 176 0
166 189 0
165 186 0
165 187 0
165 186 0
163 185 0
163 186 0
163 185 0
163 186 0
166 188 0
169 190 0
167 188 0
169 191 0
168 191 0
161 182 0
169 191 0
165 187 0
164 185 0
165 187 0
167 189 0
165 188 0
165 188 0
166 187 0
165 187 0
171 194 76
175 198 102
176 199 99
175 198 108
170 193 99
171 195 88
172 195 99
171 194 84
171 193 80
170 193 84
169 192 80
173 196 102
176 200 120
166 189 95
170 193 88
171 195 80
171 193 95
170 193 80
168 191 105
168 191 92
167 190 88
166 189 88
174 197 99
169 192 105
172 196 102
169 192 111
164 187 57
165 189 99
167 191 92
169 192 84
167 191 84
169 192 105
167 191 95
171 194 105
163 186 117
164 187 80
172 195 102
169 192 80
165 188 105
166 190 114
165 188 80
174 197 102
167 191 108
172 194 114
162 184 102
166 189 105
166 189 105
170 193 117
163 186 84
162 185 84
166 189 92
160 183 92
151 174 80
165 189 92
166 189 105
169 192 99
162 185 80
165 188 105
167 190 92
165 187 92
164 186 108
162 184 108
162 184 102
160 182 88
159 181 99
164 186 105
166 189 120
162 184 72
156 178 95
167 190 117
163 186 117
157 180 102
168 189 105
164 185 111
160 182 102
162 184 92
164 186 80
162 183 108
167 188 120
162 183 92
153 175 84
157 179 99
157 179 105
157 178 76
164 185 111
153 175 88
158 179 95
158 179 84
153 174 88
156 177 84
154 174 111
157 178 99
159 180 99
149 169 84
165 185 117
150 171 67
153 174 105
167 188 108
162 183 84
163 183 92
155 175 108
154 174 84
158 178 88
157 176 99
158 178 95
162 182 108
154 174 92
161 180 108
157 177 99
154 173 95
153 173 99
152 173 95
148 167 62
139 158 67
141 161 57
148 170 57
145 163 62
141 162 57
144 165 44
142 163 62
132 153 25
138 159 36
139 159 62
142 164 36
138 159 51
145 165 25
150 171 0
148 168 25
142 164 25
146 167 36
148 169 0
150 171 0
145 167 25
146 169 0
157 179 0
149 171 0
147 167 0
145 167 0
149 168 0
146 168 0
159 180 0
144 165 0
152 173 0
138 158 0
135 156 0
139 159 0
131 152 0
140 160 0
131 151 0
128 150 0
142 163 0
140 160 0
133 153 0
128 148 0
135 154 0
128 148 0
125 146 0
126 146 0
132 152 0
131 150 0
131 151 0
129 149 0
119 138 0
130 150 0
127 147 0
133 153 0
137 156 0
129 148 0
123 143 0
139 158 0
131 150 0
131 151 0
125 146 0
132 152 0
135 156 0
131 151 0
119 138 0
124 143 0
126 147 0
125 144 0
129 150 0
127 147 0
120 139 0
118 137 0
123 142 0
125 145 0
125 145 0
135 155 0
134 153 0
137 157 0
141 162 0
124 144 0
130 149 0
132 151 0
123 142 0
128 148 0
130 150 0
132 152 0
128 148 0
134 153 0
126 147 0
129 148 0
139 159 0
140 160 0
124 144 0
140 160 0
135 155 0
133 155 0
134 155 0
127 147 0
132 152 0
139 158 0
128 148 0
143 163 0
142 163 0
136 157 0
129 149 0
129 149 0
133 151 0
144 164 0
135 156 0
143 163 0
134 153 0
131 152 0
141 160 0
132 153 0
144 166 0
136 158 0
140 160 0
145 166 0
143 164 0
132 152 0
130 150 0
133 156 0
140 159 0
141 162 0
143 165 0
138 158 0
141 162 0
136 157 0
140 162 0
140 160 0
139 160 0
139 160 0
137 158 0
146 166 0
144 162 0
139 158 0
149 170 0
146 166 0
140 161 0
145 164 0
147 169 0
146 167 0
146 166 0
142 162 0
150 170 0
153 173 0
153 174 0
151 171 0
143 164 0
139 160 0
150 170 0
153 176 0
149 171 0
146 167 0
146 167 0
154 174 0
148 170 0
153 175 0
150 170 0
153 174 0
145 167 0
159 181 0
151 172 0
151 173 0
153 175 0
154 176 0
154 175 0
149 170 0
154 176 0
151 173 0
155 174 0
153 174 0
160 180 0
155 178 0
151 172 0
161 182 0
154 176 0
146 168 0
148 168 0
153 176 0
152 171 0
153 174 0
155 177 0
160 183 0
157 179 0
158 179 0
161 182 0
152 172 0
155 177 0
152 172 0
157 178 0
158 178 0
155 176 0
154 175 0
157 179 0
155 177 0
156 177 0
146 166 0
158 179 0
157 179 0
161 183 0
161 182 0
161 182 0
166 188 0
159 181 0
154 175 0
158 179 0
159 180 0
154 176 0
160 181 0
162 184 0
157 177 0
151 172 0
151 172 0
161 182 0
157 178 0
166 188 0
160 180 0
154 175 0
159 178 0
165 186 0
159 180 0
161 185 0
164 186 0
157 178 0
162 184 0
161 182 0
161 182 0
160 181 0
156 176 0
161 183 0
163 184 0
164 185 0
161 183 0
165 187 0
163 185 0
165 188 0
166 188 0
166 190 0
162 184 0
162 183 0
164 185 0
162 182 0
168 189 0
164 185 0
163 186 0
165 185 0
168 191 0
166 188 0
163 185 0
166 189 0
161 182 0
160 181 0
162 184 0
166 190 0
165 188 0
165 187 0
160 182 0
165 188 0
162 184 0
169 191 0
163 185 0
163 185 0
161 184 0
162 184 0
160 180 0
168 189 0
164 185 0
164 186 0
158 178 0
165 187 0
159 179 0
166 189 0
161 183 0
168 188 0
163 185 0
167 188 0
164 186 0
163 184 0
168 190 0
164 185 0
166 189 0
165 188 0
164 186 0
166 189 0
166 187 0
162 183 0
169 191 0
178 200 99
174 197 95
173 196 95
174 196 125
177 200 114
174 197 88
171 193 80
173 196 95
169 193 99
171 194 99
171 195 99
171 195 84
169 192 88
175 198 88
168 192 80
169 192 99
170 194 88
172 195 114
168 192 80
173 196 108
170 193 92
167 189 80
171 194 111
167 191 94
172 195 108
164 187 88
167 191 105
167 191 76
168 191 92
167 191 95
163 186 95
167 190 76
169 192 92
170 194 105
166 189 95
168 191 117
169 192 80
170 193 102
167 190 92
170 192 99
174 197 108
166 189 95
169 192 99
170 193 122
173 196 105
162 185 80
155 178 84
161 184 88
162 185 88
163 186 102
166 189 99
160 184 102
164 187 92
167 190 99
167 190 105
165 188 95
166 189 102
166 189 88
167 189 114
161 184 111
168 192 95
168 192 92
161 184 72
160 183 95
159 181 88
165 188 95
163 186 95
170 192 120
161 183 76
166 189 111
159 182 95
165 186 95
167 189 99
165 187 84
158 180 80
162 184 92
156 178 80
155 177 92
156 178 102
160 182 99
155 176 88
161 184 105
158 179 108
155 176 102
171 192 122
149 171 92
157 178 67
150 171 84
163 185 88
160 180 105
152 173 108
164 183 117
147 168 80
158 179 80
158 179 102
161 182 108
160 180 125
159 179 105
158 178 99
158 179 92
148 167 76
153 174 88
157 178 80
153 174 80
152 171 95
153 173 92
149 169 67
158 177 108
157 177 99
150 170 72
147 168 72
157 179 72
152 171 76
153 173 84
152 172 62
131 151 57
138 158 51
138 159 51
140 158 80
148 168 44
144 164 25
151 170 57
142 162 25
148 169 25
144 164 44
136 156 25
149 170 44
143 164 25
152 172 25
149 171 51
146 166 0
150 171 0
145 166 44
146 169 25
146 167 0
146 167 0
154 175 0
144 166 0
149 171 25
147 168 0
152 175 0
137 158 0
151 172 0
138 158 0
134 156 0
141 162 0
143 164 0
136 156 0
132 153 0
138 159 0
133 155 25
131 151 0
140 160 0
139 159 0
133 154 0
122 143 0
137 155 0
135 156 0
126 144 0
122 142 0
126 146 0
140 160 0
131 152 0
127 148 0
132 152 0
130 149 0
125 145 0
122 142 0
127 148 0
139 159 0
125 145 0
138 159 0
127 147 0
125 145 0
135 155 0
128 147 0
121 140 0
126 148 0
128 147 0
108 127 0
129 149 0
119 138 0
124 144 0
129 149 0
126 145 0
115 135 0
136 156 0
136 155 0
131 151 0
128 147 0
130 148 0
127 146 0
129 148 0
131 151 0
132 152 0
117 136 0
137 156 0
136 155 0
137 158 0
131 151 0
128 147 0
134 154 0
127 146 0
137 158 0
126 146 0
123 144 0
124 144 0
132 151 0
136 156 0
141 161 0
127 146 0
132 151 0
124 143 0
143 164 0
132 153 0
142 164 0
133 153 0
142 163 0
135 156 0
145 166 0
139 158 0
143 164 0
134 155 0
139 159 0
135 155 0
130 151 0
126 146 0
142 162 0
136 157 0
146 166 0
140 160 0
138 159 0
148 169 0
128 150 0
138 159 0
144 165 0
143 163 0
149 170 0
136 157 0
151 172 0
138 160 0
141 162 0
146 166 0
151 172 0
136 156 0
140 162 0
143 164 0
142 164 0
143 164 0
151 173 0
148 169 0
152 174 0
146 166 0
151 173 0
144 164 0
146 167 0
144 165 0
143 165 0
145 167 0
148 170 0
149 171 0
149 170 0
151 175 0
142 163 0
152 173 0
148 170 0
156 176 0
153 174 0
155 177 0
146 167 0
144 165 0
151 171 0
150 171 0
144 165 0
152 174 0
152 175 0
145 164 0
153 175 0
153 175 0
143 164 0
156 179 0
151 170 0
145 163 0
150 170 0
152 173 0
156 177 0
155 177 0
149 171 0
156 177 0
157 179 0
159 180 0
154 174 0
155 177 0
147 168 0
156 176 0
147 168 0
162 184 0
153 174 0
160 182 0
159 181 0
162 183 0
152 172 0
157 178 0
157 178 0
155 175 0
152 172 0
164 187 0
157 180 0
156 178 0
144 164 0
160 181 0
159 180 0
160 182 0
152 173 0
160 182 0
163 185 0
154 175 0
155 178 0
155 176 0
156 176 0
159 181 0
159 181 0
160 182 0
158 177 0
162 184 0
161 182 0
164 184 0
159 180 0
153 174 0
154 176 0
163 184 0
167 189 0
160 182 0
156 178 0
160 182 0
157 179 0
156 176 0
160 181 0
162 184 0
161 184 0
165 186 0
162 183 0
166 188 0
160 182 0
164 187 0
166 188 0
162 183 0
165 186 0
160 181 0
165 186 0
161 183 0
162 185 0
162 183 0
160 181 0
163 186 0
158 178 0
159 181 0
168 189 0
163 185 0
166 189 0
161 183 0
161 184 0
164 185 0
169 191 0
160 182 0
163 184 0
166 188 0
167 190 0
158 180 0
162 184 0
167 187 0
163 185 0
164 184 0
162 185 0
165 188 0
167 188 0
170 192 0
163 184 0
170 190 0
164 187 0
169 191 0
163 186 0
170 192 0
166 189 0
168 191 0
170 192 0
165 187 0
166 189 0
164 186 0
164 186 0
161 184 0
168 190 0
166 187 0
164 186 0
165 187 0
169 191 0
164 188 0
167 189 0
172 193 0
168 190 0
168 190 92
180 203 117
179 202 88
173 196 99
171 195 102
173 196 92
170 193 88
165 188 84
173 196 99
170 192 88
173 196 84
173 197 117
172 195 88
171 195 88
174 198 99
171 193 92
173 195 76
170 194 118
172 196 95
169 193 84
176 200 128
170 193 84
172 194 105
175 198 114
170 194 88
169 192 102
171 194 92
162 186 88
169 192 84
168 191 102
164 187 114
170 193 92
164 188 102
168 190 80
168 191 108
171 195 76
168 191 99
166 189 111
173 196 102
167 190 95
168 192 76
169 192 99
163 187 99
166 189 95
168 190 95
168 191 92
164 187 99
163 187 102
168 191 88
166 189 92
161 184 99
163 186 114
163 186 80
161 184 99
164 187 105
169 192 111
161 184 80
166 188 102
162 185 95
161 184 84
166 189 95
161 183 92
162 185 111
161 184 84
164 186 95
161 183 80
160 183 88
168 190 95
164 187 114
162 185 120
154 176 102
167 189 108
161 184 92
167 189 105
159 181 88
166 188 99
161 183 84
160 181 105
157 179 99
164 185 108
168 189 120
160 183 102
156 178 76
167 188 108
162 183 99
156 177 111
152 173 84
157 179 88
160 182 92
158 179 111
143 164 76
156 177 72
154 174 84
155 175 84
156 178 92
158 178 120
162 182 105
158 180 88
156 177 102
158 178 108
158 178 99
155 175 95
157 178 102
158 178 99
156 176 99
159 178 102
158 178 102
158 178 111
142 163 62
157 177 92
158 179 84
160 180 88
149 169 67
148 168 80
135 156 62
153 173 62
149 171 36
154 174 88
144 165 57
140 161 36
145 166 36
138 159 51
146 167 25
144 164 51
145 165 36
147 168 36
139 160 36
142 164 36
146 168 0
155 176 0
143 163 0
141 162 0
150 172 0
144 165 25
147 169 0
149 171 0
156 178 25
147 168 0
147 168 0
149 172 0
148 169 0
144 166 0
140 162 0
146 166 0
142 163 0
132 154 0
146 167 0
137 157 0
141 161 0
136 157 0
142 163 0
135 156 0
137 157 0
138 158 0
135 156 0
134 153 0
128 148 0
136 156 0
135 155 0
133 153 0
127 147 0
134 155 0
129 149 0
139 158 0
128 149 0
116 134 0
136 156 0
125 145 0
140 160 0
128 147 0
125 144 0
138 158 0
121 141 0
133 155 0
119 139 0
127 147 0
123 143 0
137 158 0
138 159 0
132 151 0
126 146 0
131 149 0
127 147 0
126 145 0
130 150 0
142 163 0
128 149 0
133 153 0
132 151 0
141 161 0
125 144 0
129 149 0
134 154 0
125 145 0
131 150 0
128 148 0
124 145 0
124 143 0
144 165 0
133 153 0
124 145 0
136 157 0
134 153 0
137 156 0
145 167 0
129 149 0
133 154 0
135 155 0
142 162 0
145 166 0
133 153 0
128 148 0
138 158 0
128 149 0
132 151 0
137 157 0
142 162 0
138 158 0
137 158 0
136 157 0
144 165 0
132 153 0
128 147 0
134 155 0
131 152 0
135 156 0
133 153 0
141 162 0
149 169 0
143 163 0
146 167 0
150 172 0
138 160 0
141 163 0
138 160 0
152 173 0
145 166 0
136 157 0
142 163 0
146 167 0
139 161 0
143 162 0
137 158 0
142 162 0
146 166 0
140 161 0
146 168 0
143 165 0
145 166 0
151 173 0
151 172 0
136 157 0
146 168 0
141 163 0
151 173 0
148 169 0
142 163 0
146 167 0
152 173 0
144 166 0
157 178 0
150 171 0
150 171 0
143 165 0
150 171 0
162 182 0
149 169 0
146 167 0
148 169 0
158 180 0
148 169 0
149 169 0
146 166 0
155 177 0
148 169 0
153 174 0
150 171 0
152 173 0
147 169 0
154 176 0
152 175 0
153 174 0
152 172 0
155 177 0
151 171 0
156 177 0
161 184 0
150 169 0
157 180 0
156 178 0
157 179 0
155 176 0
158 180 0
156 177 0
160 182 0
154 176 0
157 180 0
155 176 0
160 183 0
150 171 0
155 175 0
160 182 0
147 167 0
161 184 0
156 178 0
158 179 0
158 181 0
158 180 0
158 181 0
158 180 0
155 176 0
157 179 0
160 181 0
160 180 0
162 185 0
159 180 0
161 184 0
160 181 0
162 185 0
161 182 0
160 182 0
162 184 0
153 174 0
164 186 0
154 175 0
159 179 0
154 175 0
163 182 0
162 183 0
157 179 0
158 180 0
161 182 0
158 179 0
161 184 0
160 182 0
160 184 0
161 182 0
158 178 0
161 182 0
166 189 0
160 183 0
166 188 0
164 186 0
164 186 0
162 185 0
164 186 0
155 177 0
161 185 0
157 180 0
162 182 0
165 186 0
162 185 0
167 189 0
161 182 0
161 183 0
157 179 0
165 187 0
168 189 0
160 181 0
157 179 0
162 183 0
170 192 0
164 187 0
163 184 0
166 188 0
164 186 0
163 184 0
165 187 0
162 184 0
165 187 0
163 185 0
164 185 0
161 182 0
164 186 0
163 185 0
162 182 0
169 191 0
162 184 0
171 193 0
167 187 0
168 189 0
160 182 0
168 191 0
164 186 0
166 187 0
164 186 0
164 186 0
161 182 0
168 191 0
167 189 0
164 187 0
164 187 0
168 191 0
164 185 0
166 189 0
170 192 0
165 185 0
167 190 0
167 189 0
169 191 0
174 196 84
176 197 102
176 198 111
175 198 99
173 196 88
174 197 84
178 201 120
177 198 114
173 196 111
169 192 92
171 194 95
173 196 102
175 198 114
171 194 99
168 192 92
169 193 92
170 194 95
169 193 84
169 192 80
172 195 99
170 194 102
169 192 92
171 194 76
165 188 102
170 193 99
171 193 88
170 193 95
163 186 84
165 187 95
168 192 99
167 190 92
172 195 117
170 193 99
167 190 105
165 189 111
166 189 95
172 194 76
164 187 92
170 193 84
169 192 111
167 190 105
166 189 88
171 195 114
168 191 102
168 190 95
168 191 99
166 189 80
167 190 92
168 191 111
167 191 99
155 178 84
162 185 80
170 192 102
163 185 95
160 183 99
162 184 92
162 184 114
169 192 102
162 185 80
170 193 108
170 192 108
163 185 88
160 183 92
161 183 84
168 190 92
164 187 105
162 184 102
156 178 88
161 183 108
158 181 99
162 185 95
166 188 95
161 184 80
164 187 114
166 188 111
154 175 95
167 189 108
155 176 92
166 189 117
168 190 95
149 171 92
166 187 102
160 181 92
159 180 99
154 175 102
164 185 95
151 172 108
157 178 95
156 177 99
158 180 111
159 180 105
149 169 95
148 169 67
162 183 92
154 174 88
156 177 114
158 179 111
153 174 105
165 186 108
157 177 84
154 175 88
151 171 76
150 170 88
160 179 120
155 176 67
155 175 88
154 174 76
157 177 88
154 174 88
142 162 72
155 175 62
152 172 88
150 171 57
143 164 57
145 165 51
144 165 57
152 172 67
155 176 44
148 169 51
155 175 57
143 164 25
149 170 36
149 171 51
144 165 25
150 170 44
143 164 44
143 165 36
150 171 25
147 169 0
151 172 0
141 163 0
147 168 0
155 175 25
149 170 0
152 175 25
155 177 25
146 169 0
142 163 0
153 175 0
152 173 0
145 167 0
142 164 0
146 167 0
140 162 0
146 168 0
142 164 0
132 153 0
142 162 0
143 163 0
131 152 0
131 153 0
137 158 0
133 152 0
138 159 0
136 157 0
129 149 0
123 144 0
125 146 0
142 162 0
139 158 0
139 158 0
124 144 0
132 154 0
131 151 0
129 150 0
137 157 0
129 149 0
138 159 0
137 157 0
126 146 0
126 146 0
139 159 0
136 156 0
132 153 0
134 153 0
136 156 0
131 152 0
137 157 0
132 152 0
129 148 0
127 147 0
128 149 0
135 155 0
127 147 0
124 144 0
130 150 0
138 159 0
130 149 0
128 149 0
139 160 0
139 159 0
128 149 0
138 159 0
138 160 0
130 150 0
125 145 0
135 155 0
133 153 0
137 159 0
135 157 0
131 151 0
137 157 0
128 147 0
133 154 0
136 158 0
130 149 0
133 155 0
133 154 0
134 153 0
135 156 0
134 155 0
139 160 0
144 166 0
145 166 0
120 140 0
139 158 0
135 156 0
143 165 0
146 167 0
137 158 0
141 163 0
134 153 0
137 158 0
145 166 0
141 162 0
133 152 0
142 163 0
145 167 0
140 160 0
147 168 0
143 165 0
134 154 0
140 161 0
145 165 0
137 159 0
147 168 0
132 152 0
137 159 0
144 165 0
142 163 0
149 171 0
141 162 0
149 169 0
146 167 0
139 159 0
145 165 0
147 168 0
138 160 0
152 173 0
143 164 0
148 168 0
136 156 0
145 166 0
146 168 0
138 159 0
141 161 0
153 174 0
143 163 0
148 169 0
150 172 0
143 166 0
149 170 0
154 176 0
143 164 0
157 179 0
149 172 0
150 172 0
146 165 0
155 177 0
157 179 0
148 170 0
156 179 0
145 168 0
152 175 0
148 170 0
151 172 0
153 174 0
154 175 0
146 168 0
152 174 0
149 171 0
156 178 0
153 174 0
155 176 0
153 174 0
161 183 0
155 178 0
152 176 0
151 171 0
159 181 0
163 185 0
163 184 0
153 175 0
156 178 0
155 177 0
157 178 0
161 182 0
153 174 0
159 181 0
155 176 0
162 183 0
157 179 0
157 178 0
156 176 0
157 179 0
158 180 0
159 181 0
159 180 0
158 178 0
160 181 0
157 179 0
156 178 0
163 185 0
155 176 0
157 179 0
156 176 0
161 182 0
153 173 0
159 180 0
158 180 0
154 175 0
158 178 0
161 184 0
161 183 0
162 183 0
168 188 0
149 170 0
162 183 0
160 180 0
161 184 0
162 183 0
157 178 0
159 180 0
156 175 0
166 188 0
160 182 0
166 189 0
163 184 0
161 184 0
161 183 0
159 180 0
163 185 0
164 185 0
159 182 0
159 181 0
166 189 0
158 180 0
165 187 0
167 190 0
166 189 0
159 182 0
161 183 0
164 186 0
168 191 0
166 189 0
164 186 0
165 187 0
160 182 0
163 184 0
159 180 0
165 188 0
165 187 0
163 185 0
163 184 0
163 186 0
166 189 0
168 191 0
162 182 0
160 182 0
167 189 0
165 186 0
167 188 0
163 184 0
165 187 0
167 190 0
166 187 0
159 180 0
163 186 0
165 188 0
169 191 0
168 191 0
163 185 0
165 186 0
170 193 0
171 191 0
164 185 0
165 188 0
167 188 0
163 184 0
168 188 0
168 190 0
165 187 0
166 188 0
166 188 0
165 187 0
167 190 0
165 185 0
165 187 0
163 185 0
165 186 0
172 195 88
175 198 95
168 191 105
175 198 122
174 197 95
172 196 102
176 198 117
171 194 80
175 198 111
176 199 120
174 198 102
167 190 80
171 193 80
169 193 99
170 194 102
168 191 88
172 194 108
171 193 92
174 197 80
173 195 92
171 194 102
169 192 99
171 194 103
167 190 99
169 193 92
168 191 84
165 188 95
170 193 88
169 192 92
167 190 62
166 190 105
168 191 92
169 192 99
171 195 114
167 191 114
170 193 102
169 192 84
165 187 105
171 193 95
169 191 72
168 191 84
164 187 102
160 183 84
167 190 102
166 188 76
166 189 92
170 193 102
167 190 99
165 188 102
168 190 95
164 186 95
165 188 92
168 191 99
169 191 102
166 189 108
163 186 99
159 182 92
166 188 99
162 185 92
158 182 92
161 184 99
161 183 80
168 192 102
162 184 99
159 181 95
166 187 102
163 184 95
165 186 99
164 187 102
159 181 84
166 187 102
156 178 95
164 186 84
160 182 72
159 180 102
164 186 80
167 188 102
163 185 105
157 180 95
156 178 88
162 184 102
165 187 88
168 190 99
152 172 84
166 187 102
158 179 111
158 179 80
169 190 114
157 178 99
159 180 102
157 179 88
158 178 120
159 180 95
157 178 99
158 179 92
154 174 72
164 185 105
161 181 111
157 178 99
155 176 102
158 178 84
162 181 84
153 172 99
147 168 72
154 175 92
162 183 95
151 171 80
158 178 88
146 166 62
144 164 62
148 168 76
156 177 84
151 172 80
151 173 67
149 169 57
141 162 57
159 179 67
145 166 72
150 170 44
148 169 44
155 176 57
144 166 44
145 167 44
152 173 51
149 170 57
148 170 36
143 165 36
146 168 0
148 170 0
145 167 0
154 176 0
146 167 0
162 184 44
153 176 0
155 177 0
148 169 0
143 164 25
136 157 0
151 173 0
145 166 0
144 165 0
145 166 0
143 164 0
146 167 0
147 169 0
145 167 0
140 161 0
142 162 0
140 161 0
142 164 0
129 149 0
149 170 0
137 158 0
135 156 0
139 159 0
147 168 0
131 151 0
128 149 0
121 141 0
126 146 0
130 151 0
130 150 0
127 145 0
125 145 0
132 152 0
136 157 0
133 154 0
128 148 0
132 152 0
141 162 0
132 152 0
134 155 0
137 157 0
131 151 0
140 160 0
121 140 0
130 149 0
130 151 0
135 156 0
121 141 0
136 156 0
131 152 0
134 155 0
125 144 0
127 148 0
135 155 0
133 153 0
133 153 0
122 142 0
125 144 0
132 153 0
135 156 0
135 155 0
123 144 0
130 150 0
139 160 0
133 153 0
139 160 0
132 152 0
125 146 0
133 152 0
133 152 0
132 153 0
140 160 0
131 151 0
145 166 0
142 162 0
138 160 0
129 148 0
138 159 0
149 171 0
143 165 0
136 155 0
134 155 0
127 147 0
132 153 0
135 155 0
132 153 0
131 151 0
146 167 0
147 168 0
139 160 0
142 163 0
143 164 0
134 155 0
143 164 0
137 158 0
143 164 0
143 163 0
133 155 0
145 166 0
137 159 0
134 155 0
139 159 0
141 162 0
136 158 0
140 161 0
134 155 0
144 166 0
149 170 0
145 166 0
143 163 0
137 159 0
142 164 0
148 168 0
141 162 0
147 168 0
151 172 0
143 162 0
142 162 0
147 168 0
140 159 0
143 165 0
141 162 0
142 164 0
145 167 0
150 172 0
148 169 0
142 163 0
144 166 0
149 171 0
151 172 0
150 172 0
145 166 0
144 165 0
154 176 0
147 168 0
151 172 0
154 176 0
152 174 0
149 170 0
155 176 0
150 172 0
151 174 0
152 172 0
162 182 0
153 173 0
145 166 0
156 178 0
149 169 0
151 173 0
156 177 0
149 171 0
154 173 0
152 174 0
153 174 0
156 178 0
155 177 0
154 175 0
155 176 0
156 178 0
150 170 0
162 184 0
153 174 0
160 181 0
160 181 0
160 184 0
162 182 0
156 175 0
154 177 0
155 176 0
157 176 0
159 181 0
157 179 0
155 176 0
157 179 0
154 177 0
156 177 0
159 180 0
159 180 0
152 173 0
158 181 0
164 187 0
160 182 0
162 184 0
159 180 0
159 181 0
161 182 0
157 178 0
163 184 0
161 181 0
166 187 0
159 181 0
158 180 0
161 182 0
163 185 0
159 181 0
163 185 0
164 187 0
158 179 0
158 180 0
156 177 0
163 186 0
163 185 0
162 182 0
163 185 0
164 187 0
157 179 0
163 184 0
156 177 0
169 191 0
154 175 0
160 182 0
154 174 0
163 185 0
161 183 0
165 186 0
163 186 0
159 181 0
162 185 0
166 189 0
162 184 0
168 190 0
161 184 0
167 188 0
163 185 0
159 180 0
166 188 0
166 187 0
166 188 0
162 185 0
162 184 0
163 185 0
161 182 0
163 186 0
164 186 0
160 182 0
161 182 0
162 184 0
167 189 0
165 185 0
159 181 0
165 188 0
167 190 0
167 189 0
169 191 0
161 182 0
164 185 0
167 190 0
165 187 0
168 189 0
166 188 0
167 189 0
163 186 0
166 188 0
163 186 0
164 186 0
165 188 0
166 190 0
166 189 0
169 192 0
166 188 0
166 188 0
170 191 0
167 188 0
167 190 0
164 186 0
167 189 0
165 189 0
167 190 0
175 198 108
174 196 99
175 199 95
174 198 108
175 199 105
173 197 95
172 195 95
175 198 95
173 195 108
177 199 92
173 196 105
169 193 62
171 194 99
170 193 92
173 196 88
167 191 84
172 195 99
174 197 76
172 195 108
171 194 95
176 199 102
171 194 62
168 191 92
170 193 92
168 191 99
172 195 92
167 190 92
171 194 122
170 193 102
169 192 99
167 190 111
164 187 102
169 192 105
169 192 88
168 191 102
166 189 76
172 195 122
167 190 108
168 191 108
162 185 62
167 190 105
167 190 111
163 187 76
161 185 99
165 188 88
162 185 95
161 184 102
169 192 111
171 194 102
162 185 88
169 192 105
163 187 114
166 189 108
164 187 95
164 186 102
164 187 88
167 189 92
166 188 99
171 193 92
167 190 120
167 188 95
161 183 84
161 183 84
166 188 99
169 191 99
160 183 99
163 185 95
161 184 105
162 184 76
168 190 105
161 184 114
163 185 105
159 182 92
162 183 84
161 182 84
157 179 88
159 180 92
160 181 95
170 193 114
167 189 99
164 186 95
163 184 88
157 179 84
159 180 72
162 184 92
153 175 84
161 182 99
164 184 102
166 187 125
156 176 95
160 180 105
159 179 95
153 175 80
162 182 95
164 184 99
163 183 114
150 171 84
158 177 105
158 179 84
148 167 88
156 176 99
159 179 105
158 179 105
153 172 84
156 177 76
155 175 105
155 175 80
163 183 95
158 178 76
150 170 76
164 184 92
156 176 62
149 168 72
150 170 72
137 158 57
143 164 44
151 172 67
156 177 62
152 174 44
139 160 36
159 180 51
157 178 44
149 171 25
151 173 25
151 171 44
146 167 25
153 174 36
153 175 51
153 174 25
155 177 0
148 170 0
144 166 0
154 176 0
147 169 0
159 181 25
146 168 0
147 168 25
151 173 0
150 172 0
151 173 0
154 176 0
143 166 0
147 168 0
137 159 0
146 168 0
148 170 0
150 172 0
133 154 0
140 161 0
136 157 0
147 169 0
128 147 0
140 161 0
145 166 0
131 153 0
130 150 0
141 162 0
142 163 0
133 153 0
125 146 0
142 162 0
128 148 0
126 146 0
141 160 0
138 158 0
133 153 0
139 160 0
133 154 0
139 161 0
134 153 0
132 153 0
133 153 0
135 155 0
134 154 0
140 161 0
131 151 0
128 149 0
142 162 0
129 148 0
122 142 0
130 150 0
128 148 0
121 141 0
136 156 0
135 156 0
139 158 0
134 155 0
131 152 0
137 157 0
128 149 0
136 157 0
128 149 0
126 146 0
127 147 0
127 147 0
137 158 0
123 143 0
140 160 0
135 156 0
142 163 0
135 156 0
138 158 0
138 158 0
140 160 0
139 159 0
146 166 0
135 156 0
138 158 0
131 152 0
137 158 0
141 162 0
142 163 0
132 152 0
133 154 0
135 156 0
138 159 0
125 146 0
140 159 0
147 168 0
146 168 0
137 157 0
136 156 0
144 165 0
138 158 0
129 151 0
140 160 0
141 162 0
136 156 0
141 163 0
137 157 0
148 169 0
152 173 0
141 163 0
139 160 0
142 164 0
137 158 0
140 160 0
142 163 0
131 152 0
140 162 0
144 165 0
147 169 0
144 166 0
140 162 0
142 164 0
151 172 0
141 162 0
146 165 0
146 168 0
146 168 0
137 158 0
148 169 0
143 164 0
150 170 0
145 166 0
142 164 0
149 170 0
152 173 0
148 169 0
146 168 0
146 169 0
146 168 0
148 170 0
143 164 0
148 170 0
150 170 0
151 172 0
146 167 0
150 173 0
153 175 0
155 177 0
152 175 0
159 180 0
157 178 0
153 176 0
151 172 0
144 166 0
152 175 0
144 165 0
149 171 0
153 173 0
147 168 0
154 175 0
145 166 0
156 179 0
157 179 0
155 177 0
157 179 0
159 181 0
148 169 0
150 171 0
155 176 0
153 174 0
156 179 0
158 178 0
154 175 0
163 183 0
146 167 0
155 176 0
157 178 0
151 172 0
157 179 0
157 179 0
155 176 0
152 174 0
162 184 0
156 177 0
162 184 0
161 181 0
155 176 0
158 179 0
154 177 0
161 183 0
156 178 0
153 175 0
163 185 0
164 185 0
159 180 0
160 181 0
159 181 0
159 180 0
157 180 0
166 187 0
163 184 0
160 183 0
158 181 0
157 178 0
157 177 0
162 184 0
158 179 0
162 184 0
162 182 0
162 184 0
162 185 0
161 181 0
160 183 0
156 178 0
161 183 0
164 186 0
165 187 0
164 187 0
163 185 0
160 182 0
164 186 0
168 190 0
163 185 0
160 182 0
165 186 0
160 180 0
162 184 0
163 185 0
160 182 0
161 182 0
161 183 0
163 185 0
166 188 0
165 186 0
162 185 0
161 184 0
165 188 0
166 188 0
165 187 0
161 182 0
160 180 0
162 183 0
166 188 0
164 186 0
169 191 0
165 186 0
165 188 0
164 186 0
165 186 0
162 183 0
164 187 0
166 187 0
163 183 0
165 185 0
164 186 0
164 186 0
165 188 0
167 189 0
164 186 0
163 185 0
161 185 0
167 189 0
167 189 0
164 185 0
162 183 0
166 188 0
166 188 0
165 187 0
168 188 0
166 187 0
168 190 0
167 186 0
167 190 0
165 186 0
163 185 0
168 191 0
167 189 0
176 198 95
173 197 84
171 194 117
174 197 95
172 195 105
174 197 88
176 199 84
174 197 84
178 201 108
171 193 105
173 195 92
173 196 117
176 199 108
170 193 102
175 197 99
174 198 95
171 194 88
170 193 92
167 191 99
164 188 76
173 195 99
173 196 99
169 192 72
163 186 99
166 189 84
172 194 80
165 187 76
175 198 92
168 192 102
172 194 95
170 193 95
164 187 99
172 195 95
165 187 88
169 192 99
165 189 95
168 191 84
163 185 80
170 193 111
171 193 114
165 189 88
168 190 120
165 188 67
168 191 114
169 192 117
160 183 76
161 184 92
169 191 105
164 187 108
169 192 80
166 189 84
167 190 108
166 188 88
166 189 92
163 186 108
164 187 88
164 187 111
162 184 88
159 181 95
171 192 108
167 190 95
162 184 120
159 181 84
168 190 80
161 184 111
157 180 80
163 184 99
163 185 95
163 185 99
162 183 105
160 181 95
161 184 99
168 188 95
163 185 95
163 186 76
163 185 108
161 183 95
155 176 72
163 185 95
170 191 111
158 180 88
150 171 76
162 184 95
165 185 117
157 177 95
160 181 62
165 185 108
157 178 92
151 173 80
154 175 102
155 175 95
166 187 114
152 172 88
155 176 84
162 183 95
155 175 80
161 181 105
163 183 111
158 177 105
158 179 92
158 178 92
163 183 111
152 172 92
150 170 92
155 175 72
154 175 88
149 170 80
157 177 92
148 167 80
149 169 92
157 178 84
149 169 76
156 177 76
158 180 67
152 173 51
150 172 67
159 180 76
145 166 51
143 164 36
145 166 36
152 174 25
152 172 51
148 169 44
147 168 36
153 174 44
147 167 36
152 174 0
150 172 36
140 161 0
142 164 25
144 165 25
152 173 25
154 176 0
152 174 0
145 166 0
159 180 0
156 178 0
152 174 25
153 175 0
150 173 0
149 171 0
149 169 0
145 167 0
145 167 0
142 163 0
144 166 0
147 169 0
141 162 0
142 163 0
142 163 0
145 167 0
140 161 0
144 164 0
137 158 0
140 160 0
139 160 0
133 154 0
134 154 0
132 152 0
135 155 0
138 159 0
137 157 0
144 164 0
142 162 0
134 155 0
134 155 0
127 147 0
136 157 0
142 162 0
136 156 0
139 158 0
139 160 0
136 156 0
131 152 0
135 155 0
129 150 0
136 157 0
130 149 0
138 158 0
132 152 0
126 146 0
127 148 0
135 156 0
141 161 0
141 161 0
131 150 0
130 150 0
134 155 0
139 160 0
146 165 0
132 153 0
129 150 0
144 164 0
131 152 0
133 153 0
140 162 0
126 148 0
128 150 0
134 155 0
139 161 0
142 162 0
133 154 0
142 163 0
142 164 0
136 156 0
136 156 0
145 167 0
141 162 0
137 159 0
133 154 0
144 165 0
143 163 0
133 154 0
137 158 0
137 157 0
136 157 0
135 156 0
141 162 0
143 165 0
143 165 0
138 160 0
142 162 0
146 167 0
132 153 0
147 168 0
140 160 0
141 162 0
134 155 0
140 162 0
143 165 0
150 172 0
150 171 0
146 166 0
137 157 0
144 164 0
139 161 0
145 165 0
146 167 0
145 166 0
149 171 0
136 157 0
135 156 0
146 166 0
148 169 0
148 169 0
151 173 0
149 170 0
150 172 0
136 158 0
149 170 0
153 176 0
147 169 0
152 174 0
147 169 0
148 170 0
155 177 0
142 163 0
151 171 0
155 176 0
157 178 0
143 165 0
154 176 0
157 178 0
155 177 0
153 175 0
149 172 0
152 174 0
158 178 0
150 173 0
155 179 0
150 171 0
153 176 0
151 171 0
155 177 0
150 172 0
153 174 0
154 176 0
159 182 0
157 179 0
151 173 0
160 181 0
148 169 0
152 174 0
151 172 0
152 174 0
153 175 0
150 172 0
155 178 0
159 181 0
155 177 0
159 182 0
150 172 0
158 180 0
157 180 0
157 178 0
162 184 0
156 178 0
158 180 0
157 178 0
159 180 0
162 183 0
156 178 0
157 178 0
148 170 0
155 175 0
159 182 0
159 181 0
152 173 0
151 171 0
160 182 0
162 184 0
163 186 0
163 185 0
159 180 0
162 183 0
155 175 0
161 182 0
157 179 0
160 181 0
159 181 0
154 176 0
164 186 0
161 182 0
160 182 0
163 185 0
162 183 0
159 181 0
162 182 0
157 179 0
163 184 0
160 182 0
162 184 0
164 186 0
160 182 0
163 185 0
154 176 0
165 186 0
159 180 0
163 185 0
165 186 0
165 187 0
162 183 0
163 183 0
162 182 0
162 183 0
157 179 0
159 181 0
159 179 0
164 186 0
165 187 0
165 188 0
158 182 0
162 184 0
160 182 0
161 182 0
161 183 0
159 180 0
162 185 0
162 184 0
163 183 0
164 185 0
163 187 0
169 191 0
159 182 0
158 180 0
163 186 0
168 191 0
163 184 0
163 185 0
162 184 0
168 191 0
157 178 0
167 189 0
161 183 0
164 186 0
165 188 0
167 189 0
164 187 0
163 185 0
166 188 0
166 188 0
167 188 0
164 185 0
165 186 0
163 184 0
166 188 0
171 193 0
168 189 0
165 187 0
170 192 0
162 185 0
167 189 0
165 187 0
168 192 0
166 188 0
168 190 0
166 187 0
164 185 0
168 191 0
164 187 0
173 196 92
170 194 86
174 197 80
171 193 95
170 193 88
176 198 99
175 198 92
167 189 80
174 197 105
172 195 84
171 194 80
171 194 84
172 195 95
174 197 102
172 195 100
175 197 95
171 194 99
170 193 84
174 197 99
169 192 99
170 194 111
166 189 76
171 194 105
167 189 95
167 189 67
165 187 44
172 196 88
166 188 80
170 194 97
168 191 99
167 190 72
166 188 57
166 190 99
167 190 76
164 186 76
167 190 99
166 189 95
169 192 122
170 193 92
163 185 80
171 194 117
166 188 67
167 190 92
170 192 117
163 187 120
171 194 108
161 184 92
165 188 108
171 194 102
158 182 95
166 190 108
163 185 95
167 188 95
165 188 102
169 191 88
166 189 108
169 191 95
168 191 92
157 180 80
163 185 111
162 185 105
163 185 84
164 186 108
172 194 105
153 176 99
168 191 95
164 185 95
169 190 95
171 193 114
160 181 88
169 190 128
161 184 95
162 183 92
163 185 92
161 183 117
157 179 95
161 183 105
156 177 80
150 172 72
166 188 95
157 178 84
157 178 72
162 184 84
160 182 105
155 176 72
157 179 72
161 183 111
162 184 88
160 182 102
165 186 88
162 183 88
162 183 88
154 176 88
164 185 92
168 190 99
159 179 105
156 176 95
168 188 102
153 174 95
162 183 67
163 184 102
155 175 76
153 173 92
155 175 84
160 180 99
162 181 95
164 184 95
167 187 88
151 172 72
161 181 95
146 166 51
150 172 67
153 173 67
148 169 67
149 170 57
151 171 72
154 174 62
152 173 51
144 165 44
145 167 44
149 169 51
146 167 51
147 169 0
148 170 44
148 169 0
149 170 44
145 166 44
148 170 25
153 174 36
147 169 0
156 179 36
153 175 36
157 179 25
150 172 0
151 173 0
148 171 0
147 169 25
154 176 0
154 175 0
143 165 0
151 171 0
152 174 0
150 172 0
143 166 0
143 165 0
144 166 0
142 164 0
141 162 0
134 154 0
142 164 0
142 163 0
149 170 0
140 161 0
135 156 0
136 157 0
142 162 0
132 153 0
135 156 0
144 165 0
139 160 0
138 158 0
145 166 0
126 147 0
138 158 0
140 161 0
138 158 0
140 161 0
136 156 0
132 153 0
140 161 0
135 155 0
140 161 0
144 166 0
136 157 0
138 158 0
138 158 0
135 156 0
135 157 0
142 163 0
139 160 0
129 149 0
138 158 0
130 150 0
129 150 0
135 155 0
137 157 0
130 150 0
140 160 0
133 154 0
132 153 0
132 152 0
127 147 0
134 154 0
128 149 0
138 159 0
134 156 0
143 163 0
138 158 0
137 157 0
131 152 0
146 167 0
133 153 0
138 159 0
135 156 0
133 154 0
132 153 0
127 148 0
145 166 0
125 146 0
138 158 0
143 166 0
134 156 0
128 149 0
131 153 0
136 157 0
134 154 0
140 161 0
137 157 0
148 169 0
144 165 0
144 165 0
137 158 0
153 174 0
142 164 0
141 162 0
146 167 0
138 160 0
137 158 0
145 166 0
148 170 0
140 161 0
139 161 0
140 161 0
146 167 0
146 167 0
147 169 0
153 175 0
149 171 0
142 164 0
147 169 0
145 167 0
141 163 0
152 174 0
140 161 0
153 174 0
154 176 0
147 168 0
149 170 0
154 175 0
158 178 0
151 172 0
147 168 0
147 169 0
141 162 0
149 170 0
145 166 0
149 171 0
155 177 0
151 172 0
142 164 0
154 176 0
155 176 0
151 173 0
150 170 0
156 178 0
150 171 0
149 170 0
154 176 0
155 177 0
151 173 0
152 173 0
162 184 0
146 168 0
155 178 0
154 176 0
156 178 0
144 163 0
146 168 0
153 174 0
155 177 0
157 178 0
153 175 0
155 176 0
149 170 0
150 172 0
155 178 0
154 175 0
156 176 0
155 177 0
155 176 0
160 181 0
159 179 0
155 176 0
163 184 0
156 178 0
155 178 0
157 178 0
156 177 0
155 176 0
155 176 0
163 185 0
157 179 0
160 183 0
161 183 0
161 182 0
157 179 0
159 181 0
159 182 0
159 179 0
157 180 0
158 180 0
156 177 0
159 182 0
165 187 0
163 186 0
159 181 0
152 174 0
163 184 0
154 174 0
159 180 0
161 181 0
165 187 0
162 182 0
158 179 0
163 186 0
158 180 0
160 182 0
162 185 0
160 183 0
163 184 0
162 184 0
166 187 0
161 182 0
163 186 0
163 186 0
163 185 0
164 186 0
163 183 0
160 182 0
164 187 0
160 182 0
163 184 0
167 189 0
161 182 0
163 185 0
160 182 0
164 186 0
162 183 0
163 183 0
167 189 0
164 186 0
164 186 0
165 186 0
161 183 0
165 186 0
166 189 0
165 187 0
158 180 0
164 185 0
167 189 0
167 189 0
171 192 0
165 187 0
163 185 0
165 187 0
164 185 0
160 181 0
161 181 0
166 189 0
166 189 0
167 189 0
167 190 0
165 188 0
163 185 0
165 187 0
168 190 0
168 190 0
168 191 0
165 187 0
168 190 0
165 187 0
160 182 0
165 188 0
165 187 0
165 187 0
167 189 0
163 185 0
165 186 0
167 188 0
164 186 0
164 185 0
166 188 0
164 187 0
170 192 0
167 190 0
168 189 0
166 188 0
167 188 0
169 190 0
167 189 0
177 200 107
170 193 92
168 192 84
170 193 76
175 197 105
176 199 108
177 200 117
172 195 105
170 193 99
169 192 80
172 195 84
171 194 102
169 193 95
168 192 105
174 197 95
171 194 76
177 200 111
167 190 72
175 197 114
167 190 84
170 193 99
172 195 111
165 188 80
174 197 102
171 193 120
172 196 102
174 198 122
171 194 102
172 195 105
165 188 92
172 196 111
166 189 80
168 190 111
168 191 102
164 186 84
169 191 92
171 193 95
168 191 95
161 183 88
169 193 105
172 195 84
164 187 105
165 187 80
168 190 111
163 186 92
164 186 88
161 183 88
168 191 88
163 187 88
163 184 76
173 196 105
167 190 88
165 187 99
166 189 80
163 186 108
164 187 108
165 188 76
163 185 99
172 194 102
165 188 105
167 190 80
165 187 84
160 182 95
171 194 120
169 190 99
166 189 122
163 185 95
165 187 102
158 181 88
161 184 99
158 180 99
155 177 88
162 184 102
158 180 84
167 189 114
162 184 108
164 185 84
159 182 95
157 179 62
160 181 88
158 179 102
159 182 102
161 181 108
163 185 99
160 182 95
164 185 99
167 188 108
154 176 95
156 177 95
159 180 105
160 182 84
161 182 92
163 184 111
163 184 99
161 182 84
154 174 92
166 187 92
155 177 80
157 178 88
150 170 92
164 185 67
165 186 92
162 183 80
158 179 88
155 175 88
165 185 95
149 169 84
159 179 72
149 169 88
157 177 72
140 160 67
154 175 72
151 171 62
159 180 84
150 171 44
147 167 62
150 171 36
148 168 51
151 172 57
157 178 44
142 164 0
149 170 44
149 170 36
144 166 36
154 174 67
151 173 25
145 166 0
151 174 25
146 168 25
147 169 0
148 170 25
147 170 0
157 178 0
163 185 36
155 177 0
152 174 0
154 177 0
157 179 25
153 174 0
151 173 0
146 168 0
141 163 0
142 164 0
144 165 0
152 174 0
153 174 0
145 166 25
139 161 0
143 163 0
143 164 0
140 161 0
142 164 0
127 148 0
138 159 0
134 156 0
130 150 0
136 157 0
134 155 0
141 161 0
140 160 0
122 143 0
141 161 0
137 158 0
136 157 0
135 155 0
134 155 0
135 155 0
130 151 0
135 155 0
135 155 0
135 156 0
122 142 0
132 153 0
135 157 0
141 162 0
134 155 0
143 164 0
131 152 0
125 145 0
127 148 0
128 147 0
138 159 0
129 150 0
127 147 0
127 148 0
138 159 0
133 155 0
133 154 0
126 145 0
141 163 0
127 146 0
143 164 0
133 153 0
134 155 0
135 156 0
145 166 0
147 167 0
137 157 0
133 154 0
135 155 0
138 158 0
139 160 0
138 159 0
141 163 0
140 160 0
144 166 0
144 164 0
134 153 0
144 165 0
136 157 0
142 163 0
143 165 0
133 154 0
147 168 0
143 164 0
136 156 0
142 161 0
146 169 0
142 163 0
135 155 0
142 163 0
129 149 0
144 165 0
132 152 0
144 165 0
148 170 0
148 169 0
151 173 0
143 165 0
142 163 0
139 160 0
150 171 0
145 166 0
142 163 0
146 168 0
147 169 0
147 170 0
141 162 0
147 167 0
139 160 0
145 165 0
146 167 0
148 171 0
143 164 0
158 179 0
143 164 0
155 175 0
156 178 0
153 174 0
151 173 0
152 173 0
151 172 0
152 174 0
154 175 0
151 173 0
147 169 0
146 168 0
154 175 0
145 165 0
155 177 0
148 168 0
151 173 0
154 175 0
147 169 0
146 165 0
153 174 0
146 167 0
152 174 0
153 174 0
161 183 0
151 173 0
157 179 0
147 169 0
151 172 0
153 175 0
153 175 0
160 182 0
151 172 0
159 181 0
152 176 0
152 174 0
152 175 0
157 178 0
153 174 0
151 175 0
154 176 0
155 176 0
157 179 0
154 176 0
158 180 0
153 174 0
152 175 0
155 178 0
155 176 0
156 179 0
153 174 0
151 172 0
158 177 0
159 180 0
157 179 0
159 181 0
160 182 0
162 184 0
158 180 0
159 181 0
154 176 0
164 186 0
162 184 0
157 178 0
162 184 0
160 181 0
158 179 0
160 181 0
160 180 0
158 181 0
162 183 0
163 184 0
157 177 0
161 184 0
162 183 0
159 181 0
157 177 0
162 184 0
163 186 0
160 183 0
156 177 0
167 188 0
161 184 0
166 187 0
158 179 0
166 189 0
155 177 0
166 189 0
164 186 0
167 189 0
159 180 0
159 181 0
158 180 0
164 186 0
166 189 0
164 186 0
166 190 0
162 183 0
162 184 0
161 182 0
164 186 0
162 184 0
166 187 0
162 183 0
162 184 0
166 187 0
166 189 0
162 183 0
165 186 0
163 186 0
163 184 0
163 186 0
166 188 0
167 189 0
166 187 0
165 186 0
166 187 0
165 188 0
164 186 0
166 187 0
168 191 0
163 184 0
160 182 0
166 188 0
165 186 0
168 190 0
163 186 0
167 190 0
162 182 0
164 187 0
165 187 0
169 191 0
163 185 0
166 189 0
164 184 0
166 187 0
164 185 0
166 189 0
166 186 0
165 187 0
170 192 0
168 191 0
160 182 0
166 187 0
165 188 0
168 190 0
167 189 0
165 186 0
165 187 0
166 189 0
167 188 0
165 188 0
169 193 0
166 189 0
169 192 0
172 195 99
171 196 80
172 195 92
173 195 102
173 196 108
175 198 99
171 194 92
171 194 111
173 196 120
173 196 88
172 195 105
175 198 102
173 196 95
170 193 80
170 193 84
172 195 95
168 192 51
174 197 108
176 199 95
167 190 92
173 197 108
171 194 80
167 191 92
165 188 92
174 197 88
169 192 102
169 192 99
174 196 105
167 189 88
169 192 80
168 191 102
167 190 88
167 190 114
169 192 95
171 194 76
165 188 102
170 194 105
169 192 99
170 193 105
164 188 88
171 195 111
167 190 80
167 190 95
169 192 105
169 193 105
167 189 114
169 193 102
166 189 111
166 189 102
168 190 105
166 188 80
160 183 99
166 188 95
164 186 76
161 183 99
167 189 108
161 184 102
168 189 92
155 178 88
163 185 99
167 190 95
165 186 88
162 184 88
165 187 84
161 183 88
165 188 102
168 191 117
163 185 95
164 186 99
167 189 114
164 185 102
156 179 105
161 182 88
168 189 92
154 176 88
155 177 102
162 184 92
167 189 108
159 181 84
158 179 95
157 178 92
158 179 84
162 184 108
159 180 76
154 175 95
147 168 88
155 176 92
152 174 84
157 178 92
165 187 76
151 172 80
162 184 84
158 179 108
160 180 92
161 183 88
159 180 102
162 183 102
148 169 92
159 179 95
160 180 95
152 173 99
155 175 95
163 183 80
148 168 80
151 173 51
163 184 80
154 175 72
153 174 92
158 179 72
155 175 80
158 179 67
150 170 51
151 172 57
154 175 72
156 177 67
158 179 51
152 173 51
155 176 80
159 181 44
153 174 57
146 168 25
147 168 44
149 172 36
143 165 0
156 178 0
155 177 44
152 174 25
149 171 25
149 170 25
154 177 0
158 180 36
150 172 0
158 180 25
155 177 0
153 176 0
159 180 25
148 171 0
156 178 25
148 170 25
148 170 0
143 164 0
147 168 0
145 167 0
140 161 0
148 170 0
136 157 0
146 167 0
142 164 0
147 169 0
135 156 0
146 168 0
141 163 0
136 157 0
134 155 0
139 160 0
144 165 0
128 149 0
136 158 0
141 161 0
131 152 0
131 152 0
143 165 0
138 159 0
141 161 0
136 158 0
137 157 0
145 165 0
139 159 0
148 169 0
143 165 0
131 151 0
139 160 0
138 159 0
143 164 0
141 162 0
139 161 0
135 156 0
138 158 0
140 162 0
126 146 0
129 150 0
129 150 0
143 163 0
139 159 0
142 162 0
142 163 0
137 159 0
145 166 0
126 147 0
134 155 0
133 155 0
142 163 0
129 150 0
146 166 0
145 166 0
138 158 0
141 163 0
144 165 0
138 159 0
137 158 0
137 157 0
141 162 0
131 152 0
148 169 0
139 160 0
135 155 0
142 163 0
138 159 0
144 164 0
144 165 0
140 161 0
145 167 0
139 161 0
145 167 0
140 160 0
132 153 0
147 169 0
143 165 0
141 163 0
141 162 0
140 160 0
149 171 0
143 164 0
145 167 0
141 163 0
141 162 0
141 162 0
142 163 0
144 165 0
138 158 0
147 168 0
141 161 0
140 161 0
151 173 0
145 165 0
151 172 0
148 169 0
146 168 0
140 161 0
142 163 0
137 159 0
147 168 0
148 168 0
138 161 0
148 171 0
147 168 0
143 165 0
148 169 0
151 173 0
149 171 0
152 174 0
149 170 0
158 179 0
146 166 0
147 169 0
151 171 0
150 172 0
148 170 0
151 174 0
145 167 0
141 163 0
152 174 0
147 168 0
143 165 0
143 165 0
149 170 0
150 171 0
151 174 0
158 181 0
154 175 0
153 176 0
152 174 0
151 172 0
157 180 0
156 177 0
155 178 0
146 167 0
156 177 0
152 174 0
152 172 0
160 181 0
151 174 0
148 169 0
151 173 0
153 176 0
158 180 0
151 173 0
158 180 0
158 179 0
155 177 0
157 180 0
158 180 0
155 176 0
166 188 0
156 177 0
162 184 0
155 177 0
148 169 0
159 182 0
158 179 0
154 177 0
163 185 0
157 179 0
152 174 0
161 181 0
163 185 0
159 182 0
161 182 0
156 178 0
155 178 0
149 169 0
152 174 0
156 177 0
159 181 0
155 177 0
159 181 0
165 187 0
163 186 0
159 181 0
162 184 0
161 182 0
159 180 0
158 180 0
160 181 0
165 187 0
161 182 0
161 182 0
162 185 0
159 181 0
164 186 0
159 180 0
163 186 0
164 185 0
161 183 0
161 184 0
158 180 0
160 182 0
160 181 0
163 185 0
167 189 0
164 184 0
163 184 0
163 185 0
166 188 0
163 185 0
165 187 0
165 188 0
160 183 0
164 185 0
160 182 0
163 186 0
165 187 0
167 189 0
166 188 0
166 189 0
166 189 0
166 188 0
165 186 0
163 186 0
163 185 0
161 184 0
161 182 0
164 187 0
164 188 0
163 185 0
160 181 0
161 184 0
167 190 0
165 187 0
161 183 0
166 187 0
165 185 0
169 192 0
165 187 0
168 192 0
167 189 0
162 184 0
166 187 0
165 188 0
165 188 0
163 186 0
170 190 0
167 190 0
165 185 0
168 189 0
169 192 0
166 188 0
165 187 0
168 188 0
164 186 0
162 184 0
166 189 0
165 187 0
168 191 0
169 192 0
167 188 0
163 186 0
168 192 0
164 187 0
171 193 0
169 192 84
174 196 112
167 190 76
169 191 97
165 188 88
172 195 105
171 195 92
175 198 92
170 193 102
168 191 95
177 199 120
172 195 88
174 198 111
162 185 62
168 191 105
171 194 95
172 195 99
165 189 105
163 186 76
174 197 102
166 188 99
170 193 111
170 194 105
172 195 102
171 194 102
173 196 114
173 195 92
170 192 92
168 190 92
168 191 84
172 194 92
164 187 84
164 187 88
171 194 102
165 187 102
165 188 102
168 192 122
167 190 84
168 191 95
167 190 111
167 190 117
167 190 84
160 183 67
171 193 102
170 192 95
168 190 102
164 187 88
171 194 88
170 193 114
161 184 102
161 184 95
164 187 102
167 190 102
168 191 117
164 187 105
169 192 108
166 188 95
166 188 84
167 189 88
162 185 84
162 183 57
167 190 108
164 186 105
157 179 92
163 185 80
162 184 108
162 184 108
167 190 105
160 182 95
168 189 88
168 189 84
171 193 120
162 183 95
161 184 99
165 187 102
159 182 92
156 178 76
153 173 84
151 174 80
165 186 88
165 185 95
161 183 99
161 182 99
151 173 72
166 187 99
166 186 105
158 179 99
154 176 76
158 179 99
164 184 105
161 182 95
158 179 84
162 183 99
155 176 84
163 182 114
168 190 92
168 189 111
165 187 84
154 174 76
162 184 88
163 185 84
153 174 99
161 182 72
158 178 80
154 174 88
151 171 88
158 178 84
159 180 88
161 181 76
157 178 76
160 180 67
163 183 84
153 176 57
163 183 76
158 178 67
150 171 25
155 176 57
156 178 36
151 173 36
148 170 44
148 169 44
154 176 25
150 172 36
153 175 36
148 169 36
153 174 36
157 179 0
154 176 25
144 165 25
152 174 0
153 174 25
151 173 0
158 181 25
146 168 0
151 174 0
154 177 0
153 175 0
153 174 0
152 175 0
152 173 0
150 171 0
150 171 0
147 168 0
149 171 0
148 170 0
145 167 0
149 171 0
147 168 0
147 169 0
145 166 0
142 164 0
145 166 0
140 160 0
137 159 0
140 160 0
128 149 0
137 158 0
142 164 0
139 160 0
139 160 0
142 162 0
135 155 0
134 156 0
134 154 0
138 159 0
144 166 0
131 152 0
130 151 0
145 167 0
132 152 0
137 158 0
132 152 0
144 165 0
132 153 0
136 157 0
129 149 0
132 152 0
135 156 0
135 156 0
146 167 0
145 167 0
132 152 0
139 160 0
141 161 0
142 163 0
133 153 0
149 170 0
132 153 0
130 150 0
136 156 0
120 141 0
139 159 0
140 161 0
139 160 0
148 169 0
140 162 0
131 151 0
141 164 0
135 157 0
143 163 0
139 161 0
135 156 0
140 161 0
140 161 0
148 169 0
131 153 0
143 163 0
135 157 0
137 157 0
156 177 0
134 155 0
144 167 0
148 171 0
143 165 0
144 165 0
135 156 0
146 169 0
140 161 0
138 159 0
135 156 0
142 163 0
149 170 0
144 165 0
144 165 0
146 167 0
154 175 0
142 164 0
146 168 0
142 164 0
148 170 0
136 156 0
147 169 0
148 169 0
149 169 0
137 159 0
132 154 0
148 169 0
146 167 0
151 173 0
142 163 0
147 169 0
136 157 0
150 172 0
146 168 0
152 174 0
148 168 0
160 181 0
151 172 0
147 168 0
147 168 0
140 161 0
150 173 0
147 168 0
147 169 0
141 162 0
154 175 0
153 174 0
151 173 0
155 177 0
144 165 0
157 179 0
152 174 0
153 174 0
152 174 0
154 176 0
153 175 0
145 167 0
153 175 0
152 172 0
146 167 0
149 171 0
162 184 0
149 171 0
146 166 0
163 185 0
156 178 0
153 174 0
154 176 0
154 176 0
154 176 0
159 181 0
159 181 0
158 180 0
151 172 0
154 175 0
149 169 0
154 175 0
149 172 0
158 179 0
159 181 0
160 181 0
159 182 0
164 185 0
153 174 0
152 172 0
163 185 0
158 179 0
159 181 0
155 177 0
158 180 0
161 182 0
157 179 0
162 184 0
157 179 0
156 178 0
162 183 0
157 178 0
158 180 0
157 178 0
158 181 0
163 184 0
164 186 0
163 186 0
162 185 0
159 180 0
167 189 0
155 177 0
161 183 0
161 184 0
162 183 0
154 176 0
162 184 0
164 186 0
161 184 0
164 186 0
159 181 0
168 190 0
161 183 0
160 182 0
159 181 0
160 180 0
164 185 0
163 186 0
163 184 0
161 184 0
162 185 0
166 189 0
166 188 0
161 183 0
159 181 0
159 182 0
162 183 0
163 184 0
160 182 0
163 184 0
166 188 0
168 190 0
161 182 0
163 186 0
164 186 0
163 185 0
161 183 0
155 177 0
167 190 0
165 186 0
165 187 0
162 185 0
163 185 0
165 187 0
166 189 0
169 191 0
167 189 0
167 188 0
161 183 0
168 190 0
164 187 0
165 187 0
161 182 0
160 181 0
167 189 0
165 186 0
169 191 0
167 190 0
168 190 0
170 192 0
172 193 0
165 186 0
164 185 0
168 190 0
168 190 0
160 182 0
165 188 0
164 186 0
167 190 0
162 184 0
164 186 0
167 189 0
167 189 0
169 191 0
164 186 0
166 187 0
168 191 0
169 192 0
166 188 0
162 184 0
166 189 0
169 191 0
167 190 0
167 189 0
163 186 0
175 198 120
173 196 84
172 194 99
172 195 105
170 192 99
168 191 88
169 192 99
175 197 95
175 198 114
169 192 84
171 194 80
170 193 84
174 197 114
166 189 80
172 194 120
172 195 95
164 187 95
171 194 99
176 199 111
172 195 88
170 193 92
173 196 105
169 192 80
173 195 95
169 192 99
176 199 114
164 187 99
166 189 88
170 193 92
168 191 84
163 184 80
169 192 99
169 192 92
167 189 92
170 193 117
169 191 99
165 188 105
164 187 92
166 189 105
163 185 105
166 189 84
165 188 72
168 190 120
166 189 102
168 191 102
165 188 92
170 193 102
164 186 108
175 198 105
165 187 88
163 186 84
169 190 95
162 185 95
161 182 84
166 188 88
165 188 102
164 186 111
165 187 95
157 178 102
167 190 88
157 180 92
170 192 105
154 176 84
161 183 80
165 186 84
162 184 88
167 188 105
161 183 76
162 184 92
171 193 108
160 182 92
167 189 99
155 176 80
159 180 88
170 192 122
159 180 76
167 189 99
155 176 76
162 184 84
153 176 76
161 182 92
168 191 105
166 187 88
161 183 99
151 171 102
158 178 80
166 187 80
170 191 102
160 181 92
160 181 92
159 181 84
164 185 102
160 181 108
170 190 99
159 180 76
168 189 108
158 179 88
158 178 108
159 180 76
156 177 72
166 187 111
166 187 88
154 175 84
153 174 80
160 181 72
160 179 102
164 184 92
145 167 51
160 181 76
159 179 80
158 179 62
153 175 44
160 180 72
159 180 57
151 172 51
150 170 44
157 178 67
158 181 57
155 177 51
148 169 36
159 181 25
146 169 25
148 169 25
149 170 44
155 176 25
149 170 25
153 175 36
153 175 0
147 170 25
158 180 0
150 172 0
153 175 0
148 170 0
152 173 0
163 185 36
154 176 0
151 172 0
141 162 0
150 172 0
155 177 0
146 168 0
153 176 0
146 168 0
138 160 0
148 170 0
145 167 0
149 170 0
141 162 0
143 164 0
144 165 0
142 163 0
143 164 0
143 163 0
141 160 0
145 167 0
137 159 0
143 164 0
140 161 0
141 161 0
142 163 0
139 159 0
141 161 0
151 172 0
133 154 0
138 158 0
146 168 0
138 158 0
145 165 0
144 164 0
142 162 0
141 163 0
137 158 0
134 155 0
138 159 0
145 166 0
133 154 0
134 155 0
134 154 0
140 161 0
138 160 0
141 162 0
149 170 0
140 160 0
135 156 0
145 167 0
146 167 0
142 163 0
139 159 0
134 155 0
135 156 0
126 148 0
136 158 0
134 154 0
141 163 0
135 156 0
148 170 0
137 159 0
147 168 0
139 160 0
141 161 0
135 157 0
137 157 0
140 162 0
135 156 0
140 161 0
139 161 0
138 159 0
144 165 0
135 156 0
137 158 0
144 166 0
133 154 0
148 169 0
145 166 0
143 164 0
138 158 0
136 157 0
143 164 0
155 176 0
148 168 0
144 165 0
148 170 0
143 163 0
136 157 0
148 168 0
142 163 0
139 158 0
140 161 0
148 169 0
143 165 0
147 169 0
145 165 0
146 168 0
142 164 0
145 166 0
146 167 0
143 164 0
152 175 0
147 169 0
139 160 0
146 168 0
149 172 0
144 166 0
144 165 0
145 166 0
141 162 0
150 171 0
145 166 0
149 170 0
151 173 0
144 165 0
149 170 0
146 167 0
147 169 0
150 172 0
157 179 0
149 170 0
148 169 0
143 164 0
158 180 0
152 174 0
153 174 0
148 169 0
147 169 0
149 170 0
152 174 0
159 180 0
154 176 0
150 170 0
150 172 0
151 174 0
157 179 0
154 176 0
151 174 0
154 176 0
160 181 0
156 176 0
159 181 0
159 180 0
151 173 0
151 171 0
151 171 0
155 178 0
158 180 0
163 186 0
154 176 0
157 179 0
154 174 0
152 173 0
154 177 0
161 183 0
157 178 0
164 186 0
158 181 0
156 179 0
153 175 0
156 177 0
156 177 0
158 179 0
156 177 0
157 178 0
157 178 0
157 179 0
155 177 0
155 176 0
158 180 0
151 172 0
163 187 0
165 187 0
158 179 0
162 183 0
161 182 0
158 179 0
152 174 0
164 186 0
165 187 0
162 185 0
160 182 0
157 179 0
159 181 0
159 180 0
165 188 0
162 185 0
154 175 0
164 186 0
158 180 0
162 184 0
158 181 0
167 190 0
162 184 0
161 182 0
162 184 0
166 187 0
160 183 0
160 183 0
163 185 0
160 182 0
168 190 0
164 186 0
160 182 0
160 183 0
163 184 0
163 186 0
165 188 0
165 186 0
161 183 0
164 185 0
163 185 0
163 186 0
164 186 0
163 185 0
166 189 0
166 189 0
167 189 0
161 183 0
164 186 0
165 188 0
160 182 0
162 185 0
165 188 0
167 188 0
168 189 0
163 186 0
169 191 0
162 182 0
165 187 0
165 186 0
167 189 0
160 183 0
166 187 0
167 188 0
169 190 0
165 187 0
164 185 0
165 188 0
169 191 0
170 192 0
164 187 0
163 186 0
166 188 0
169 192 0
164 186 0
169 192 0
169 191 0
169 192 0
166 189 0
167 188 0
170 193 0
168 190 0
166 188 0
168 190 0
167 187 0
167 189 0
164 187 0
169 193 0
168 191 0
164 186 0
167 190 0
167 189 0
161 183 0
171 194 99
172 194 107
174 197 88
171 193 99
176 198 108
174 196 95
175 197 102
170 193 80
173 196 114
174 197 80
172 195 88
170 192 67
172 194 95
172 195 105
170 193 111
173 196 114
174 197 99
173 196 80
172 195 102
166 188 95
169 192 102
168 191 92
171 193 102
169 192 84
172 195 80
173 195 111
168 192 99
168 192 99
169 193 95
171 194 102
166 188 99
169 193 84
168 191 88
172 194 76
170 193 99
166 189 99
163 186 84
171 193 88
162 185 76
166 189 92
169 191 84
170 193 102
165 188 102
168 190 84
168 191 88
172 195 102
162 186 80
165 187 108
165 187 122
166 188 76
169 191 102
167 189 88
165 187 105
167 189 95
168 191 108
159 181 95
164 186 102
160 183 88
171 194 102
166 189 102
169 191 117
159 181 95
166 188 114
167 189 105
162 183 88
163 185 72
163 186 92
167 189 99
168 190 111
161 183 99
151 173 92
163 185 95
167 188 99
166 187 105
160 182 99
159 181 92
160 181 80
154 175 76
163 185 108
160 182 76
161 181 102
158 178 76
154 175 76
161 181 57
160 181 105
165 186 95
165 187 99
164 185 122
163 184 80
154 176 84
160 181 88
163 185 72
158 177 92
153 174 88
161 182 76
159 181 84
152 174 72
158 178 84
155 175 99
157 179 95
160 181 88
155 175 62
160 180 92
166 186 108
159 180 80
164 185 88
160 182 76
162 182 88
159 179 67
158 179 92
159 179 57
155 176 80
151 172 62
156 178 57
147 168 44
155 176 62
152 174 36
143 164 25
152 173 62
150 171 51
155 177 36
148 170 36
158 181 0
149 170 25
150 171 0
156 178 36
146 168 0
158 180 36
148 170 0
152 173 0
162 185 0
157 180 25
157 179 0
154 174 25
150 171 0
149 172 0
156 179 0
152 174 0
159 181 0
157 179 0
156 177 0
154 176 0
142 165 0
152 174 0
145 167 0
146 168 0
152 174 0
149 171 0
151 174 0
138 159 0
146 167 0
140 160 0
140 160 0
134 154 0
143 163 0
151 173 0
142 163 0
139 160 0
138 159 0
149 171 0
137 159 0
139 160 0
140 162 0
135 156 0
148 170 0
146 167 0
141 160 0
133 155 0
136 157 0
130 151 0
145 165 0
148 169 0
139 159 0
132 152 0
141 163 0
141 162 0
133 154 0
146 166 0
142 163 0
139 160 0
139 159 0
146 167 0
144 164 0
146 167 0
138 158 0
141 162 0
139 160 0
142 163 0
138 159 0
139 159 0
133 155 0
140 162 0
143 164 0
139 159 0
140 161 0
140 161 0
136 156 0
131 152 0
144 164 0
120 141 0
136 156 0
139 161 0
151 171 0
145 166 0
150 173 0
138 160 0
134 155 0
136 157 0
145 165 0
143 165 0
133 153 0
142 163 0
138 159 0
137 159 0
142 163 0
143 164 0
141 162 0
142 163 0
144 165 0
147 168 0
146 167 0
135 158 0
143 164 0
143 165 0
136 157 0
136 157 0
146 167 0
145 167 0
147 169 0
139 162 0
153 176 0
144 163 0
149 171 0
150 171 0
146 166 0
150 171 0
148 170 0
147 169 0
147 168 0
149 171 0
145 167 0
141 164 0
142 163 0
144 165 0
146 169 0
148 170 0
155 175 0
156 178 0
154 178 0
157 178 0
160 182 0
148 169 0
148 169 0
147 168 0
151 173 0
147 169 0
153 175 0
149 170 0
149 171 0
155 177 0
150 171 0
152 174 0
151 172 0
150 172 0
150 172 0
146 167 0
150 170 0
150 171 0
152 173 0
156 177 0
160 181 0
152 174 0
156 178 0
151 174 0
154 176 0
156 178 0
154 175 0
156 178 0
163 185 0
154 176 0
155 177 0
154 177 0
161 182 0
153 174 0
158 179 0
159 179 0
158 180 0
159 181 0
161 183 0
159 181 0
158 179 0
159 182 0
155 176 0
159 181 0
157 177 0
155 178 0
154 175 0
153 176 0
157 180 0
151 173 0
155 176 0
161 183 0
160 182 0
161 182 0
157 179 0
163 185 0
162 183 0
159 181 0
163 185 0
166 189 0
160 181 0
152 174 0
162 184 0
162 184 0
155 176 0
156 179 0
163 185 0
155 177 0
162 184 0
153 173 0
161 184 0
158 180 0
168 191 0
155 177 0
160 182 0
161 183 0
157 178 0
156 176 0
162 185 0
163 185 0
164 187 0
158 179 0
160 181 0
163 184 0
156 178 0
162 184 0
166 188 0
160 182 0
164 185 0
163 184 0
158 180 0
159 182 0
163 184 0
168 189 0
161 182 0
162 184 0
162 182 0
164 187 0
162 184 0
161 182 0
166 189 0
161 183 0
163 185 0
160 182 0
154 175 0
161 183 0
167 189 0
166 189 0
166 187 0
162 184 0
168 189 0
165 186 0
161 184 0
166 188 0
164 184 0
168 190 0
164 185 0
167 189 0
168 190 0
167 189 0
165 187 0
163 185 0
167 188 0
165 186 0
169 189 0
163 185 0
167 190 0
166 189 0
166 188 0
170 193 0
162 182 0
163 184 0
163 184 0
168 190 0
167 188 0
170 191 0
168 191 0
165 186 0
167 189 0
165 187 0
166 189 0
163 186 0
168 191 0
168 191 0
163 184 0
169 191 0
165 187 0
169 191 0
166 187 0
169 192 0
176 199 95
176 198 108
169 193 76
175 197 102
172 195 97
173 196 97
169 192 102
174 197 108
176 198 105
172 195 102
171 194 102
169 192 92
170 193 84
176 199 102
175 197 120
172 195 102
173 196 92
169 191 102
170 193 80
174 197 108
165 187 92
169 192 95
166 188 102
173 195 102
168 191 102
171 193 92
163 186 67
172 195 99
168 191 92
167 190 102
166 189 67
167 190 72
170 192 84
165 187 76
166 189 84
172 194 108
171 194 92
170 193 99
168 190 102
172 194 111
167 188 95
168 190 102
171 193 102
164 187 88
163 186 92
167 191 111
167 189 92
165 188 114
162 185 95
165 187 88
165 188 80
163 186 108
167 190 105
162 184 84
161 183 80
167 190 92
161 183 84
160 183 95
161 184 111
162 184 88
166 189 102
169 190 102
171 193 99
165 187 95
167 188 76
167 188 105
159 181 80
164 186 92
153 174 95
163 185 80
164 186 105
165 188 99
159 180 84
166 188 92
161 182 80
165 185 88
168 188 99
158 180 92
163 183 105
160 181 88
162 184 88
156 177 88
151 172 92
170 190 105
154 175 84
159 180 92
158 179 92
158 179 95
161 181 95
165 186 92
162 183 99
162 184 80
166 187 108
152 174 92
164 185 102
164 185 84
156 177 72
157 177 67
162 182 80
152 173 76
157 178 80
157 177 92
162 184 80
159 179 95
164 184 117
153 174 84
160 180 72
157 178 92
155 176 80
158 179 92
161 183 80
154 176 57
157 178 57
157 178 92
150 172 57
153 174 67
158 179 44
154 175 36
155 176 36
149 170 51
155 177 36
149 170 25
158 180 51
153 174 0
151 172 36
155 178 0
155 177 0
156 179 0
157 180 25
163 186 36
156 178 25
157 180 0
152 175 25
156 179 0
156 179 0
155 177 0
159 181 0
156 178 25
151 174 0
145 167 0
154 177 0
152 173 0
153 176 0
148 169 0
144 165 0
146 169 0
149 171 0
144 165 0
145 167 0
151 173 0
132 153 0
147 169 0
146 167 0
147 168 0
140 161 0
136 157 0
139 160 0
151 172 0
144 165 0
139 160 0
147 169 0
145 167 0
142 163 0
134 155 0
140 160 0
144 165 0
143 164 0
139 160 0
141 161 0
142 162 0
139 161 0
138 159 0
137 157 0
149 171 0
148 168 0
144 167 0
133 155 0
135 156 0
136 157 0
132 153 0
138 159 0
136 157 0
144 166 0
133 154 0
147 168 0
130 151 0
144 166 0
134 156 0
144 165 0
138 160 0
133 154 0
143 164 0
136 158 0
125 147 0
140 162 0
138 160 0
142 163 0
142 163 0
139 161 0
137 158 0
142 163 0
135 155 0
142 164 0
141 162 0
148 169 0
137 158 0
144 165 0
143 165 0
134 155 0
147 169 0
144 166 0
142 163 0
143 165 0
139 160 0
144 165 0
142 163 0
142 164 0
142 163 0
139 161 0
151 172 0
145 167 0
149 171 0
142 164 0
145 166 0
150 172 0
137 159 0
142 163 0
144 165 0
157 180 0
138 159 0
149 170 0
151 172 0
146 168 0
152 174 0
148 169 0
150 171 0
147 169 0
158 180 0
152 174 0
154 176 0
158 179 0
148 168 0
147 168 0
143 166 0
151 173 0
148 171 0
149 170 0
140 163 0
144 166 0
148 171 0
149 171 0
149 169 0
150 170 0
155 178 0
149 171 0
151 173 0
153 174 0
154 176 0
153 175 0
154 174 0
154 176 0
143 164 0
151 172 0
144 165 0
149 170 0
151 174 0
151 173 0
159 181 0
152 175 0
155 177 0
153 174 0
157 178 0
156 178 0
156 177 0
156 178 0
156 178 0
155 176 0
162 184 0
153 173 0
152 173 0
161 184 0
154 176 0
161 183 0
155 177 0
154 175 0
153 174 0
159 181 0
152 174 0
159 180 0
157 177 0
156 179 0
152 173 0
157 179 0
158 180 0
156 178 0
159 180 0
162 184 0
159 181 0
157 180 0
162 184 0
162 183 0
158 181 0
159 182 0
157 180 0
159 181 0
166 188 0
165 187 0
155 176 0
162 184 0
156 177 0
155 177 0
157 178 0
160 182 0
166 188 0
162 183 0
163 186 0
156 176 0
162 184 0
162 185 0
161 182 0
162 185 0
160 183 0
166 188 0
163 186 0
164 184 0
156 179 0
167 190 0
160 181 0
164 185 0
163 187 0
165 187 0
163 185 0
166 189 0
166 186 0
161 183 0
169 191 0
163 187 0
167 190 0
160 182 0
155 177 0
162 185 0
162 185 0
162 183 0
163 185 0
162 183 0
159 181 0
166 189 0
166 188 0
165 187 0
160 182 0
163 185 0
164 186 0
164 186 0
164 184 0
167 189 0
161 184 0
166 187 0
166 189 0
163 184 0
164 185 0
164 186 0
166 188 0
164 187 0
165 188 0
166 188 0
163 186 0
161 182 0
164 186 0
165 188 0
167 188 0
166 188 0
165 188 0
169 191 0
167 190 0
161 182 0
163 184 0
168 191 0
163 186 0
165 188 0
168 189 0
168 190 0
168 189 0
170 192 0
167 190 0
164 187 0
170 193 0
167 190 0
168 190 0
166 189 0
167 190 0
165 188 0
169 191 0
165 188 0
172 193 0
169 192 0
168 190 0
167 189 0
171 193 0
170 192 0
166 190 0
175 198 84
168 190 90
174 197 95
177 199 107
175 198 97
171 194 95
174 197 99
175 198 88
176 198 102
173 195 92
176 198 102
174 197 102
173 195 76
171 194 99
173 196 99
170 192 88
166 189 99
173 196 92
174 196 88
173 197 114
172 194 95
164 187 80
169 192 80
169 192 76
171 195 105
176 199 111
172 195 105
168 191 95
170 193 84
170 193 111
171 194 108
165 188 105
166 189 80
169 192 114
173 196 95
171 194 108
169 192 92
172 195 120
165 188 92
167 190 80
168 190 76
169 192 80
165 187 88
165 187 67
170 192 80
167 190 92
168 189 80
169 191 105
164 187 99
168 190 95
170 192 92
165 188 88
165 187 88
165 187 95
166 188 95
165 187 108
158 180 99
167 188 108
167 189 72
168 190 117
161 183 84
160 183 105
167 188 105
159 181 92
162 184 99
167 189 111
171 193 125
167 189 92
166 186 92
165 188 99
166 189 102
164 186 95
163 185 99
161 182 95
163 183 95
161 183 84
155 177 99
159 180 88
165 186 99
169 190 117
162 184 108
163 185 88
160 180 84
152 174 76
157 178 84
160 180 105
169 190 111
168 188 99
162 184 95
159 180 88
168 188 108
162 183 102
158 180 80
162 183 80
164 185 84
154 176 72
164 186 80
166 187 99
156 177 72
159 180 76
161 182 92
165 186 72
154 175 72
166 186 76
155 175 62
160 181 88
161 182 67
160 180 76
157 178 51
158 178 76
151 172 62
158 179 67
151 172 62
165 186 88
157 179 67
149 171 44
151 173 25
157 178 51
153 175 0
142 164 0
149 171 25
154 176 0
157 179 25
155 177 51
154 177 36
157 178 44
146 168 25
158 180 0
163 185 36
155 177 0
154 176 25
155 177 0
158 181 0
155 177 0
153 175 0
157 179 0
150 172 0
156 179 0
155 177 0
154 176 0
153 174 0
145 166 0
157 179 0
153 175 0
145 166 0
143 164 0
144 166 0
155 176 0
143 165 0
137 158 0
149 171 0
148 169 0
158 179 0
151 173 0
142 162 0
148 169 0
138 160 0
148 169 0
148 169 0
142 163 0
132 153 0
144 166 0
147 167 0
141 161 0
139 159 0
146 167 0
140 161 0
146 168 0
135 157 0
138 159 0
144 165 0
143 164 0
145 166 0
150 171 0
137 158 0
135 156 0
148 169 0
142 163 0
147 168 0
133 154 0
139 160 0
144 165 0
138 159 0
140 161 0
133 154 0
143 164 0
148 170 0
134 156 0
144 167 0
149 170 0
138 161 0
141 162 0
134 155 0
145 166 0
144 165 0
139 161 0
141 162 0
139 160 0
135 156 0
147 166 0
144 165 0
140 161 0
145 165 0
145 166 0
149 170 0
144 165 0
144 166 0
149 172 0
146 167 0
144 165 0
141 163 0
137 158 0
151 173 0
141 163 0
148 171 0
145 167 0
151 173 0
146 169 0
149 171 0
136 156 0
146 167 0
141 161 0
151 173 0
147 169 0
133 154 0
144 165 0
147 168 0
142 163 0
147 169 0
155 177 0
144 164 0
153 174 0
141 162 0
151 173 0
139 160 0
145 168 0
142 164 0
147 168 0
150 172 0
144 164 0
156 178 0
140 161 0
147 169 0
150 172 0
153 175 0
151 172 0
151 173 0
153 174 0
152 173 0
148 171 0
150 172 0
147 169 0
155 178 0
154 175 0
151 173 0
152 173 0
148 169 0
154 176 0
145 166 0
150 169 0
148 170 0
157 179 0
150 171 0
158 180 0
148 170 0
152 173 0
156 178 0
157 180 0
156 178 0
158 181 0
154 175 0
158 180 0
155 177 0
152 173 0
154 177 0
153 176 0
156 178 0
153 175 0
156 178 0
160 181 0
155 176 0
156 177 0
156 179 0
156 177 0
150 172 0
161 184 0
155 177 0
159 182 0
149 171 0
160 182 0
159 183 0
159 181 0
156 179 0
156 178 0
160 181 0
154 177 0
166 187 0
153 175 0
157 179 0
160 181 0
153 175 0
155 178 0
159 180 0
160 181 0
155 177 0
159 181 0
154 176 0
164 185 0
163 185 0
160 182 0
160 182 0
160 182 0
160 182 0
159 182 0
156 179 0
157 178 0
163 185 0
157 179 0
160 182 0
166 187 0
162 184 0
156 179 0
159 181 0
163 184 0
155 178 0
168 192 0
168 189 0
161 182 0
161 184 0
166 188 0
162 184 0
157 180 0
162 184 0
159 181 0
165 187 0
162 184 0
163 185 0
159 180 0
165 187 0
163 185 0
158 181 0
165 188 0
168 191 0
167 189 0
159 181 0
164 186 0
160 181 0
163 184 0
167 188 0
165 189 0
164 187 0
164 188 0
165 187 0
167 190 0
159 181 0
162 183 0
167 189 0
160 181 0
165 188 0
159 182 0
165 186 0
165 188 0
160 182 0
163 186 0
171 193 0
169 191 0
167 189 0
171 192 0
170 191 0
157 179 0
166 188 0
167 190 0
165 188 0
168 190 0
162 184 0
166 189 0
168 191 0
166 189 0
167 187 0
168 190 0
171 193 0
161 183 0
168 190 0
166 187 0
164 187 0
166 188 0
167 190 0
168 190 0
166 188 0
169 193 0
163 185 0
167 190 0
167 189 0
170 193 0
162 183 0
165 188 0
166 189 0
171 193 0
169 191 0
162 183 0
