P3
400 225
255
204 226 255
204 226 255
204 226 255
204 226 255
204 226 255
204 226 255
204 226 255
204 226 255
204 226 255
204 226 255
204 226 255
204 226 255
204 226 255
204 226 255
204 226 255
203 226 255
203 226 255
203 226 255
203 226 255
203 226 255
203 226 255
203 226 255
203 226 255
203 225 255
203 225 255
203 225 255
203 225 255
203 225 255
203 225 255
203 225 255
203 225 255
203 225 255
202 225 255
202 225 255
202 225 255
202 225 255
202 225 255
202 225 255
202 225 255
202 225 255
202 225 255
202 225 255
202 225 255
202 225 255
202 225 255
202 225 255
202 225 255
202 225 255
201 225 255
201 225 255
201 225 255
201 225 255
201 224 255
201 224 255
201 224 255
201 224 255
201 224 255
201 224 255
201 224 255
201 224 255
201 224 255
201 224 255
201 224 255
200 224 255
200 224 255
200 224 255
200 224 255
200 224 255
200 224 255
200 224 255
200 224 255
200 224 255
200 224 255
200 224 255
200 224 255
200 224 255
200 224 255
200 224 255
199 224 255
199 224 255
199 223 255
199 223 255
199 223 255
199 223 255
199 223 255
199 223 255
199 223 255
199 223 255
199 223 255
199 223 255
199 223 255
199 223 255
198 223 255
198 223 255
198 223 255
198 223 255
198 223 255
198 223 255
198 223 255
198 223 255
198 223 255
198 223 255
198 223 255
198 223 255
198 223 255
198 223 255
197 223 255
197 222 255
197 222 255
197 222 255
197 222 255
197 222 255
197 222 255
197 222 255
197 222 255
197 222 255
197 222 255
197 222 255
197 222 255
197 222 255
197 222 255
196 222 255
196 222 255
196 222 255
196 222 255
196 222 255
196 222 255
196 222 255
196 222 255
196 222 255
196 222 255
196 222 255
196 222 255
196 222 255
196 222 255
196 221 255
196 221 255
195 221 255
195 221 255
195 221 255
195 221 255
195 221 255
195 221 255
195 221 255
195 221 255
195 221 255
195 221 255
195 221 255
195 221 255
195 221 255
195 221 255
195 221 255
195 221 255
195 221 255
195 221 255
194 221 255
194 221 255
194 221 255
194 221 255
194 221 255
194 221 255
194 221 255
194 221 255
194 221 255
194 221 255
194 221 255
194 221 255
194 221 255
194 221 255
194 221 255
194 221 255
194 221 255
194 221 255
194 221 255
194 221 255
194 221 255
194 221 255
194 220 255
194 220 255
194 220 255
194 220 255
194 220 255
194 220 255
194 220 255
194 220 255
194 220 255
193 220 255
193 220 255
193 220 255
193 220 255
193 220 255
193 220 255
193 220 255
193 220 255
193 220 255
193 220 255
193 220 255
193 220 255
193 220 255
193 220 255
193 220 255
193 220 255
193 220 255
193 220 255
193 220 255
193 220 255
193 220 255
193 220 255
193 220 255
193 220 255
193 220 255
193 220 255
193 220 255
193 220 255
194 220 255
194 220 255
194 220 255
194 220 255
194 220 255
194 220 255
194 220 255
194 220 255
194 220 255
194 221 255
194 221 255
194 221 255
194 221 255
194 221 255
194 221 255
194 221 255
194 221 255
194 221 255
194 221 255
194 221 255
194 221 255
194 221 255
194 221 255
194 221 255
194 221 255
194 221 255
194 221 255
194 221 255
194 221 255
194 221 255
194 221 255
195 221 255
195 221 255
195 221 255
195 221 255
195 221 255
195 221 255
195 221 255
195 221 255
195 221 255
195 221 255
195 221 255
195 221 255
195 221 255
195 221 255
195 221 255
195 221 255
195 221 255
195 221 255
196 221 255
196 221 255
196 222 255
196 222 255
196 222 255
196 222 255
196 222 255
196 222 255
196 222 255
196 222 255
196 222 255
196 222 255
196 222 255
196 222 255
196 222 255
196 222 255
197 222 255
197 222 255
197 222 255
197 222 255
197 222 255
197 222 255
197 222 255
197 222 255
197 222 255
197 222 255
197 222 255
197 222 255
197 222 255
197 222 255
197 223 255
198 223 255
198 223 255
198 223 255
198 223 255
198 223 255
198 223 255
198 223 255
198 223 255
198 223 255
198 223 255
198 223 255
198 223 255
198 223 255
198 223 255
199 223 255
199 223 255
199 223 255
199 223 255
199 223 255
199 223 255
199 223 255
199 223 255
199 223 255
199 223 255
199 223 255
199 223 255
199 224 255
199 224 255
199 224 255
200 224 255
200 224 255
200 224 255
200 224 255
200 224 255
200 224 255
200 224 255
200 224 255
200 224 255
200 224 255
200 224 255
200 224 255
200 224 255
200 224 255
201 224 255
201 224 255
201 224 255
201 224 255
201 224 255
201 224 255
201 224 255
201 224 255
201 224 255
201 224 255
201 224 255
201 225 255
201 225 255
201 225 255
201 225 255
202 225 255
202 225 255
202 225 255
202 225 255
202 225 255
202 225 255
202 225 255
202 225 255
202 225 255
202 225 255
202 225 255
202 225 255
202 225 255
202 225 255
202 225 255
202 225 255
203 225 255
203 225 255
203 225 255
203 225 255
203 225 255
203 225 255
203 225 255
203 225 255
203 225 255
203 226 255
203 226 255
203 226 255
203 226 255
203 226 255
203 226 255
203 226 255
203 226 255
204 226 255
204 226 255
204 226 255
204 226 255
204 226 255
204 226 255
204 226 255
204 226 255
204 226 255
204 226 255
204 226 255
204 226 255
204 226 255
204 226 255
204 226 255
204 226 255
204 226 255
204 226 255
204 226 255
204 226 255
204 226 255
204 226 255
204 226 255
204 226 255
204 226 255
204 226 255
204 226 255
204 226 255
204 226 255
204 226 255
204 226 255
204 226 255
204 226 255
203 226 255
203 226 255
203 226 255
203 226 255
203 226 255
203 226 255
203 226 255
203 225 255
203 225 255
203 225 255
203 225 255
203 225 255
203 225 255
203 225 255
203 225 255
203 225 255
202 225 255
202 225 255
202 225 255
202 225 255
202 225 255
202 225 255
202 225 255
202 225 255
202 225 255
202 225 255
202 225 255
202 225 255
202 225 255
202 225 255
202 225 255
202 225 255
201 225 255
201 225 255
201 225 255
201 225 255
201 224 255
201 224 255
201 224 255
201 224 255
201 224 255
201 224 255
201 224 255
201 224 255
201 224 255
201 224 255
201 224 255
200 224 255
200 224 255
200 224 255
200 224 255
200 224 255
200 224 255
200 224 255
200 224 255
200 224 255
200 224 255
200 224 255
200 224 255
200 224 255
200 224 255
200 224 255
199 224 255
199 224 255
199 223 255
199 223 255
199 223 255
199 223 255
199 223 255
199 223 255
199 223 255
199 223 255
199 223 255
199 223 255
199 223 255
199 223 255
198 223 255
198 223 255
198 223 255
198 223 255
198 223 255
198 223 255
198 223 255
198 223 255
198 223 255
198 223 255
198 223 255
198 223 255
198 223 255
198 223 255
197 223 255
197 222 255
197 222 255
197 222 255
197 222 255
197 222 255
197 222 255
197 222 255
197 222 255
197 222 255
197 222 255
197 222 255
197 222 255
197 222 255
197 222 255
196 222 255
196 222 255
196 222 255
196 222 255
196 222 255
196 222 255
196 222 255
196 222 255
196 222 255
196 222 255
196 222 255
196 222 255
196 222 255
196 222 255
196 222 255
196 221 255
195 221 255
195 221 255
195 221 255
195 221 255
195 221 255
195 221 255
195 221 255
195 221 255
195 221 255
195 221 255
195 221 255
195 221 255
195 221 255
195 221 255
195 221 255
195 221 255
195 221 255
195 221 255
195 221 255
194 221 255
194 221 255
194 221 255
194 221 255
194 221 255
194 221 255
194 221 255
194 221 255
194 221 255
194 221 255
194 221 255
194 221 255
194 221 255
194 221 255
194 221 255
194 221 255
194 221 255
194 221 255
194 221 255
194 221 255
194 221 255
194 221 255
194 221 255
194 221 255
194 221 255
194 220 255
194 220 255
194 220 255
194 220 255
194 220 255
194 220 255
194 220 255
194 220 255
194 220 255
194 220 255
194 220 255
194 220 255
194 220 255
194 220 255
194 220 255
194 220 255
194 220 255
194 220 255
194 220 255
194 220 255
194 220 255
194 220 255
194 220 255
194 220 255
194 220 255
194 220 255
194 220 255
194 220 255
194 220 255
194 220 255
194 220 255
194 220 255
194 220 255
194 220 255
194 221 255
194 221 255
194 221 255
194 221 255
194 221 255
194 221 255
194 221 255
194 221 255
194 221 255
194 221 255
194 221 255
194 221 255
194 221 255
194 221 255
194 221 255
194 221 255
194 221 255
194 221 255
194 221 255
194 221 255
194 221 255
194 221 255
194 221 255
194 221 255
194 221 255
195 221 255
195 221 255
195 221 255
195 221 255
195 221 255
195 221 255
195 221 255
195 221 255
195 221 255
195 221 255
195 221 255
195 221 255
195 221 255
195 221 255
195 221 255
195 221 255
195 221 255
195 221 255
195 221 255
196 221 255
196 222 255
196 222 255
196 222 255
196 222 255
196 222 255
196 222 255
196 222 255
196 222 255
196 222 255
196 222 255
196 222 255
196 222 255
196 222 255
196 222 255
196 222 255
197 222 255
197 222 255
197 222 255
197 222 255
197 222 255
197 222 255
197 222 255
197 222 255
197 222 255
197 222 255
197 222 255
197 222 255
197 222 255
197 222 255
197 223 255
198 223 255
198 223 255
198 223 255
198 223 255
198 223 255
198 223 255
198 223 255
198 223 255
198 223 255
198 223 255
198 223 255
198 223 255
198 223 255
198 223 255
199 223 255
199 223 255
199 223 255
199 223 255
199 223 255
199 223 255
199 223 255
199 223 255
199 223 255
199 223 255
199 223 255
199 223 255
199 224 255
199 224 255
200 224 255
200 224 255
200 224 255
200 224 255
200 224 255
200 224 255
200 224 255
200 224 255
200 224 255
200 224 255
200 224 255
200 224 255
200 224 255
200 224 255
200 224 255
201 224 255
201 224 255
201 224 255
201 224 255
201 224 255
201 224 255
201 224 255
201 224 255
201 224 255
201 224 255
201 225 255
201 225 255
201 225 255
201 225 255
201 225 255
202 225 255
202 225 255
202 225 255
202 225 255
202 225 255
202 225 255
202 225 255
202 225 255
202 225 255
202 225 255
202 225 255
202 225 255
202 225 255
202 225 255
202 225 255
202 225 255
203 225 255
203 225 255
203 225 255
203 225 255
203 225 255
203 225 255
203 225 255
203 225 255
203 225 255
203 226 255
203 226 255
203 226 255
203 226 255
203 226 255
203 226 255
203 226 255
204 226 255
204 226 255
204 226 255
204 226 255
204 226 255
204 226 255
204 226 255
204 226 255
204 226 255
204 226 255
204 226 255
204 226 255
204 226 255
204 226 255
204 226 255
204 226 255
204 226 255
204 226 255
205 226 255
205 226 255
204 226 255
204 226 255
204 226 255
204 226 255
204 226 255
204 226 255
204 226 255
204 226 255
204 226 255
204 226 255
204 226 255
204 226 255
204 226 255
204 226 255
204 226 255
204 226 255
204 226 255
204 226 255
203 226 255
203 226 255
203 226 255
203 226 255
203 226 255
203 226 255
203 226 255
203 225 255
203 225 255
203 225 255
203 225 255
203 225 255
203 225 255
203 225 255
203 225 255
203 225 255
203 225 255
202 225 255
202 225 255
202 225 255
202 225 255
202 225 255
202 225 255
202 225 255
202 225 255
202 225 255
202 225 255
202 225 255
202 225 255
202 225 255
202 225 255
202 225 255
201 225 255
201 225 255
201 225 255
201 225 255
201 225 255
201 224 255
201 224 255
201 224 255
201 224 255
201 224 255
201 224 255
201 224 255
201 224 255
201 224 255
201 224 255
200 224 255
200 224 255
200 224 255
200 224 255
200 224 255
200 224 255
200 224 255
200 224 255
200 224 255
200 224 255
200 224 255
200 224 255
200 224 255
200 224 255
200 224 255
199 224 255
199 224 255
199 223 255
199 223 255
199 223 255
199 223 255
199 223 255
199 223 255
199 223 255
199 223 255
199 223 255
199 223 255
199 223 255
199 223 255
198 223 255
198 223 255
198 223 255
198 223 255
198 223 255
198 223 255
198 223 255
198 223 255
198 223 255
198 223 255
198 223 255
198 223 255
198 223 255
198 223 255
197 223 255
197 222 255
197 222 255
197 222 255
197 222 255
197 222 255
197 222 255
197 222 255
197 222 255
197 222 255
197 222 255
197 222 255
197 222 255
197 222 255
197 222 255
196 222 255
196 222 255
196 222 255
196 222 255
196 222 255
196 222 255
196 222 255
196 222 255
196 222 255
196 222 255
196 222 255
196 222 255
196 222 255
196 222 255
196 222 255
196 221 255
195 221 255
195 221 255
195 221 255
195 221 255
195 221 255
195 221 255
195 221 255
195 221 255
195 221 255
195 221 255
195 221 255
195 221 255
195 221 255
195 221 255
195 221 255
195 221 255
195 221 255
195 221 255
195 221 255
195 221 255
194 221 255
194 221 255
194 221 255
194 221 255
194 221 255
194 221 255
194 221 255
194 221 255
194 221 255
194 221 255
194 221 255
194 221 255
194 221 255
194 221 255
194 221 255
194 221 255
194 221 255
194 221 255
194 221 255
194 221 255
194 221 255
194 221 255
194 221 255
194 221 255
194 221 255
194 221 255
194 221 255
194 221 255
194 221 255
194 221 255
194 221 255
194 220 255
194 220 255
194 220 255
194 220 255
194 220 255
194 220 255
194 220 255
194 220 255
194 220 255
194 220 255
194 220 255
194 220 255
194 220 255
194 220 255
194 220 255
194 221 255
194 221 255
194 221 255
194 221 255
194 221 255
194 221 255
194 221 255
194 221 255
194 221 255
194 221 255
194 221 255
194 221 255
194 221 255
194 221 255
194 221 255
194 221 255
194 221 255
194 221 255
194 221 255
194 221 255
194 221 255
194 221 255
194 221 255
194 221 255
194 221 255
194 221 255
194 221 255
194 221 255
194 221 255
194 221 255
194 221 255
195 221 255
195 221 255
195 221 255
195 221 255
195 221 255
195 221 255
195 221 255
195 221 255
195 221 255
195 221 255
195 221 255
195 221 255
195 221 255
195 221 255
195 221 255
195 221 255
195 221 255
195 221 255
195 221 255
195 221 255
195 221 255
196 221 255
196 222 255
196 222 255
196 222 255
196 222 255
196 222 255
196 222 255
196 222 255
196 222 255
196 222 255
196 222 255
196 222 255
196 222 255
196 222 255
196 222 255
196 222 255
197 222 255
197 222 255
197 222 255
197 222 255
197 222 255
197 222 255
197 222 255
197 222 255
197 222 255
197 222 255
197 222 255
197 222 255
197 222 255
197 222 255
197 223 255
198 223 255
198 223 255
198 223 255
198 223 255
198 223 255
198 223 255
198 223 255
198 223 255
198 223 255
198 223 255
198 223 255
198 223 255
198 223 255
198 223 255
199 223 255
199 223 255
199 223 255
199 223 255
199 223 255
199 223 255
199 223 255
199 223 255
199 223 255
199 223 255
199 223 255
199 223 255
199 224 255
199 224 255
200 224 255
200 224 255
200 224 255
200 224 255
200 224 255
200 224 255
200 224 255
200 224 255
200 224 255
200 224 255
200 224 255
200 224 255
200 224 255
200 224 255
200 224 255
201 224 255
201 224 255
201 224 255
201 224 255
201 224 255
201 224 255
201 224 255
201 224 255
201 224 255
201 224 255
201 225 255
201 225 255
201 225 255
201 225 255
201 225 255
202 225 255
202 225 255
202 225 255
202 225 255
202 225 255
202 225 255
202 225 255
202 225 255
202 225 255
202 225 255
202 225 255
202 225 255
202 225 255
202 225 255
202 225 255
203 225 255
203 225 255
203 225 255
203 225 255
203 225 255
203 225 255
203 225 255
203 225 255
203 225 255
203 225 255
203 226 255
203 226 255
203 226 255
203 226 255
203 226 255
203 226 255
203 226 255
204 226 255
204 226 255
204 226 255
204 226 255
204 226 255
204 226 255
204 226 255
204 226 255
204 226 255
204 226 255
204 226 255
204 226 255
204 226 255
204 226 255
204 226 255
204 226 255
204 226 255
204 226 255
205 226 255
205 226 255
205 226 255
205 226 255
205 226 255
205 226 255
204 226 255
204 226 255
204 226 255
204 226 255
204 226 255
204 226 255
204 226 255
204 226 255
204 226 255
204 226 255
204 226 255
204 226 255
204 226 255
204 226 255
204 226 255
204 226 255
204 226 255
204 226 255
203 226 255
203 226 255
203 226 255
203 226 255
203 226 255
203 226 255
203 226 255
203 226 255
203 225 255
203 225 255
203 225 255
203 225 255
203 225 255
203 225 255
203 225 255
203 225 255
203 225 255
202 225 255
202 225 255
202 225 255
202 225 255
202 225 255
202 225 255
202 225 255
202 225 255
202 225 255
202 225 255
202 225 255
202 225 255
202 225 255
202 225 255
202 225 255
201 225 255
201 225 255
201 225 255
201 225 255
201 225 255
201 224 255
201 224 255
201 224 255
201 224 255
201 224 255
201 224 255
201 224 255
201 224 255
201 224 255
201 224 255
200 224 255
200 224 255
200 224 255
200 224 255
200 224 255
200 224 255
200 224 255
200 224 255
200 224 255
200 224 255
200 224 255
200 224 255
200 224 255
200 224 255
200 224 255
199 224 255
199 224 255
199 223 255
199 223 255
199 223 255
199 223 255
199 223 255
199 223 255
199 223 255
199 223 255
199 223 255
199 223 255
199 223 255
199 223 255
198 223 255
198 223 255
198 223 255
198 223 255
198 223 255
198 223 255
198 223 255
198 223 255
198 223 255
198 223 255
198 223 255
198 223 255
198 223 255
198 223 255
197 223 255
197 222 255
197 222 255
197 222 255
197 222 255
197 222 255
197 222 255
197 222 255
197 222 255
197 222 255
197 222 255
197 222 255
197 222 255
197 222 255
197 222 255
196 222 255
196 222 255
196 222 255
196 222 255
196 222 255
196 222 255
196 222 255
196 222 255
196 222 255
196 222 255
196 222 255
196 222 255
196 222 255
196 222 255
196 222 255
196 222 255
196 221 255
195 221 255
195 221 255
195 221 255
195 221 255
195 221 255
195 221 255
195 221 255
195 221 255
195 221 255
195 221 255
195 221 255
195 221 255
195 221 255
195 221 255
195 221 255
195 221 255
195 221 255
195 221 255
195 221 255
195 221 255
195 221 255
194 221 255
194 221 255
194 221 255
194 221 255
194 221 255
194 221 255
194 221 255
194 221 255
194 221 255
194 221 255
194 221 255
194 221 255
194 221 255
194 221 255
194 221 255
194 221 255
194 221 255
194 221 255
194 221 255
194 221 255
194 221 255
194 221 255
194 221 255
194 221 255
194 221 255
194 221 255
194 221 255
194 221 255
194 221 255
194 221 255
194 221 255
194 221 255
194 221 255
194 221 255
194 221 255
194 221 255
194 221 255
194 221 255
194 221 255
194 221 255
194 221 255
194 221 255
194 221 255
194 221 255
194 221 255
194 221 255
194 221 255
194 221 255
194 221 255
194 221 255
194 221 255
194 221 255
194 221 255
194 221 255
194 221 255
194 221 255
194 221 255
194 221 255
194 221 255
194 221 255
194 221 255
194 221 255
194 221 255
194 221 255
194 221 255
194 221 255
194 221 255
194 221 255
194 221 255
194 221 255
195 221 255
195 221 255
195 221 255
195 221 255
195 221 255
195 221 255
195 221 255
195 221 255
195 221 255
195 221 255
195 221 255
195 221 255
195 221 255
195 221 255
195 221 255
195 221 255
195 221 255
195 221 255
195 221 255
195 221 255
195 221 255
196 221 255
196 221 255
196 222 255
196 222 255
196 222 255
196 222 255
196 222 255
196 222 255
196 222 255
196 222 255
196 222 255
196 222 255
196 222 255
196 222 255
196 222 255
196 222 255
196 222 255
197 222 255
197 222 255
197 222 255
197 222 255
197 222 255
197 222 255
197 222 255
197 222 255
197 222 255
197 222 255
197 222 255
197 222 255
197 222 255
197 222 255
197 223 255
198 223 255
198 223 255
198 223 255
198 223 255
198 223 255
198 223 255
198 223 255
198 223 255
198 223 255
198 223 255
198 223 255
198 223 255
198 223 255
198 223 255
199 223 255
199 223 255
199 223 255
199 223 255
199 223 255
199 223 255
199 223 255
199 223 255
199 223 255
199 223 255
199 223 255
199 223 255
199 224 255
199 224 255
200 224 255
200 224 255
200 224 255
200 224 255
200 224 255
200 224 255
200 224 255
200 224 255
200 224 255
200 224 255
200 224 255
200 224 255
200 224 255
200 224 255
200 224 255
201 224 255
201 224 255
201 224 255
201 224 255
201 224 255
201 224 255
201 224 255
201 224 255
201 224 255
201 224 255
201 225 255
201 225 255
201 225 255
201 225 255
201 225 255
202 225 255
202 225 255
202 225 255
202 225 255
202 225 255
202 225 255
202 225 255
202 225 255
202 225 255
202 225 255
202 225 255
202 225 255
202 225 255
202 225 255
202 225 255
203 225 255
203 225 255
203 225 255
203 225 255
203 225 255
203 225 255
203 225 255
203 225 255
203 225 255
203 226 255
203 226 255
203 226 255
203 226 255
203 226 255
203 226 255
203 226 255
203 226 255
204 226 255
204 226 255
204 226 255
204 226 255
204 226 255
204 226 255
204 226 255
204 226 255
204 226 255
204 226 255
204 226 255
204 226 255
204 226 255
204 226 255
204 226 255
204 226 255
204 226 255
205 226 255
205 226 255
205 226 255
205 226 255
205 226 255
205 226 255
205 226 255
205 226 255
205 226 255
205 226 255
205 226 255
205 226 255
204 226 255
204 226 255
204 226 255
204 226 255
204 226 255
204 226 255
204 226 255
204 226 255
204 226 255
204 226 255
204 226 255
204 226 255
204 226 255
204 226 255
204 226 255
204 226 255
204 226 255
204 226 255
203 226 255
203 226 255
203 226 255
203 226 255
203 226 255
203 226 255
203 226 255
203 225 255
203 225 255
203 225 255
203 225 255
203 225 255
203 225 255
203 225 255
203 225 255
203 225 255
202 225 255
202 225 255
202 225 255
202 225 255
202 225 255
202 225 255
202 225 255
202 225 255
202 225 255
202 225 255
202 225 255
202 225 255
202 225 255
202 225 255
202 225 255
201 225 255
201 225 255
201 225 255
201 225 255
201 225 255
201 224 255
201 224 255
201 224 255
201 224 255
201 224 255
201 224 255
201 224 255
201 224 255
201 224 255
201 224 255
200 224 255
200 224 255
200 224 255
200 224 255
200 224 255
200 224 255
200 224 255
200 224 255
200 224 255
200 224 255
200 224 255
200 224 255
200 224 255
200 224 255
200 224 255
199 224 255
199 224 255
199 223 255
199 223 255
199 223 255
199 223 255
199 223 255
199 223 255
199 223 255
199 223 255
199 223 255
199 223 255
199 223 255
199 223 255
198 223 255
198 223 255
198 223 255
198 223 255
198 223 255
198 223 255
198 223 255
198 223 255
198 223 255
198 223 255
198 223 255
198 223 255
198 223 255
198 223 255
198 223 255
197 222 255
197 222 255
197 222 255
197 222 255
197 222 255
197 222 255
197 222 255
197 222 255
197 222 255
197 222 255
197 222 255
197 222 255
197 222 255
197 222 255
197 222 255
196 222 255
196 222 255
196 222 255
196 222 255
196 222 255
196 222 255
196 222 255
196 222 255
196 222 255
196 222 255
196 222 255
196 222 255
196 222 255
196 222 255
196 222 255
196 221 255
196 221 255
195 221 255
195 221 255
195 221 255
195 221 255
195 221 255
195 221 255
195 221 255
195 221 255
195 221 255
195 221 255
195 221 255
195 221 255
195 221 255
195 221 255
195 221 255
195 221 255
195 221 255
195 221 255
195 221 255
195 221 255
195 221 255
195 221 255
194 221 255
194 221 255
194 221 255
194 221 255
194 221 255
194 221 255
194 221 255
194 221 255
194 221 255
194 221 255
194 221 255
194 221 255
194 221 255
194 221 255
194 221 255
194 221 255
194 221 255
194 221 255
194 221 255
194 221 255
194 221 255
194 221 255
194 221 255
194 221 255
194 221 255
194 221 255
194 221 255
194 221 255
194 221 255
194 221 255
194 221 255
194 221 255
194 221 255
194 221 255
194 221 255
194 221 255
194 221 255
194 221 255
194 221 255
194 221 255
194 221 255
194 221 255
194 221 255
194 221 255
194 221 255
194 221 255
194 221 255
194 221 255
194 221 255
194 221 255
194 221 255
194 221 255
194 221 255
194 221 255
194 221 255
194 221 255
194 221 255
194 221 255
194 221 255
194 221 255
194 221 255
194 221 255
195 221 255
195 221 255
195 221 255
195 221 255
195 221 255
195 221 255
195 221 255
195 221 255
195 221 255
195 221 255
195 221 255
195 221 255
195 221 255
195 221 255
195 221 255
195 221 255
195 221 255
195 221 255
195 221 255
195 221 255
195 221 255
195 221 255
196 221 255
196 221 255
196 222 255
196 222 255
196 222 255
196 222 255
196 222 255
196 222 255
196 222 255
196 222 255
196 222 255
196 222 255
196 222 255
196 222 255
196 222 255
196 222 255
196 222 255
197 222 255
197 222 255
197 222 255
197 222 255
197 222 255
197 222 255
197 222 255
197 222 255
197 222 255
197 222 255
197 222 255
197 222 255
197 222 255
197 222 255
197 222 255
197 223 255
198 223 255
198 223 255
198 223 255
198 223 255
198 223 255
198 223 255
198 223 255
198 223 255
198 223 255
198 223 255
198 223 255
198 223 255
198 223 255
198 223 255
199 223 255
199 223 255
199 223 255
199 223 255
199 223 255
199 223 255
199 223 255
199 223 255
199 223 255
199 223 255
199 223 255
199 223 255
199 224 255
199 224 255
200 224 255
200 224 255
200 224 255
200 224 255
200 224 255
200 224 255
200 224 255
200 224 255
200 224 255
200 224 255
200 224 255
200 224 255
200 224 255
200 224 255
200 224 255
201 224 255
201 224 255
201 224 255
201 224 255
201 224 255
201 224 255
201 224 255
201 224 255
201 224 255
201 224 255
201 225 255
201 225 255
201 225 255
201 225 255
201 225 255
202 225 255
202 225 255
202 225 255
202 225 255
202 225 255
202 225 255
202 225 255
202 225 255
202 225 255
202 225 255
202 225 255
202 225 255
202 225 255
202 225 255
202 225 255
203 225 255
203 225 255
203 225 255
203 225 255
203 225 255
203 225 255
203 225 255
203 225 255
203 225 255
203 226 255
203 226 255
203 226 255
203 226 255
203 226 255
203 226 255
203 226 255
204 226 255
204 226 255
204 226 255
204 226 255
204 226 255
204 226 255
204 226 255
204 226 255
204 226 255
204 226 255
204 226 255
204 226 255
204 226 255
204 226 255
204 226 255
204 226 255
204 226 255
204 226 255
205 226 255
205 226 255
205 226 255
205 226 255
205 226 255
205 226 255
205 226 255
205 227 255
205 227 255
205 226 255
205 226 255
205 226 255
205 226 255
205 226 255
205 226 255
205 226 255
204 226 255
204 226 255
204 226 255
204 226 255
204 226 255
204 226 255
204 226 255
204 226 255
204 226 255
204 226 255
204 226 255
204 226 255
204 226 255
204 226 255
204 226 255
204 226 255
204 226 255
204 226 255
203 226 255
203 226 255
203 226 255
203 226 255
203 226 255
203 226 255
203 226 255
203 225 255
203 225 255
203 225 255
203 225 255
203 225 255
203 225 255
203 225 255
203 225 255
203 225 255
202 225 255
202 225 255
202 225 255
202 225 255
202 225 255
202 225 255
202 225 255
202 225 255
202 225 255
202 225 255
202 225 255
202 225 255
202 225 255
202 225 255
202 225 255
202 225 255
201 225 255
201 225 255
201 225 255
201 225 255
201 224 255
201 224 255
201 224 255
201 224 255
201 224 255
201 224 255
201 224 255
201 224 255
201 224 255
201 224 255
200 224 255
200 224 255
200 224 255
200 224 255
200 224 255
200 224 255
200 224 255
200 224 255
200 224 255
200 224 255
200 224 255
200 224 255
200 224 255
200 224 255
200 224 255
199 224 255
199 224 255
199 223 255
199 223 255
199 223 255
199 223 255
199 223 255
199 223 255
199 223 255
199 223 255
199 223 255
199 223 255
199 223 255
199 223 255
198 223 255
198 223 255
198 223 255
198 223 255
198 223 255
198 223 255
198 223 255
198 223 255
198 223 255
198 223 255
198 223 255
198 223 255
198 223 255
198 223 255
198 223 255
197 222 255
197 222 255
197 222 255
197 222 255
197 222 255
197 222 255
197 222 255
197 222 255
197 222 255
197 222 255
197 222 255
197 222 255
197 222 255
197 222 255
197 222 255
196 222 255
196 222 255
196 222 255
196 222 255
196 222 255
196 222 255
196 222 255
196 222 255
196 222 255
196 222 255
196 222 255
196 222 255
196 222 255
196 222 255
196 222 255
196 222 255
196 221 255
195 221 255
195 221 255
195 221 255
195 221 255
195 221 255
195 221 255
195 221 255
195 221 255
195 221 255
195 221 255
195 221 255
195 221 255
195 221 255
195 221 255
195 221 255
195 221 255
195 221 255
195 221 255
195 221 255
195 221 255
195 221 255
195 221 255
195 221 255
195 221 255
194 221 255
194 221 255
194 221 255
194 221 255
194 221 255
194 221 255
194 221 255
194 221 255
194 221 255
194 221 255
194 221 255
194 221 255
194 221 255
194 221 255
194 221 255
194 221 255
194 221 255
194 221 255
194 221 255
194 221 255
194 221 255
194 221 255
194 221 255
194 221 255
194 221 255
194 221 255
194 221 255
194 221 255
194 221 255
194 221 255
194 221 255
194 221 255
194 221 255
194 221 255
194 221 255
194 221 255
194 221 255
194 221 255
194 221 255
194 221 255
194 221 255
194 221 255
194 221 255
194 221 255
194 221 255
194 221 255
194 221 255
194 221 255
194 221 255
194 221 255
194 221 255
194 221 255
194 221 255
194 221 255
195 221 255
195 221 255
195 221 255
195 221 255
195 221 255
195 221 255
195 221 255
195 221 255
195 221 255
195 221 255
195 221 255
195 221 255
195 221 255
195 221 255
195 221 255
195 221 255
195 221 255
195 221 255
195 221 255
195 221 255
195 221 255
195 221 255
195 221 255
195 221 255
196 221 255
196 222 255
196 222 255
196 222 255
196 222 255
196 222 255
196 222 255
196 222 255
196 222 255
196 222 255
196 222 255
196 222 255
196 222 255
196 222 255
196 222 255
196 222 255
196 222 255
197 222 255
197 222 255
197 222 255
197 222 255
197 222 255
197 222 255
197 222 255
197 222 255
197 222 255
197 222 255
197 222 255
197 222 255
197 222 255
197 222 255
197 222 255
198 223 255
198 223 255
198 223 255
198 223 255
198 223 255
198 223 255
198 223 255
198 223 255
198 223 255
198 223 255
198 223 255
198 223 255
198 223 255
198 223 255
198 223 255
199 223 255
199 223 255
199 223 255
199 223 255
199 223 255
199 223 255
199 223 255
199 223 255
199 223 255
199 223 255
199 223 255
199 223 255
199 224 255
199 224 255
200 224 255
200 224 255
200 224 255
200 224 255
200 224 255
200 224 255
200 224 255
200 224 255
200 224 255
200 224 255
200 224 255
200 224 255
200 224 255
200 224 255
200 224 255
201 224 255
201 224 255
201 224 255
201 224 255
201 224 255
201 224 255
201 224 255
201 224 255
201 224 255
201 224 255
201 225 255
201 225 255
201 225 255
201 225 255
202 225 255
202 225 255
202 225 255
202 225 255
202 225 255
202 225 255
202 225 255
202 225 255
202 225 255
202 225 255
202 225 255
202 225 255
202 225 255
202 225 255
202 225 255
202 225 255
203 225 255
203 225 255
203 225 255
203 225 255
203 225 255
203 225 255
203 225 255
203 225 255
203 225 255
203 226 255
203 226 255
203 226 255
203 226 255
203 226 255
203 226 255
203 226 255
204 226 255
204 226 255
204 226 255
204 226 255
204 226 255
204 226 255
204 226 255
204 226 255
204 226 255
204 226 255
204 226 255
204 226 255
204 226 255
204 226 255
204 226 255
204 226 255
204 226 255
204 226 255
205 226 255
205 226 255
205 226 255
205 226 255
205 226 255
205 226 255
205 226 255
205 227 255
205 227 255
205 227 255
205 227 255
205 227 255
205 227 255
205 226 255
205 226 255
205 226 255
205 226 255
205 226 255
205 226 255
205 226 255
205 226 255
204 226 255
204 226 255
204 226 255
204 226 255
204 226 255
204 226 255
204 226 255
204 226 255
204 226 255
204 226 255
204 226 255
204 226 255
204 226 255
204 226 255
204 226 255
204 226 255
204 226 255
203 226 255
203 226 255
203 226 255
203 226 255
203 226 255
203 226 255
203 226 255
203 225 255
203 225 255
203 225 255
203 225 255
203 225 255
203 225 255
203 225 255
203 225 255
203 225 255
202 225 255
202 225 255
202 225 255
202 225 255
202 225 255
202 225 255
202 225 255
202 225 255
202 225 255
202 225 255
202 225 255
202 225 255
202 225 255
202 225 255
202 225 255
202 225 255
201 225 255
201 225 255
201 225 255
201 225 255
201 224 255
201 224 255
201 224 255
201 224 255
201 224 255
201 224 255
201 224 255
201 224 255
201 224 255
201 224 255
200 224 255
200 224 255
200 224 255
200 224 255
200 224 255
200 224 255
200 224 255
200 224 255
200 224 255
200 224 255
200 224 255
200 224 255
200 224 255
200 224 255
200 224 255
199 224 255
199 224 255
199 223 255
199 223 255
199 223 255
199 223 255
199 223 255
199 223 255
199 223 255
199 223 255
199 223 255
199 223 255
199 223 255
199 223 255
198 223 255
198 223 255
198 223 255
198 223 255
198 223 255
198 223 255
198 223 255
198 223 255
198 223 255
198 223 255
198 223 255
198 223 255
198 223 255
198 223 255
198 223 255
197 222 255
197 222 255
197 222 255
197 222 255
197 222 255
197 222 255
197 222 255
197 222 255
197 222 255
197 222 255
197 222 255
197 222 255
197 222 255
197 222 255
197 222 255
196 222 255
196 222 255
196 222 255
196 222 255
196 222 255
196 222 255
196 222 255
196 222 255
196 222 255
196 222 255
196 222 255
196 222 255
196 222 255
196 222 255
196 222 255
196 222 255
196 222 255
196 221 255
195 221 255
195 221 255
195 221 255
195 221 255
195 221 255
195 221 255
195 221 255
195 221 255
195 221 255
195 221 255
195 221 255
195 221 255
195 221 255
195 221 255
195 221 255
195 221 255
195 221 255
195 221 255
195 221 255
195 221 255
195 221 255
195 221 255
195 221 255
195 221 255
195 221 255
195 221 255
195 221 255
194 221 255
194 221 255
194 221 255
194 221 255
194 221 255
194 221 255
194 221 255
194 221 255
194 221 255
194 221 255
194 221 255
194 221 255
194 221 255
194 221 255
194 221 255
194 221 255
194 221 255
194 221 255
194 221 255
194 221 255
194 221 255
194 221 255
194 221 255
194 221 255
194 221 255
194 221 255
194 221 255
194 221 255
194 221 255
194 221 255
194 221 255
194 221 255
194 221 255
194 221 255
194 221 255
194 221 255
194 221 255
194 221 255
194 221 255
194 221 255
194 221 255
194 221 255
194 221 255
195 221 255
195 221 255
195 221 255
195 221 255
195 221 255
195 221 255
195 221 255
195 221 255
195 221 255
195 221 255
195 221 255
195 221 255
195 221 255
195 221 255
195 221 255
195 221 255
195 221 255
195 221 255
195 221 255
195 221 255
195 221 255
195 221 255
195 221 255
195 221 255
195 221 255
195 221 255
196 221 255
196 222 255
196 222 255
196 222 255
196 222 255
196 222 255
196 222 255
196 222 255
196 222 255
196 222 255
196 222 255
196 222 255
196 222 255
196 222 255
196 222 255
196 222 255
196 222 255
196 222 255
197 222 255
197 222 255
197 222 255
197 222 255
197 222 255
197 222 255
197 222 255
197 222 255
197 222 255
197 222 255
197 222 255
197 222 255
197 222 255
197 222 255
197 222 255
198 223 255
198 223 255
198 223 255
198 223 255
198 223 255
198 223 255
198 223 255
198 223 255
198 223 255
198 223 255
198 223 255
198 223 255
198 223 255
198 223 255
198 223 255
199 223 255
199 223 255
199 223 255
199 223 255
199 223 255
199 223 255
199 223 255
199 223 255
199 223 255
199 223 255
199 223 255
199 223 255
199 224 255
199 224 255
200 224 255
200 224 255
200 224 255
200 224 255
200 224 255
200 224 255
200 224 255
200 224 255
200 224 255
200 224 255
200 224 255
200 224 255
200 224 255
200 224 255
201 224 255
201 224 255
201 224 255
201 224 255
201 224 255
201 224 255
201 224 255
201 224 255
201 224 255
201 224 255
201 224 255
201 225 255
201 225 255
201 225 255
201 225 255
202 225 255
202 225 255
202 225 255
202 225 255
202 225 255
202 225 255
202 225 255
202 225 255
202 225 255
202 225 255
202 225 255
202 225 255
202 225 255
202 225 255
202 225 255
202 225 255
203 225 255
203 225 255
203 225 255
203 225 255
203 225 255
203 225 255
203 225 255
203 225 255
203 225 255
203 226 255
203 226 255
203 226 255
203 226 255
203 226 255
203 226 255
203 226 255
204 226 255
204 226 255
204 226 255
204 226 255
204 226 255
204 226 255
204 226 255
204 226 255
204 226 255
204 226 255
204 226 255
204 226 255
204 226 255
204 226 255
204 226 255
204 226 255
204 226 255
205 226 255
205 226 255
205 226 255
205 226 255
205 226 255
205 226 255
205 226 255
205 226 255
205 227 255
205 227 255
205 227 255
205 227 255
205 227 255
205 227 255
205 227 255
205 227 255
205 227 255
205 227 255
205 227 255
205 226 255
205 226 255
205 226 255
205 226 255
205 226 255
205 226 255
205 226 255
204 226 255
204 226 255
204 226 255
204 226 255
204 226 255
204 226 255
204 226 255
204 226 255
204 226 255
204 226 255
204 226 255
204 226 255
204 226 255
204 226 255
204 226 255
204 226 255
204 226 255
203 226 255
203 226 255
203 226 255
203 226 255
203 226 255
203 226 255
203 226 255
203 226 255
203 225 255
203 225 255
203 225 255
203 225 255
203 225 255
203 225 255
203 225 255
203 225 255
203 225 255
202 225 255
202 225 255
202 225 255
202 225 255
202 225 255
202 225 255
202 225 255
202 225 255
202 225 255
202 225 255
202 225 255
202 225 255
202 225 255
202 225 255
202 225 255
201 225 255
201 225 255
201 225 255
201 225 255
201 224 255
201 224 255
201 224 255
201 224 255
201 224 255
201 224 255
201 224 255
201 224 255
201 224 255
201 224 255
201 224 255
200 224 255
200 224 255
200 224 255
200 224 255
200 224 255
200 224 255
200 224 255
200 224 255
200 224 255
200 224 255
200 224 255
200 224 255
200 224 255
200 224 255
199 224 255
199 224 255
199 223 255
199 223 255
199 223 255
199 223 255
199 223 255
199 223 255
199 223 255
199 223 255
199 223 255
199 223 255
199 223 255
199 223 255
198 223 255
198 223 255
198 223 255
198 223 255
198 223 255
198 223 255
198 223 255
198 223 255
198 223 255
198 223 255
198 223 255
198 223 255
198 223 255
198 223 255
198 223 255
197 223 255
197 222 255
197 222 255
197 222 255
197 222 255
197 222 255
197 222 255
197 222 255
197 222 255
197 222 255
197 222 255
197 222 255
197 222 255
197 222 255
197 222 255
197 222 255
196 222 255
196 222 255
196 222 255
196 222 255
196 222 255
196 222 255
196 222 255
196 222 255
196 222 255
196 222 255
196 222 255
196 222 255
196 222 255
196 222 255
196 222 255
196 222 255
196 222 255
196 221 255
195 221 255
195 221 255
195 221 255
195 221 255
195 221 255
195 221 255
195 221 255
195 221 255
195 221 255
195 221 255
195 221 255
195 221 255
195 221 255
195 221 255
195 221 255
195 221 255
195 221 255
195 221 255
195 221 255
195 221 255
195 221 255
195 221 255
195 221 255
195 221 255
195 221 255
195 221 255
195 221 255
195 221 255
195 221 255
195 221 255
194 221 255
194 221 255
194 221 255
194 221 255
194 221 255
194 221 255
194 221 255
194 221 255
194 221 255
194 221 255
194 221 255
194 221 255
194 221 255
194 221 255
194 221 255
194 221 255
194 221 255
194 221 255
194 221 255
194 221 255
194 221 255
194 221 255
194 221 255
194 221 255
194 221 255
194 221 255
194 221 255
194 221 255
194 221 255
194 221 255
195 221 255
195 221 255
195 221 255
195 221 255
195 221 255
195 221 255
195 221 255
195 221 255
195 221 255
195 221 255
195 221 255
195 221 255
195 221 255
195 221 255
195 221 255
195 221 255
195 221 255
195 221 255
195 221 255
195 221 255
195 221 255
195 221 255
195 221 255
195 221 255
195 221 255
195 221 255
195 221 255
195 221 255
195 221 255
195 221 255
196 221 255
196 221 255
196 222 255
196 222 255
196 222 255
196 222 255
196 222 255
196 222 255
196 222 255
196 222 255
196 222 255
196 222 255
196 222 255
196 222 255
196 222 255
196 222 255
196 222 255
196 222 255
197 222 255
197 222 255
197 222 255
197 222 255
197 222 255
197 222 255
197 222 255
197 222 255
197 222 255
197 222 255
197 222 255
197 222 255
197 222 255
197 222 255
197 222 255
197 223 255
198 223 255
198 223 255
198 223 255
198 223 255
198 223 255
198 223 255
198 223 255
198 223 255
198 223 255
198 223 255
198 223 255
198 223 255
198 223 255
198 223 255
198 223 255
199 223 255
199 223 255
199 223 255
199 223 255
199 223 255
199 223 255
199 223 255
199 223 255
199 223 255
199 223 255
199 223 255
199 223 255
199 224 255
199 224 255
200 224 255
200 224 255
200 224 255
200 224 255
200 224 255
200 224 255
200 224 255
200 224 255
200 224 255
200 224 255
200 224 255
200 224 255
200 224 255
200 224 255
201 224 255
201 224 255
201 224 255
201 224 255
201 224 255
201 224 255
201 224 255
201 224 255
201 224 255
201 224 255
201 224 255
201 225 255
201 225 255
201 225 255
201 225 255
202 225 255
202 225 255
202 225 255
202 225 255
202 225 255
202 225 255
202 225 255
202 225 255
202 225 255
202 225 255
202 225 255
202 225 255
202 225 255
202 225 255
202 225 255
203 225 255
203 225 255
203 225 255
203 225 255
203 225 255
203 225 255
203 225 255
203 225 255
203 225 255
203 226 255
203 226 255
203 226 255
203 226 255
203 226 255
203 226 255
203 226 255
203 226 255
204 226 255
204 226 255
204 226 255
204 226 255
204 226 255
204 226 255
204 226 255
204 226 255
204 226 255
204 226 255
204 226 255
204 226 255
204 226 255
204 226 255
204 226 255
204 226 255
204 226 255
205 226 255
205 226 255
205 226 255
205 226 255
205 226 255
205 226 255
205 226 255
205 227 255
205 227 255
205 227 255
205 227 255
205 227 255
205 227 255
205 227 255
205 227 255
205 227 255
205 227 255
205 227 255
205 227 255
205 227 255
205 227 255
205 227 255
205 227 255
205 226 255
205 226 255
205 226 255
205 226 255
205 226 255
205 226 255
205 226 255
204 226 255
204 226 255
204 226 255
204 226 255
204 226 255
204 226 255
204 226 255
204 226 255
204 226 255
204 226 255
204 226 255
204 226 255
204 226 255
204 226 255
204 226 255
204 226 255
204 226 255
204 226 255
203 226 255
203 226 255
203 226 255
203 226 255
203 226 255
203 226 255
203 226 255
203 225 255
203 225 255
203 225 255
203 225 255
203 225 255
203 225 255
203 225 255
203 225 255
203 225 255
202 225 255
202 225 255
202 225 255
202 225 255
202 225 255
202 225 255
202 225 255
202 225 255
202 225 255
202 225 255
202 225 255
202 225 255
202 225 255
202 225 255
202 225 255
201 225 255
201 225 255
201 225 255
201 225 255
201 225 255
201 224 255
201 224 255
201 224 255
201 224 255
201 224 255
201 224 255
201 224 255
201 224 255
201 224 255
201 224 255
200 224 255
200 224 255
200 224 255
200 224 255
200 224 255
200 224 255
200 224 255
200 224 255
200 224 255
200 224 255
200 224 255
200 224 255
200 224 255
200 224 255
199 224 255
199 224 255
199 224 255
199 223 255
199 223 255
199 223 255
199 223 255
199 223 255
199 223 255
199 223 255
199 223 255
199 223 255
199 223 255
199 223 255
199 223 255
198 223 255
198 223 255
198 223 255
198 223 255
198 223 255
198 223 255
198 223 255
198 223 255
198 223 255
198 223 255
198 223 255
198 223 255
198 223 255
198 223 255
197 223 255
197 222 255
197 222 255
197 222 255
197 222 255
197 222 255
197 222 255
197 222 255
197 222 255
197 222 255
197 222 255
197 222 255
197 222 255
197 222 255
197 222 255
197 222 255
196 222 255
196 222 255
196 222 255
196 222 255
196 222 255
196 222 255
196 222 255
196 222 255
196 222 255
196 222 255
196 222 255
196 222 255
196 222 255
196 222 255
196 222 255
196 222 255
196 222 255
196 222 255
196 221 255
196 221 255
195 221 255
195 221 255
195 221 255
195 221 255
195 221 255
195 221 255
195 221 255
195 221 255
195 221 255
195 221 255
195 221 255
195 221 255
195 221 255
195 221 255
195 221 255
195 221 255
195 221 255
195 221 255
195 221 255
195 221 255
195 221 255
195 221 255
195 221 255
195 221 255
195 221 255
195 221 255
195 221 255
195 221 255
195 221 255
195 221 255
195 221 255
195 221 255
195 221 255
195 221 255
195 221 255
195 221 255
195 221 255
195 221 255
195 221 255
195 221 255
195 221 255
195 221 255
195 221 255
195 221 255
195 221 255
195 221 255
195 221 255
195 221 255
195 221 255
195 221 255
195 221 255
195 221 255
195 221 255
195 221 255
195 221 255
195 221 255
195 221 255
195 221 255
195 221 255
195 221 255
195 221 255
195 221 255
195 221 255
195 221 255
195 221 255
195 221 255
195 221 255
195 221 255
195 221 255
195 221 255
195 221 255
195 221 255
195 221 255
195 221 255
195 221 255
195 221 255
195 221 255
195 221 255
195 221 255
195 221 255
195 221 255
195 221 255
196 221 255
196 221 255
196 222 255
196 222 255
196 222 255
196 222 255
196 222 255
196 222 255
196 222 255
196 222 255
196 222 255
196 222 255
196 222 255
196 222 255
196 222 255
196 222 255
196 222 255
196 222 255
196 222 255
196 222 255
197 222 255
197 222 255
197 222 255
197 222 255
197 222 255
197 222 255
197 222 255
197 222 255
197 222 255
197 222 255
197 222 255
197 222 255
197 222 255
197 222 255
197 222 255
197 223 255
198 223 255
198 223 255
198 223 255
198 223 255
198 223 255
198 223 255
198 223 255
198 223 255
198 223 255
198 223 255
198 223 255
198 223 255
198 223 255
198 223 255
199 223 255
199 223 255
199 223 255
199 223 255
199 223 255
199 223 255
199 223 255
199 223 255
199 223 255
199 223 255
199 223 255
199 223 255
199 224 255
199 224 255
199 224 255
200 224 255
200 224 255
200 224 255
200 224 255
200 224 255
200 224 255
200 224 255
200 224 255
200 224 255
200 224 255
200 224 255
200 224 255
200 224 255
200 224 255
201 224 255
201 224 255
201 224 255
201 224 255
201 224 255
201 224 255
201 224 255
201 224 255
201 224 255
201 224 255
201 224 255
201 225 255
201 225 255
201 225 255
201 225 255
202 225 255
202 225 255
202 225 255
202 225 255
202 225 255
202 225 255
202 225 255
202 225 255
202 225 255
202 225 255
202 225 255
202 225 255
202 225 255
202 225 255
202 225 255
203 225 255
203 225 255
203 225 255
203 225 255
203 225 255
203 225 255
203 225 255
203 225 255
203 225 255
203 226 255
203 226 255
203 226 255
203 226 255
203 226 255
203 226 255
203 226 255
204 226 255
204 226 255
204 226 255
204 226 255
204 226 255
204 226 255
204 226 255
204 226 255
204 226 255
204 226 255
204 226 255
204 226 255
204 226 255
204 226 255
204 226 255
204 226 255
204 226 255
204 226 255
205 226 255
205 226 255
205 226 255
205 226 255
205 226 255
205 226 255
205 226 255
205 227 255
205 227 255
205 227 255
205 227 255
205 227 255
205 227 255
205 227 255
205 227 255
205 227 255
205 227 255
205 227 255
205 227 255
205 227 255
205 227 255
205 227 255
205 227 255
205 227 255
205 227 255
205 227 255
205 227 255
205 227 255
205 226 255
205 226 255
205 226 255
205 226 255
205 226 255
205 226 255
205 226 255
204 226 255
204 226 255
204 226 255
204 226 255
204 226 255
204 226 255
204 226 255
204 226 255
204 226 255
204 226 255
204 226 255
204 226 255
204 226 255
204 226 255
204 226 255
204 226 255
204 226 255
203 226 255
203 226 255
203 226 255
203 226 255
203 226 255
203 226 255
203 226 255
203 225 255
203 225 255
203 225 255
203 225 255
203 225 255
203 225 255
203 225 255
203 225 255
203 225 255
202 225 255
202 225 255
202 225 255
202 225 255
202 225 255
202 225 255
202 225 255
202 225 255
202 225 255
202 225 255
202 225 255
202 225 255
202 225 255
202 225 255
202 225 255
201 225 255
201 225 255
201 225 255
201 225 255
201 225 255
201 224 255
201 224 255
201 224 255
201 224 255
201 224 255
201 224 255
201 224 255
201 224 255
201 224 255
201 224 255
200 224 255
200 224 255
200 224 255
200 224 255
200 224 255
200 224 255
200 224 255
200 224 255
200 224 255
200 224 255
200 224 255
200 224 255
200 224 255
200 224 255
199 224 255
199 224 255
199 224 255
199 223 255
199 223 255
199 223 255
199 223 255
199 223 255
199 223 255
199 223 255
199 223 255
199 223 255
199 223 255
199 223 255
199 223 255
198 223 255
198 223 255
198 223 255
198 223 255
198 223 255
198 223 255
198 223 255
198 223 255
198 223 255
198 223 255
198 223 255
198 223 255
198 223 255
198 223 255
198 223 255
197 222 255
197 222 255
197 222 255
197 222 255
197 222 255
197 222 255
197 222 255
197 222 255
197 222 255
197 222 255
197 222 255
197 222 255
197 222 255
197 222 255
197 222 255
197 222 255
196 222 255
196 222 255
196 222 255
196 222 255
196 222 255
196 222 255
196 222 255
196 222 255
196 222 255
196 222 255
196 222 255
196 222 255
196 222 255
196 222 255
196 222 255
196 222 255
196 222 255
196 222 255
196 221 255
196 221 255
195 221 255
195 221 255
195 221 255
195 221 255
195 221 255
195 221 255
195 221 255
195 221 255
195 221 255
195 221 255
195 221 255
195 221 255
195 221 255
195 221 255
195 221 255
195 221 255
195 221 255
195 221 255
195 221 255
195 221 255
195 221 255
195 221 255
195 221 255
195 221 255
195 221 255
195 221 255
195 221 255
195 221 255
195 221 255
195 221 255
195 221 255
195 221 255
195 221 255
195 221 255
195 221 255
195 221 255
195 221 255
195 221 255
195 221 255
195 221 255
195 221 255
195 221 255
195 221 255
195 221 255
195 221 255
195 221 255
195 221 255
195 221 255
195 221 255
195 221 255
195 221 255
195 221 255
195 221 255
195 221 255
195 221 255
195 221 255
195 221 255
195 221 255
195 221 255
195 221 255
195 221 255
195 221 255
195 221 255
195 221 255
195 221 255
195 221 255
195 221 255
195 221 255
195 221 255
195 221 255
195 221 255
195 221 255
195 221 255
195 221 255
195 221 255
195 221 255
196 221 255
196 221 255
196 222 255
196 222 255
196 222 255
196 222 255
196 222 255
196 222 255
196 222 255
196 222 255
196 222 255
196 222 255
196 222 255
196 222 255
196 222 255
196 222 255
196 222 255
196 222 255
196 222 255
196 222 255
197 222 255
197 222 255
197 222 255
197 222 255
197 222 255
197 222 255
197 222 255
197 222 255
197 222 255
197 222 255
197 222 255
197 222 255
197 222 255
197 222 255
197 222 255
197 222 255
198 223 255
198 223 255
198 223 255
198 223 255
198 223 255
198 223 255
198 223 255
198 223 255
198 223 255
198 223 255
198 223 255
198 223 255
198 223 255
198 223 255
198 223 255
199 223 255
199 223 255
199 223 255
199 223 255
199 223 255
199 223 255
199 223 255
199 223 255
199 223 255
199 223 255
199 223 255
199 223 255
199 224 255
199 224 255
199 224 255
200 224 255
200 224 255
200 224 255
200 224 255
200 224 255
200 224 255
200 224 255
200 224 255
200 224 255
200 224 255
200 224 255
200 224 255
200 224 255
200 224 255
201 224 255
201 224 255
201 224 255
201 224 255
201 224 255
201 224 255
201 224 255
201 224 255
201 224 255
201 224 255
201 225 255
201 225 255
201 225 255
201 225 255
201 225 255
202 225 255
202 225 255
202 225 255
202 225 255
202 225 255
202 225 255
202 225 255
202 225 255
202 225 255
202 225 255
202 225 255
202 225 255
202 225 255
202 225 255
202 225 255
203 225 255
203 225 255
203 225 255
203 225 255
203 225 255
203 225 255
203 225 255
203 225 255
203 225 255
203 226 255
203 226 255
203 226 255
203 226 255
203 226 255
203 226 255
203 226 255
204 226 255
204 226 255
204 226 255
204 226 255
204 226 255
204 226 255
204 226 255
204 226 255
204 226 255
204 226 255
204 226 255
204 226 255
204 226 255
204 226 255
204 226 255
204 226 255
204 226 255
205 226 255
205 226 255
205 226 255
205 226 255
205 226 255
205 226 255
205 226 255
205 226 255
205 227 255
205 227 255
205 227 255
205 227 255
205 227 255
205 227 255
205 227 255
205 227 255
205 227 255
205 227 255
205 227 255
206 227 255
206 227 255
206 227 255
205 227 255
205 227 255
205 227 255
205 227 255
205 227 255
205 227 255
205 227 255
205 227 255
205 227 255
205 227 255
205 227 255
205 226 255
205 226 255
205 226 255
205 226 255
205 226 255
205 226 255
205 226 255
204 226 255
204 226 255
204 226 255
204 226 255
204 226 255
204 226 255
204 226 255
204 226 255
204 226 255
204 226 255
204 226 255
204 226 255
204 226 255
204 226 255
204 226 255
204 226 255
204 226 255
203 226 255
203 226 255
203 226 255
203 226 255
203 226 255
203 226 255
203 226 255
203 225 255
203 225 255
203 225 255
203 225 255
203 225 255
203 225 255
203 225 255
203 225 255
203 225 255
202 225 255
202 225 255
202 225 255
202 225 255
202 225 255
202 225 255
202 225 255
202 225 255
202 225 255
202 225 255
202 225 255
202 225 255
202 225 255
202 225 255
202 225 255
202 225 255
201 225 255
201 225 255
201 225 255
201 225 255
201 224 255
201 224 255
201 224 255
201 224 255
201 224 255
201 224 255
201 224 255
201 224 255
201 224 255
201 224 255
200 224 255
200 224 255
200 224 255
200 224 255
200 224 255
200 224 255
200 224 255
200 224 255
200 224 255
200 224 255
200 224 255
200 224 255
200 224 255
200 224 255
199 224 255
199 224 255
199 224 255
199 223 255
199 223 255
199 223 255
199 223 255
199 223 255
199 223 255
199 223 255
199 223 255
199 223 255
199 223 255
199 223 255
199 223 255
198 223 255
198 223 255
198 223 255
198 223 255
198 223 255
198 223 255
198 223 255
198 223 255
198 223 255
198 223 255
198 223 255
198 223 255
198 223 255
198 223 255
198 223 255
197 223 255
197 222 255
197 222 255
197 222 255
197 222 255
197 222 255
197 222 255
197 222 255
197 222 255
197 222 255
197 222 255
197 222 255
197 222 255
197 222 255
197 222 255
197 222 255
197 222 255
196 222 255
196 222 255
196 222 255
196 222 255
196 222 255
196 222 255
196 222 255
196 222 255
196 222 255
196 222 255
196 222 255
196 222 255
196 222 255
196 222 255
196 222 255
196 222 255
196 222 255
196 222 255
196 222 255
196 221 255
196 221 255
195 221 255
195 221 255
195 221 255
195 221 255
195 221 255
195 221 255
195 221 255
195 221 255
195 221 255
195 221 255
195 221 255
195 221 255
195 221 255
195 221 255
195 221 255
195 221 255
195 221 255
195 221 255
195 221 255
195 221 255
195 221 255
195 221 255
195 221 255
195 221 255
195 221 255
195 221 255
195 221 255
195 221 255
195 221 255
195 221 255
195 221 255
195 221 255
195 221 255
195 221 255
195 221 255
195 221 255
195 221 255
195 221 255
195 221 255
195 221 255
195 221 255
195 221 255
195 221 255
195 221 255
195 221 255
195 221 255
195 221 255
195 221 255
195 221 255
195 221 255
195 221 255
195 221 255
195 221 255
195 221 255
195 221 255
195 221 255
195 221 255
195 221 255
195 221 255
195 221 255
195 221 255
195 221 255
195 221 255
195 221 255
195 221 255
195 221 255
195 221 255
195 221 255
196 221 255
196 221 255
196 222 255
196 222 255
196 222 255
196 222 255
196 222 255
196 222 255
196 222 255
196 222 255
196 222 255
196 222 255
196 222 255
196 222 255
196 222 255
196 222 255
196 222 255
196 222 255
196 222 255
196 222 255
196 222 255
197 222 255
197 222 255
197 222 255
197 222 255
197 222 255
197 222 255
197 222 255
197 222 255
197 222 255
197 222 255
197 222 255
197 222 255
197 222 255
197 222 255
197 222 255
197 222 255
197 223 255
198 223 255
198 223 255
198 223 255
198 223 255
198 223 255
198 223 255
198 223 255
198 223 255
198 223 255
198 223 255
198 223 255
198 223 255
198 223 255
198 223 255
198 223 255
199 223 255
199 223 255
199 223 255
199 223 255
199 223 255
199 223 255
199 223 255
199 223 255
199 223 255
199 223 255
199 223 255
199 223 255
199 224 255
199 224 255
200 224 255
200 224 255
200 224 255
200 224 255
200 224 255
200 224 255
200 224 255
200 224 255
200 224 255
200 224 255
200 224 255
200 224 255
200 224 255
200 224 255
200 224 255
201 224 255
201 224 255
201 224 255
201 224 255
201 224 255
201 224 255
201 224 255
201 224 255
201 224 255
201 224 255
201 225 255
201 225 255
201 225 255
201 225 255
202 225 255
202 225 255
202 225 255
202 225 255
202 225 255
202 225 255
202 225 255
202 225 255
202 225 255
202 225 255
202 225 255
202 225 255
202 225 255
202 225 255
202 225 255
203 225 255
203 225 255
203 225 255
203 225 255
203 225 255
203 225 255
203 225 255
203 225 255
203 225 255
203 226 255
203 226 255
203 226 255
203 226 255
203 226 255
203 226 255
203 226 255
203 226 255
204 226 255
204 226 255
204 226 255
204 226 255
204 226 255
204 226 255
204 226 255
204 226 255
204 226 255
204 226 255
204 226 255
204 226 255
204 226 255
204 226 255
204 226 255
204 226 255
204 226 255
205 226 255
205 226 255
205 226 255
205 226 255
205 226 255
205 226 255
205 226 255
205 227 255
205 227 255
205 227 255
205 227 255
205 227 255
205 227 255
205 227 255
205 227 255
205 227 255
205 227 255
205 227 255
206 227 255
206 227 255
206 227 255
206 227 255
206 227 255
206 227 255
206 227 255
206 227 255
206 227 255
205 227 255
205 227 255
205 227 255
205 227 255
205 227 255
205 227 255
205 227 255
205 227 255
205 227 255
205 227 255
205 226 255
205 226 255
205 226 255
205 226 255
205 226 255
205 226 255
205 226 255
205 226 255
204 226 255
204 226 255
204 226 255
204 226 255
204 226 255
204 226 255
204 226 255
204 226 255
204 226 255
204 226 255
204 226 255
204 226 255
204 226 255
204 226 255
204 226 255
204 226 255
204 226 255
203 226 255
203 226 255
203 226 255
203 226 255
203 226 255
203 226 255
203 226 255
203 225 255
203 225 255
203 225 255
203 225 255
203 225 255
203 225 255
203 225 255
203 225 255
203 225 255
202 225 255
202 225 255
202 225 255
202 225 255
202 225 255
202 225 255
202 225 255
202 225 255
202 225 255
202 225 255
202 225 255
202 225 255
202 225 255
202 225 255
202 225 255
201 225 255
201 225 255
201 225 255
201 225 255
201 224 255
201 224 255
201 224 255
201 224 255
201 224 255
201 224 255
201 224 255
201 224 255
201 224 255
201 224 255
200 224 255
200 224 255
200 224 255
200 224 255
200 224 255
200 224 255
200 224 255
200 224 255
200 224 255
200 224 255
200 224 255
200 224 255
200 224 255
200 224 255
200 224 255
199 224 255
199 224 255
199 223 255
199 223 255
199 223 255
199 223 255
199 223 255
199 223 255
199 223 255
199 223 255
199 223 255
199 223 255
199 223 255
199 223 255
198 223 255
198 223 255
198 223 255
198 223 255
198 223 255
198 223 255
198 223 255
198 223 255
198 223 255
198 223 255
198 223 255
198 223 255
198 223 255
198 223 255
198 223 255
198 223 255
197 222 255
197 222 255
197 222 255
197 222 255
197 222 255
197 222 255
197 222 255
197 222 255
197 222 255
197 222 255
197 222 255
197 222 255
197 222 255
197 222 255
197 222 255
197 222 255
197 222 255
196 222 255
196 222 255
196 222 255
196 222 255
196 222 255
196 222 255
196 222 255
196 222 255
196 222 255
196 222 255
196 222 255
196 222 255
196 222 255
196 222 255
196 222 255
196 222 255
196 222 255
196 222 255
196 222 255
196 222 255
196 221 255
196 221 255
195 221 255
195 221 255
195 221 255
195 221 255
195 221 255
195 221 255
195 221 255
195 221 255
195 221 255
195 221 255
195 221 255
195 221 255
195 221 255
195 221 255
195 221 255
195 221 255
195 221 255
195 221 255
195 221 255
195 221 255
195 221 255
195 221 255
195 221 255
195 221 255
195 221 255
195 221 255
195 221 255
195 221 255
195 221 255
195 221 255
195 221 255
195 221 255
195 221 255
195 221 255
195 221 255
195 221 255
195 221 255
195 221 255
195 221 255
195 221 255
195 221 255
195 221 255
195 221 255
195 221 255
195 221 255
195 221 255
195 221 255
195 221 255
195 221 255
195 221 255
195 221 255
195 221 255
195 221 255
195 221 255
195 221 255
195 221 255
195 221 255
195 221 255
195 221 255
195 221 255
196 221 255
196 221 255
196 222 255
196 222 255
196 222 255
196 222 255
196 222 255
196 222 255
196 222 255
196 222 255
196 222 255
196 222 255
196 222 255
196 222 255
196 222 255
196 222 255
196 222 255
196 222 255
196 222 255
196 222 255
196 222 255
196 222 255
197 222 255
197 222 255
197 222 255
197 222 255
197 222 255
197 222 255
197 222 255
197 222 255
197 222 255
197 222 255
197 222 255
197 222 255
197 222 255
197 222 255
197 222 255
197 222 255
197 222 255
198 223 255
198 223 255
198 223 255
198 223 255
198 223 255
198 223 255
198 223 255
198 223 255
198 223 255
198 223 255
198 223 255
198 223 255
198 223 255
198 223 255
198 223 255
198 223 255
199 223 255
199 223 255
199 223 255
199 223 255
199 223 255
199 223 255
199 223 255
199 223 255
199 223 255
199 223 255
199 223 255
199 223 255
199 224 255
199 224 255
200 224 255
200 224 255
200 224 255
200 224 255
200 224 255
200 224 255
200 224 255
200 224 255
200 224 255
200 224 255
200 224 255
200 224 255
200 224 255
200 224 255
200 224 255
201 224 255
201 224 255
201 224 255
201 224 255
201 224 255
201 224 255
201 224 255
201 224 255
201 224 255
201 224 255
201 225 255
201 225 255
201 225 255
201 225 255
202 225 255
202 225 255
202 225 255
202 225 255
202 225 255
202 225 255
202 225 255
202 225 255
202 225 255
202 225 255
202 225 255
202 225 255
202 225 255
202 225 255
202 225 255
203 225 255
203 225 255
203 225 255
203 225 255
203 225 255
203 225 255
203 225 255
203 225 255
203 225 255
203 226 255
203 226 255
203 226 255
203 226 255
203 226 255
203 226 255
203 226 255
204 226 255
204 226 255
204 226 255
204 226 255
204 226 255
204 226 255
204 226 255
204 226 255
204 226 255
204 226 255
204 226 255
204 226 255
204 226 255
204 226 255
204 226 255
204 226 255
204 226 255
205 226 255
205 226 255
205 226 255
205 226 255
205 226 255
205 226 255
205 226 255
205 227 255
205 227 255
205 227 255
205 227 255
205 227 255
205 227 255
205 227 255
205 227 255
205 227 255
205 227 255
205 227 255
206 227 255
206 227 255
206 227 255
206 227 255
206 227 255
206 227 255
206 227 255
206 227 255
206 227 255
206 227 255
206 227 255
206 227 255
206 227 255
206 227 255
205 227 255
205 227 255
205 227 255
205 227 255
205 227 255
205 227 255
205 227 255
205 227 255
205 227 255
205 227 255
205 227 255
205 226 255
205 226 255
205 226 255
205 226 255
205 226 255
205 226 255
205 226 255
204 226 255
204 226 255
204 226 255
204 226 255
204 226 255
204 226 255
204 226 255
204 226 255
204 226 255
204 226 255
204 226 255
204 226 255
204 226 255
204 226 255
204 226 255
204 226 255
204 226 255
203 226 255
203 226 255
203 226 255
203 226 255
203 226 255
203 226 255
203 226 255
203 225 255
203 225 255
203 225 255
203 225 255
203 225 255
203 225 255
203 225 255
203 225 255
203 225 255
202 225 255
202 225 255
202 225 255
202 225 255
202 225 255
202 225 255
202 225 255
202 225 255
202 225 255
202 225 255
202 225 255
202 225 255
202 225 255
202 225 255
202 225 255
201 225 255
201 225 255
201 225 255
201 225 255
201 225 255
201 224 255
201 224 255
201 224 255
201 224 255
201 224 255
201 224 255
201 224 255
201 224 255
201 224 255
200 224 255
200 224 255
200 224 255
200 224 255
200 224 255
200 224 255
200 224 255
200 224 255
200 224 255
200 224 255
200 224 255
200 224 255
200 224 255
200 224 255
200 224 255
199 224 255
199 224 255
199 223 255
199 223 255
199 223 255
199 223 255
199 223 255
199 223 255
199 223 255
199 223 255
199 223 255
199 223 255
199 223 255
199 223 255
199 223 255
198 223 255
198 223 255
198 223 255
198 223 255
198 223 255
198 223 255
198 223 255
198 223 255
198 223 255
198 223 255
198 223 255
198 223 255
198 223 255
198 223 255
198 223 255
197 223 255
197 222 255
197 222 255
197 222 255
197 222 255
197 222 255
197 222 255
197 222 255
197 222 255
197 222 255
197 222 255
197 222 255
197 222 255
197 222 255
197 222 255
197 222 255
197 222 255
197 222 255
196 222 255
196 222 255
196 222 255
196 222 255
196 222 255
196 222 255
196 222 255
196 222 255
196 222 255
196 222 255
196 222 255
196 222 255
196 222 255
196 222 255
196 222 255
196 222 255
196 222 255
196 222 255
196 222 255
196 222 255
196 222 255
196 221 255
196 221 255
196 221 255
195 221 255
195 221 255
195 221 255
195 221 255
195 221 255
195 221 255
195 221 255
195 221 255
195 221 255
195 221 255
195 221 255
195 221 255
195 221 255
195 221 255
195 221 255
195 221 255
195 221 255
195 221 255
195 221 255
195 221 255
195 221 255
195 221 255
195 221 255
195 221 255
195 221 255
195 221 255
195 221 255
195 221 255
195 221 255
195 221 255
195 221 255
195 221 255
195 221 255
195 221 255
195 221 255
195 221 255
195 221 255
195 221 255
195 221 255
195 221 255
195 221 255
195 221 255
195 221 255
195 221 255
195 221 255
195 221 255
195 221 255
195 221 255
195 221 255
195 221 255
196 221 255
196 221 255
196 221 255
196 222 255
196 222 255
196 222 255
196 222 255
196 222 255
196 222 255
196 222 255
196 222 255
196 222 255
196 222 255
196 222 255
196 222 255
196 222 255
196 222 255
196 222 255
196 222 255
196 222 255
196 222 255
196 222 255
196 222 255
196 222 255
197 222 255
197 222 255
197 222 255
197 222 255
197 222 255
197 222 255
197 222 255
197 222 255
197 222 255
197 222 255
197 222 255
197 222 255
197 222 255
197 222 255
197 222 255
197 222 255
197 222 255
197 223 255
198 223 255
198 223 255
198 223 255
198 223 255
198 223 255
198 223 255
198 223 255
198 223 255
198 223 255
198 223 255
198 223 255
198 223 255
198 223 255
198 223 255
198 223 255
199 223 255
199 223 255
199 223 255
199 223 255
199 223 255
199 223 255
199 223 255
199 223 255
199 223 255
199 223 255
199 223 255
199 223 255
199 223 255
199 224 255
199 224 255
200 224 255
200 224 255
200 224 255
200 224 255
200 224 255
200 224 255
200 224 255
200 224 255
200 224 255
200 224 255
200 224 255
200 224 255
200 224 255
200 224 255
201 224 255
201 224 255
201 224 255
201 224 255
201 224 255
201 224 255
201 224 255
201 224 255
201 224 255
201 224 255
201 224 255
201 225 255
201 225 255
201 225 255
201 225 255
202 225 255
202 225 255
202 225 255
202 225 255
202 225 255
202 225 255
202 225 255
202 225 255
202 225 255
202 225 255
202 225 255
202 225 255
202 225 255
202 225 255
202 225 255
203 225 255
203 225 255
203 225 255
203 225 255
203 225 255
203 225 255
203 225 255
203 225 255
203 225 255
203 226 255
203 226 255
203 226 255
203 226 255
203 226 255
203 226 255
203 226 255
204 226 255
204 226 255
204 226 255
204 226 255
204 226 255
204 226 255
204 226 255
204 226 255
204 226 255
204 226 255
204 226 255
204 226 255
204 226 255
204 226 255
204 226 255
204 226 255
204 226 255
205 226 255
205 226 255
205 226 255
205 226 255
205 226 255
205 226 255
205 226 255
205 227 255
205 227 255
205 227 255
205 227 255
205 227 255
205 227 255
205 227 255
205 227 255
205 227 255
205 227 255
205 227 255
206 227 255
206 227 255
206 227 255
206 227 255
206 227 255
206 227 255
206 227 255
206 227 255
206 227 255
206 227 255
206 227 255
206 227 255
206 227 255
206 227 255
206 227 255
206 227 255
206 227 255
206 227 255
206 227 255
205 227 255
205 227 255
205 227 255
205 227 255
205 227 255
205 227 255
205 227 255
205 227 255
205 227 255
205 227 255
205 227 255
205 226 255
205 226 255
205 226 255
205 226 255
205 226 255
205 226 255
205 226 255
204 226 255
204 226 255
204 226 255
204 226 255
204 226 255
204 226 255
204 226 255
204 226 255
204 226 255
204 226 255
204 226 255
204 226 255
204 226 255
204 226 255
204 226 255
204 226 255
203 226 255
203 226 255
203 226 255
203 226 255
203 226 255
203 226 255
203 226 255
203 226 255
203 225 255
203 225 255
203 225 255
203 225 255
203 225 255
203 225 255
203 225 255
203 225 255
202 225 255
202 225 255
202 225 255
202 225 255
202 225 255
202 225 255
202 225 255
202 225 255
202 225 255
202 225 255
202 225 255
202 225 255
202 225 255
202 225 255
202 225 255
201 225 255
201 225 255
201 225 255
201 225 255
201 225 255
201 224 255
201 224 255
201 224 255
201 224 255
201 224 255
201 224 255
201 224 255
201 224 255
201 224 255
201 224 255
200 224 255
200 224 255
200 224 255
200 224 255
200 224 255
200 224 255
200 224 255
200 224 255
200 224 255
200 224 255
200 224 255
200 224 255
200 224 255
200 224 255
199 224 255
199 224 255
199 224 255
199 223 255
199 223 255
199 223 255
199 223 255
199 223 255
199 223 255
199 223 255
199 223 255
199 223 255
199 223 255
199 223 255
199 223 255
198 223 255
198 223 255
198 223 255
198 223 255
198 223 255
198 223 255
198 223 255
198 223 255
198 223 255
198 223 255
198 223 255
198 223 255
198 223 255
198 223 255
198 223 255
198 223 255
197 222 255
197 222 255
197 222 255
197 222 255
197 222 255
197 222 255
197 222 255
197 222 255
197 222 255
197 222 255
197 222 255
197 222 255
197 222 255
197 222 255
197 222 255
197 222 255
197 222 255
197 222 255
196 222 255
196 222 255
196 222 255
196 222 255
196 222 255
196 222 255
196 222 255
196 222 255
196 222 255
196 222 255
196 222 255
196 222 255
196 222 255
196 222 255
196 222 255
196 222 255
196 222 255
196 222 255
196 222 255
196 222 255
196 222 255
196 222 255
196 222 255
196 221 255
196 221 255
196 221 255
196 221 255
195 221 255
195 221 255
195 221 255
195 221 255
195 221 255
195 221 255
195 221 255
195 221 255
195 221 255
195 221 255
195 221 255
195 221 255
195 221 255
195 221 255
195 221 255
195 221 255
195 221 255
195 221 255
195 221 255
195 221 255
195 221 255
195 221 255
195 221 255
195 221 255
195 221 255
195 221 255
195 221 255
195 221 255
195 221 255
195 221 255
195 221 255
195 221 255
195 221 255
195 221 255
195 221 255
195 221 255
195 221 255
195 221 255
196 221 255
196 221 255
196 221 255
196 221 255
196 222 255
196 222 255
196 222 255
196 222 255
196 222 255
196 222 255
196 222 255
196 222 255
196 222 255
196 222 255
196 222 255
196 222 255
196 222 255
196 222 255
196 222 255
196 222 255
196 222 255
196 222 255
196 222 255
196 222 255
196 222 255
196 222 255
196 222 255
197 222 255
197 222 255
197 222 255
197 222 255
197 222 255
197 222 255
197 222 255
197 222 255
197 222 255
197 222 255
197 222 255
197 222 255
197 222 255
197 222 255
197 222 255
197 222 255
197 222 255
197 222 255
198 223 255
198 223 255
198 223 255
198 223 255
198 223 255
198 223 255
198 223 255
198 223 255
198 223 255
198 223 255
198 223 255
198 223 255
198 223 255
198 223 255
198 223 255
198 223 255
199 223 255
199 223 255
199 223 255
199 223 255
199 223 255
199 223 255
199 223 255
199 223 255
199 223 255
199 223 255
199 223 255
199 223 255
199 224 255
199 224 255
199 224 255
200 224 255
200 224 255
200 224 255
200 224 255
200 224 255
200 224 255
200 224 255
200 224 255
200 224 255
200 224 255
200 224 255
200 224 255
200 224 255
200 224 255
201 224 255
201 224 255
201 224 255
201 224 255
201 224 255
201 224 255
201 224 255
201 224 255
201 224 255
201 224 255
201 225 255
201 225 255
201 225 255
201 225 255
201 225 255
202 225 255
202 225 255
202 225 255
202 225 255
202 225 255
202 225 255
202 225 255
202 225 255
202 225 255
202 225 255
202 225 255
202 225 255
202 225 255
202 225 255
202 225 255
203 225 255
203 225 255
203 225 255
203 225 255
203 225 255
203 225 255
203 225 255
203 225 255
203 226 255
203 226 255
203 226 255
203 226 255
203 226 255
203 226 255
203 226 255
204 226 255
204 226 255
204 226 255
204 226 255
204 226 255
204 226 255
204 226 255
204 226 255
204 226 255
204 226 255
204 226 255
204 226 255
204 226 255
204 226 255
204 226 255
204 226 255
204 226 255
205 226 255
205 226 255
205 226 255
205 226 255
205 226 255
205 226 255
205 226 255
205 227 255
205 227 255
205 227 255
205 227 255
205 227 255
205 227 255
205 227 255
205 227 255
205 227 255
205 227 255
205 227 255
206 227 255
206 227 255
206 227 255
206 227 255
206 227 255
206 227 255
206 227 255
206 227 255
206 227 255
206 227 255
206 227 255
206 227 255
206 227 255
206 227 255
206 227 255
206 227 255
206 227 255
206 227 255
206 227 255
206 227 255
206 227 255
206 227 255
206 227 255
206 227 255
205 227 255
205 227 255
205 227 255
205 227 255
205 227 255
205 227 255
205 227 255
205 227 255
205 227 255
205 227 255
205 227 255
205 226 255
205 226 255
205 226 255
205 226 255
205 226 255
205 226 255
205 226 255
204 226 255
204 226 255
204 226 255
204 226 255
204 226 255
204 226 255
204 226 255
204 226 255
204 226 255
204 226 255
204 226 255
204 226 255
204 226 255
204 226 255
204 226 255
204 226 255
204 226 255
203 226 255
203 226 255
203 226 255
203 226 255
203 226 255
203 226 255
203 226 255
203 225 255
203 225 255
203 225 255
203 225 255
203 225 255
203 225 255
203 225 255
203 225 255
203 225 255
202 225 255
202 225 255
202 225 255
202 225 255
202 225 255
202 225 255
202 225 255
202 225 255
202 225 255
202 225 255
202 225 255
202 225 255
202 225 255
202 225 255
202 225 255
201 225 255
201 225 255
201 225 255
201 225 255
201 224 255
201 224 255
201 224 255
201 224 255
201 224 255
201 224 255
201 224 255
201 224 255
201 224 255
201 224 255
200 224 255
200 224 255
200 224 255
200 224 255
200 224 255
200 224 255
200 224 255
200 224 255
200 224 255
200 224 255
200 224 255
200 224 255
200 224 255
200 224 255
200 224 255
199 224 255
199 224 255
199 223 255
199 223 255
199 223 255
199 223 255
199 223 255
199 223 255
199 223 255
199 223 255
199 223 255
199 223 255
199 223 255
199 223 255
198 223 255
198 223 255
198 223 255
198 223 255
198 223 255
198 223 255
198 223 255
198 223 255
198 223 255
198 223 255
198 223 255
198 223 255
198 223 255
198 223 255
198 223 255
198 223 255
197 223 255
197 222 255
197 222 255
197 222 255
197 222 255
197 222 255
197 222 255
197 222 255
197 222 255
197 222 255
197 222 255
197 222 255
197 222 255
197 222 255
197 222 255
197 222 255
197 222 255
197 222 255
197 222 255
196 222 255
196 222 255
196 222 255
196 222 255
196 222 255
196 222 255
196 222 255
196 222 255
196 222 255
196 222 255
196 222 255
196 222 255
196 222 255
196 222 255
196 222 255
196 222 255
196 222 255
196 222 255
196 222 255
196 222 255
196 222 255
196 222 255
196 222 255
196 222 255
196 222 255
196 222 255
196 222 255
196 221 255
196 221 255
196 221 255
196 221 255
196 221 255
196 221 255
195 221 255
195 221 255
195 221 255
195 221 255
195 221 255
195 221 255
195 221 255
195 221 255
195 221 255
195 221 255
195 221 255
195 221 255
195 221 255
195 221 255
195 221 255
195 221 255
195 221 255
195 221 255
195 221 255
195 221 255
196 221 255
196 221 255
196 221 255
196 221 255
196 221 255
196 221 255
196 222 255
196 222 255
196 222 255
196 222 255
196 222 255
196 222 255
196 222 255
196 222 255
196 222 255
196 222 255
196 222 255
196 222 255
196 222 255
196 222 255
196 222 255
196 222 255
196 222 255
196 222 255
196 222 255
196 222 255
196 222 255
196 222 255
196 222 255
196 222 255
196 222 255
196 222 255
196 222 255
197 222 255
197 222 255
197 222 255
197 222 255
197 222 255
197 222 255
197 222 255
197 222 255
197 222 255
197 222 255
197 222 255
197 222 255
197 222 255
197 222 255
197 222 255
197 222 255
197 222 255
197 222 255
197 223 255
198 223 255
198 223 255
198 223 255
198 223 255
198 223 255
198 223 255
198 223 255
198 223 255
198 223 255
198 223 255
198 223 255
198 223 255
198 223 255
198 223 255
198 223 255
198 223 255
199 223 255
199 223 255
199 223 255
199 223 255
199 223 255
199 223 255
199 223 255
199 223 255
199 223 255
199 223 255
199 223 255
199 223 255
199 224 255
199 224 255
200 224 255
200 224 255
200 224 255
200 224 255
200 224 255
200 224 255
200 224 255
200 224 255
200 224 255
200 224 255
200 224 255
200 224 255
200 224 255
200 224 255
200 224 255
201 224 255
201 224 255
201 224 255
201 224 255
201 224 255
201 224 255
201 224 255
201 224 255
201 224 255
201 224 255
201 225 255
201 225 255
201 225 255
201 225 255
202 225 255
202 225 255
202 225 255
202 225 255
202 225 255
202 225 255
202 225 255
202 225 255
202 225 255
202 225 255
202 225 255
202 225 255
202 225 255
202 225 255
202 225 255
203 225 255
203 225 255
203 225 255
203 225 255
203 225 255
203 225 255
203 225 255
203 225 255
203 225 255
203 226 255
203 226 255
203 226 255
203 226 255
203 226 255
203 226 255
203 226 255
204 226 255
204 226 255
204 226 255
204 226 255
204 226 255
204 226 255
204 226 255
204 226 255
204 226 255
204 226 255
204 226 255
204 226 255
204 226 255
204 226 255
204 226 255
204 226 255
204 226 255
205 226 255
205 226 255
205 226 255
205 226 255
205 226 255
205 226 255
205 226 255
205 227 255
205 227 255
205 227 255
205 227 255
205 227 255
205 227 255
205 227 255
205 227 255
205 227 255
205 227 255
205 227 255
206 227 255
206 227 255
206 227 255
206 227 255
206 227 255
206 227 255
206 227 255
206 227 255
206 227 255
206 227 255
206 227 255
206 227 255
206 227 255
206 227 255
206 227 255
206 227 255
206 227 255
206 227 255
206 227 255
206 227 255
206 227 255
206 227 255
206 227 255
206 227 255
206 227 255
206 227 255
206 227 255
206 227 255
206 227 255
205 227 255
205 227 255
205 227 255
205 227 255
205 227 255
205 227 255
205 227 255
205 227 255
205 227 255
205 227 255
205 227 255
205 226 255
205 226 255
205 226 255
205 226 255
205 226 255
205 226 255
205 226 255
204 226 255
204 226 255
204 226 255
204 226 255
204 226 255
204 226 255
204 226 255
204 226 255
204 226 255
204 226 255
204 226 255
204 226 255
204 226 255
204 226 255
204 226 255
204 226 255
203 226 255
203 226 255
203 226 255
203 226 255
203 226 255
203 226 255
203 226 255
203 225 255
203 225 255
203 225 255
203 225 255
203 225 255
203 225 255
203 225 255
203 225 255
203 225 255
202 225 255
202 225 255
202 225 255
202 225 255
202 225 255
202 225 255
202 225 255
202 225 255
202 225 255
202 225 255
202 225 255
202 225 255
202 225 255
202 225 255
202 225 255
201 225 255
201 225 255
201 225 255
201 225 255
201 224 255
201 224 255
201 224 255
201 224 255
201 224 255
201 224 255
201 224 255
201 224 255
201 224 255
201 224 255
200 224 255
200 224 255
200 224 255
200 224 255
200 224 255
200 224 255
200 224 255
200 224 255
200 224 255
200 224 255
200 224 255
200 224 255
200 224 255
200 224 255
200 224 255
199 224 255
199 224 255
199 223 255
199 223 255
199 223 255
199 223 255
199 223 255
199 223 255
199 223 255
199 223 255
199 223 255
199 223 255
199 223 255
199 223 255
199 223 255
198 223 255
198 223 255
198 223 255
198 223 255
198 223 255
198 223 255
198 223 255
198 223 255
198 223 255
198 223 255
198 223 255
198 223 255
198 223 255
198 223 255
198 223 255
198 223 255
197 223 255
197 222 255
197 222 255
197 222 255
197 222 255
197 222 255
197 222 255
197 222 255
197 222 255
197 222 255
197 222 255
197 222 255
197 222 255
197 222 255
197 222 255
197 222 255
197 222 255
197 222 255
197 222 255
197 222 255
196 222 255
196 222 255
196 222 255
196 222 255
196 222 255
196 222 255
196 222 255
196 222 255
196 222 255
196 222 255
196 222 255
196 222 255
196 222 255
196 222 255
196 222 255
196 222 255
196 222 255
196 222 255
196 222 255
196 222 255
196 222 255
196 222 255
196 222 255
196 222 255
196 222 255
196 222 255
196 222 255
196 222 255
196 222 255
196 222 255
196 222 255
196 222 255
196 222 255
196 222 255
196 222 255
196 222 255
196 222 255
196 222 255
196 222 255
196 222 255
196 222 255
196 222 255
196 222 255
196 222 255
196 222 255
196 222 255
196 222 255
196 222 255
196 222 255
196 222 255
196 222 255
196 222 255
196 222 255
196 222 255
196 222 255
196 222 255
196 222 255
196 222 255
196 222 255
196 222 255
196 222 255
196 222 255
196 222 255
196 222 255
196 222 255
196 222 255
196 222 255
196 222 255
196 222 255
196 222 255
196 222 255
196 222 255
196 222 255
196 222 255
196 222 255
196 222 255
196 222 255
196 222 255
197 222 255
197 222 255
197 222 255
197 222 255
197 222 255
197 222 255
197 222 255
197 222 255
197 222 255
197 222 255
197 222 255
197 222 255
197 222 255
197 222 255
197 222 255
197 222 255
197 222 255
197 222 255
197 222 255
197 223 255
198 223 255
198 223 255
198 223 255
198 223 255
198 223 255
198 223 255
198 223 255
198 223 255
198 223 255
198 223 255
198 223 255
198 223 255
198 223 255
198 223 255
198 223 255
198 223 255
199 223 255
199 223 255
199 223 255
199 223 255
199 223 255
199 223 255
199 223 255
199 223 255
199 223 255
199 223 255
199 223 255
199 223 255
199 223 255
199 224 255
199 224 255
200 224 255
200 224 255
200 224 255
200 224 255
200 224 255
200 224 255
200 224 255
200 224 255
200 224 255
200 224 255
200 224 255
200 224 255
200 224 255
200 224 255
200 224 255
201 224 255
201 224 255
201 224 255
201 224 255
201 224 255
201 224 255
201 224 255
201 224 255
201 224 255
201 224 255
201 225 255
201 225 255
201 225 255
201 225 255
202 225 255
202 225 255
202 225 255
202 225 255
202 225 255
202 225 255
202 225 255
202 225 255
202 225 255
202 225 255
202 225 255
202 225 255
202 225 255
202 225 255
202 225 255
203 225 255
203 225 255
203 225 255
203 225 255
203 225 255
203 225 255
203 225 255
203 225 255
203 225 255
203 226 255
203 226 255
203 226 255
203 226 255
203 226 255
203 226 255
203 226 255
204 226 255
204 226 255
204 226 255
204 226 255
204 226 255
204 226 255
204 226 255
204 226 255
204 226 255
204 226 255
204 226 255
204 226 255
204 226 255
204 226 255
204 226 255
204 226 255
205 226 255
205 226 255
205 226 255
205 226 255
205 226 255
205 226 255
205 226 255
205 227 255
205 227 255
205 227 255
205 227 255
205 227 255
205 227 255
205 227 255
205 227 255
205 227 255
205 227 255
205 227 255
206 227 255
206 227 255
206 227 255
206 227 255
206 227 255
206 227 255
206 227 255
206 227 255
206 227 255
206 227 255
206 227 255
206 227 255
206 227 255
206 227 255
206 227 255
206 227 255
206 227 255
206 227 255
206 227 255
206 227 255
206 227 255
206 227 255
206 227 255
206 227 255
206 227 255
206 227 255
206 227 255
206 227 255
206 227 255
206 227 255
206 227 255
206 227 255
206 227 255
206 227 255
205 227 255
205 227 255
205 227 255
205 227 255
205 227 255
205 227 255
205 227 255
205 227 255
205 227 255
205 227 255
205 227 255
205 226 255
205 226 255
205 226 255
205 226 255
205 226 255
205 226 255
205 226 255
204 226 255
204 226 255
204 226 255
204 226 255
204 226 255
204 226 255
204 226 255
204 226 255
204 226 255
204 226 255
204 226 255
204 226 255
204 226 255
204 226 255
204 226 255
204 226 255
204 226 255
203 226 255
203 226 255
203 226 255
203 226 255
203 226 255
203 226 255
203 226 255
203 225 255
203 225 255
203 225 255
203 225 255
203 225 255
203 225 255
203 225 255
203 225 255
202 225 255
202 225 255
202 225 255
202 225 255
202 225 255
202 225 255
202 225 255
202 225 255
202 225 255
202 225 255
202 225 255
202 225 255
202 225 255
202 225 255
202 225 255
201 225 255
201 225 255
201 225 255
201 225 255
201 224 255
201 224 255
201 224 255
201 224 255
201 224 255
201 224 255
201 224 255
201 224 255
201 224 255
201 224 255
201 224 255
200 224 255
200 224 255
200 224 255
200 224 255
200 224 255
200 224 255
200 224 255
200 224 255
200 224 255
200 224 255
200 224 255
200 224 255
200 224 255
200 224 255
199 224 255
199 224 255
199 224 255
199 223 255
199 223 255
199 223 255
199 223 255
199 223 255
199 223 255
199 223 255
199 223 255
199 223 255
199 223 255
199 223 255
199 223 255
199 223 255
198 223 255
198 223 255
198 223 255
198 223 255
198 223 255
198 223 255
198 223 255
198 223 255
198 223 255
198 223 255
198 223 255
198 223 255
198 223 255
198 223 255
198 223 255
198 223 255
197 223 255
197 222 255
197 222 255
197 222 255
197 222 255
197 222 255
197 222 255
197 222 255
197 222 255
197 222 255
197 222 255
197 222 255
197 222 255
197 222 255
197 222 255
197 222 255
197 222 255
197 222 255
197 222 255
197 222 255
197 222 255
196 222 255
196 222 255
196 222 255
196 222 255
196 222 255
196 222 255
196 222 255
196 222 255
196 222 255
196 222 255
196 222 255
196 222 255
196 222 255
196 222 255
196 222 255
196 222 255
196 222 255
196 222 255
196 222 255
196 222 255
196 222 255
196 222 255
196 222 255
196 222 255
196 222 255
196 222 255
196 222 255
196 222 255
196 222 255
196 222 255
196 222 255
196 222 255
196 222 255
196 222 255
196 222 255
196 222 255
196 222 255
196 222 255
196 222 255
196 222 255
196 222 255
196 222 255
196 222 255
196 222 255
196 222 255
196 222 255
196 222 255
196 222 255
196 222 255
196 222 255
196 222 255
196 222 255
196 222 255
196 222 255
196 222 255
196 222 255
196 222 255
196 222 255
196 222 255
196 222 255
196 222 255
196 222 255
196 222 255
196 222 255
196 222 255
196 222 255
196 222 255
196 222 255
196 222 255
196 222 255
197 222 255
197 222 255
197 222 255
197 222 255
197 222 255
197 222 255
197 222 255
197 222 255
197 222 255
197 222 255
197 222 255
197 222 255
197 222 255
197 222 255
197 222 255
197 222 255
197 222 255
197 222 255
197 222 255
197 222 255
197 223 255
198 223 255
198 223 255
198 223 255
198 223 255
198 223 255
198 223 255
198 223 255
198 223 255
198 223 255
198 223 255
198 223 255
198 223 255
198 223 255
198 223 255
198 223 255
198 223 255
198 223 255
199 223 255
199 223 255
199 223 255
199 223 255
199 223 255
199 223 255
199 223 255
199 223 255
199 223 255
199 223 255
199 223 255
199 223 255
199 224 255
199 224 255
200 224 255
200 224 255
200 224 255
200 224 255
200 224 255
200 224 255
200 224 255
200 224 255
200 224 255
200 224 255
200 224 255
200 224 255
200 224 255
200 224 255
200 224 255
201 224 255
201 224 255
201 224 255
201 224 255
201 224 255
201 224 255
201 224 255
201 224 255
201 224 255
201 224 255
201 225 255
201 225 255
201 225 255
201 225 255
201 225 255
202 225 255
202 225 255
202 225 255
202 225 255
202 225 255
202 225 255
202 225 255
202 225 255
202 225 255
202 225 255
202 225 255
202 225 255
202 225 255
202 225 255
202 225 255
203 225 255
203 225 255
203 225 255
203 225 255
203 225 255
203 225 255
203 225 255
203 225 255
203 226 255
203 226 255
203 226 255
203 226 255
203 226 255
203 226 255
203 226 255
204 226 255
204 226 255
204 226 255
204 226 255
204 226 255
204 226 255
204 226 255
204 226 255
204 226 255
204 226 255
204 226 255
204 226 255
204 226 255
204 226 255
204 226 255
204 226 255
204 226 255
205 226 255
205 226 255
205 226 255
205 226 255
205 226 255
205 226 255
205 226 255
205 227 255
205 227 255
205 227 255
205 227 255
205 227 255
205 227 255
205 227 255
205 227 255
205 227 255
205 227 255
206 227 255
206 227 255
206 227 255
206 227 255
206 227 255
206 227 255
206 227 255
206 227 255
206 227 255
206 227 255
206 227 255
206 227 255
206 227 255
206 227 255
206 227 255
206 227 255
206 227 255
206 227 255
206 227 255
207 227 255
207 227 255
206 227 255
206 227 255
206 227 255
206 227 255
206 227 255
206 227 255
206 227 255
206 227 255
206 227 255
206 227 255
206 227 255
206 227 255
206 227 255
206 227 255
206 227 255
206 227 255
206 227 255
206 227 255
206 227 255
205 227 255
205 227 255
205 227 255
205 227 255
205 227 255
205 227 255
205 227 255
205 227 255
205 227 255
205 227 255
205 227 255
205 226 255
205 226 255
205 226 255
205 226 255
205 226 255
205 226 255
205 226 255
204 226 255
204 226 255
204 226 255
204 226 255
204 226 255
204 226 255
204 226 255
204 226 255
204 226 255
204 226 255
204 226 255
204 226 255
204 226 255
204 226 255
204 226 255
204 226 255
203 226 255
203 226 255
203 226 255
203 226 255
203 226 255
203 226 255
203 226 255
203 225 255
203 225 255
203 225 255
203 225 255
203 225 255
203 225 255
203 225 255
203 225 255
203 225 255
202 225 255
202 225 255
202 225 255
202 225 255
202 225 255
202 225 255
202 225 255
202 225 255
202 225 255
202 225 255
202 225 255
202 225 255
202 225 255
202 225 255
201 225 255
201 225 255
201 225 255
201 225 255
201 225 255
201 224 255
201 224 255
201 224 255
201 224 255
201 224 255
201 224 255
201 224 255
201 224 255
201 224 255
201 224 255
200 224 255
200 224 255
200 224 255
200 224 255
200 224 255
200 224 255
200 224 255
200 224 255
200 224 255
200 224 255
200 224 255
200 224 255
200 224 255
200 224 255
200 224 255
199 224 255
199 224 255
199 223 255
199 223 255
199 223 255
199 223 255
199 223 255
199 223 255
199 223 255
199 223 255
199 223 255
199 223 255
199 223 255
199 223 255
199 223 255
198 223 255
198 223 255
198 223 255
198 223 255
198 223 255
198 223 255
198 223 255
198 223 255
198 223 255
198 223 255
198 223 255
198 223 255
198 223 255
198 223 255
198 223 255
198 223 255
198 223 255
197 223 255
197 222 255
197 222 255
197 222 255
197 222 255
197 222 255
197 222 255
197 222 255
197 222 255
197 222 255
197 222 255
197 222 255
197 222 255
197 222 255
197 222 255
197 222 255
197 222 255
197 222 255
197 222 255
197 222 255
197 222 255
197 222 255
196 222 255
196 222 255
196 222 255
196 222 255
196 222 255
196 222 255
196 222 255
196 222 255
196 222 255
196 222 255
196 222 255
196 222 255
196 222 255
196 222 255
196 222 255
196 222 255
196 222 255
196 222 255
196 222 255
196 222 255
196 222 255
196 222 255
196 222 255
196 222 255
196 222 255
196 222 255
196 222 255
196 222 255
196 222 255
196 222 255
196 222 255
196 222 255
196 222 255
196 222 255
196 222 255
196 222 255
196 222 255
196 222 255
196 222 255
196 222 255
196 222 255
196 222 255
196 222 255
196 222 255
196 222 255
196 222 255
196 222 255
196 222 255
196 222 255
196 222 255
196 222 255
196 222 255
196 222 255
196 222 255
196 222 255
196 222 255
196 222 255
196 222 255
196 222 255
196 222 255
196 222 255
196 222 255
197 222 255
197 222 255
197 222 255
197 222 255
197 222 255
197 222 255
197 222 255
197 222 255
197 222 255
197 222 255
197 222 255
197 222 255
197 222 255
197 222 255
197 222 255
197 222 255
197 222 255
197 222 255
197 222 255
197 222 255
197 222 255
197 223 255
198 223 255
198 223 255
198 223 255
198 223 255
198 223 255
198 223 255
198 223 255
198 223 255
198 223 255
198 223 255
198 223 255
198 223 255
198 223 255
198 223 255
198 223 255
198 223 255
198 223 255
199 223 255
199 223 255
199 223 255
199 223 255
199 223 255
199 223 255
199 223 255
199 223 255
199 223 255
199 223 255
199 223 255
199 223 255
199 223 255
199 224 255
199 224 255
200 224 255
200 224 255
200 224 255
200 224 255
200 224 255
200 224 255
200 224 255
200 224 255
200 224 255
200 224 255
200 224 255
200 224 255
200 224 255
200 224 255
200 224 255
201 224 255
201 224 255
201 224 255
201 224 255
201 224 255
201 224 255
201 224 255
201 224 255
201 224 255
201 224 255
201 225 255
201 225 255
201 225 255
201 225 255
202 225 255
202 225 255
202 225 255
202 225 255
202 225 255
202 225 255
202 225 255
202 225 255
202 225 255
202 225 255
202 225 255
202 225 255
202 225 255
202 225 255
202 225 255
203 225 255
203 225 255
203 225 255
203 225 255
203 225 255
203 225 255
203 225 255
203 225 255
203 225 255
203 226 255
203 226 255
203 226 255
203 226 255
203 226 255
203 226 255
203 226 255
204 226 255
204 226 255
204 226 255
204 226 255
204 226 255
204 226 255
204 226 255
204 226 255
204 226 255
204 226 255
204 226 255
204 226 255
204 226 255
204 226 255
204 226 255
204 226 255
205 226 255
205 226 255
205 226 255
205 226 255
205 226 255
205 226 255
205 226 255
205 227 255
205 227 255
205 227 255
205 227 255
205 227 255
205 227 255
205 227 255
205 227 255
205 227 255
205 227 255
205 227 255
206 227 255
206 227 255
206 227 255
206 227 255
206 227 255
206 227 255
206 227 255
206 227 255
206 227 255
206 227 255
206 227 255
206 227 255
206 227 255
206 227 255
206 227 255
206 227 255
206 227 255
206 227 255
206 227 255
207 227 255
207 227 255
207 227 255
207 227 255
207 227 255
207 227 255
207 227 255
206 227 255
206 227 255
206 227 255
206 227 255
206 227 255
206 227 255
206 227 255
206 227 255
206 227 255
206 227 255
206 227 255
206 227 255
206 227 255
206 227 255
206 227 255
206 227 255
206 227 255
206 227 255
206 227 255
205 227 255
205 227 255
205 227 255
205 227 255
205 227 255
205 227 255
205 227 255
205 227 255
205 227 255
205 227 255
205 226 255
205 226 255
205 226 255
205 226 255
205 226 255
205 226 255
205 226 255
204 226 255
204 226 255
204 226 255
204 226 255
204 226 255
204 226 255
204 226 255
204 226 255
204 226 255
204 226 255
204 226 255
204 226 255
204 226 255
204 226 255
204 226 255
204 226 255
204 226 255
203 226 255
203 226 255
203 226 255
203 226 255
203 226 255
203 226 255
203 226 255
203 225 255
203 225 255
203 225 255
203 225 255
203 225 255
203 225 255
203 225 255
203 225 255
202 225 255
202 225 255
202 225 255
202 225 255
202 225 255
202 225 255
202 225 255
202 225 255
202 225 255
202 225 255
202 225 255
202 225 255
202 225 255
202 225 255
202 225 255
201 225 255
201 225 255
201 225 255
201 225 255
201 224 255
201 224 255
201 224 255
201 224 255
201 224 255
201 224 255
201 224 255
201 224 255
201 224 255
201 224 255
201 224 255
200 224 255
200 224 255
200 224 255
200 224 255
200 224 255
200 224 255
200 224 255
200 224 255
200 224 255
200 224 255
200 224 255
200 224 255
200 224 255
200 224 255
199 224 255
199 224 255
199 224 255
199 223 255
199 223 255
199 223 255
199 223 255
199 223 255
199 223 255
199 223 255
199 223 255
199 223 255
199 223 255
199 223 255
199 223 255
199 223 255
198 223 255
198 223 255
198 223 255
198 223 255
198 223 255
198 223 255
198 223 255
198 223 255
198 223 255
198 223 255
198 223 255
198 223 255
198 223 255
198 223 255
198 223 255
198 223 255
198 223 255
197 223 255
197 222 255
197 222 255
197 222 255
197 222 255
197 222 255
197 222 255
197 222 255
197 222 255
197 222 255
197 222 255
197 222 255
197 222 255
197 222 255
197 222 255
197 222 255
197 222 255
197 222 255
197 222 255
197 222 255
197 222 255
197 222 255
197 222 255
197 222 255
196 222 255
196 222 255
196 222 255
196 222 255
196 222 255
196 222 255
196 222 255
196 222 255
196 222 255
196 222 255
196 222 255
196 222 255
196 222 255
196 222 255
196 222 255
196 222 255
196 222 255
196 222 255
196 222 255
196 222 255
196 222 255
196 222 255
196 222 255
196 222 255
196 222 255
196 222 255
196 222 255
196 222 255
196 222 255
196 222 255
196 222 255
196 222 255
196 222 255
196 222 255
196 222 255
196 222 255
196 222 255
196 222 255
196 222 255
196 222 255
196 222 255
196 222 255
196 222 255
196 222 255
196 222 255
196 222 255
196 222 255
196 222 255
196 222 255
196 222 255
196 222 255
196 222 255
197 222 255
197 222 255
197 222 255
197 222 255
197 222 255
197 222 255
197 222 255
197 222 255
197 222 255
197 222 255
197 222 255
197 222 255
197 222 255
197 222 255
197 222 255
197 222 255
197 222 255
197 222 255
197 222 255
197 222 255
197 222 255
197 222 255
197 222 255
197 223 255
198 223 255
198 223 255
198 223 255
198 223 255
198 223 255
198 223 255
198 223 255
198 223 255
198 223 255
198 223 255
198 223 255
198 223 255
198 223 255
198 223 255
198 223 255
198 223 255
198 223 255
199 223 255
199 223 255
199 223 255
199 223 255
199 223 255
199 223 255
199 223 255
199 223 255
199 223 255
199 223 255
199 223 255
199 223 255
199 223 255
199 224 255
199 224 255
199 224 255
200 224 255
200 224 255
200 224 255
200 224 255
200 224 255
200 224 255
200 224 255
200 224 255
200 224 255
200 224 255
200 224 255
200 224 255
200 224 255
200 224 255
201 224 255
201 224 255
201 224 255
201 224 255
201 224 255
201 224 255
201 224 255
201 224 255
201 224 255
201 224 255
201 224 255
201 225 255
201 225 255
201 225 255
201 225 255
202 225 255
202 225 255
202 225 255
202 225 255
202 225 255
202 225 255
202 225 255
202 225 255
202 225 255
202 225 255
202 225 255
202 225 255
202 225 255
202 225 255
202 225 255
203 225 255
203 225 255
203 225 255
203 225 255
203 225 255
203 225 255
203 225 255
203 225 255
203 226 255
203 226 255
203 226 255
203 226 255
203 226 255
203 226 255
203 226 255
204 226 255
204 226 255
204 226 255
204 226 255
204 226 255
204 226 255
204 226 255
204 226 255
204 226 255
204 226 255
204 226 255
204 226 255
204 226 255
204 226 255
204 226 255
204 226 255
204 226 255
205 226 255
205 226 255
205 226 255
205 226 255
205 226 255
205 226 255
205 226 255
205 227 255
205 227 255
205 227 255
205 227 255
205 227 255
205 227 255
205 227 255
205 227 255
205 227 255
205 227 255
206 227 255
206 227 255
206 227 255
206 227 255
206 227 255
206 227 255
206 227 255
206 227 255
206 227 255
206 227 255
206 227 255
206 227 255
206 227 255
206 227 255
206 227 255
206 227 255
206 227 255
206 227 255
206 227 255
207 227 255
207 227 255
207 227 255
207 227 255
207 227 255
207 228 255
207 228 255
207 228 255
207 227 255
207 227 255
207 227 255
207 227 255
206 227 255
206 227 255
206 227 255
206 227 255
206 227 255
206 227 255
206 227 255
206 227 255
206 227 255
206 227 255
206 227 255
206 227 255
206 227 255
206 227 255
206 227 255
206 227 255
206 227 255
206 227 255
206 227 255
205 227 255
205 227 255
205 227 255
205 227 255
205 227 255
205 227 255
205 227 255
205 227 255
205 227 255
205 227 255
205 227 255
205 226 255
205 226 255
205 226 255
205 226 255
205 226 255
205 226 255
205 226 255
204 226 255
204 226 255
204 226 255
204 226 255
204 226 255
204 226 255
204 226 255
204 226 255
204 226 255
204 226 255
204 226 255
204 226 255
204 226 255
204 226 255
204 226 255
204 226 255
203 226 255
203 226 255
203 226 255
203 226 255
203 226 255
203 226 255
203 226 255
203 225 255
203 225 255
203 225 255
203 225 255
203 225 255
203 225 255
203 225 255
203 225 255
202 225 255
202 225 255
202 225 255
202 225 255
202 225 255
202 225 255
202 225 255
202 225 255
202 225 255
202 225 255
202 225 255
202 225 255
202 225 255
202 225 255
202 225 255
201 225 255
201 225 255
201 225 255
201 225 255
201 225 255
201 224 255
201 224 255
201 224 255
201 224 255
201 224 255
201 224 255
201 224 255
201 224 255
201 224 255
201 224 255
200 224 255
200 224 255
200 224 255
200 224 255
200 224 255
200 224 255
200 224 255
200 224 255
200 224 255
200 224 255
200 224 255
200 224 255
200 224 255
200 224 255
200 224 255
199 224 255
199 224 255
199 223 255
199 223 255
199 223 255
199 223 255
199 223 255
199 223 255
199 223 255
199 223 255
199 223 255
199 223 255
199 223 255
199 223 255
199 223 255
199 223 255
198 223 255
198 223 255
198 223 255
198 223 255
198 223 255
198 223 255
198 223 255
198 223 255
198 223 255
198 223 255
198 223 255
198 223 255
198 223 255
198 223 255
198 223 255
198 223 255
198 223 255
198 223 255
197 222 255
197 222 255
197 222 255
197 222 255
197 222 255
197 222 255
197 222 255
197 222 255
197 222 255
197 222 255
197 222 255
197 222 255
197 222 255
197 222 255
197 222 255
197 222 255
197 222 255
197 222 255
197 222 255
197 222 255
197 222 255
197 222 255
197 222 255
197 222 255
197 222 255
197 222 255
196 222 255
196 222 255
196 222 255
196 222 255
196 222 255
196 222 255
196 222 255
196 222 255
196 222 255
196 222 255
196 222 255
196 222 255
196 222 255
196 222 255
196 222 255
196 222 255
196 222 255
196 222 255
196 222 255
196 222 255
196 222 255
196 222 255
196 222 255
196 222 255
196 222 255
196 222 255
196 222 255
196 222 255
196 222 255
196 222 255
196 222 255
196 222 255
196 222 255
196 222 255
196 222 255
196 222 255
196 222 255
196 222 255
196 222 255
196 222 255
197 222 255
197 222 255
197 222 255
197 222 255
197 222 255
197 222 255
197 222 255
197 222 255
197 222 255
197 222 255
197 222 255
197 222 255
197 222 255
197 222 255
197 222 255
197 222 255
197 222 255
197 222 255
197 222 255
197 222 255
197 222 255
197 222 255
197 222 255
197 222 255
197 222 255
197 222 255
198 223 255
198 223 255
198 223 255
198 223 255
198 223 255
198 223 255
198 223 255
198 223 255
198 223 255
198 223 255
198 223 255
198 223 255
198 223 255
198 223 255
198 223 255
198 223 255
198 223 255
198 223 255
199 223 255
199 223 255
199 223 255
199 223 255
199 223 255
199 223 255
199 223 255
199 223 255
199 223 255
199 223 255
199 223 255
199 223 255
199 223 255
199 223 255
199 224 255
199 224 255
200 224 255
200 224 255
200 224 255
200 224 255
200 224 255
200 224 255
200 224 255
200 224 255
200 224 255
200 224 255
200 224 255
200 224 255
200 224 255
200 224 255
200 224 255
201 224 255
201 224 255
201 224 255
201 224 255
201 224 255
201 224 255
201 224 255
201 224 255
201 224 255
201 224 255
201 225 255
201 225 255
201 225 255
201 225 255
201 225 255
202 225 255
202 225 255
202 225 255
202 225 255
202 225 255
202 225 255
202 225 255
202 225 255
202 225 255
202 225 255
202 225 255
202 225 255
202 225 255
202 225 255
203 225 255
203 225 255
203 225 255
203 225 255
203 225 255
203 225 255
203 225 255
203 225 255
203 225 255
203 226 255
203 226 255
203 226 255
203 226 255
203 226 255
203 226 255
203 226 255
204 226 255
204 226 255
204 226 255
204 226 255
204 226 255
204 226 255
204 226 255
204 226 255
204 226 255
204 226 255
204 226 255
204 226 255
204 226 255
204 226 255
204 226 255
204 226 255
205 226 255
205 226 255
205 226 255
205 226 255
205 226 255
205 226 255
205 226 255
205 227 255
205 227 255
205 227 255
205 227 255
205 227 255
205 227 255
205 227 255
205 227 255
205 227 255
205 227 255
205 227 255
206 227 255
206 227 255
206 227 255
206 227 255
206 227 255
206 227 255
206 227 255
206 227 255
206 227 255
206 227 255
206 227 255
206 227 255
206 227 255
206 227 255
206 227 255
206 227 255
206 227 255
206 227 255
206 227 255
207 227 255
207 227 255
207 227 255
207 227 255
207 227 255
207 228 255
207 228 255
207 228 255
207 228 255
207 228 255
207 228 255
207 228 255
207 227 255
207 227 255
207 227 255
207 227 255
207 227 255
206 227 255
206 227 255
206 227 255
206 227 255
206 227 255
206 227 255
206 227 255
206 227 255
206 227 255
206 227 255
206 227 255
206 227 255
206 227 255
206 227 255
206 227 255
206 227 255
206 227 255
206 227 255
206 227 255
205 227 255
205 227 255
205 227 255
205 227 255
205 227 255
205 227 255
205 227 255
205 227 255
205 227 255
205 227 255
205 226 255
205 226 255
205 226 255
205 226 255
205 226 255
205 226 255
205 226 255
204 226 255
204 226 255
204 226 255
204 226 255
204 226 255
204 226 255
204 226 255
204 226 255
204 226 255
204 226 255
204 226 255
204 226 255
204 226 255
204 226 255
204 226 255
204 226 255
204 226 255
203 226 255
203 226 255
203 226 255
203 226 255
203 226 255
203 226 255
203 225 255
203 225 255
203 225 255
203 225 255
203 225 255
203 225 255
203 225 255
203 225 255
203 225 255
202 225 255
202 225 255
202 225 255
202 225 255
202 225 255
202 225 255
202 225 255
202 225 255
202 225 255
202 225 255
202 225 255
202 225 255
202 225 255
202 225 255
202 225 255
201 225 255
201 225 255
201 225 255
201 225 255
201 224 255
201 224 255
201 224 255
201 224 255
201 224 255
201 224 255
201 224 255
201 224 255
201 224 255
201 224 255
200 224 255
200 224 255
200 224 255
200 224 255
200 224 255
200 224 255
200 224 255
200 224 255
200 224 255
200 224 255
200 224 255
200 224 255
200 224 255
200 224 255
200 224 255
200 224 255
199 224 255
199 224 255
199 223 255
199 223 255
199 223 255
199 223 255
199 223 255
199 223 255
199 223 255
199 223 255
199 223 255
199 223 255
199 223 255
199 223 255
199 223 255
198 223 255
198 223 255
198 223 255
198 223 255
198 223 255
198 223 255
198 223 255
198 223 255
198 223 255
198 223 255
198 223 255
198 223 255
198 223 255
198 223 255
198 223 255
198 223 255
198 223 255
198 223 255
198 223 255
197 223 255
197 222 255
197 222 255
197 222 255
197 222 255
197 222 255
197 222 255
197 222 255
197 222 255
197 222 255
197 222 255
197 222 255
197 222 255
197 222 255
197 222 255
197 222 255
197 222 255
197 222 255
197 222 255
197 222 255
197 222 255
197 222 255
197 222 255
197 222 255
197 222 255
197 222 255
197 222 255
197 222 255
197 222 255
197 222 255
197 222 255
197 222 255
196 222 255
196 222 255
196 222 255
196 222 255
196 222 255
196 222 255
196 222 255
196 222 255
196 222 255
196 222 255
196 222 255
196 222 255
196 222 255
196 222 255
196 222 255
196 222 255
196 222 255
196 222 255
196 222 255
196 222 255
196 222 255
196 222 255
197 222 255
197 222 255
197 222 255
197 222 255
197 222 255
197 222 255
197 222 255
197 222 255
197 222 255
197 222 255
197 222 255
197 222 255
197 222 255
197 222 255
197 222 255
197 222 255
197 222 255
197 222 255
197 222 255
197 222 255
197 222 255
197 222 255
197 222 255
197 222 255
197 222 255
197 222 255
197 222 255
197 222 255
197 222 255
197 222 255
197 222 255
197 223 255
198 223 255
198 223 255
198 223 255
198 223 255
198 223 255
198 223 255
198 223 255
198 223 255
198 223 255
198 223 255
198 223 255
198 223 255
198 223 255
198 223 255
198 223 255
198 223 255
198 223 255
198 223 255
198 223 255
199 223 255
199 223 255
199 223 255
199 223 255
199 223 255
199 223 255
199 223 255
199 223 255
199 223 255
199 223 255
199 223 255
199 223 255
199 223 255
199 224 255
199 224 255
199 224 255
200 224 255
200 224 255
200 224 255
200 224 255
200 224 255
200 224 255
200 224 255
200 224 255
200 224 255
200 224 255
200 224 255
200 224 255
200 224 255
200 224 255
201 224 255
201 224 255
201 224 255
201 224 255
201 224 255
201 224 255
201 224 255
201 224 255
201 224 255
201 224 255
201 224 255
201 225 255
201 225 255
201 225 255
201 225 255
202 225 255
202 225 255
202 225 255
202 225 255
202 225 255
202 225 255
202 225 255
202 225 255
202 225 255
202 225 255
202 225 255
202 225 255
202 225 255
202 225 255
202 225 255
203 225 255
203 225 255
203 225 255
203 225 255
203 225 255
203 225 255
203 225 255
203 225 255
203 226 255
203 226 255
203 226 255
203 226 255
203 226 255
203 226 255
203 226 255
204 226 255
204 226 255
204 226 255
204 226 255
204 226 255
204 226 255
204 226 255
204 226 255
204 226 255
204 226 255
204 226 255
204 226 255
204 226 255
204 226 255
204 226 255
204 226 255
204 226 255
205 226 255
205 226 255
205 226 255
205 226 255
205 226 255
205 226 255
205 226 255
205 227 255
205 227 255
205 227 255
205 227 255
205 227 255
205 227 255
205 227 255
205 227 255
205 227 255
205 227 255
206 227 255
206 227 255
206 227 255
206 227 255
206 227 255
206 227 255
206 227 255
206 227 255
206 227 255
206 227 255
206 227 255
206 227 255
206 227 255
206 227 255
206 227 255
206 227 255
206 227 255
206 227 255
206 227 255
207 227 255
207 227 255
207 227 255
207 227 255
207 227 255
207 228 255
207 228 255
207 228 255
207 228 255
207 228 255
207 228 255
207 228 255
207 228 255
207 228 255
207 228 255
207 228 255
207 228 255
207 228 255
207 227 255
207 227 255
207 227 255
207 227 255
207 227 255
206 227 255
206 227 255
206 227 255
206 227 255
206 227 255
206 227 255
206 227 255
206 227 255
206 227 255
206 227 255
206 227 255
206 227 255
206 227 255
206 227 255
206 227 255
206 227 255
206 227 255
206 227 255
206 227 255
205 227 255
205 227 255
205 227 255
205 227 255
205 227 255
205 227 255
205 227 255
205 227 255
205 227 255
205 227 255
205 226 255
205 226 255
205 226 255
205 226 255
205 226 255
205 226 255
205 226 255
204 226 255
204 226 255
204 226 255
204 226 255
204 226 255
204 226 255
204 226 255
204 226 255
204 226 255
204 226 255
204 226 255
204 226 255
204 226 255
204 226 255
204 226 255
204 226 255
203 226 255
203 226 255
203 226 255
203 226 255
203 226 255
203 226 255
203 226 255
203 225 255
203 225 255
203 225 255
203 225 255
203 225 255
203 225 255
203 225 255
203 225 255
203 225 255
202 225 255
202 225 255
202 225 255
202 225 255
202 225 255
202 225 255
202 225 255
202 225 255
202 225 255
202 225 255
202 225 255
202 225 255
202 225 255
202 225 255
201 225 255
201 225 255
201 225 255
201 225 255
201 225 255
201 224 255
201 224 255
201 224 255
201 224 255
201 224 255
201 224 255
201 224 255
201 224 255
201 224 255
201 224 255
200 224 255
200 224 255
200 224 255
200 224 255
200 224 255
200 224 255
200 224 255
200 224 255
200 224 255
200 224 255
200 224 255
200 224 255
200 224 255
200 224 255
200 224 255
199 224 255
199 224 255
199 224 255
199 223 255
199 223 255
199 223 255
199 223 255
199 223 255
199 223 255
199 223 255
199 223 255
199 223 255
199 223 255
199 223 255
199 223 255
199 223 255
198 223 255
198 223 255
198 223 255
198 223 255
198 223 255
198 223 255
198 223 255
198 223 255
198 223 255
198 223 255
198 223 255
198 223 255
198 223 255
198 223 255
198 223 255
198 223 255
198 223 255
198 223 255
198 223 255
198 223 255
197 223 255
197 222 255
197 222 255
197 222 255
197 222 255
197 222 255
197 222 255
197 222 255
197 222 255
197 222 255
197 222 255
197 222 255
197 222 255
197 222 255
197 222 255
197 222 255
197 222 255
197 222 255
197 222 255
197 222 255
197 222 255
197 222 255
197 222 255
197 222 255
197 222 255
197 222 255
197 222 255
197 222 255
197 222 255
197 222 255
197 222 255
197 222 255
197 222 255
197 222 255
197 222 255
197 222 255
197 222 255
197 222 255
197 222 255
197 222 255
197 222 255
197 222 255
197 222 255
197 222 255
197 222 255
197 222 255
197 222 255
197 222 255
197 222 255
197 222 255
197 222 255
197 222 255
197 222 255
197 222 255
197 222 255
197 222 255
197 222 255
197 222 255
197 222 255
197 222 255
197 222 255
197 222 255
197 222 255
197 222 255
197 222 255
197 222 255
197 222 255
197 222 255
197 222 255
197 222 255
197 222 255
197 222 255
197 222 255
197 222 255
197 222 255
197 222 255
197 222 255
197 223 255
198 223 255
198 223 255
198 223 255
198 223 255
198 223 255
198 223 255
198 223 255
198 223 255
198 223 255
198 223 255
198 223 255
198 223 255
198 223 255
198 223 255
198 223 255
198 223 255
198 223 255
198 223 255
198 223 255
199 223 255
199 223 255
199 223 255
199 223 255
199 223 255
199 223 255
199 223 255
199 223 255
199 223 255
199 223 255
199 223 255
199 223 255
199 223 255
199 223 255
199 224 255
199 224 255
199 224 255
200 224 255
200 224 255
200 224 255
200 224 255
200 224 255
200 224 255
200 224 255
200 224 255
200 224 255
200 224 255
200 224 255
200 224 255
200 224 255
200 224 255
200 224 255
201 224 255
201 224 255
201 224 255
201 224 255
201 224 255
201 224 255
201 224 255
201 224 255
201 224 255
201 224 255
201 225 255
201 225 255
201 225 255
201 225 255
201 225 255
202 225 255
202 225 255
202 225 255
202 225 255
202 225 255
202 225 255
202 225 255
202 225 255
202 225 255
202 225 255
202 225 255
202 225 255
202 225 255
202 225 255
202 225 255
203 225 255
203 225 255
203 225 255
203 225 255
203 225 255
203 225 255
203 225 255
203 225 255
203 226 255
203 226 255
203 226 255
203 226 255
203 226 255
203 226 255
203 226 255
204 226 255
204 226 255
204 226 255
204 226 255
204 226 255
204 226 255
204 226 255
204 226 255
204 226 255
204 226 255
204 226 255
204 226 255
204 226 255
204 226 255
204 226 255
204 226 255
205 226 255
205 226 255
205 226 255
205 226 255
205 226 255
205 226 255
205 226 255
205 227 255
205 227 255
205 227 255
205 227 255
205 227 255
205 227 255
205 227 255
205 227 255
205 227 255
205 227 255
206 227 255
206 227 255
206 227 255
206 227 255
206 227 255
206 227 255
206 227 255
206 227 255
206 227 255
206 227 255
206 227 255
206 227 255
206 227 255
206 227 255
206 227 255
206 227 255
206 227 255
206 227 255
206 227 255
207 227 255
207 227 255
207 227 255
207 227 255
207 227 255
207 228 255
207 228 255
207 228 255
207 228 255
207 228 255
207 228 255
207 228 255
207 228 255
207 228 255
207 228 255
207 228 255
207 228 255
207 228 255
207 228 255
207 228 255
207 228 255
207 228 255
207 228 255
207 228 255
207 227 255
207 227 255
207 227 255
207 227 255
207 227 255
206 227 255
206 227 255
206 227 255
206 227 255
206 227 255
206 227 255
206 227 255
206 227 255
206 227 255
206 227 255
206 227 255
206 227 255
206 227 255
206 227 255
206 227 255
206 227 255
206 227 255
206 227 255
205 227 255
205 227 255
205 227 255
205 227 255
205 227 255
205 227 255
205 227 255
205 227 255
205 227 255
205 227 255
205 227 255
205 226 255
205 226 255
205 226 255
205 226 255
205 226 255
205 226 255
204 226 255
204 226 255
204 226 255
204 226 255
204 226 255
204 226 255
204 226 255
204 226 255
204 226 255
204 226 255
204 226 255
204 226 255
204 226 255
204 226 255
204 226 255
204 226 255
204 226 255
203 226 255
203 226 255
203 226 255
203 226 255
203 226 255
203 226 255
203 225 255
203 225 255
203 225 255
203 225 255
203 225 255
203 225 255
203 225 255
203 225 255
203 225 255
202 225 255
202 225 255
202 225 255
202 225 255
202 225 255
202 225 255
202 225 255
202 225 255
202 225 255
202 225 255
202 225 255
202 225 255
202 225 255
202 225 255
202 225 255
201 225 255
201 225 255
201 225 255
201 225 255
201 224 255
201 224 255
201 224 255
201 224 255
201 224 255
201 224 255
201 224 255
201 224 255
201 224 255
201 224 255
201 224 255
200 224 255
200 224 255
200 224 255
200 224 255
200 224 255
200 224 255
200 224 255
200 224 255
200 224 255
200 224 255
200 224 255
200 224 255
200 224 255
200 224 255
200 224 255
199 224 255
199 224 255
199 223 255
199 223 255
199 223 255
199 223 255
199 223 255
199 223 255
199 223 255
199 223 255
199 223 255
199 223 255
199 223 255
199 223 255
199 223 255
199 223 255
198 223 255
198 223 255
198 223 255
198 223 255
198 223 255
198 223 255
198 223 255
198 223 255
198 223 255
198 223 255
198 223 255
198 223 255
198 223 255
198 223 255
198 223 255
198 223 255
198 223 255
198 223 255
198 223 255
198 223 255
198 223 255
197 223 255
197 222 255
197 222 255
197 222 255
197 222 255
197 222 255
197 222 255
197 222 255
197 222 255
197 222 255
197 222 255
197 222 255
197 222 255
197 222 255
197 222 255
197 222 255
197 222 255
197 222 255
197 222 255
197 222 255
197 222 255
197 222 255
197 222 255
197 222 255
197 222 255
197 222 255
197 222 255
197 222 255
197 222 255
197 222 255
197 222 255
197 222 255
197 222 255
197 222 255
197 222 255
197 222 255
197 222 255
197 222 255
197 222 255
197 222 255
197 222 255
197 222 255
197 222 255
197 222 255
197 222 255
197 222 255
197 222 255
197 222 255
197 222 255
197 222 255
197 222 255
197 222 255
197 222 255
197 222 255
197 222 255
197 222 255
197 222 255
197 222 255
197 222 255
197 222 255
197 222 255
197 222 255
197 222 255
197 222 255
197 222 255
197 222 255
197 222 255
197 222 255
197 222 255
197 223 255
198 223 255
198 223 255
198 223 255
198 223 255
198 223 255
198 223 255
198 223 255
198 223 255
198 223 255
198 223 255
198 223 255
198 223 255
198 223 255
198 223 255
198 223 255
198 223 255
198 223 255
198 223 255
198 223 255
198 223 255
198 223 255
199 223 255
199 223 255
199 223 255
199 223 255
199 223 255
199 223 255
199 223 255
199 223 255
199 223 255
199 223 255
199 223 255
199 223 255
199 223 255
199 223 255
199 224 255
199 224 255
200 224 255
200 224 255
200 224 255
200 224 255
200 224 255
200 224 255
200 224 255
200 224 255
200 224 255
200 224 255
200 224 255
200 224 255
200 224 255
200 224 255
200 224 255
201 224 255
201 224 255
201 224 255
201 224 255
201 224 255
201 224 255
201 224 255
201 224 255
201 224 255
201 224 255
201 224 255
201 225 255
201 225 255
201 225 255
201 225 255
202 225 255
202 225 255
202 225 255
202 225 255
202 225 255
202 225 255
202 225 255
202 225 255
202 225 255
202 225 255
202 225 255
202 225 255
202 225 255
202 225 255
202 225 255
203 225 255
203 225 255
203 225 255
203 225 255
203 225 255
203 225 255
203 225 255
203 225 255
203 225 255
203 226 255
203 226 255
203 226 255
203 226 255
203 226 255
203 226 255
204 226 255
204 226 255
204 226 255
204 226 255
204 226 255
204 226 255
204 226 255
204 226 255
204 226 255
204 226 255
204 226 255
204 226 255
204 226 255
204 226 255
204 226 255
204 226 255
205 226 255
205 226 255
205 226 255
205 226 255
205 226 255
205 226 255
205 226 255
205 227 255
205 227 255
205 227 255
205 227 255
205 227 255
205 227 255
205 227 255
205 227 255
205 227 255
205 227 255
205 227 255
206 227 255
206 227 255
206 227 255
206 227 255
206 227 255
206 227 255
206 227 255
206 227 255
206 227 255
206 227 255
206 227 255
206 227 255
206 227 255
206 227 255
206 227 255
206 227 255
206 227 255
206 227 255
207 227 255
207 227 255
207 227 255
207 227 255
207 227 255
207 228 255
207 228 255
207 228 255
207 228 255
207 228 255
207 228 255
207 228 255
207 228 255
207 228 255
207 228 255
207 228 255
207 228 255
207 228 255
207 228 255
207 228 255
207 228 255
207 228 255
207 228 255
207 228 255
207 228 255
207 228 255
207 228 255
207 228 255
207 228 255
207 228 255
207 227 255
207 227 255
207 227 255
207 227 255
207 227 255
206 227 255
206 227 255
206 227 255
206 227 255
206 227 255
206 227 255
206 227 255
206 227 255
206 227 255
206 227 255
206 227 255
206 227 255
206 227 255
206 227 255
206 227 255
206 227 255
206 227 255
206 227 255
205 227 255
205 227 255
205 227 255
205 227 255
205 227 255
205 227 255
205 227 255
205 227 255
205 227 255
205 227 255
205 226 255
205 226 255
205 226 255
205 226 255
205 226 255
205 226 255
205 226 255
204 226 255
204 226 255
204 226 255
204 226 255
204 226 255
204 226 255
204 226 255
204 226 255
204 226 255
204 226 255
204 226 255
204 226 255
204 226 255
204 226 255
204 226 255
204 226 255
203 226 255
203 226 255
203 226 255
203 226 255
203 226 255
203 226 255
203 226 255
203 225 255
203 225 255
203 225 255
203 225 255
203 225 255
203 225 255
203 225 255
203 225 255
202 225 255
202 225 255
202 225 255
202 225 255
202 225 255
202 225 255
202 225 255
202 225 255
202 225 255
202 225 255
202 225 255
202 225 255
202 225 255
202 225 255
202 225 255
201 225 255
201 225 255
201 225 255
201 225 255
201 225 255
201 224 255
201 224 255
201 224 255
201 224 255
201 224 255
201 224 255
201 224 255
201 224 255
201 224 255
201 224 255
200 224 255
200 224 255
200 224 255
200 224 255
200 224 255
200 224 255
200 224 255
200 224 255
200 224 255
200 224 255
200 224 255
200 224 255
200 224 255
200 224 255
200 224 255
200 224 255
199 224 255
199 224 255
199 223 255
199 223 255
199 223 255
199 223 255
199 223 255
199 223 255
199 223 255
199 223 255
199 223 255
199 223 255
199 223 255
199 223 255
199 223 255
199 223 255
199 223 255
198 223 255
198 223 255
198 223 255
198 223 255
198 223 255
198 223 255
198 223 255
198 223 255
198 223 255
198 223 255
198 223 255
198 223 255
198 223 255
198 223 255
198 223 255
198 223 255
198 223 255
198 223 255
198 223 255
198 223 255
198 223 255
198 223 255
197 222 255
197 222 255
197 222 255
197 222 255
197 222 255
197 222 255
197 222 255
197 222 255
197 222 255
197 222 255
197 222 255
197 222 255
197 222 255
197 222 255
197 222 255
197 222 255
197 222 255
197 222 255
197 222 255
197 222 255
197 222 255
197 222 255
197 222 255
197 222 255
197 222 255
197 222 255
197 222 255
197 222 255
197 222 255
197 222 255
197 222 255
197 222 255
197 222 255
197 222 255
197 222 255
197 222 255
197 222 255
197 222 255
197 222 255
197 222 255
197 222 255
197 222 255
197 222 255
197 222 255
197 222 255
197 222 255
197 222 255
197 222 255
197 222 255
197 222 255
197 222 255
197 222 255
197 222 255
197 222 255
197 222 255
197 222 255
197 222 255
197 222 255
197 222 255
197 223 255
198 223 255
198 223 255
198 223 255
198 223 255
198 223 255
198 223 255
198 223 255
198 223 255
198 223 255
198 223 255
198 223 255
198 223 255
198 223 255
198 223 255
198 223 255
198 223 255
198 223 255
198 223 255
198 223 255
198 223 255
198 223 255
198 223 255
199 223 255
199 223 255
199 223 255
199 223 255
199 223 255
199 223 255
199 223 255
199 223 255
199 223 255
199 223 255
199 223 255
199 223 255
199 223 255
199 223 255
199 223 255
199 224 255
199 224 255
200 224 255
200 224 255
200 224 255
200 224 255
200 224 255
200 224 255
200 224 255
200 224 255
200 224 255
200 224 255
200 224 255
200 224 255
200 224 255
200 224 255
200 224 255
200 224 255
201 224 255
201 224 255
201 224 255
201 224 255
201 224 255
201 224 255
201 224 255
201 224 255
201 224 255
201 224 255
201 225 255
201 225 255
201 225 255
201 225 255
201 225 255
202 225 255
202 225 255
202 225 255
202 225 255
202 225 255
202 225 255
202 225 255
202 225 255
202 225 255
202 225 255
202 225 255
202 225 255
202 225 255
202 225 255
202 225 255
203 225 255
203 225 255
203 225 255
203 225 255
203 225 255
203 225 255
203 225 255
203 225 255
203 226 255
203 226 255
203 226 255
203 226 255
203 226 255
203 226 255
203 226 255
204 226 255
204 226 255
204 226 255
204 226 255
204 226 255
204 226 255
204 226 255
204 226 255
204 226 255
204 226 255
204 226 255
204 226 255
204 226 255
204 226 255
204 226 255
204 226 255
205 226 255
205 226 255
205 226 255
205 226 255
205 226 255
205 226 255
205 226 255
205 227 255
205 227 255
205 227 255
205 227 255
205 227 255
205 227 255
205 227 255
205 227 255
205 227 255
205 227 255
206 227 255
206 227 255
206 227 255
206 227 255
206 227 255
206 227 255
206 227 255
206 227 255
206 227 255
206 227 255
206 227 255
206 227 255
206 227 255
206 227 255
206 227 255
206 227 255
206 227 255
206 227 255
207 227 255
207 227 255
207 227 255
207 227 255
207 227 255
207 228 255
207 228 255
207 228 255
207 228 255
207 228 255
207 228 255
207 228 255
207 228 255
207 228 255
207 228 255
207 228 255
207 228 255
207 228 255
207 228 255
208 228 255
207 228 255
207 228 255
207 228 255
207 228 255
207 228 255
207 228 255
207 228 255
207 228 255
207 228 255
207 228 255
207 228 255
207 228 255
207 228 255
207 228 255
207 228 255
207 228 255
207 227 255
207 227 255
207 227 255
207 227 255
206 227 255
206 227 255
206 227 255
206 227 255
206 227 255
206 227 255
206 227 255
206 227 255
206 227 255
206 227 255
206 227 255
206 227 255
206 227 255
206 227 255
206 227 255
206 227 255
206 227 255
206 227 255
206 227 255
205 227 255
205 227 255
205 227 255
205 227 255
205 227 255
205 227 255
205 227 255
205 227 255
205 227 255
205 227 255
205 226 255
205 226 255
205 226 255
205 226 255
205 226 255
205 226 255
205 226 255
204 226 255
204 226 255
204 226 255
204 226 255
204 226 255
204 226 255
204 226 255
204 226 255
204 226 255
204 226 255
204 226 255
204 226 255
204 226 255
204 226 255
204 226 255
204 226 255
203 226 255
203 226 255
203 226 255
203 226 255
203 226 255
203 226 255
203 226 255
203 225 255
203 225 255
203 225 255
203 225 255
203 225 255
203 225 255
203 225 255
203 225 255
202 225 255
202 225 255
202 225 255
202 225 255
202 225 255
202 225 255
202 225 255
202 225 255
202 225 255
202 225 255
202 225 255
202 225 255
202 225 255
202 225 255
202 225 255
201 225 255
201 225 255
201 225 255
201 225 255
201 224 255
201 224 255
201 224 255
201 224 255
201 224 255
201 224 255
201 224 255
201 224 255
201 224 255
201 224 255
201 224 255
200 224 255
200 224 255
200 224 255
200 224 255
200 224 255
200 224 255
200 224 255
200 224 255
200 224 255
200 224 255
200 224 255
200 224 255
200 224 255
200 224 255
200 224 255
200 224 255
199 224 255
199 224 255
199 223 255
199 223 255
199 223 255
199 223 255
199 223 255
199 223 255
199 223 255
199 223 255
199 223 255
199 223 255
199 223 255
199 223 255
199 223 255
199 223 255
199 223 255
198 223 255
198 223 255
198 223 255
198 223 255
198 223 255
198 223 255
198 223 255
198 223 255
198 223 255
198 223 255
198 223 255
198 223 255
198 223 255
198 223 255
198 223 255
198 223 255
198 223 255
198 223 255
198 223 255
198 223 255
198 223 255
198 223 255
198 223 255
198 223 255
197 223 255
197 223 255
197 222 255
197 222 255
197 222 255
197 222 255
197 222 255
197 222 255
197 222 255
197 222 255
197 222 255
197 222 255
197 222 255
197 222 255
197 222 255
197 222 255
197 222 255
197 222 255
197 222 255
197 222 255
197 222 255
197 222 255
197 222 255
197 222 255
197 222 255
197 222 255
197 222 255
197 222 255
197 222 255
197 222 255
197 222 255
197 222 255
197 222 255
197 222 255
197 222 255
197 222 255
197 222 255
197 222 255
197 222 255
197 222 255
197 222 255
197 222 255
197 222 255
197 222 255
197 222 255
197 222 255
197 222 255
197 222 255
197 222 255
198 223 255
198 223 255
198 223 255
198 223 255
198 223 255
198 223 255
198 223 255
198 223 255
198 223 255
198 223 255
198 223 255
198 223 255
198 223 255
198 223 255
198 223 255
198 223 255
198 223 255
198 223 255
198 223 255
198 223 255
198 223 255
198 223 255
198 223 255
198 223 255
198 223 255
199 223 255
199 223 255
199 223 255
199 223 255
199 223 255
199 223 255
199 223 255
199 223 255
199 223 255
199 223 255
199 223 255
199 223 255
199 223 255
199 223 255
199 223 255
199 224 255
199 224 255
200 224 255
200 224 255
200 224 255
200 224 255
200 224 255
200 224 255
200 224 255
200 224 255
200 224 255
200 224 255
200 224 255
200 224 255
200 224 255
200 224 255
200 224 255
200 224 255
201 224 255
201 224 255
201 224 255
201 224 255
201 224 255
201 224 255
201 224 255
201 224 255
201 224 255
201 224 255
201 224 255
201 225 255
201 225 255
201 225 255
201 225 255
202 225 255
202 225 255
202 225 255
202 225 255
202 225 255
202 225 255
202 225 255
202 225 255
202 225 255
202 225 255
202 225 255
202 225 255
202 225 255
202 225 255
202 225 255
203 225 255
203 225 255
203 225 255
203 225 255
203 225 255
203 225 255
203 225 255
203 225 255
203 225 255
203 226 255
203 226 255
203 226 255
203 226 255
203 226 255
203 226 255
204 226 255
204 226 255
204 226 255
204 226 255
204 226 255
204 226 255
204 226 255
204 226 255
204 226 255
204 226 255
204 226 255
204 226 255
204 226 255
204 226 255
204 226 255
204 226 255
205 226 255
205 226 255
205 226 255
205 226 255
205 226 255
205 226 255
205 226 255
205 227 255
205 227 255
205 227 255
205 227 255
205 227 255
205 227 255
205 227 255
205 227 255
205 227 255
205 227 255
206 227 255
206 227 255
206 227 255
206 227 255
206 227 255
206 227 255
206 227 255
206 227 255
206 227 255
206 227 255
206 227 255
206 227 255
206 227 255
206 227 255
206 227 255
206 227 255
206 227 255
206 227 255
206 227 255
207 227 255
207 227 255
207 227 255
207 227 255
207 228 255
207 228 255
207 228 255
207 228 255
207 228 255
207 228 255
207 228 255
207 228 255
207 228 255
207 228 255
207 228 255
207 228 255
207 228 255
207 228 255
207 228 255
207 228 255
208 228 255
208 228 255
208 228 255
208 228 255
208 228 255
207 228 255
207 228 255
207 228 255
207 228 255
207 228 255
207 228 255
207 228 255
207 228 255
207 228 255
207 228 255
207 228 255
207 228 255
207 228 255
207 228 255
207 228 255
207 228 255
207 227 255
207 227 255
207 227 255
207 227 255
206 227 255
206 227 255
206 227 255
206 227 255
206 227 255
206 227 255
206 227 255
206 227 255
206 227 255
206 227 255
206 227 255
206 227 255
206 227 255
206 227 255
206 227 255
206 227 255
206 227 255
206 227 255
205 227 255
205 227 255
205 227 255
205 227 255
205 227 255
205 227 255
205 227 255
205 227 255
205 227 255
205 227 255
205 227 255
205 226 255
205 226 255
205 226 255
205 226 255
205 226 255
205 226 255
204 226 255
204 226 255
204 226 255
204 226 255
204 226 255
204 226 255
204 226 255
204 226 255
204 226 255
204 226 255
204 226 255
204 226 255
204 226 255
204 226 255
204 226 255
204 226 255
204 226 255
203 226 255
203 226 255
203 226 255
203 226 255
203 226 255
203 226 255
203 225 255
203 225 255
203 225 255
203 225 255
203 225 255
203 225 255
203 225 255
203 225 255
203 225 255
202 225 255
202 225 255
202 225 255
202 225 255
202 225 255
202 225 255
202 225 255
202 225 255
202 225 255
202 225 255
202 225 255
202 225 255
202 225 255
202 225 255
201 225 255
201 225 255
201 225 255
201 225 255
201 225 255
201 224 255
201 224 255
201 224 255
201 224 255
201 224 255
201 224 255
201 224 255
201 224 255
201 224 255
201 224 255
201 224 255
200 224 255
200 224 255
200 224 255
200 224 255
200 224 255
200 224 255
200 224 255
200 224 255
200 224 255
200 224 255
200 224 255
200 224 255
200 224 255
200 224 255
200 224 255
199 224 255
199 224 255
199 224 255
199 223 255
199 223 255
199 223 255
199 223 255
199 223 255
199 223 255
199 223 255
199 223 255
199 223 255
199 223 255
199 223 255
199 223 255
199 223 255
199 223 255
199 223 255
199 223 255
198 223 255
198 223 255
198 223 255
198 223 255
198 223 255
198 223 255
198 223 255
198 223 255
198 223 255
198 223 255
198 223 255
198 223 255
198 223 255
198 223 255
198 223 255
198 223 255
198 223 255
198 223 255
198 223 255
198 223 255
198 223 255
198 223 255
198 223 255
198 223 255
198 223 255
198 223 255
198 223 255
197 223 255
197 223 255
197 222 255
197 222 255
197 222 255
197 222 255
197 222 255
197 222 255
197 222 255
197 222 255
197 222 255
197 222 255
197 222 255
197 222 255
197 222 255
197 222 255
197 222 255
197 222 255
197 222 255
197 222 255
197 222 255
197 222 255
197 222 255
197 222 255
197 222 255
197 222 255
197 222 255
197 222 255
197 222 255
197 222 255
197 222 255
197 222 255
197 222 255
197 222 255
197 223 255
198 223 255
198 223 255
198 223 255
198 223 255
198 223 255
198 223 255
198 223 255
198 223 255
198 223 255
198 223 255
198 223 255
198 223 255
198 223 255
198 223 255
198 223 255
198 223 255
198 223 255
198 223 255
198 223 255
198 223 255
198 223 255
198 223 255
198 223 255
198 223 255
198 223 255
198 223 255
198 223 255
198 223 255
199 223 255
199 223 255
199 223 255
199 223 255
199 223 255
199 223 255
199 223 255
199 223 255
199 223 255
199 223 255
199 223 255
199 223 255
199 223 255
199 223 255
199 223 255
199 223 255
199 224 255
199 224 255
200 224 255
200 224 255
200 224 255
200 224 255
200 224 255
200 224 255
200 224 255
200 224 255
200 224 255
200 224 255
200 224 255
200 224 255
200 224 255
200 224 255
200 224 255
200 224 255
201 224 255
201 224 255
201 224 255
201 224 255
201 224 255
201 224 255
201 224 255
201 224 255
201 224 255
201 224 255
201 224 255
201 225 255
201 225 255
201 225 255
201 225 255
202 225 255
202 225 255
202 225 255
202 225 255
202 225 255
202 225 255
202 225 255
202 225 255
202 225 255
202 225 255
202 225 255
202 225 255
202 225 255
202 225 255
202 225 255
203 225 255
203 225 255
203 225 255
203 225 255
203 225 255
203 225 255
203 225 255
203 225 255
203 225 255
203 226 255
203 226 255
203 226 255
203 226 255
203 226 255
203 226 255
203 226 255
204 226 255
204 226 255
204 226 255
204 226 255
204 226 255
204 226 255
204 226 255
204 226 255
204 226 255
204 226 255
204 226 255
204 226 255
204 226 255
204 226 255
204 226 255
204 226 255
205 226 255
205 226 255
205 226 255
205 226 255
205 226 255
205 226 255
205 227 255
205 227 255
205 227 255
205 227 255
205 227 255
205 227 255
205 227 255
205 227 255
205 227 255
205 227 255
205 227 255
206 227 255
206 227 255
206 227 255
206 227 255
206 227 255
206 227 255
206 227 255
206 227 255
206 227 255
206 227 255
206 227 255
206 227 255
206 227 255
206 227 255
206 227 255
206 227 255
206 227 255
206 227 255
207 227 255
207 227 255
207 227 255
207 227 255
207 227 255
207 228 255
207 228 255
207 228 255
207 228 255
207 228 255
207 228 255
207 228 255
207 228 255
207 228 255
207 228 255
207 228 255
207 228 255
207 228 255
207 228 255
207 228 255
208 228 255
208 228 255
208 228 255
208 228 255
208 228 255
208 228 255
208 228 255
208 228 255
208 228 255
208 228 255
208 228 255
207 228 255
207 228 255
207 228 255
207 228 255
207 228 255
207 228 255
207 228 255
207 228 255
207 228 255
207 228 255
207 228 255
207 228 255
207 228 255
207 228 255
207 228 255
207 227 255
207 227 255
207 227 255
207 227 255
207 227 255
206 227 255
206 227 255
206 227 255
206 227 255
206 227 255
206 227 255
206 227 255
206 227 255
206 227 255
206 227 255
206 227 255
206 227 255
206 227 255
206 227 255
206 227 255
206 227 255
206 227 255
206 227 255
205 227 255
205 227 255
205 227 255
205 227 255
205 227 255
205 227 255
205 227 255
205 227 255
205 227 255
205 227 255
205 226 255
205 226 255
205 226 255
205 226 255
205 226 255
205 226 255
205 226 255
204 226 255
204 226 255
204 226 255
204 226 255
204 226 255
204 226 255
204 226 255
204 226 255
204 226 255
204 226 255
204 226 255
204 226 255
204 226 255
204 226 255
204 226 255
204 226 255
203 226 255
203 226 255
203 226 255
203 226 255
203 226 255
203 226 255
203 225 255
203 225 255
203 225 255
203 225 255
203 225 255
203 225 255
203 225 255
203 225 255
203 225 255
202 225 255
202 225 255
202 225 255
202 225 255
202 225 255
202 225 255
202 225 255
202 225 255
202 225 255
202 225 255
202 225 255
202 225 255
202 225 255
202 225 255
202 225 255
201 225 255
201 225 255
201 225 255
201 225 255
201 225 255
201 224 255
201 224 255
201 224 255
201 224 255
201 224 255
201 224 255
201 224 255
201 224 255
201 224 255
201 224 255
200 224 255
200 224 255
200 224 255
200 224 255
200 224 255
200 224 255
200 224 255
200 224 255
200 224 255
200 224 255
200 224 255
200 224 255
200 224 255
200 224 255
200 224 255
200 224 255
200 224 255
199 224 255
199 224 255
199 223 255
199 223 255
199 223 255
199 223 255
199 223 255
199 223 255
199 223 255
199 223 255
199 223 255
199 223 255
199 223 255
199 223 255
199 223 255
199 223 255
199 223 255
199 223 255
199 223 255
198 223 255
198 223 255
198 223 255
198 223 255
198 223 255
198 223 255
198 223 255
198 223 255
198 223 255
198 223 255
198 223 255
198 223 255
198 223 255
198 223 255
198 223 255
198 223 255
198 223 255
198 223 255
198 223 255
198 223 255
198 223 255
198 223 255
198 223 255
198 223 255
198 223 255
198 223 255
198 223 255
198 223 255
198 223 255
198 223 255
198 223 255
198 223 255
198 223 255
198 223 255
198 223 255
198 223 255
198 223 255
198 223 255
198 223 255
197 223 255
197 223 255
197 223 255
197 223 255
197 223 255
198 223 255
198 223 255
198 223 255
198 223 255
198 223 255
198 223 255
198 223 255
198 223 255
198 223 255
198 223 255
198 223 255
198 223 255
198 223 255
198 223 255
198 223 255
198 223 255
198 223 255
198 223 255
198 223 255
198 223 255
198 223 255
198 223 255
198 223 255
198 223 255
198 223 255
198 223 255
198 223 255
198 223 255
198 223 255
198 223 255
198 223 255
198 223 255
198 223 255
198 223 255
198 223 255
198 223 255
198 223 255
198 223 255
199 223 255
199 223 255
199 223 255
199 223 255
199 223 255
199 223 255
199 223 255
199 223 255
199 223 255
199 223 255
199 223 255
199 223 255
199 223 255
199 223 255
199 223 255
199 223 255
199 223 255
199 224 255
199 224 255
199 224 255
200 224 255
200 224 255
200 224 255
200 224 255
200 224 255
200 224 255
200 224 255
200 224 255
200 224 255
200 224 255
200 224 255
200 224 255
200 224 255
200 224 255
200 224 255
200 224 255
201 224 255
201 224 255
201 224 255
201 224 255
201 224 255
201 224 255
201 224 255
201 224 255
201 224 255
201 224 255
201 225 255
201 225 255
201 225 255
201 225 255
201 225 255
202 225 255
202 225 255
202 225 255
202 225 255
202 225 255
202 225 255
202 225 255
202 225 255
202 225 255
202 225 255
202 225 255
202 225 255
202 225 255
202 225 255
202 225 255
203 225 255
203 225 255
203 225 255
203 225 255
203 225 255
203 225 255
203 225 255
203 225 255
203 226 255
203 226 255
203 226 255
203 226 255
203 226 255
203 226 255
203 226 255
204 226 255
204 226 255
204 226 255
204 226 255
204 226 255
204 226 255
204 226 255
204 226 255
204 226 255
204 226 255
204 226 255
204 226 255
204 226 255
204 226 255
204 226 255
204 226 255
205 226 255
205 226 255
205 226 255
205 226 255
205 226 255
205 226 255
205 226 255
205 227 255
205 227 255
205 227 255
205 227 255
205 227 255
205 227 255
205 227 255
205 227 255
205 227 255
205 227 255
206 227 255
206 227 255
206 227 255
206 227 255
206 227 255
206 227 255
206 227 255
206 227 255
206 227 255
206 227 255
206 227 255
206 227 255
206 227 255
206 227 255
206 227 255
206 227 255
206 227 255
206 227 255
207 227 255
207 227 255
207 227 255
207 227 255
207 227 255
207 228 255
207 228 255
207 228 255
207 228 255
207 228 255
207 228 255
207 228 255
207 228 255
207 228 255
207 228 255
207 228 255
207 228 255
207 228 255
207 228 255
207 228 255
208 228 255
208 228 255
208 228 255
208 228 255
208 228 255
208 228 255
208 228 255
208 228 255
208 228 255
208 228 255
208 228 255
208 228 255
208 228 255
208 228 255
208 228 255
208 228 255
208 228 255
207 228 255
207 228 255
207 228 255
207 228 255
207 228 255
207 228 255
207 228 255
207 228 255
207 228 255
207 228 255
207 228 255
207 228 255
207 228 255
207 228 255
207 228 255
207 227 255
207 227 255
207 227 255
207 227 255
207 227 255
206 227 255
206 227 255
206 227 255
206 227 255
206 227 255
206 227 255
206 227 255
206 227 255
206 227 255
206 227 255
206 227 255
206 227 255
206 227 255
206 227 255
206 227 255
206 227 255
206 227 255
206 227 255
205 227 255
205 227 255
205 227 255
205 227 255
205 227 255
205 227 255
205 227 255
205 227 255
205 227 255
205 227 255
205 226 255
205 226 255
205 226 255
205 226 255
205 226 255
205 226 255
205 226 255
204 226 255
204 226 255
204 226 255
204 226 255
204 226 255
204 226 255
204 226 255
204 226 255
204 226 255
204 226 255
204 226 255
204 226 255
204 226 255
204 226 255
204 226 255
203 226 255
203 226 255
203 226 255
203 226 255
203 226 255
203 226 255
203 226 255
203 225 255
203 225 255
203 225 255
203 225 255
203 225 255
203 225 255
203 225 255
203 225 255
203 225 255
202 225 255
202 225 255
202 225 255
202 225 255
202 225 255
202 225 255
202 225 255
202 225 255
202 225 255
202 225 255
202 225 255
202 225 255
202 225 255
202 225 255
202 225 255
201 225 255
201 225 255
201 225 255
201 225 255
201 224 255
201 224 255
201 224 255
201 224 255
201 224 255
201 224 255
201 224 255
201 224 255
201 224 255
201 224 255
201 224 255
200 224 255
200 224 255
200 224 255
200 224 255
200 224 255
200 224 255
200 224 255
200 224 255
200 224 255
200 224 255
200 224 255
200 224 255
200 224 255
200 224 255
200 224 255
200 224 255
200 224 255
199 224 255
199 224 255
199 224 255
199 223 255
199 223 255
199 223 255
199 223 255
199 223 255
199 223 255
199 223 255
199 223 255
199 223 255
199 223 255
199 223 255
199 223 255
199 223 255
199 223 255
199 223 255
199 223 255
199 223 255
198 223 255
198 223 255
198 223 255
198 223 255
198 223 255
198 223 255
198 223 255
198 223 255
198 223 255
198 223 255
198 223 255
198 223 255
198 223 255
198 223 255
198 223 255
198 223 255
198 223 255
198 223 255
198 223 255
198 223 255
198 223 255
198 223 255
198 223 255
198 223 255
198 223 255
198 223 255
198 223 255
198 223 255
198 223 255
198 223 255
198 223 255
198 223 255
198 223 255
198 223 255
198 223 255
198 223 255
198 223 255
198 223 255
198 223 255
198 223 255
198 223 255
198 223 255
198 223 255
198 223 255
198 223 255
198 223 255
198 223 255
198 223 255
198 223 255
198 223 255
198 223 255
198 223 255
198 223 255
198 223 255
198 223 255
198 223 255
198 223 255
198 223 255
198 223 255
198 223 255
198 223 255
198 223 255
198 223 255
198 223 255
198 223 255
198 223 255
198 223 255
198 223 255
198 223 255
198 223 255
198 223 255
198 223 255
198 223 255
198 223 255
199 223 255
199 223 255
199 223 255
199 223 255
199 223 255
199 223 255
199 223 255
199 223 255
199 223 255
199 223 255
199 223 255
199 223 255
199 223 255
199 223 255
199 223 255
199 223 255
199 223 255
199 224 255
199 224 255
199 224 255
200 224 255
200 224 255
200 224 255
200 224 255
200 224 255
200 224 255
200 224 255
200 224 255
200 224 255
200 224 255
200 224 255
200 224 255
200 224 255
200 224 255
200 224 255
200 224 255
200 224 255
201 224 255
201 224 255
201 224 255
201 224 255
201 224 255
201 224 255
201 224 255
201 224 255
201 224 255
201 224 255
201 224 255
201 225 255
201 225 255
201 225 255
201 225 255
202 225 255
202 225 255
202 225 255
202 225 255
202 225 255
202 225 255
202 225 255
202 225 255
202 225 255
202 225 255
202 225 255
202 225 255
202 225 255
202 225 255
202 225 255
203 225 255
203 225 255
203 225 255
203 225 255
203 225 255
203 225 255
203 225 255
203 225 255
203 225 255
203 226 255
203 226 255
203 226 255
203 226 255
203 226 255
203 226 255
203 226 255
204 226 255
204 226 255
204 226 255
204 226 255
204 226 255
204 226 255
204 226 255
204 226 255
204 226 255
204 226 255
204 226 255
204 226 255
204 226 255
204 226 255
204 226 255
205 226 255
205 226 255
205 226 255
205 226 255
205 226 255
205 226 255
205 226 255
205 227 255
205 227 255
205 227 255
205 227 255
205 227 255
205 227 255
205 227 255
205 227 255
205 227 255
205 227 255
206 227 255
206 227 255
206 227 255
206 227 255
206 227 255
206 227 255
206 227 255
206 227 255
206 227 255
206 227 255
206 227 255
206 227 255
206 227 255
206 227 255
206 227 255
206 227 255
206 227 255
206 227 255
207 227 255
207 227 255
207 227 255
207 227 255
207 227 255
207 228 255
207 228 255
207 228 255
207 228 255
207 228 255
207 228 255
207 228 255
207 228 255
207 228 255
207 228 255
207 228 255
207 228 255
207 228 255
207 228 255
207 228 255
208 228 255
208 228 255
208 228 255
208 228 255
208 228 255
208 228 255
208 228 255
208 228 255
208 228 255
208 228 255
208 228 255
208 228 255
208 228 255
208 228 255
208 228 255
208 228 255
208 228 255
208 228 255
208 228 255
208 228 255
208 228 255
208 228 255
208 228 255
207 228 255
207 228 255
207 228 255
207 228 255
207 228 255
207 228 255
207 228 255
207 228 255
207 228 255
207 228 255
207 228 255
207 228 255
207 228 255
207 228 255
207 228 255
207 227 255
207 227 255
207 227 255
207 227 255
207 227 255
206 227 255
206 227 255
206 227 255
206 227 255
206 227 255
206 227 255
206 227 255
206 227 255
206 227 255
206 227 255
206 227 255
206 227 255
206 227 255
206 227 255
206 227 255
206 227 255
206 227 255
206 227 255
205 227 255
205 227 255
205 227 255
205 227 255
205 227 255
205 227 255
205 227 255
205 227 255
205 227 255
205 227 255
205 226 255
205 226 255
205 226 255
205 226 255
205 226 255
205 226 255
204 226 255
204 226 255
204 226 255
204 226 255
204 226 255
204 226 255
204 226 255
204 226 255
204 226 255
204 226 255
204 226 255
204 226 255
204 226 255
204 226 255
204 226 255
204 226 255
203 226 255
203 226 255
203 226 255
203 226 255
203 226 255
203 226 255
203 226 255
203 225 255
203 225 255
203 225 255
203 225 255
203 225 255
203 225 255
203 225 255
203 225 255
203 225 255
202 225 255
202 225 255
202 225 255
202 225 255
202 225 255
202 225 255
202 225 255
202 225 255
202 225 255
202 225 255
202 225 255
202 225 255
202 225 255
202 225 255
202 225 255
201 225 255
201 225 255
201 225 255
201 225 255
201 224 255
201 224 255
201 224 255
201 224 255
201 224 255
201 224 255
201 224 255
201 224 255
201 224 255
201 224 255
201 224 255
200 224 255
200 224 255
200 224 255
200 224 255
200 224 255
200 224 255
200 224 255
200 224 255
200 224 255
200 224 255
200 224 255
200 224 255
200 224 255
200 224 255
200 224 255
200 224 255
200 224 255
199 224 255
199 224 255
199 224 255
199 223 255
199 223 255
199 223 255
199 223 255
199 223 255
199 223 255
199 223 255
199 223 255
199 223 255
199 223 255
199 223 255
199 223 255
199 223 255
199 223 255
199 223 255
199 223 255
199 223 255
199 223 255
199 223 255
198 223 255
198 223 255
198 223 255
198 223 255
198 223 255
198 223 255
198 223 255
198 223 255
198 223 255
198 223 255
198 223 255
198 223 255
198 223 255
198 223 255
198 223 255
198 223 255
198 223 255
198 223 255
198 223 255
198 223 255
198 223 255
198 223 255
198 223 255
198 223 255
198 223 255
198 223 255
198 223 255
198 223 255
198 223 255
198 223 255
198 223 255
198 223 255
198 223 255
198 223 255
198 223 255
198 223 255
198 223 255
198 223 255
198 223 255
198 223 255
198 223 255
198 223 255
198 223 255
198 223 255
198 223 255
198 223 255
198 223 255
198 223 255
198 223 255
198 223 255
198 223 255
198 223 255
198 223 255
198 223 255
198 223 255
198 223 255
198 223 255
198 223 255
198 223 255
198 223 255
198 223 255
198 223 255
198 223 255
198 223 255
199 223 255
199 223 255
199 223 255
199 223 255
199 223 255
199 223 255
199 223 255
199 223 255
199 223 255
199 223 255
199 223 255
199 223 255
199 223 255
199 223 255
199 223 255
199 223 255
199 223 255
199 223 255
199 223 255
199 224 255
199 224 255
199 224 255
200 224 255
200 224 255
200 224 255
200 224 255
200 224 255
200 224 255
200 224 255
200 224 255
200 224 255
200 224 255
200 224 255
200 224 255
200 224 255
200 224 255
200 224 255
200 224 255
200 224 255
201 224 255
201 224 255
201 224 255
201 224 255
201 224 255
201 224 255
201 224 255
201 224 255
201 224 255
201 224 255
201 224 255
201 225 255
201 225 255
201 225 255
201 225 255
202 225 255
202 225 255
202 225 255
202 225 255
202 225 255
202 225 255
202 225 255
202 225 255
202 225 255
202 225 255
202 225 255
202 225 255
202 225 255
202 225 255
202 225 255
202 225 255
203 225 255
203 225 255
203 225 255
203 225 255
203 225 255
203 225 255
203 225 255
203 225 255
203 226 255
203 226 255
203 226 255
203 226 255
203 226 255
203 226 255
203 226 255
204 226 255
204 226 255
204 226 255
204 226 255
204 226 255
204 226 255
204 226 255
204 226 255
204 226 255
204 226 255
204 226 255
204 226 255
204 226 255
204 226 255
204 226 255
204 226 255
205 226 255
205 226 255
205 226 255
205 226 255
205 226 255
205 226 255
205 227 255
205 227 255
205 227 255
205 227 255
205 227 255
205 227 255
205 227 255
205 227 255
205 227 255
205 227 255
206 227 255
206 227 255
206 227 255
206 227 255
206 227 255
206 227 255
206 227 255
206 227 255
206 227 255
206 227 255
206 227 255
206 227 255
206 227 255
206 227 255
206 227 255
206 227 255
206 227 255
206 227 255
207 227 255
207 227 255
207 227 255
207 227 255
207 227 255
207 228 255
207 228 255
207 228 255
207 228 255
207 228 255
207 228 255
207 228 255
207 228 255
207 228 255
207 228 255
207 228 255
207 228 255
207 228 255
207 228 255
207 228 255
208 228 255
208 228 255
208 228 255
208 228 255
208 228 255
208 228 255
208 228 255
208 228 255
208 228 255
208 228 255
208 228 255
208 228 255
208 228 255
208 228 255
208 228 255
208 228 255
208 228 255
208 228 255
208 228 255
208 228 255
208 228 255
208 228 255
208 228 255
208 228 255
208 228 255
208 228 255
208 228 255
208 228 255
208 228 255
207 228 255
207 228 255
207 228 255
207 228 255
207 228 255
207 228 255
207 228 255
207 228 255
207 228 255
207 228 255
207 228 255
207 228 255
207 228 255
207 228 255
207 228 255
207 227 255
207 227 255
207 227 255
207 227 255
207 227 255
206 227 255
206 227 255
206 227 255
206 227 255
206 227 255
206 227 255
206 227 255
206 227 255
206 227 255
206 227 255
206 227 255
206 227 255
206 227 255
206 227 255
206 227 255
206 227 255
206 227 255
206 227 255
205 227 255
205 227 255
205 227 255
205 227 255
205 227 255
205 227 255
205 227 255
205 227 255
205 227 255
205 227 255
205 226 255
205 226 255
205 226 255
205 226 255
205 226 255
205 226 255
204 226 255
204 226 255
204 226 255
204 226 255
204 226 255
204 226 255
204 226 255
204 226 255
204 226 255
204 226 255
204 226 255
204 226 255
204 226 255
204 226 255
204 226 255
204 226 255
203 226 255
203 226 255
203 226 255
203 226 255
203 226 255
203 226 255
203 226 255
203 225 255
203 225 255
203 225 255
203 225 255
203 225 255
203 225 255
203 225 255
203 225 255
202 225 255
202 225 255
202 225 255
202 225 255
202 225 255
202 225 255
202 225 255
202 225 255
202 225 255
202 225 255
202 225 255
202 225 255
202 225 255
202 225 255
202 225 255
201 225 255
201 225 255
201 225 255
201 225 255
201 225 255
201 224 255
201 224 255
201 224 255
201 224 255
201 224 255
201 224 255
201 224 255
201 224 255
201 224 255
201 224 255
201 224 255
200 224 255
200 224 255
200 224 255
200 224 255
200 224 255
200 224 255
200 224 255
200 224 255
200 224 255
200 224 255
200 224 255
200 224 255
200 224 255
200 224 255
200 224 255
200 224 255
200 224 255
200 224 255
199 224 255
199 224 255
199 224 255
199 223 255
199 223 255
199 223 255
199 223 255
199 223 255
199 223 255
199 223 255
199 223 255
199 223 255
199 223 255
199 223 255
199 223 255
199 223 255
199 223 255
199 223 255
199 223 255
199 223 255
199 223 255
199 223 255
199 223 255
198 223 255
198 223 255
198 223 255
198 223 255
198 223 255
198 223 255
198 223 255
198 223 255
198 223 255
198 223 255
198 223 255
198 223 255
198 223 255
198 223 255
198 223 255
198 223 255
198 223 255
198 223 255
198 223 255
198 223 255
198 223 255
198 223 255
198 223 255
198 223 255
198 223 255
198 223 255
198 223 255
198 223 255
198 223 255
198 223 255
198 223 255
198 223 255
198 223 255
198 223 255
198 223 255
198 223 255
198 223 255
198 223 255
198 223 255
198 223 255
198 223 255
198 223 255
198 223 255
198 223 255
198 223 255
198 223 255
198 223 255
198 223 255
198 223 255
198 223 255
198 223 255
198 223 255
198 223 255
198 223 255
199 223 255
199 223 255
199 223 255
199 223 255
199 223 255
199 223 255
199 223 255
199 223 255
199 223 255
199 223 255
199 223 255
199 223 255
199 223 255
199 223 255
199 223 255
199 223 255
199 223 255
199 223 255
199 223 255
199 223 255
199 224 255
199 224 255
199 224 255
200 224 255
200 224 255
200 224 255
200 224 255
200 224 255
200 224 255
200 224 255
200 224 255
200 224 255
200 224 255
200 224 255
200 224 255
200 224 255
200 224 255
200 224 255
200 224 255
200 224 255
200 224 255
201 224 255
201 224 255
201 224 255
201 224 255
201 224 255
201 224 255
201 224 255
201 224 255
201 224 255
201 224 255
201 224 255
201 225 255
201 225 255
201 225 255
201 225 255
201 225 255
202 225 255
202 225 255
202 225 255
202 225 255
202 225 255
202 225 255
202 225 255
202 225 255
202 225 255
202 225 255
202 225 255
202 225 255
202 225 255
202 225 255
202 225 255
203 225 255
203 225 255
203 225 255
203 225 255
203 225 255
203 225 255
203 225 255
203 225 255
203 226 255
203 226 255
203 226 255
203 226 255
203 226 255
203 226 255
203 226 255
204 226 255
204 226 255
204 226 255
204 226 255
204 226 255
204 226 255
204 226 255
204 226 255
204 226 255
204 226 255
204 226 255
204 226 255
204 226 255
204 226 255
204 226 255
204 226 255
205 226 255
205 226 255
205 226 255
205 226 255
205 226 255
205 226 255
205 226 255
205 227 255
205 227 255
205 227 255
205 227 255
205 227 255
205 227 255
205 227 255
205 227 255
205 227 255
205 227 255
206 227 255
206 227 255
206 227 255
206 227 255
206 227 255
206 227 255
206 227 255
206 227 255
206 227 255
206 227 255
206 227 255
206 227 255
206 227 255
206 227 255
206 227 255
206 227 255
206 227 255
207 227 255
207 227 255
207 227 255
207 227 255
207 227 255
207 228 255
207 228 255
207 228 255
207 228 255
207 228 255
207 228 255
207 228 255
207 228 255
207 228 255
207 228 255
207 228 255
207 228 255
207 228 255
207 228 255
207 228 255
208 228 255
208 228 255
208 228 255
208 228 255
208 228 255
208 228 255
208 228 255
208 228 255
208 228 255
208 228 255
208 228 255
208 228 255
208 228 255
208 228 255
208 228 255
208 228 255
208 228 255
208 228 255
208 228 255
208 228 255
208 228 255
208 228 255
208 228 255
208 228 255
208 228 255
208 228 255
208 228 255
208 228 255
208 228 255
208 228 255
208 228 255
208 228 255
208 228 255
208 228 255
208 228 255
207 228 255
207 228 255
207 228 255
207 228 255
207 228 255
207 228 255
207 228 255
207 228 255
207 228 255
207 228 255
207 228 255
207 228 255
207 228 255
207 228 255
207 228 255
207 227 255
207 227 255
207 227 255
207 227 255
207 227 255
206 227 255
206 227 255
206 227 255
206 227 255
206 227 255
206 227 255
206 227 255
206 227 255
206 227 255
206 227 255
206 227 255
206 227 255
206 227 255
206 227 255
206 227 255
206 227 255
206 227 255
205 227 255
205 227 255
205 227 255
205 227 255
205 227 255
205 227 255
205 227 255
205 227 255
205 227 255
205 227 255
205 226 255
205 226 255
205 226 255
205 226 255
205 226 255
205 226 255
205 226 255
204 226 255
204 226 255
204 226 255
204 226 255
204 226 255
204 226 255
204 226 255
204 226 255
204 226 255
204 226 255
204 226 255
204 226 255
204 226 255
204 226 255
204 226 255
204 226 255
203 226 255
203 226 255
203 226 255
203 226 255
203 226 255
203 226 255
203 226 255
203 225 255
203 225 255
203 225 255
203 225 255
203 225 255
203 225 255
203 225 255
203 225 255
202 225 255
202 225 255
202 225 255
202 225 255
202 225 255
202 225 255
202 225 255
202 225 255
202 225 255
202 225 255
202 225 255
202 225 255
202 225 255
202 225 255
202 225 255
201 225 255
201 225 255
201 225 255
201 225 255
201 225 255
201 224 255
201 224 255
201 224 255
201 224 255
201 224 255
201 224 255
201 224 255
201 224 255
201 224 255
201 224 255
201 224 255
200 224 255
200 224 255
200 224 255
200 224 255
200 224 255
200 224 255
200 224 255
200 224 255
200 224 255
200 224 255
200 224 255
200 224 255
200 224 255
200 224 255
200 224 255
200 224 255
200 224 255
200 224 255
199 224 255
199 224 255
199 224 255
199 224 255
199 223 255
199 223 255
199 223 255
199 223 255
199 223 255
199 223 255
199 223 255
199 223 255
199 223 255
199 223 255
199 223 255
199 223 255
199 223 255
199 223 255
199 223 255
199 223 255
199 223 255
199 223 255
199 223 255
199 223 255
199 223 255
199 223 255
199 223 255
198 223 255
198 223 255
198 223 255
198 223 255
198 223 255
198 223 255
198 223 255
198 223 255
198 223 255
198 223 255
198 223 255
198 223 255
198 223 255
198 223 255
198 223 255
198 223 255
198 223 255
198 223 255
198 223 255
198 223 255
198 223 255
198 223 255
198 223 255
198 223 255
198 223 255
198 223 255
198 223 255
198 223 255
198 223 255
198 223 255
198 223 255
198 223 255
198 223 255
198 223 255
198 223 255
198 223 255
198 223 255
198 223 255
198 223 255
198 223 255
199 223 255
199 223 255
199 223 255
199 223 255
199 223 255
199 223 255
199 223 255
199 223 255
199 223 255
199 223 255
199 223 255
199 223 255
199 223 255
199 223 255
199 223 255
199 223 255
199 223 255
199 223 255
199 223 255
199 223 255
199 223 255
199 223 255
199 223 255
199 224 255
199 224 255
199 224 255
200 224 255
200 224 255
200 224 255
200 224 255
200 224 255
200 224 255
200 224 255
200 224 255
200 224 255
200 224 255
200 224 255
200 224 255
200 224 255
200 224 255
200 224 255
200 224 255
200 224 255
200 224 255
200 224 255
201 224 255
201 224 255
201 224 255
201 224 255
201 224 255
201 224 255
201 224 255
201 224 255
201 224 255
201 224 255
201 224 255
201 225 255
201 225 255
201 225 255
201 225 255
201 225 255
202 225 255
202 225 255
202 225 255
202 225 255
202 225 255
202 225 255
202 225 255
202 225 255
202 225 255
202 225 255
202 225 255
202 225 255
202 225 255
202 225 255
202 225 255
203 225 255
203 225 255
203 225 255
203 225 255
203 225 255
203 225 255
203 225 255
203 225 255
203 225 255
203 226 255
203 226 255
203 226 255
203 226 255
203 226 255
203 226 255
204 226 255
204 226 255
204 226 255
204 226 255
204 226 255
204 226 255
204 226 255
204 226 255
204 226 255
204 226 255
204 226 255
204 226 255
204 226 255
204 226 255
204 226 255
204 226 255
205 226 255
205 226 255
205 226 255
205 226 255
205 226 255
205 226 255
205 226 255
205 227 255
205 227 255
205 227 255
205 227 255
205 227 255
205 227 255
205 227 255
205 227 255
205 227 255
205 227 255
206 227 255
206 227 255
206 227 255
206 227 255
206 227 255
206 227 255
206 227 255
206 227 255
206 227 255
206 227 255
206 227 255
206 227 255
206 227 255
206 227 255
206 227 255
206 227 255
206 227 255
207 227 255
207 227 255
207 227 255
207 227 255
207 227 255
207 228 255
207 228 255
207 228 255
207 228 255
207 228 255
207 228 255
207 228 255
207 228 255
207 228 255
207 228 255
207 228 255
207 228 255
207 228 255
207 228 255
207 228 255
208 228 255
208 228 255
208 228 255
208 228 255
208 228 255
208 228 255
208 228 255
208 228 255
208 228 255
208 228 255
208 228 255
208 228 255
208 228 255
208 228 255
208 228 255
208 228 255
208 228 255
208 228 255
208 228 255
209 228 255
208 228 255
208 228 255
208 228 255
208 228 255
208 228 255
208 228 255
208 228 255
208 228 255
208 228 255
208 228 255
208 228 255
208 228 255
208 228 255
208 228 255
208 228 255
208 228 255
208 228 255
208 228 255
208 228 255
208 228 255
208 228 255
207 228 255
207 228 255
207 228 255
207 228 255
207 228 255
207 228 255
207 228 255
207 228 255
207 228 255
207 228 255
207 228 255
207 228 255
207 228 255
207 228 255
207 228 255
207 227 255
207 227 255
207 227 255
207 227 255
206 227 255
206 227 255
206 227 255
206 227 255
206 227 255
206 227 255
206 227 255
206 227 255
206 227 255
206 227 255
206 227 255
206 227 255
206 227 255
206 227 255
206 227 255
206 227 255
206 227 255
206 227 255
205 227 255
205 227 255
205 227 255
205 227 255
205 227 255
205 227 255
205 227 255
205 227 255
205 227 255
205 227 255
205 226 255
205 226 255
205 226 255
205 226 255
205 226 255
205 226 255
205 226 255
204 226 255
204 226 255
204 226 255
204 226 255
204 226 255
204 226 255
204 226 255
204 226 255
204 226 255
204 226 255
204 226 255
204 226 255
204 226 255
204 226 255
204 226 255
204 226 255
203 226 255
203 226 255
203 226 255
203 226 255
203 226 255
203 226 255
203 225 255
203 225 255
203 225 255
203 225 255
203 225 255
203 225 255
203 225 255
203 225 255
203 225 255
202 225 255
202 225 255
202 225 255
202 225 255
202 225 255
202 225 255
202 225 255
202 225 255
202 225 255
202 225 255
202 225 255
202 225 255
202 225 255
202 225 255
202 225 255
201 225 255
201 225 255
201 225 255
201 225 255
201 225 255
201 224 255
201 224 255
201 224 255
201 224 255
201 224 255
201 224 255
201 224 255
201 224 255
201 224 255
201 224 255
201 224 255
200 224 255
200 224 255
200 224 255
200 224 255
200 224 255
200 224 255
200 224 255
200 224 255
200 224 255
200 224 255
200 224 255
200 224 255
200 224 255
200 224 255
200 224 255
200 224 255
200 224 255
200 224 255
200 224 255
199 224 255
199 224 255
199 224 255
199 224 255
199 223 255
199 223 255
199 223 255
199 223 255
199 223 255
199 223 255
199 223 255
199 223 255
199 223 255
199 223 255
199 223 255
199 223 255
199 223 255
199 223 255
199 223 255
199 223 255
199 223 255
199 223 255
199 223 255
199 223 255
199 223 255
199 223 255
199 223 255
199 223 255
199 223 255
199 223 255
199 223 255
199 223 255
199 223 255
198 223 255
199 223 255
198 223 255
198 223 255
198 223 255
198 223 255
198 223 255
198 223 255
198 223 255
198 223 255
198 223 255
198 223 255
198 223 255
198 223 255
198 223 255
198 223 255
198 223 255
198 223 255
198 223 255
199 223 255
199 223 255
199 223 255
199 223 255
199 223 255
199 223 255
199 223 255
199 223 255
199 223 255
199 223 255
199 223 255
199 223 255
199 223 255
199 223 255
199 223 255
199 223 255
199 223 255
199 223 255
199 223 255
199 223 255
199 223 255
199 223 255
199 223 255
199 223 255
199 223 255
199 223 255
199 223 255
199 223 255
199 223 255
199 223 255
199 224 255
199 224 255
199 224 255
199 224 255
200 224 255
200 224 255
200 224 255
200 224 255
200 224 255
200 224 255
200 224 255
200 224 255
200 224 255
200 224 255
200 224 255
200 224 255
200 224 255
200 224 255
200 224 255
200 224 255
200 224 255
200 224 255
201 224 255
201 224 255
201 224 255
201 224 255
201 224 255
201 224 255
201 224 255
201 224 255
201 224 255
201 224 255
201 224 255
201 224 255
201 225 255
201 225 255
201 225 255
201 225 255
201 225 255
202 225 255
202 225 255
202 225 255
202 225 255
202 225 255
202 225 255
202 225 255
202 225 255
202 225 255
202 225 255
202 225 255
202 225 255
202 225 255
202 225 255
202 225 255
203 225 255
203 225 255
203 225 255
203 225 255
203 225 255
203 225 255
203 225 255
203 225 255
203 225 255
203 226 255
203 226 255
203 226 255
203 226 255
203 226 255
203 226 255
203 226 255
204 226 255
204 226 255
204 226 255
204 226 255
204 226 255
204 226 255
204 226 255
204 226 255
204 226 255
204 226 255
204 226 255
204 226 255
204 226 255
204 226 255
204 226 255
205 226 255
205 226 255
205 226 255
205 226 255
205 226 255
205 226 255
205 226 255
205 227 255
205 227 255
205 227 255
205 227 255
205 227 255
205 227 255
205 227 255
205 227 255
205 227 255
205 227 255
206 227 255
206 227 255
206 227 255
206 227 255
206 227 255
206 227 255
206 227 255
206 227 255
206 227 255
206 227 255
206 227 255
206 227 255
206 227 255
206 227 255
206 227 255
206 227 255
206 227 255
207 227 255
207 227 255
207 227 255
207 227 255
207 227 255
207 228 255
207 228 255
207 228 255
207 228 255
207 228 255
207 228 255
207 228 255
207 228 255
207 228 255
207 228 255
207 228 255
207 228 255
207 228 255
207 228 255
207 228 255
208 228 255
208 228 255
208 228 255
208 228 255
208 228 255
208 228 255
208 228 255
208 228 255
208 228 255
208 228 255
208 228 255
208 228 255
208 228 255
208 228 255
208 228 255
208 228 255
208 228 255
208 228 255
208 228 255
208 228 255
208 228 255
209 228 255
209 229 255
209 229 255
209 229 255
209 228 255
208 228 255
208 228 255
208 228 255
208 228 255
208 228 255
208 228 255
208 228 255
208 228 255
208 228 255
208 228 255
208 228 255
208 228 255
208 228 255
208 228 255
208 228 255
208 228 255
208 228 255
208 228 255
208 228 255
208 228 255
208 228 255
207 228 255
207 228 255
207 228 255
207 228 255
207 228 255
207 228 255
207 228 255
207 228 255
207 228 255
207 228 255
207 228 255
207 228 255
207 228 255
207 228 255
207 228 255
207 227 255
207 227 255
207 227 255
207 227 255
206 227 255
206 227 255
206 227 255
206 227 255
206 227 255
206 227 255
206 227 255
206 227 255
206 227 255
206 227 255
206 227 255
206 227 255
206 227 255
206 227 255
206 227 255
206 227 255
206 227 255
206 227 255
205 227 255
205 227 255
205 227 255
205 227 255
205 227 255
205 227 255
205 227 255
205 227 255
205 227 255
205 227 255
205 226 255
205 226 255
205 226 255
205 226 255
205 226 255
205 226 255
204 226 255
204 226 255
204 226 255
204 226 255
204 226 255
204 226 255
204 226 255
204 226 255
204 226 255
204 226 255
204 226 255
204 226 255
204 226 255
204 226 255
204 226 255
204 226 255
203 226 255
203 226 255
203 226 255
203 226 255
203 226 255
203 226 255
203 226 255
203 225 255
203 225 255
203 225 255
203 225 255
203 225 255
203 225 255
203 225 255
203 225 255
203 225 255
202 225 255
202 225 255
202 225 255
202 225 255
202 225 255
202 225 255
202 225 255
202 225 255
202 225 255
202 225 255
202 225 255
202 225 255
202 225 255
202 225 255
202 225 255
201 225 255
201 225 255
201 225 255
201 225 255
201 225 255
201 224 255
201 224 255
201 224 255
201 224 255
201 224 255
201 224 255
201 224 255
201 224 255
201 224 255
201 224 255
201 224 255
201 224 255
200 224 255
200 224 255
200 224 255
200 224 255
200 224 255
200 224 255
200 224 255
200 224 255
200 224 255
200 224 255
200 224 255
200 224 255
200 224 255
200 224 255
200 224 255
200 224 255
200 224 255
200 224 255
200 224 255
200 224 255
199 224 255
199 224 255
199 224 255
199 224 255
199 223 255
199 223 255
199 223 255
199 223 255
199 223 255
199 223 255
199 223 255
199 223 255
199 223 255
199 223 255
199 223 255
199 223 255
199 223 255
199 223 255
199 223 255
199 223 255
199 223 255
199 223 255
199 223 255
199 223 255
199 223 255
199 223 255
199 223 255
199 223 255
199 223 255
199 223 255
199 223 255
199 223 255
199 223 255
199 223 255
199 223 255
199 223 255
199 223 255
199 223 255
199 223 255
199 223 255
199 223 255
199 223 255
199 223 255
199 223 255
199 223 255
199 223 255
199 223 255
199 223 255
199 223 255
199 223 255
199 223 255
199 223 255
199 223 255
199 223 255
199 223 255
199 223 255
199 223 255
199 223 255
199 223 255
199 223 255
199 223 255
199 223 255
199 223 255
199 223 255
199 223 255
199 223 255
199 223 255
199 223 255
199 223 255
199 223 255
199 223 255
199 223 255
199 224 255
199 224 255
199 224 255
199 224 255
200 224 255
200 224 255
200 224 255
200 224 255
200 224 255
200 224 255
200 224 255
200 224 255
200 224 255
200 224 255
200 224 255
200 224 255
200 224 255
200 224 255
200 224 255
200 224 255
200 224 255
200 224 255
200 224 255
200 224 255
201 224 255
201 224 255
201 224 255
201 224 255
201 224 255
201 224 255
201 224 255
201 224 255
201 224 255
201 224 255
201 224 255
201 224 255
201 225 255
201 225 255
201 225 255
201 225 255
201 225 255
202 225 255
202 225 255
202 225 255
202 225 255
202 225 255
202 225 255
202 225 255
202 225 255
202 225 255
202 225 255
202 225 255
202 225 255
202 225 255
202 225 255
202 225 255
203 225 255
203 225 255
203 225 255
203 225 255
203 225 255
203 225 255
203 225 255
203 225 255
203 225 255
203 226 255
203 226 255
203 226 255
203 226 255
203 226 255
203 226 255
203 226 255
204 226 255
204 226 255
204 226 255
204 226 255
204 226 255
204 226 255
204 226 255
204 226 255
204 226 255
204 226 255
204 226 255
204 226 255
204 226 255
204 226 255
204 226 255
204 226 255
205 226 255
205 226 255
205 226 255
205 226 255
205 226 255
205 226 255
205 227 255
205 227 255
205 227 255
205 227 255
205 227 255
205 227 255
205 227 255
205 227 255
205 227 255
205 227 255
206 227 255
206 227 255
206 227 255
206 227 255
206 227 255
206 227 255
206 227 255
206 227 255
206 227 255
206 227 255
206 227 255
206 227 255
206 227 255
206 227 255
206 227 255
206 227 255
206 227 255
206 227 255
207 227 255
207 227 255
207 227 255
207 227 255
207 228 255
207 228 255
207 228 255
207 228 255
207 228 255
207 228 255
207 228 255
207 228 255
207 228 255
207 228 255
207 228 255
207 228 255
207 228 255
207 228 255
207 228 255
208 228 255
208 228 255
208 228 255
208 228 255
208 228 255
208 228 255
208 228 255
208 228 255
208 228 255
208 228 255
208 228 255
208 228 255
208 228 255
208 228 255
208 228 255
208 228 255
208 228 255
208 228 255
208 228 255
208 228 255
208 228 255
209 228 255
209 229 255
209 229 255
209 229 255
209 229 255
209 229 255
209 229 255
209 229 255
209 229 255
209 229 255
209 228 255
208 228 255
208 228 255
208 228 255
208 228 255
208 228 255
208 228 255
208 228 255
208 228 255
208 228 255
208 228 255
208 228 255
208 228 255
208 228 255
208 228 255
208 228 255
208 228 255
208 228 255
208 228 255
208 228 255
208 228 255
208 228 255
208 228 255
207 228 255
207 228 255
207 228 255
207 228 255
207 228 255
207 228 255
207 228 255
207 228 255
207 228 255
207 228 255
207 228 255
207 228 255
207 228 255
207 228 255
207 227 255
207 227 255
207 227 255
207 227 255
207 227 255
206 227 255
206 227 255
206 227 255
206 227 255
206 227 255
206 227 255
206 227 255
206 227 255
206 227 255
206 227 255
206 227 255
206 227 255
206 227 255
206 227 255
206 227 255
206 227 255
206 227 255
205 227 255
205 227 255
205 227 255
205 227 255
205 227 255
205 227 255
205 227 255
205 227 255
205 227 255
205 227 255
205 226 255
205 226 255
205 226 255
205 226 255
205 226 255
205 226 255
204 226 255
204 226 255
204 226 255
204 226 255
204 226 255
204 226 255
204 226 255
204 226 255
204 226 255
204 226 255
204 226 255
204 226 255
204 226 255
204 226 255
204 226 255
204 226 255
203 226 255
203 226 255
203 226 255
203 226 255
203 226 255
203 226 255
203 226 255
203 225 255
203 225 255
203 225 255
203 225 255
203 225 255
203 225 255
203 225 255
203 225 255
203 225 255
202 225 255
202 225 255
202 225 255
202 225 255
202 225 255
202 225 255
202 225 255
202 225 255
202 225 255
202 225 255
202 225 255
202 225 255
202 225 255
202 225 255
202 225 255
201 225 255
201 225 255
201 225 255
201 225 255
201 225 255
201 224 255
201 224 255
201 224 255
201 224 255
201 224 255
201 224 255
201 224 255
201 224 255
201 224 255
201 224 255
201 224 255
201 224 255
200 224 255
200 224 255
200 224 255
200 224 255
200 224 255
200 224 255
200 224 255
200 224 255
200 224 255
200 224 255
200 224 255
200 224 255
200 224 255
200 224 255
200 224 255
200 224 255
200 224 255
200 224 255
200 224 255
200 224 255
200 224 255
199 224 255
199 224 255
199 224 255
199 224 255
199 224 255
199 223 255
199 223 255
199 223 255
199 223 255
199 223 255
199 223 255
199 223 255
199 223 255
199 223 255
199 223 255
199 223 255
199 223 255
199 223 255
199 223 255
199 223 255
199 223 255
199 223 255
199 223 255
199 223 255
199 223 255
199 223 255
199 223 255
199 223 255
199 223 255
199 223 255
199 223 255
199 223 255
199 223 255
199 223 255
199 223 255
199 223 255
199 223 255
199 223 255
199 223 255
199 223 255
199 223 255
199 223 255
199 223 255
199 223 255
199 223 255
199 223 255
199 223 255
199 223 255
199 223 255
199 223 255
199 223 255
199 223 255
199 223 255
199 223 255
199 223 255
199 223 255
199 223 255
199 223 255
199 223 255
199 223 255
199 223 255
199 223 255
199 223 255
199 224 255
199 224 255
199 224 255
199 224 255
200 224 255
200 224 255
200 224 255
200 224 255
200 224 255
200 224 255
200 224 255
200 224 255
200 224 255
200 224 255
200 224 255
200 224 255
200 224 255
200 224 255
200 224 255
200 224 255
200 224 255
200 224 255
200 224 255
200 224 255
200 224 255
200 224 255
201 224 255
201 224 255
201 224 255
201 224 255
201 224 255
201 224 255
201 224 255
201 224 255
201 224 255
201 224 255
201 224 255
201 224 255
201 225 255
201 225 255
201 225 255
201 225 255
201 225 255
202 225 255
202 225 255
202 225 255
202 225 255
202 225 255
202 225 255
202 225 255
202 225 255
202 225 255
202 225 255
202 225 255
202 225 255
202 225 255
202 225 255
202 225 255
202 225 255
203 225 255
203 225 255
203 225 255
203 225 255
203 225 255
203 225 255
203 225 255
203 225 255
203 226 255
203 226 255
203 226 255
203 226 255
203 226 255
203 226 255
203 226 255
204 226 255
204 226 255
204 226 255
204 226 255
204 226 255
204 226 255
204 226 255
204 226 255
204 226 255
204 226 255
204 226 255
204 226 255
204 226 255
204 226 255
204 226 255
204 226 255
205 226 255
205 226 255
205 226 255
205 226 255
205 226 255
205 226 255
205 227 255
205 227 255
205 227 255
205 227 255
205 227 255
205 227 255
205 227 255
205 227 255
205 227 255
205 227 255
206 227 255
206 227 255
206 227 255
206 227 255
206 227 255
206 227 255
206 227 255
206 227 255
206 227 255
206 227 255
206 227 255
206 227 255
206 227 255
206 227 255
206 227 255
206 227 255
206 227 255
206 227 255
207 227 255
207 227 255
207 227 255
207 227 255
207 228 255
207 228 255
207 228 255
207 228 255
207 228 255
207 228 255
207 228 255
207 228 255
207 228 255
207 228 255
207 228 255
207 228 255
207 228 255
207 228 255
208 228 255
208 228 255
208 228 255
208 228 255
208 228 255
208 228 255
208 228 255
208 228 255
208 228 255
208 228 255
208 228 255
208 228 255
208 228 255
208 228 255
208 228 255
208 228 255
208 228 255
208 228 255
208 228 255
208 228 255
208 228 255
208 228 255
209 228 255
209 229 255
209 229 255
209 229 255
209 229 255
209 229 255
209 229 255
209 229 255
209 229 255
209 229 255
209 229 255
209 229 255
209 229 255
209 229 255
209 229 255
209 229 255
209 228 255
209 228 255
208 228 255
208 228 255
208 228 255
208 228 255
208 228 255
208 228 255
208 228 255
208 228 255
208 228 255
208 228 255
208 228 255
208 228 255
208 228 255
208 228 255
208 228 255
208 228 255
208 228 255
208 228 255
208 228 255
208 228 255
208 228 255
207 228 255
207 228 255
207 228 255
207 228 255
207 228 255
207 228 255
207 228 255
207 228 255
207 228 255
207 228 255
207 228 255
207 228 255
207 228 255
207 228 255
207 227 255
207 227 255
207 227 255
207 227 255
206 227 255
206 227 255
206 227 255
206 227 255
206 227 255
206 227 255
206 227 255
206 227 255
206 227 255
206 227 255
206 227 255
206 227 255
206 227 255
206 227 255
206 227 255
206 227 255
206 227 255
206 227 255
205 227 255
205 227 255
205 227 255
205 227 255
205 227 255
205 227 255
205 227 255
205 227 255
205 227 255
205 227 255
205 226 255
205 226 255
205 226 255
205 226 255
205 226 255
205 226 255
204 226 255
204 226 255
204 226 255
204 226 255
204 226 255
204 226 255
204 226 255
204 226 255
204 226 255
204 226 255
204 226 255
204 226 255
204 226 255
204 226 255
204 226 255
204 226 255
203 226 255
203 226 255
203 226 255
203 226 255
203 226 255
203 226 255
203 226 255
203 225 255
203 225 255
203 225 255
203 225 255
203 225 255
203 225 255
203 225 255
203 225 255
202 225 255
202 225 255
202 225 255
202 225 255
202 225 255
202 225 255
202 225 255
202 225 255
202 225 255
202 225 255
202 225 255
202 225 255
202 225 255
202 225 255
202 225 255
202 225 255
201 225 255
201 225 255
201 225 255
201 225 255
201 225 255
201 225 255
201 224 255
201 224 255
201 224 255
201 224 255
201 224 255
201 224 255
201 224 255
201 224 255
201 224 255
201 224 255
201 224 255
201 224 255
200 224 255
200 224 255
200 224 255
200 224 255
200 224 255
200 224 255
200 224 255
200 224 255
200 224 255
200 224 255
200 224 255
200 224 255
200 224 255
200 224 255
200 224 255
200 224 255
200 224 255
200 224 255
200 224 255
200 224 255
200 224 255
200 224 255
200 224 255
200 224 255
199 224 255
199 224 255
199 224 255
199 224 255
199 224 255
199 223 255
199 223 255
199 223 255
199 223 255
199 223 255
199 223 255
199 223 255
199 223 255
199 223 255
199 223 255
199 223 255
199 223 255
199 223 255
199 223 255
199 223 255
199 223 255
199 223 255
199 223 255
199 223 255
199 223 255
199 223 255
199 223 255
199 223 255
199 223 255
199 223 255
199 223 255
199 223 255
199 223 255
199 223 255
199 223 255
199 223 255
199 223 255
199 223 255
199 223 255
199 223 255
199 223 255
199 223 255
199 223 255
199 223 255
199 223 255
199 223 255
199 223 255
199 223 255
199 223 255
199 224 255
199 224 255
199 224 255
199 224 255
199 224 255
199 224 255
200 224 255
200 224 255
200 224 255
200 224 255
200 224 255
200 224 255
200 224 255
200 224 255
200 224 255
200 224 255
200 224 255
200 224 255
200 224 255
200 224 255
200 224 255
200 224 255
200 224 255
200 224 255
200 224 255
200 224 255
200 224 255
200 224 255
200 224 255
201 224 255
201 224 255
201 224 255
201 224 255
201 224 255
201 224 255
201 224 255
201 224 255
201 224 255
201 224 255
201 224 255
201 224 255
201 224 255
201 225 255
201 225 255
201 225 255
201 225 255
202 225 255
202 225 255
202 225 255
202 225 255
202 225 255
202 225 255
202 225 255
202 225 255
202 225 255
202 225 255
202 225 255
202 225 255
202 225 255
202 225 255
202 225 255
202 225 255
202 225 255
203 225 255
203 225 255
203 225 255
203 225 255
203 225 255
203 225 255
203 225 255
203 225 255
203 226 255
203 226 255
203 226 255
203 226 255
203 226 255
203 226 255
203 226 255
204 226 255
204 226 255
204 226 255
204 226 255
204 226 255
204 226 255
204 226 255
204 226 255
204 226 255
204 226 255
204 226 255
204 226 255
204 226 255
204 226 255
204 226 255
204 226 255
205 226 255
205 226 255
205 226 255
205 226 255
205 226 255
205 226 255
205 227 255
205 227 255
205 227 255
205 227 255
205 227 255
205 227 255
205 227 255
205 227 255
205 227 255
205 227 255
206 227 255
206 227 255
206 227 255
206 227 255
206 227 255
206 227 255
206 227 255
206 227 255
206 227 255
206 227 255
206 227 255
206 227 255
206 227 255
206 227 255
206 227 255
206 227 255
206 227 255
206 227 255
207 227 255
207 227 255
207 227 255
207 227 255
207 228 255
207 228 255
207 228 255
207 228 255
207 228 255
207 228 255
207 228 255
207 228 255
207 228 255
207 228 255
207 228 255
207 228 255
207 228 255
207 228 255
208 228 255
208 228 255
208 228 255
208 228 255
208 228 255
208 228 255
208 228 255
208 228 255
208 228 255
208 228 255
208 228 255
208 228 255
208 228 255
208 228 255
208 228 255
208 228 255
208 228 255
208 228 255
208 228 255
208 228 255
208 228 255
209 228 255
209 228 255
209 229 255
209 229 255
209 229 255
209 229 255
209 229 255
209 229 255
209 229 255
209 229 255
209 229 255
209 229 255
209 229 255
209 229 255
209 229 255
209 229 255
209 229 255
209 229 255
209 229 255
209 229 255
209 229 255
209 229 255
209 229 255
209 228 255
209 228 255
208 228 255
208 228 255
208 228 255
208 228 255
208 228 255
208 228 255
208 228 255
208 228 255
208 228 255
208 228 255
208 228 255
208 228 255
208 228 255
208 228 255
208 228 255
208 228 255
208 228 255
208 228 255
208 228 255
208 228 255
208 228 255
207 228 255
207 228 255
207 228 255
207 228 255
207 228 255
207 228 255
207 228 255
207 228 255
207 228 255
207 228 255
207 228 255
207 228 255
207 228 255
207 228 255
207 227 255
207 227 255
207 227 255
207 227 255
207 227 255
206 227 255
206 227 255
206 227 255
206 227 255
206 227 255
206 227 255
206 227 255
206 227 255
206 227 255
206 227 255
206 227 255
206 227 255
206 227 255
206 227 255
206 227 255
206 227 255
206 227 255
205 227 255
205 227 255
205 227 255
205 227 255
205 227 255
205 227 255
205 227 255
205 227 255
205 227 255
205 227 255
205 226 255
205 226 255
205 226 255
205 226 255
205 226 255
205 226 255
204 226 255
204 226 255
204 226 255
204 226 255
204 226 255
204 226 255
204 226 255
204 226 255
204 226 255
204 226 255
204 226 255
204 226 255
204 226 255
204 226 255
204 226 255
204 226 255
203 226 255
203 226 255
203 226 255
203 226 255
203 226 255
203 226 255
203 226 255
203 225 255
203 225 255
203 225 255
203 225 255
203 225 255
203 225 255
203 225 255
203 225 255
202 225 255
202 225 255
202 225 255
202 225 255
202 225 255
202 225 255
202 225 255
202 225 255
202 225 255
202 225 255
202 225 255
202 225 255
202 225 255
202 225 255
202 225 255
202 225 255
202 225 255
201 225 255
201 225 255
201 225 255
201 225 255
201 225 255
201 224 255
201 224 255
201 224 255
201 224 255
201 224 255
201 224 255
201 224 255
201 224 255
201 224 255
201 224 255
201 224 255
201 224 255
201 224 255
200 224 255
200 224 255
200 224 255
200 224 255
200 224 255
200 224 255
200 224 255
200 224 255
200 224 255
200 224 255
200 224 255
200 224 255
200 224 255
200 224 255
200 224 255
200 224 255
200 224 255
200 224 255
200 224 255
200 224 255
200 224 255
200 224 255
200 224 255
200 224 255
200 224 255
200 224 255
200 224 255
199 224 255
199 224 255
199 224 255
199 224 255
199 224 255
199 224 255
199 224 255
199 224 255
199 223 255
199 223 255
199 223 255
199 223 255
199 223 255
199 223 255
199 223 255
199 223 255
199 223 255
199 223 255
199 223 255
199 223 255
199 223 255
199 223 255
199 223 255
199 223 255
199 223 255
199 223 255
199 223 255
199 223 255
199 223 255
199 223 255
199 223 255
199 223 255
199 224 255
199 224 255
199 224 255
199 224 255
199 224 255
199 224 255
199 224 255
199 224 255
200 224 255
200 224 255
200 224 255
200 224 255
200 224 255
200 224 255
200 224 255
200 224 255
200 224 255
200 224 255
200 224 255
200 224 255
200 224 255
200 224 255
200 224 255
200 224 255
200 224 255
200 224 255
200 224 255
200 224 255
200 224 255
200 224 255
200 224 255
200 224 255
200 224 255
200 224 255
200 224 255
201 224 255
201 224 255
201 224 255
201 224 255
201 224 255
201 224 255
201 224 255
201 224 255
201 224 255
201 224 255
201 224 255
201 224 255
201 224 255
201 225 255
201 225 255
201 225 255
201 225 255
201 225 255
202 225 255
202 225 255
202 225 255
202 225 255
202 225 255
202 225 255
202 225 255
202 225 255
202 225 255
202 225 255
202 225 255
202 225 255
202 225 255
202 225 255
202 225 255
202 225 255
203 225 255
203 225 255
203 225 255
203 225 255
203 225 255
203 225 255
203 225 255
203 225 255
203 225 255
203 226 255
203 226 255
203 226 255
203 226 255
203 226 255
203 226 255
203 226 255
204 226 255
204 226 255
204 226 255
204 226 255
204 226 255
204 226 255
204 226 255
204 226 255
204 226 255
204 226 255
204 226 255
204 226 255
204 226 255
204 226 255
204 226 255
204 226 255
205 226 255
205 226 255
205 226 255
205 226 255
205 226 255
205 226 255
205 227 255
205 227 255
205 227 255
205 227 255
205 227 255
205 227 255
205 227 255
205 227 255
205 227 255
205 227 255
206 227 255
206 227 255
206 227 255
206 227 255
206 227 255
206 227 255
206 227 255
206 227 255
206 227 255
206 227 255
206 227 255
206 227 255
206 227 255
206 227 255
206 227 255
206 227 255
206 227 255
206 227 255
207 227 255
207 227 255
207 227 255
207 227 255
207 228 255
207 228 255
207 228 255
207 228 255
207 228 255
207 228 255
207 228 255
207 228 255
207 228 255
207 228 255
207 228 255
207 228 255
207 228 255
207 228 255
208 228 255
208 228 255
208 228 255
208 228 255
208 228 255
208 228 255
208 228 255
208 228 255
208 228 255
208 228 255
208 228 255
208 228 255
208 228 255
208 228 255
208 228 255
208 228 255
208 228 255
208 228 255
208 228 255
208 228 255
208 228 255
209 228 255
209 228 255
209 229 255
209 229 255
209 229 255
209 229 255
209 229 255
209 229 255
209 229 255
209 229 255
209 229 255
209 229 255
209 229 255
209 229 255
209 229 255
209 229 255
209 229 255
209 229 255
209 229 255
209 229 255
209 229 255
209 229 255
209 229 255
209 229 255
209 229 255
209 229 255
209 229 255
209 229 255
209 229 255
209 229 255
209 228 255
208 228 255
208 228 255
208 228 255
208 228 255
208 228 255
208 228 255
208 228 255
208 228 255
208 228 255
208 228 255
208 228 255
208 228 255
208 228 255
208 228 255
208 228 255
208 228 255
208 228 255
208 228 255
208 228 255
208 228 255
208 228 255
207 228 255
207 228 255
207 228 255
207 228 255
207 228 255
207 228 255
207 228 255
207 228 255
207 228 255
207 228 255
207 228 255
207 228 255
207 228 255
207 228 255
207 227 255
207 227 255
207 227 255
207 227 255
206 227 255
206 227 255
206 227 255
206 227 255
206 227 255
206 227 255
206 227 255
206 227 255
206 227 255
206 227 255
206 227 255
206 227 255
206 227 255
206 227 255
206 227 255
206 227 255
206 227 255
206 227 255
205 227 255
205 227 255
205 227 255
205 227 255
205 227 255
205 227 255
205 227 255
205 227 255
205 227 255
205 226 255
205 226 255
205 226 255
205 226 255
205 226 255
205 226 255
205 226 255
204 226 255
204 226 255
204 226 255
204 226 255
204 226 255
204 226 255
204 226 255
204 226 255
204 226 255
204 226 255
204 226 255
204 226 255
204 226 255
204 226 255
204 226 255
204 226 255
203 226 255
203 226 255
203 226 255
203 226 255
203 226 255
203 226 255
203 226 255
203 225 255
203 225 255
203 225 255
203 225 255
203 225 255
203 225 255
203 225 255
203 225 255
203 225 255
202 225 255
202 225 255
202 225 255
202 225 255
202 225 255
202 225 255
202 225 255
202 225 255
202 225 255
202 225 255
202 225 255
202 225 255
202 225 255
202 225 255
202 225 255
202 225 255
201 225 255
201 225 255
201 225 255
201 225 255
201 225 255
201 224 255
201 224 255
201 224 255
201 224 255
201 224 255
201 224 255
201 224 255
201 224 255
201 224 255
201 224 255
201 224 255
201 224 255
201 224 255
201 224 255
200 224 255
200 224 255
200 224 255
200 224 255
200 224 255
200 224 255
200 224 255
200 224 255
200 224 255
200 224 255
200 224 255
200 224 255
200 224 255
200 224 255
200 224 255
200 224 255
200 224 255
200 224 255
200 224 255
200 224 255
200 224 255
200 224 255
200 224 255
200 224 255
200 224 255
200 224 255
200 224 255
200 224 255
200 224 255
200 224 255
200 224 255
200 224 255
200 224 255
200 224 255
199 224 255
199 224 255
199 224 255
199 224 255
199 224 255
199 224 255
199 224 255
199 224 255
199 224 255
199 224 255
199 224 255
199 224 255
199 224 255
199 224 255
199 224 255
199 224 255
199 224 255
199 224 255
200 224 255
200 224 255
200 224 255
200 224 255
200 224 255
200 224 255
200 224 255
200 224 255
200 224 255
200 224 255
200 224 255
200 224 255
200 224 255
200 224 255
200 224 255
200 224 255
200 224 255
200 224 255
200 224 255
200 224 255
200 224 255
200 224 255
200 224 255
200 224 255
200 224 255
200 224 255
200 224 255
200 224 255
200 224 255
200 224 255
200 224 255
200 224 255
200 224 255
200 224 255
201 224 255
201 224 255
201 224 255
201 224 255
201 224 255
201 224 255
201 224 255
201 224 255
201 224 255
201 224 255
201 224 255
201 224 255
201 224 255
201 224 255
201 225 255
201 225 255
201 225 255
201 225 255
201 225 255
202 225 255
202 225 255
202 225 255
202 225 255
202 225 255
202 225 255
202 225 255
202 225 255
202 225 255
202 225 255
202 225 255
202 225 255
202 225 255
202 225 255
202 225 255
202 225 255
203 225 255
203 225 255
203 225 255
203 225 255
203 225 255
203 225 255
203 225 255
203 225 255
203 225 255
203 226 255
203 226 255
203 226 255
203 226 255
203 226 255
203 226 255
203 226 255
204 226 255
204 226 255
204 226 255
204 226 255
204 226 255
204 226 255
204 226 255
204 226 255
204 226 255
204 226 255
204 226 255
204 226 255
204 226 255
204 226 255
204 226 255
204 226 255
205 226 255
205 226 255
205 226 255
205 226 255
205 226 255
205 226 255
205 227 255
205 227 255
205 227 255
205 227 255
205 227 255
205 227 255
205 227 255
205 227 255
205 227 255
205 227 255
206 227 255
206 227 255
206 227 255
206 227 255
206 227 255
206 227 255
206 227 255
206 227 255
206 227 255
206 227 255
206 227 255
206 227 255
206 227 255
206 227 255
206 227 255
206 227 255
206 227 255
206 227 255
207 227 255
207 227 255
207 227 255
207 227 255
207 228 255
207 228 255
207 228 255
207 228 255
207 228 255
207 228 255
207 228 255
207 228 255
207 228 255
207 228 255
207 228 255
207 228 255
207 228 255
207 228 255
208 228 255
208 228 255
208 228 255
208 228 255
208 228 255
208 228 255
208 228 255
208 228 255
208 228 255
208 228 255
208 228 255
208 228 255
208 228 255
208 228 255
208 228 255
208 228 255
208 228 255
208 228 255
208 228 255
208 228 255
208 228 255
209 228 255
209 229 255
209 229 255
209 229 255
209 229 255
209 229 255
209 229 255
209 229 255
209 229 255
209 229 255
209 229 255
209 229 255
209 229 255
209 229 255
209 229 255
209 229 255
209 229 255
209 229 255
209 229 255
209 229 255
209 229 255
209 229 255
209 229 255
209 229 255
209 229 255
209 229 255
209 229 255
209 229 255
209 229 255
209 229 255
209 229 255
209 229 255
209 229 255
209 229 255
209 229 255
209 229 255
209 228 255
209 228 255
208 228 255
208 228 255
208 228 255
208 228 255
208 228 255
208 228 255
208 228 255
208 228 255
208 228 255
208 228 255
208 228 255
208 228 255
208 228 255
208 228 255
208 228 255
208 228 255
208 228 255
208 228 255
208 228 255
208 228 255
207 228 255
207 228 255
207 228 255
207 228 255
207 228 255
207 228 255
207 228 255
207 228 255
207 228 255
207 228 255
207 228 255
207 228 255
207 228 255
207 228 255
207 227 255
207 227 255
207 227 255
207 227 255
207 227 255
206 227 255
206 227 255
206 227 255
206 227 255
206 227 255
206 227 255
206 227 255
206 227 255
206 227 255
206 227 255
206 227 255
206 227 255
206 227 255
206 227 255
206 227 255
206 227 255
206 227 255
205 227 255
205 227 255
205 227 255
205 227 255
205 227 255
205 227 255
205 227 255
205 227 255
205 227 255
205 226 255
205 226 255
205 226 255
205 226 255
205 226 255
205 226 255
205 226 255
204 226 255
204 226 255
204 226 255
204 226 255
204 226 255
204 226 255
204 226 255
204 226 255
204 226 255
204 226 255
204 226 255
204 226 255
204 226 255
204 226 255
204 226 255
204 226 255
203 226 255
203 226 255
203 226 255
203 226 255
203 226 255
203 226 255
203 226 255
203 225 255
203 225 255
203 225 255
203 225 255
203 225 255
203 225 255
203 225 255
203 225 255
203 225 255
202 225 255
202 225 255
202 225 255
202 225 255
202 225 255
202 225 255
202 225 255
202 225 255
202 225 255
202 225 255
202 225 255
202 225 255
202 225 255
202 225 255
202 225 255
202 225 255
202 225 255
201 225 255
201 225 255
201 225 255
201 225 255
201 225 255
201 224 255
201 224 255
201 224 255
201 224 255
201 224 255
201 224 255
201 224 255
201 224 255
201 224 255
201 224 255
201 224 255
201 224 255
201 224 255
201 224 255
201 224 255
200 224 255
200 224 255
200 224 255
200 224 255
200 224 255
200 224 255
200 224 255
200 224 255
200 224 255
200 224 255
200 224 255
200 224 255
200 224 255
200 224 255
200 224 255
200 224 255
200 224 255
200 224 255
200 224 255
200 224 255
200 224 255
200 224 255
200 224 255
200 224 255
200 224 255
200 224 255
200 224 255
200 224 255
200 224 255
200 224 255
200 224 255
200 224 255
200 224 255
200 224 255
200 224 255
200 224 255
200 224 255
200 224 255
200 224 255
200 224 255
200 224 255
200 224 255
200 224 255
200 224 255
200 224 255
200 224 255
200 224 255
200 224 255
200 224 255
200 224 255
200 224 255
200 224 255
200 224 255
200 224 255
200 224 255
200 224 255
200 224 255
200 224 255
200 224 255
200 224 255
200 224 255
200 224 255
200 224 255
200 224 255
200 224 255
200 224 255
200 224 255
200 224 255
200 224 255
200 224 255
200 224 255
200 224 255
200 224 255
200 224 255
200 224 255
200 224 255
201 224 255
201 224 255
201 224 255
201 224 255
201 224 255
201 224 255
201 224 255
201 224 255
201 224 255
201 224 255
201 224 255
201 224 255
201 224 255
201 224 255
201 224 255
201 225 255
201 225 255
201 225 255
201 225 255
201 225 255
202 225 255
202 225 255
202 225 255
202 225 255
202 225 255
202 225 255
202 225 255
202 225 255
202 225 255
202 225 255
202 225 255
202 225 255
202 225 255
202 225 255
202 225 255
202 225 255
202 225 255
203 225 255
203 225 255
203 225 255
203 225 255
203 225 255
203 225 255
203 225 255
203 225 255
203 225 255
203 226 255
203 226 255
203 226 255
203 226 255
203 226 255
203 226 255
203 226 255
204 226 255
204 226 255
204 226 255
204 226 255
204 226 255
204 226 255
204 226 255
204 226 255
204 226 255
204 226 255
204 226 255
204 226 255
204 226 255
204 226 255
204 226 255
204 226 255
205 226 255
205 226 255
205 226 255
205 226 255
205 226 255
205 226 255
205 227 255
205 227 255
205 227 255
205 227 255
205 227 255
205 227 255
205 227 255
205 227 255
205 227 255
205 227 255
206 227 255
206 227 255
206 227 255
206 227 255
206 227 255
206 227 255
206 227 255
206 227 255
206 227 255
206 227 255
206 227 255
206 227 255
206 227 255
206 227 255
206 227 255
206 227 255
206 227 255
207 227 255
207 227 255
207 227 255
207 227 255
207 227 255
207 228 255
207 228 255
207 228 255
207 228 255
207 228 255
207 228 255
207 228 255
207 228 255
207 228 255
207 228 255
207 228 255
207 228 255
207 228 255
207 228 255
208 228 255
208 228 255
208 228 255
208 228 255
208 228 255
208 228 255
208 228 255
208 228 255
208 228 255
208 228 255
208 228 255
208 228 255
208 228 255
208 228 255
208 228 255
208 228 255
208 228 255
208 228 255
208 228 255
208 228 255
209 228 255
209 228 255
209 229 255
209 229 255
209 229 255
209 229 255
209 229 255
209 229 255
209 229 255
209 229 255
209 229 255
209 229 255
209 229 255
209 229 255
209 229 255
209 229 255
209 229 255
209 229 255
209 229 255
209 229 255
209 229 255
210 229 255
209 229 255
209 229 255
209 229 255
209 229 255
209 229 255
209 229 255
209 229 255
209 229 255
209 229 255
209 229 255
209 229 255
209 229 255
209 229 255
209 229 255
209 229 255
209 229 255
209 229 255
209 229 255
209 229 255
209 229 255
209 229 255
209 228 255
209 228 255
208 228 255
208 228 255
208 228 255
208 228 255
208 228 255
208 228 255
208 228 255
208 228 255
208 228 255
208 228 255
208 228 255
208 228 255
208 228 255
208 228 255
208 228 255
208 228 255
208 228 255
208 228 255
208 228 255
208 228 255
207 228 255
207 228 255
207 228 255
207 228 255
207 228 255
207 228 255
207 228 255
207 228 255
207 228 255
207 228 255
207 228 255
207 228 255
207 228 255
207 228 255
207 227 255
207 227 255
207 227 255
207 227 255
207 227 255
206 227 255
206 227 255
206 227 255
206 227 255
206 227 255
206 227 255
206 227 255
206 227 255
206 227 255
206 227 255
206 227 255
206 227 255
206 227 255
206 227 255
206 227 255
206 227 255
206 227 255
205 227 255
205 227 255
205 227 255
205 227 255
205 227 255
205 227 255
205 227 255
205 227 255
205 227 255
205 227 255
205 226 255
205 226 255
205 226 255
205 226 255
205 226 255
205 226 255
204 226 255
204 226 255
204 226 255
204 226 255
204 226 255
204 226 255
204 226 255
204 226 255
204 226 255
204 226 255
204 226 255
204 226 255
204 226 255
204 226 255
204 226 255
204 226 255
203 226 255
203 226 255
203 226 255
203 226 255
203 226 255
203 226 255
203 226 255
203 225 255
203 225 255
203 225 255
203 225 255
203 225 255
203 225 255
203 225 255
203 225 255
203 225 255
202 225 255
202 225 255
202 225 255
202 225 255
202 225 255
202 225 255
202 225 255
202 225 255
202 225 255
202 225 255
202 225 255
202 225 255
202 225 255
202 225 255
202 225 255
202 225 255
202 225 255
201 225 255
201 225 255
201 225 255
201 225 255
201 225 255
201 225 255
201 224 255
201 224 255
201 224 255
201 224 255
201 224 255
201 224 255
201 224 255
201 224 255
201 224 255
201 224 255
201 224 255
201 224 255
201 224 255
201 224 255
201 224 255
201 224 255
200 224 255
200 224 255
200 224 255
200 224 255
200 224 255
200 224 255
200 224 255
200 224 255
200 224 255
200 224 255
200 224 255
200 224 255
200 224 255
200 224 255
200 224 255
200 224 255
200 224 255
200 224 255
200 224 255
200 224 255
200 224 255
200 224 255
200 224 255
200 224 255
200 224 255
200 224 255
200 224 255
200 224 255
200 224 255
200 224 255
200 224 255
200 224 255
200 224 255
200 224 255
200 224 255
200 224 255
200 224 255
200 224 255
200 224 255
200 224 255
200 224 255
200 224 255
200 224 255
200 224 255
200 224 255
200 224 255
200 224 255
200 224 255
200 224 255
200 224 255
200 224 255
200 224 255
200 224 255
200 224 255
200 224 255
200 224 255
200 224 255
200 224 255
200 224 255
200 224 255
200 224 255
200 224 255
200 224 255
200 224 255
200 224 255
201 224 255
201 224 255
201 224 255
201 224 255
201 224 255
201 224 255
201 224 255
201 224 255
201 224 255
201 224 255
201 224 255
201 224 255
201 224 255
201 224 255
201 224 255
201 224 255
201 224 255
201 225 255
201 225 255
201 225 255
201 225 255
201 225 255
201 225 255
202 225 255
202 225 255
202 225 255
202 225 255
202 225 255
202 225 255
202 225 255
202 225 255
202 225 255
202 225 255
202 225 255
202 225 255
202 225 255
202 225 255
202 225 255
202 225 255
202 225 255
203 225 255
203 225 255
203 225 255
203 225 255
203 225 255
203 225 255
203 225 255
203 225 255
203 225 255
203 226 255
203 226 255
203 226 255
203 226 255
203 226 255
203 226 255
203 226 255
204 226 255
204 226 255
204 226 255
204 226 255
204 226 255
204 226 255
204 226 255
204 226 255
204 226 255
204 226 255
204 226 255
204 226 255
204 226 255
204 226 255
204 226 255
204 226 255
205 226 255
205 226 255
205 226 255
205 226 255
205 226 255
205 226 255
205 227 255
205 227 255
205 227 255
205 227 255
205 227 255
205 227 255
205 227 255
205 227 255
205 227 255
205 227 255
206 227 255
206 227 255
206 227 255
206 227 255
206 227 255
206 227 255
206 227 255
206 227 255
206 227 255
206 227 255
206 227 255
206 227 255
206 227 255
206 227 255
206 227 255
206 227 255
206 227 255
207 227 255
207 227 255
207 227 255
207 227 255
207 227 255
207 228 255
207 228 255
207 228 255
207 228 255
207 228 255
207 228 255
207 228 255
207 228 255
207 228 255
207 228 255
207 228 255
207 228 255
207 228 255
207 228 255
208 228 255
208 228 255
208 228 255
208 228 255
208 228 255
208 228 255
208 228 255
208 228 255
208 228 255
208 228 255
208 228 255
208 228 255
208 228 255
208 228 255
208 228 255
208 228 255
208 228 255
208 228 255
208 228 255
208 228 255
209 228 255
209 228 255
209 229 255
209 229 255
209 229 255
209 229 255
209 229 255
209 229 255
209 229 255
209 229 255
209 229 255
209 229 255
209 229 255
209 229 255
209 229 255
209 229 255
209 229 255
209 229 255
209 229 255
209 229 255
209 229 255
209 229 255
209 229 255
210 229 255
210 229 255
210 229 255
210 229 255
210 229 255
210 229 255
209 229 255
209 229 255
209 229 255
209 229 255
209 229 255
209 229 255
209 229 255
209 229 255
209 229 255
209 229 255
209 229 255
209 229 255
209 229 255
209 229 255
209 229 255
209 229 255
209 229 255
209 229 255
209 229 255
209 229 255
209 229 255
209 228 255
209 228 255
208 228 255
208 228 255
208 228 255
208 228 255
208 228 255
208 228 255
208 228 255
208 228 255
208 228 255
208 228 255
208 228 255
208 228 255
208 228 255
208 228 255
208 228 255
208 228 255
208 228 255
208 228 255
208 228 255
207 228 255
207 228 255
207 228 255
207 228 255
207 228 255
207 228 255
207 228 255
207 228 255
207 228 255
207 228 255
207 228 255
207 228 255
207 228 255
207 228 255
207 227 255
207 227 255
207 227 255
207 227 255
207 227 255
206 227 255
206 227 255
206 227 255
206 227 255
206 227 255
206 227 255
206 227 255
206 227 255
206 227 255
206 227 255
206 227 255
206 227 255
206 227 255
206 227 255
206 227 255
206 227 255
206 227 255
205 227 255
205 227 255
205 227 255
205 227 255
205 227 255
205 227 255
205 227 255
205 227 255
205 227 255
205 227 255
205 226 255
205 226 255
205 226 255
205 226 255
205 226 255
205 226 255
204 226 255
204 226 255
204 226 255
204 226 255
204 226 255
204 226 255
204 226 255
204 226 255
204 226 255
204 226 255
204 226 255
204 226 255
204 226 255
204 226 255
204 226 255
204 226 255
203 226 255
203 226 255
203 226 255
203 226 255
203 226 255
203 226 255
203 226 255
203 225 255
203 225 255
203 225 255
203 225 255
203 225 255
203 225 255
203 225 255
203 225 255
203 225 255
203 225 255
202 225 255
202 225 255
202 225 255
202 225 255
202 225 255
202 225 255
202 225 255
202 225 255
202 225 255
202 225 255
202 225 255
202 225 255
202 225 255
202 225 255
202 225 255
202 225 255
202 225 255
202 225 255
201 225 255
201 225 255
201 225 255
201 225 255
201 225 255
201 225 255
201 224 255
201 224 255
201 224 255
201 224 255
201 224 255
201 224 255
201 224 255
201 224 255
201 224 255
201 224 255
201 224 255
201 224 255
201 224 255
201 224 255
201 224 255
201 224 255
201 224 255
201 224 255
200 224 255
200 224 255
200 224 255
200 224 255
200 224 255
200 224 255
200 224 255
200 224 255
200 224 255
200 224 255
200 224 255
200 224 255
200 224 255
200 224 255
200 224 255
200 224 255
200 224 255
200 224 255
200 224 255
200 224 255
200 224 255
200 224 255
200 224 255
200 224 255
200 224 255
200 224 255
200 224 255
200 224 255
200 224 255
200 224 255
200 224 255
200 224 255
200 224 255
200 224 255
200 224 255
200 224 255
200 224 255
200 224 255
200 224 255
200 224 255
200 224 255
200 224 255
200 224 255
200 224 255
200 224 255
200 224 255
200 224 255
200 224 255
200 224 255
200 224 255
200 224 255
200 224 255
201 224 255
201 224 255
201 224 255
201 224 255
201 224 255
201 224 255
201 224 255
201 224 255
201 224 255
201 224 255
201 224 255
201 224 255
201 224 255
201 224 255
201 224 255
201 224 255
201 224 255
201 224 255
201 225 255
201 225 255
201 225 255
201 225 255
201 225 255
201 225 255
202 225 255
202 225 255
202 225 255
202 225 255
202 225 255
202 225 255
202 225 255
202 225 255
202 225 255
202 225 255
202 225 255
202 225 255
202 225 255
202 225 255
202 225 255
202 225 255
202 225 255
202 225 255
202 225 255
203 225 255
203 225 255
203 225 255
203 225 255
203 225 255
203 225 255
203 225 255
203 225 255
203 225 255
203 226 255
203 226 255
203 226 255
203 226 255
203 226 255
203 226 255
203 226 255
204 226 255
204 226 255
204 226 255
204 226 255
204 226 255
204 226 255
204 226 255
204 226 255
204 226 255
204 226 255
204 226 255
204 226 255
204 226 255
204 226 255
204 226 255
204 226 255
205 226 255
205 226 255
205 226 255
205 226 255
205 226 255
205 226 255
205 227 255
205 227 255
205 227 255
205 227 255
205 227 255
205 227 255
205 227 255
205 227 255
205 227 255
205 227 255
206 227 255
206 227 255
206 227 255
206 227 255
206 227 255
206 227 255
206 227 255
206 227 255
206 227 255
206 227 255
206 227 255
206 227 255
206 227 255
206 227 255
206 227 255
206 227 255
206 227 255
207 227 255
207 227 255
207 227 255
207 227 255
207 227 255
207 228 255
207 228 255
207 228 255
207 228 255
207 228 255
207 228 255
207 228 255
207 228 255
207 228 255
207 228 255
207 228 255
207 228 255
207 228 255
207 228 255
208 228 255
208 228 255
208 228 255
208 228 255
208 228 255
208 228 255
208 228 255
208 228 255
208 228 255
208 228 255
208 228 255
208 228 255
208 228 255
208 228 255
208 228 255
208 228 255
208 228 255
208 228 255
208 228 255
208 228 255
209 228 255
209 229 255
209 229 255
209 229 255
209 229 255
209 229 255
209 229 255
209 229 255
209 229 255
209 229 255
209 229 255
209 229 255
209 229 255
209 229 255
209 229 255
209 229 255
209 229 255
209 229 255
209 229 255
209 229 255
209 229 255
209 229 255
210 229 255
210 229 255
210 229 255
210 229 255
210 229 255
210 229 255
210 229 255
210 229 255
210 229 255
210 229 255
210 229 255
210 229 255
210 229 255
209 229 255
209 229 255
209 229 255
209 229 255
209 229 255
209 229 255
209 229 255
209 229 255
209 229 255
209 229 255
209 229 255
209 229 255
209 229 255
209 229 255
209 229 255
209 229 255
209 229 255
209 229 255
209 229 255
209 229 255
209 229 255
209 228 255
209 228 255
208 228 255
208 228 255
208 228 255
208 228 255
208 228 255
208 228 255
208 228 255
208 228 255
208 228 255
208 228 255
208 228 255
208 228 255
208 228 255
208 228 255
208 228 255
208 228 255
208 228 255
208 228 255
208 228 255
208 228 255
207 228 255
207 228 255
207 228 255
207 228 255
207 228 255
207 228 255
207 228 255
207 228 255
207 228 255
207 228 255
207 228 255
207 228 255
207 228 255
207 228 255
207 227 255
207 227 255
207 227 255
207 227 255
206 227 255
206 227 255
206 227 255
206 227 255
206 227 255
206 227 255
206 227 255
206 227 255
206 227 255
206 227 255
206 227 255
206 227 255
206 227 255
206 227 255
206 227 255
206 227 255
206 227 255
205 227 255
205 227 255
205 227 255
205 227 255
205 227 255
205 227 255
205 227 255
205 227 255
205 227 255
205 227 255
205 226 255
205 226 255
205 226 255
205 226 255
205 226 255
205 226 255
205 226 255
204 226 255
204 226 255
204 226 255
204 226 255
204 226 255
204 226 255
204 226 255
204 226 255
204 226 255
204 226 255
204 226 255
204 226 255
204 226 255
204 226 255
204 226 255
203 226 255
203 226 255
203 226 255
203 226 255
203 226 255
203 226 255
203 226 255
203 226 255
203 225 255
203 225 255
203 225 255
203 225 255
203 225 255
203 225 255
203 225 255
203 225 255
203 225 255
202 225 255
202 225 255
202 225 255
202 225 255
202 225 255
202 225 255
202 225 255
202 225 255
202 225 255
202 225 255
202 225 255
202 225 255
202 225 255
202 225 255
202 225 255
202 225 255
202 225 255
202 225 255
202 225 255
201 225 255
201 225 255
201 225 255
201 225 255
201 225 255
201 225 255
201 225 255
201 224 255
201 224 255
201 224 255
201 224 255
201 224 255
201 224 255
201 224 255
201 224 255
201 224 255
201 224 255
201 224 255
201 224 255
201 224 255
201 224 255
201 224 255
201 224 255
201 224 255
201 224 255
201 224 255
201 224 255
201 224 255
200 224 255
200 224 255
200 224 255
200 224 255
200 224 255
200 224 255
200 224 255
200 224 255
200 224 255
200 224 255
200 224 255
200 224 255
200 224 255
200 224 255
200 224 255
200 224 255
200 224 255
200 224 255
200 224 255
200 224 255
200 224 255
200 224 255
200 224 255
200 224 255
200 224 255
200 224 255
200 224 255
200 224 255
200 224 255
200 224 255
200 224 255
200 224 255
200 224 255
200 224 255
200 224 255
200 224 255
201 224 255
201 224 255
201 224 255
201 224 255
201 224 255
201 224 255
201 224 255
201 224 255
201 224 255
201 224 255
201 224 255
201 224 255
201 224 255
201 224 255
201 224 255
201 224 255
201 224 255
201 224 255
201 224 255
201 224 255
201 224 255
201 224 255
201 225 255
201 225 255
201 225 255
201 225 255
201 225 255
201 225 255
202 225 255
202 225 255
202 225 255
202 225 255
202 225 255
202 225 255
202 225 255
202 225 255
202 225 255
202 225 255
202 225 255
202 225 255
202 225 255
202 225 255
202 225 255
202 225 255
202 225 255
202 225 255
202 225 255
203 225 255
203 225 255
203 225 255
203 225 255
203 225 255
203 225 255
203 225 255
203 225 255
203 225 255
203 225 255
203 226 255
203 226 255
203 226 255
203 226 255
203 226 255
203 226 255
203 226 255
204 226 255
204 226 255
204 226 255
204 226 255
204 226 255
204 226 255
204 226 255
204 226 255
204 226 255
204 226 255
204 226 255
204 226 255
204 226 255
204 226 255
204 226 255
204 226 255
205 226 255
205 226 255
205 226 255
205 226 255
205 226 255
205 226 255
205 227 255
205 227 255
205 227 255
205 227 255
205 227 255
205 227 255
205 227 255
205 227 255
205 227 255
205 227 255
206 227 255
206 227 255
206 227 255
206 227 255
206 227 255
206 227 255
206 227 255
206 227 255
206 227 255
206 227 255
206 227 255
206 227 255
206 227 255
206 227 255
206 227 255
206 227 255
206 227 255
207 227 255
207 227 255
207 227 255
207 227 255
207 228 255
207 228 255
207 228 255
207 228 255
207 228 255
207 228 255
207 228 255
207 228 255
207 228 255
207 228 255
207 228 255
207 228 255
207 228 255
207 228 255
208 228 255
208 228 255
208 228 255
208 228 255
208 228 255
208 228 255
208 228 255
208 228 255
208 228 255
208 228 255
208 228 255
208 228 255
208 228 255
208 228 255
208 228 255
208 228 255
208 228 255
208 228 255
208 228 255
208 228 255
209 228 255
209 228 255
209 229 255
209 229 255
209 229 255
209 229 255
209 229 255
209 229 255
209 229 255
209 229 255
209 229 255
209 229 255
209 229 255
209 229 255
209 229 255
209 229 255
209 229 255
209 229 255
209 229 255
209 229 255
209 229 255
209 229 255
209 229 255
210 229 255
210 229 255
210 229 255
210 229 255
210 229 255
210 229 255
210 229 255
210 229 255
210 229 255
210 229 255
210 229 255
210 229 255
210 229 255
210 229 255
210 229 255
210 229 255
210 229 255
210 229 255
210 229 255
210 229 255
209 229 255
209 229 255
209 229 255
209 229 255
209 229 255
209 229 255
209 229 255
209 229 255
209 229 255
209 229 255
209 229 255
209 229 255
209 229 255
209 229 255
209 229 255
209 229 255
209 229 255
209 229 255
209 229 255
209 229 255
209 229 255
209 228 255
208 228 255
208 228 255
208 228 255
208 228 255
208 228 255
208 228 255
208 228 255
208 228 255
208 228 255
208 228 255
208 228 255
208 228 255
208 228 255
208 228 255
208 228 255
208 228 255
208 228 255
208 228 255
208 228 255
208 228 255
207 228 255
207 228 255
207 228 255
207 228 255
207 228 255
207 228 255
207 228 255
207 228 255
207 228 255
207 228 255
207 228 255
207 228 255
207 228 255
207 228 255
207 227 255
207 227 255
207 227 255
207 227 255
206 227 255
206 227 255
206 227 255
206 227 255
206 227 255
206 227 255
206 227 255
206 227 255
206 227 255
206 227 255
206 227 255
206 227 255
206 227 255
206 227 255
206 227 255
206 227 255
206 227 255
205 227 255
205 227 255
205 227 255
205 227 255
205 227 255
205 227 255
205 227 255
205 227 255
205 227 255
205 227 255
205 226 255
205 226 255
205 226 255
205 226 255
205 226 255
205 226 255
204 226 255
204 226 255
204 226 255
204 226 255
204 226 255
204 226 255
204 226 255
204 226 255
204 226 255
204 226 255
204 226 255
204 226 255
204 226 255
204 226 255
204 226 255
204 226 255
204 226 255
203 226 255
203 226 255
203 226 255
203 226 255
203 226 255
203 226 255
203 226 255
203 225 255
203 225 255
203 225 255
203 225 255
203 225 255
203 225 255
203 225 255
203 225 255
203 225 255
203 225 255
202 225 255
202 225 255
202 225 255
202 225 255
202 225 255
202 225 255
202 225 255
202 225 255
202 225 255
202 225 255
202 225 255
202 225 255
202 225 255
202 225 255
202 225 255
202 225 255
202 225 255
202 225 255
202 225 255
201 225 255
201 225 255
201 225 255
201 225 255
201 225 255
201 225 255
201 225 255
201 225 255
201 224 255
201 224 255
201 224 255
201 224 255
201 224 255
201 224 255
201 224 255
201 224 255
201 224 255
201 224 255
201 224 255
201 224 255
201 224 255
201 224 255
201 224 255
201 224 255
201 224 255
201 224 255
201 224 255
201 224 255
201 224 255
201 224 255
201 224 255
201 224 255
201 224 255
201 224 255
201 224 255
201 224 255
201 224 255
201 224 255
201 224 255
201 224 255
201 224 255
201 224 255
201 224 255
201 224 255
201 224 255
201 224 255
201 224 255
201 224 255
201 224 255
201 224 255
201 224 255
201 224 255
201 224 255
201 224 255
201 224 255
201 224 255
201 224 255
201 224 255
201 224 255
201 224 255
201 224 255
201 224 255
201 224 255
201 224 255
201 224 255
201 224 255
201 224 255
201 224 255
201 224 255
201 224 255
201 224 255
201 224 255
201 224 255
201 224 255
201 224 255
201 224 255
201 225 255
201 225 255
201 225 255
201 225 255
201 225 255
201 225 255
201 225 255
201 225 255
202 225 255
202 225 255
202 225 255
202 225 255
202 225 255
202 225 255
202 225 255
202 225 255
202 225 255
202 225 255
202 225 255
202 225 255
202 225 255
202 225 255
202 225 255
202 225 255
202 225 255
202 225 255
202 225 255
203 225 255
203 225 255
203 225 255
203 225 255
203 225 255
203 225 255
203 225 255
203 225 255
203 225 255
203 225 255
203 226 255
203 226 255
203 226 255
203 226 255
203 226 255
203 226 255
203 226 255
204 226 255
204 226 255
204 226 255
204 226 255
204 226 255
204 226 255
204 226 255
204 226 255
204 226 255
204 226 255
204 226 255
204 226 255
204 226 255
204 226 255
204 226 255
204 226 255
204 226 255
205 226 255
205 226 255
205 226 255
205 226 255
205 226 255
205 226 255
205 227 255
205 227 255
205 227 255
205 227 255
205 227 255
205 227 255
205 227 255
205 227 255
205 227 255
205 227 255
206 227 255
206 227 255
206 227 255
206 227 255
206 227 255
206 227 255
206 227 255
206 227 255
206 227 255
206 227 255
206 227 255
206 227 255
206 227 255
206 227 255
206 227 255
206 227 255
206 227 255
207 227 255
207 227 255
207 227 255
207 227 255
207 228 255
207 228 255
207 228 255
207 228 255
207 228 255
207 228 255
207 228 255
207 228 255
207 228 255
207 228 255
207 228 255
207 228 255
207 228 255
207 228 255
208 228 255
208 228 255
208 228 255
208 228 255
208 228 255
208 228 255
208 228 255
208 228 255
208 228 255
208 228 255
208 228 255
208 228 255
208 228 255
208 228 255
208 228 255
208 228 255
208 228 255
208 228 255
208 228 255
208 228 255
209 228 255
209 229 255
209 229 255
209 229 255
209 229 255
209 229 255
209 229 255
209 229 255
209 229 255
209 229 255
209 229 255
209 229 255
209 229 255
209 229 255
209 229 255
209 229 255
209 229 255
209 229 255
209 229 255
209 229 255
209 229 255
209 229 255
210 229 255
210 229 255
210 229 255
210 229 255
210 229 255
210 229 255
210 229 255
210 229 255
210 229 255
210 229 255
210 229 255
210 229 255
210 229 255
210 229 255
210 229 255
210 229 255
210 229 255
210 229 255
210 229 255
210 229 255
210 229 255
210 229 255
210 229 255
210 229 255
210 229 255
210 229 255
210 229 255
210 229 255
209 229 255
209 229 255
209 229 255
209 229 255
209 229 255
209 229 255
209 229 255
209 229 255
209 229 255
209 229 255
209 229 255
209 229 255
209 229 255
209 229 255
209 229 255
209 229 255
209 229 255
209 229 255
209 229 255
209 229 255
209 228 255
208 228 255
208 228 255
208 228 255
208 228 255
208 228 255
208 228 255
208 228 255
208 228 255
208 228 255
208 228 255
208 228 255
208 228 255
208 228 255
208 228 255
208 228 255
208 228 255
208 228 255
208 228 255
208 228 255
208 228 255
207 228 255
207 228 255
207 228 255
207 228 255
207 228 255
207 228 255
207 228 255
207 228 255
207 228 255
207 228 255
207 228 255
207 228 255
207 228 255
207 228 255
207 227 255
207 227 255
207 227 255
207 227 255
206 227 255
206 227 255
206 227 255
206 227 255
206 227 255
206 227 255
206 227 255
206 227 255
206 227 255
206 227 255
206 227 255
206 227 255
206 227 255
206 227 255
206 227 255
206 227 255
206 227 255
205 227 255
205 227 255
205 227 255
205 227 255
205 227 255
205 227 255
205 227 255
205 227 255
205 227 255
205 227 255
205 226 255
205 226 255
205 226 255
205 226 255
205 226 255
205 226 255
205 226 255
204 226 255
204 226 255
204 226 255
204 226 255
204 226 255
204 226 255
204 226 255
204 226 255
204 226 255
204 226 255
204 226 255
204 226 255
204 226 255
204 226 255
204 226 255
204 226 255
203 226 255
203 226 255
203 226 255
203 226 255
203 226 255
203 226 255
203 226 255
203 226 255
203 225 255
203 225 255
203 225 255
203 225 255
203 225 255
203 225 255
203 225 255
203 225 255
203 225 255
203 225 255
202 225 255
202 225 255
202 225 255
202 225 255
202 225 255
202 225 255
202 225 255
202 225 255
202 225 255
202 225 255
202 225 255
202 225 255
202 225 255
202 225 255
202 225 255
202 225 255
202 225 255
202 225 255
202 225 255
202 225 255
202 225 255
201 225 255
201 225 255
201 225 255
201 225 255
201 225 255
201 225 255
201 225 255
201 225 255
201 224 255
201 224 255
201 224 255
201 224 255
201 224 255
201 224 255
201 224 255
201 224 255
201 224 255
201 224 255
201 224 255
201 224 255
201 224 255
201 224 255
201 224 255
201 224 255
201 224 255
201 224 255
201 224 255
201 224 255
201 224 255
201 224 255
201 224 255
201 224 255
201 224 255
201 224 255
201 224 255
201 224 255
201 224 255
201 224 255
201 224 255
201 224 255
201 224 255
201 224 255
201 224 255
201 224 255
201 224 255
201 224 255
201 224 255
201 224 255
201 224 255
201 224 255
201 224 255
201 224 255
201 224 255
201 224 255
201 224 255
201 224 255
201 224 255
201 224 255
201 224 255
201 224 255
201 224 255
201 224 255
201 224 255
201 224 255
201 225 255
201 225 255
201 225 255
201 225 255
201 225 255
201 225 255
201 225 255
201 225 255
201 225 255
202 225 255
202 225 255
202 225 255
202 225 255
202 225 255
202 225 255
202 225 255
202 225 255
202 225 255
202 225 255
202 225 255
202 225 255
202 225 255
202 225 255
202 225 255
202 225 255
202 225 255
202 225 255
202 225 255
202 225 255
203 225 255
203 225 255
203 225 255
203 225 255
203 225 255
203 225 255
203 225 255
203 225 255
203 225 255
203 225 255
203 226 255
203 226 255
203 226 255
203 226 255
203 226 255
203 226 255
203 226 255
203 226 255
204 226 255
204 226 255
204 226 255
204 226 255
204 226 255
204 226 255
204 226 255
204 226 255
204 226 255
204 226 255
204 226 255
204 226 255
204 226 255
204 226 255
204 226 255
204 226 255
205 226 255
205 226 255
205 226 255
205 226 255
205 226 255
205 226 255
205 226 255
205 227 255
205 227 255
205 227 255
205 227 255
205 227 255
205 227 255
205 227 255
205 227 255
205 227 255
205 227 255
206 227 255
206 227 255
206 227 255
206 227 255
206 227 255
206 227 255
206 227 255
206 227 255
206 227 255
206 227 255
206 227 255
206 227 255
206 227 255
206 227 255
206 227 255
206 227 255
206 227 255
207 227 255
207 227 255
207 227 255
207 227 255
207 228 255
207 228 255
207 228 255
207 228 255
207 228 255
207 228 255
207 228 255
207 228 255
207 228 255
207 228 255
207 228 255
207 228 255
207 228 255
207 228 255
208 228 255
208 228 255
208 228 255
208 228 255
208 228 255
208 228 255
208 228 255
208 228 255
208 228 255
208 228 255
208 228 255
208 228 255
208 228 255
208 228 255
208 228 255
208 228 255
208 228 255
208 228 255
208 228 255
209 228 255
209 228 255
209 229 255
209 229 255
209 229 255
209 229 255
209 229 255
209 229 255
209 229 255
209 229 255
209 229 255
209 229 255
209 229 255
209 229 255
209 229 255
209 229 255
209 229 255
209 229 255
209 229 255
209 229 255
209 229 255
209 229 255
210 229 255
210 229 255
210 229 255
210 229 255
210 229 255
210 229 255
210 229 255
210 229 255
210 229 255
210 229 255
210 229 255
210 229 255
210 229 255
210 229 255
210 229 255
210 229 255
210 229 255
210 229 255
210 229 255
210 229 255
210 229 255
210 229 255
210 229 255
210 229 255
210 229 255
210 229 255
210 229 255
210 229 255
210 229 255
210 229 255
210 229 255
210 229 255
210 229 255
210 229 255
210 229 255
209 229 255
209 229 255
209 229 255
209 229 255
209 229 255
209 229 255
209 229 255
209 229 255
209 229 255
209 229 255
209 229 255
209 229 255
209 229 255
209 229 255
209 229 255
209 229 255
209 229 255
209 229 255
209 229 255
209 229 255
209 228 255
209 228 255
208 228 255
208 228 255
208 228 255
208 228 255
208 228 255
208 228 255
208 228 255
208 228 255
208 228 255
208 228 255
208 228 255
208 228 255
208 228 255
208 228 255
208 228 255
208 228 255
208 228 255
208 228 255
208 228 255
208 228 255
207 228 255
207 228 255
207 228 255
207 228 255
207 228 255
207 228 255
207 228 255
207 228 255
207 228 255
207 228 255
207 228 255
207 228 255
207 228 255
207 227 255
207 227 255
207 227 255
207 227 255
207 227 255
206 227 255
206 227 255
206 227 255
206 227 255
206 227 255
206 227 255
206 227 255
206 227 255
206 227 255
206 227 255
206 227 255
206 227 255
206 227 255
206 227 255
206 227 255
206 227 255
206 227 255
205 227 255
205 227 255
205 227 255
205 227 255
205 227 255
205 227 255
205 227 255
205 227 255
205 227 255
205 226 255
205 226 255
205 226 255
205 226 255
205 226 255
205 226 255
205 226 255
204 226 255
204 226 255
204 226 255
204 226 255
204 226 255
204 226 255
204 226 255
204 226 255
204 226 255
204 226 255
204 226 255
204 226 255
204 226 255
204 226 255
204 226 255
204 226 255
204 226 255
203 226 255
203 226 255
203 226 255
203 226 255
203 226 255
203 226 255
203 226 255
203 225 255
203 225 255
203 225 255
203 225 255
203 225 255
203 225 255
203 225 255
203 225 255
203 225 255
203 225 255
203 225 255
202 225 255
202 225 255
202 225 255
202 225 255
202 225 255
202 225 255
202 225 255
202 225 255
202 225 255
202 225 255
202 225 255
202 225 255
202 225 255
202 225 255
202 225 255
202 225 255
202 225 255
202 225 255
202 225 255
202 225 255
202 225 255
202 225 255
201 225 255
201 225 255
201 225 255
201 225 255
201 225 255
201 225 255
201 225 255
201 225 255
201 225 255
201 225 255
201 225 255
201 224 255
201 224 255
201 224 255
201 224 255
201 224 255
201 224 255
201 224 255
201 224 255
201 224 255
201 224 255
201 224 255
201 224 255
201 224 255
201 224 255
201 224 255
201 224 255
201 224 255
201 224 255
201 224 255
201 224 255
201 224 255
201 224 255
201 224 255
201 224 255
201 224 255
201 224 255
201 224 255
201 224 255
201 224 255
201 224 255
201 224 255
201 224 255
201 224 255
201 224 255
201 224 255
201 224 255
201 224 255
201 224 255
201 224 255
201 224 255
201 225 255
201 225 255
201 225 255
201 225 255
201 225 255
201 225 255
201 225 255
201 225 255
201 225 255
201 225 255
201 225 255
202 225 255
202 225 255
202 225 255
202 225 255
202 225 255
202 225 255
202 225 255
202 225 255
202 225 255
202 225 255
202 225 255
202 225 255
202 225 255
202 225 255
202 225 255
202 225 255
202 225 255
202 225 255
202 225 255
202 225 255
202 225 255
202 225 255
203 225 255
203 225 255
203 225 255
203 225 255
203 225 255
203 225 255
203 225 255
203 225 255
203 225 255
203 225 255
203 225 255
203 226 255
203 226 255
203 226 255
203 226 255
203 226 255
203 226 255
203 226 255
203 226 255
204 226 255
204 226 255
204 226 255
204 226 255
204 226 255
204 226 255
204 226 255
204 226 255
204 226 255
204 226 255
204 226 255
204 226 255
204 226 255
204 226 255
204 226 255
204 226 255
205 226 255
205 226 255
205 226 255
205 226 255
205 226 255
205 226 255
205 226 255
205 227 255
205 227 255
205 227 255
205 227 255
205 227 255
205 227 255
205 227 255
205 227 255
205 227 255
206 227 255
206 227 255
206 227 255
206 227 255
206 227 255
206 227 255
206 227 255
206 227 255
206 227 255
206 227 255
206 227 255
206 227 255
206 227 255
206 227 255
206 227 255
206 227 255
206 227 255
207 227 255
207 227 255
207 227 255
207 227 255
207 227 255
207 228 255
207 228 255
207 228 255
207 228 255
207 228 255
207 228 255
207 228 255
207 228 255
207 228 255
207 228 255
207 228 255
207 228 255
207 228 255
208 228 255
208 228 255
208 228 255
208 228 255
208 228 255
208 228 255
208 228 255
208 228 255
208 228 255
208 228 255
208 228 255
208 228 255
208 228 255
208 228 255
208 228 255
208 228 255
208 228 255
208 228 255
208 228 255
208 228 255
209 228 255
209 228 255
209 229 255
209 229 255
209 229 255
209 229 255
209 229 255
209 229 255
209 229 255
209 229 255
209 229 255
209 229 255
209 229 255
209 229 255
209 229 255
209 229 255
209 229 255
209 229 255
209 229 255
209 229 255
209 229 255
209 229 255
210 229 255
210 229 255
210 229 255
210 229 255
210 229 255
210 229 255
210 229 255
210 229 255
210 229 255
210 229 255
210 229 255
210 229 255
210 229 255
210 229 255
210 229 255
210 229 255
210 229 255
210 229 255
210 229 255
210 230 255
210 229 255
210 229 255
210 229 255
210 229 255
210 229 255
210 229 255
210 229 255
210 229 255
210 229 255
210 229 255
210 229 255
210 229 255
210 229 255
210 229 255
210 229 255
210 229 255
210 229 255
210 229 255
210 229 255
210 229 255
210 229 255
210 229 255
209 229 255
209 229 255
209 229 255
209 229 255
209 229 255
209 229 255
209 229 255
209 229 255
209 229 255
209 229 255
209 229 255
209 229 255
209 229 255
209 229 255
209 229 255
209 229 255
209 229 255
209 229 255
209 229 255
209 229 255
209 228 255
208 228 255
208 228 255
208 228 255
208 228 255
208 228 255
208 228 255
208 228 255
208 228 255
208 228 255
208 228 255
208 228 255
208 228 255
208 228 255
208 228 255
208 228 255
208 228 255
208 228 255
208 228 255
208 228 255
208 228 255
207 228 255
207 228 255
207 228 255
207 228 255
207 228 255
207 228 255
207 228 255
207 228 255
207 228 255
207 228 255
207 228 255
207 228 255
207 228 255
207 228 255
207 227 255
207 227 255
207 227 255
207 227 255
206 227 255
206 227 255
206 227 255
206 227 255
206 227 255
206 227 255
206 227 255
206 227 255
206 227 255
206 227 255
206 227 255
206 227 255
206 227 255
206 227 255
206 227 255
206 227 255
206 227 255
205 227 255
205 227 255
205 227 255
205 227 255
205 227 255
205 227 255
205 227 255
205 227 255
205 227 255
205 227 255
205 226 255
205 226 255
205 226 255
205 226 255
205 226 255
205 226 255
204 226 255
204 226 255
204 226 255
204 226 255
204 226 255
204 226 255
204 226 255
204 226 255
204 226 255
204 226 255
204 226 255
204 226 255
204 226 255
204 226 255
204 226 255
204 226 255
204 226 255
203 226 255
203 226 255
203 226 255
203 226 255
203 226 255
203 226 255
203 226 255
203 226 255
203 225 255
203 225 255
203 225 255
203 225 255
203 225 255
203 225 255
203 225 255
203 225 255
203 225 255
203 225 255
203 225 255
202 225 255
202 225 255
202 225 255
202 225 255
202 225 255
202 225 255
202 225 255
202 225 255
202 225 255
202 225 255
202 225 255
202 225 255
202 225 255
202 225 255
202 225 255
202 225 255
202 225 255
202 225 255
202 225 255
202 225 255
202 225 255
202 225 255
202 225 255
202 225 255
202 225 255
202 225 255
201 225 255
201 225 255
201 225 255
201 225 255
201 225 255
201 225 255
201 225 255
201 225 255
201 225 255
201 225 255
201 225 255
201 225 255
201 225 255
201 225 255
201 225 255
201 225 255
201 225 255
201 224 255
201 224 255
201 224 255
201 224 255
201 224 255
201 224 255
201 224 255
201 224 255
201 224 255
201 224 255
201 224 255
201 225 255
201 225 255
201 225 255
201 225 255
201 225 255
201 225 255
201 225 255
201 225 255
201 225 255
201 225 255
201 225 255
201 225 255
201 225 255
201 225 255
201 225 255
201 225 255
201 225 255
201 225 255
202 225 255
202 225 255
202 225 255
202 225 255
202 225 255
202 225 255
202 225 255
202 225 255
202 225 255
202 225 255
202 225 255
202 225 255
202 225 255
202 225 255
202 225 255
202 225 255
202 225 255
202 225 255
202 225 255
202 225 255
202 225 255
202 225 255
202 225 255
202 225 255
202 225 255
202 225 255
203 225 255
203 225 255
203 225 255
203 225 255
203 225 255
203 225 255
203 225 255
203 225 255
203 225 255
203 225 255
203 225 255
203 226 255
203 226 255
203 226 255
203 226 255
203 226 255
203 226 255
203 226 255
203 226 255
204 226 255
204 226 255
204 226 255
204 226 255
204 226 255
204 226 255
204 226 255
204 226 255
204 226 255
204 226 255
204 226 255
204 226 255
204 226 255
204 226 255
204 226 255
204 226 255
204 226 255
205 226 255
205 226 255
205 226 255
205 226 255
205 226 255
205 226 255
205 227 255
205 227 255
205 227 255
205 227 255
205 227 255
205 227 255
205 227 255
205 227 255
205 227 255
205 227 255
206 227 255
206 227 255
206 227 255
206 227 255
206 227 255
206 227 255
206 227 255
206 227 255
206 227 255
206 227 255
206 227 255
206 227 255
206 227 255
206 227 255
206 227 255
206 227 255
206 227 255
207 227 255
207 227 255
207 227 255
207 227 255
207 228 255
207 228 255
207 228 255
207 228 255
207 228 255
207 228 255
207 228 255
207 228 255
207 228 255
207 228 255
207 228 255
207 228 255
207 228 255
207 228 255
208 228 255
208 228 255
208 228 255
208 228 255
208 228 255
208 228 255
208 228 255
208 228 255
208 228 255
208 228 255
208 228 255
208 228 255
208 228 255
208 228 255
208 228 255
208 228 255
208 228 255
208 228 255
208 228 255
209 228 255
209 228 255
209 229 255
209 229 255
209 229 255
209 229 255
209 229 255
209 229 255
209 229 255
209 229 255
209 229 255
209 229 255
209 229 255
209 229 255
209 229 255
209 229 255
209 229 255
209 229 255
209 229 255
209 229 255
209 229 255
209 229 255
210 229 255
210 229 255
210 229 255
210 229 255
210 229 255
210 229 255
210 229 255
210 229 255
210 229 255
210 229 255
210 229 255
210 229 255
210 229 255
210 229 255
210 229 255
210 229 255
210 229 255
210 229 255
210 229 255
210 229 255
210 229 255
210 229 255
210 230 255
211 230 255
211 230 255
210 230 255
210 230 255
210 230 255
210 229 255
210 229 255
210 229 255
210 229 255
210 229 255
210 229 255
210 229 255
210 229 255
210 229 255
210 229 255
210 229 255
210 229 255
210 229 255
210 229 255
210 229 255
210 229 255
210 229 255
210 229 255
210 229 255
210 229 255
210 229 255
210 229 255
209 229 255
209 229 255
209 229 255
209 229 255
209 229 255
209 229 255
209 229 255
209 229 255
209 229 255
209 229 255
209 229 255
209 229 255
209 229 255
209 229 255
209 229 255
209 229 255
209 229 255
209 229 255
209 229 255
209 228 255
209 228 255
208 228 255
208 228 255
208 228 255
208 228 255
208 228 255
208 228 255
208 228 255
208 228 255
208 228 255
208 228 255
208 228 255
208 228 255
208 228 255
208 228 255
208 228 255
208 228 255
208 228 255
208 228 255
208 228 255
207 228 255
207 228 255
207 228 255
207 228 255
207 228 255
207 228 255
207 228 255
207 228 255
207 228 255
207 228 255
207 228 255
207 228 255
207 228 255
207 228 255
207 227 255
207 227 255
207 227 255
207 227 255
206 227 255
206 227 255
206 227 255
206 227 255
206 227 255
206 227 255
206 227 255
206 227 255
206 227 255
206 227 255
206 227 255
206 227 255
206 227 255
206 227 255
206 227 255
206 227 255
206 227 255
205 227 255
205 227 255
205 227 255
205 227 255
205 227 255
205 227 255
205 227 255
205 227 255
205 227 255
205 227 255
205 226 255
205 226 255
205 226 255
205 226 255
205 226 255
205 226 255
205 226 255
204 226 255
204 226 255
204 226 255
204 226 255
204 226 255
204 226 255
204 226 255
204 226 255
204 226 255
204 226 255
204 226 255
204 226 255
204 226 255
204 226 255
204 226 255
204 226 255
204 226 255
203 226 255
203 226 255
203 226 255
203 226 255
203 226 255
203 226 255
203 226 255
203 226 255
203 225 255
203 225 255
203 225 255
203 225 255
203 225 255
203 225 255
203 225 255
203 225 255
203 225 255
203 225 255
203 225 255
203 225 255
202 225 255
202 225 255
202 225 255
202 225 255
202 225 255
202 225 255
202 225 255
202 225 255
202 225 255
202 225 255
202 225 255
202 225 255
202 225 255
202 225 255
202 225 255
202 225 255
202 225 255
202 225 255
202 225 255
202 225 255
202 225 255
202 225 255
202 225 255
202 225 255
202 225 255
202 225 255
202 225 255
202 225 255
202 225 255
202 225 255
202 225 255
202 225 255
201 225 255
201 225 255
201 225 255
201 225 255
201 225 255
201 225 255
201 225 255
201 225 255
201 225 255
201 225 255
201 225 255
201 225 255
201 225 255
201 225 255
201 225 255
201 225 255
201 225 255
201 225 255
201 225 255
201 225 255
201 225 255
201 225 255
201 225 255
201 225 255
201 225 255
202 225 255
202 225 255
202 225 255
202 225 255
202 225 255
202 225 255
202 225 255
202 225 255
202 225 255
202 225 255
202 225 255
202 225 255
202 225 255
202 225 255
202 225 255
202 225 255
202 225 255
202 225 255
202 225 255
202 225 255
202 225 255
202 225 255
202 225 255
202 225 255
202 225 255
202 225 255
202 225 255
202 225 255
202 225 255
202 225 255
202 225 255
203 225 255
203 225 255
203 225 255
203 225 255
203 225 255
203 225 255
203 225 255
203 225 255
203 225 255
203 225 255
203 225 255
203 225 255
203 226 255
203 226 255
203 226 255
203 226 255
203 226 255
203 226 255
203 226 255
203 226 255
204 226 255
204 226 255
204 226 255
204 226 255
204 226 255
204 226 255
204 226 255
204 226 255
204 226 255
204 226 255
204 226 255
204 226 255
204 226 255
204 226 255
204 226 255
204 226 255
204 226 255
205 226 255
205 226 255
205 226 255
205 226 255
205 226 255
205 226 255
205 226 255
205 227 255
205 227 255
205 227 255
205 227 255
205 227 255
205 227 255
205 227 255
205 227 255
205 227 255
205 227 255
206 227 255
206 227 255
206 227 255
206 227 255
206 227 255
206 227 255
206 227 255
206 227 255
206 227 255
206 227 255
206 227 255
206 227 255
206 227 255
206 227 255
206 227 255
206 227 255
206 227 255
207 227 255
207 227 255
207 227 255
207 227 255
207 228 255
207 228 255
207 228 255
207 228 255
207 228 255
207 228 255
207 228 255
207 228 255
207 228 255
207 228 255
207 228 255
207 228 255
207 228 255
207 228 255
208 228 255
208 228 255
208 228 255
208 228 255
208 228 255
208 228 255
208 228 255
208 228 255
208 228 255
208 228 255
208 228 255
208 228 255
208 228 255
208 228 255
208 228 255
208 228 255
208 228 255
208 228 255
208 228 255
209 228 255
209 229 255
209 229 255
209 229 255
209 229 255
209 229 255
209 229 255
209 229 255
209 229 255
209 229 255
209 229 255
209 229 255
209 229 255
209 229 255
209 229 255
209 229 255
209 229 255
209 229 255
209 229 255
209 229 255
209 229 255
210 229 255
210 229 255
210 229 255
210 229 255
210 229 255
210 229 255
210 229 255
210 229 255
210 229 255
210 229 255
210 229 255
210 229 255
210 229 255
210 229 255
210 229 255
210 229 255
210 229 255
210 229 255
210 229 255
210 229 255
210 229 255
210 229 255
210 230 255
210 230 255
210 230 255
211 230 255
211 230 255
211 230 255
211 230 255
211 230 255
211 230 255
211 230 255
211 230 255
210 230 255
210 230 255
210 230 255
210 229 255
210 229 255
210 229 255
210 229 255
210 229 255
210 229 255
210 229 255
210 229 255
210 229 255
210 229 255
210 229 255
210 229 255
210 229 255
210 229 255
210 229 255
210 229 255
210 229 255
210 229 255
210 229 255
210 229 255
210 229 255
209 229 255
209 229 255
209 229 255
209 229 255
209 229 255
209 229 255
209 229 255
209 229 255
209 229 255
209 229 255
209 229 255
209 229 255
209 229 255
209 229 255
209 229 255
209 229 255
209 229 255
209 229 255
209 229 255
209 229 255
209 228 255
209 228 255
208 228 255
208 228 255
208 228 255
208 228 255
208 228 255
208 228 255
208 228 255
208 228 255
208 228 255
208 228 255
208 228 255
208 228 255
208 228 255
208 228 255
208 228 255
208 228 255
208 228 255
208 228 255
208 228 255
207 228 255
207 228 255
207 228 255
207 228 255
207 228 255
207 228 255
207 228 255
207 228 255
207 228 255
207 228 255
207 228 255
207 228 255
207 228 255
207 227 255
207 227 255
207 227 255
207 227 255
207 227 255
206 227 255
206 227 255
206 227 255
206 227 255
206 227 255
206 227 255
206 227 255
206 227 255
206 227 255
206 227 255
206 227 255
206 227 255
206 227 255
206 227 255
206 227 255
206 227 255
206 227 255
205 227 255
205 227 255
205 227 255
205 227 255
205 227 255
205 227 255
205 227 255
205 227 255
205 227 255
205 227 255
205 226 255
205 226 255
205 226 255
205 226 255
205 226 255
205 226 255
204 226 255
204 226 255
204 226 255
204 226 255
204 226 255
204 226 255
204 226 255
204 226 255
204 226 255
204 226 255
204 226 255
204 226 255
204 226 255
204 226 255
204 226 255
204 226 255
204 226 255
204 226 255
203 226 255
203 226 255
203 226 255
203 226 255
203 226 255
203 226 255
203 226 255
203 226 255
203 226 255
203 225 255
203 225 255
203 225 255
203 225 255
203 225 255
203 225 255
203 225 255
203 225 255
203 225 255
203 225 255
203 225 255
203 225 255
202 225 255
202 225 255
202 225 255
202 225 255
202 225 255
202 225 255
202 225 255
202 225 255
202 225 255
202 225 255
202 225 255
202 225 255
202 225 255
202 225 255
202 225 255
202 225 255
202 225 255
202 225 255
202 225 255
202 225 255
202 225 255
202 225 255
202 225 255
202 225 255
202 225 255
202 225 255
202 225 255
202 225 255
202 225 255
202 225 255
202 225 255
202 225 255
202 225 255
202 225 255
202 225 255
202 225 255
202 225 255
202 225 255
202 225 255
202 225 255
202 225 255
202 225 255
202 225 255
202 225 255
202 225 255
202 225 255
202 225 255
202 225 255
202 225 255
202 225 255
202 225 255
202 225 255
202 225 255
202 225 255
202 225 255
202 225 255
202 225 255
202 225 255
202 225 255
202 225 255
202 225 255
202 225 255
202 225 255
202 225 255
202 225 255
202 225 255
202 225 255
202 225 255
202 225 255
202 225 255
202 225 255
202 225 255
202 225 255
202 225 255
202 225 255
202 225 255
202 225 255
202 225 255
203 225 255
203 225 255
203 225 255
203 225 255
203 225 255
203 225 255
203 225 255
203 225 255
203 225 255
203 225 255
203 225 255
203 225 255
203 226 255
203 226 255
203 226 255
203 226 255
203 226 255
203 226 255
203 226 255
203 226 255
203 226 255
204 226 255
204 226 255
204 226 255
204 226 255
204 226 255
204 226 255
204 226 255
204 226 255
204 226 255
204 226 255
204 226 255
204 226 255
204 226 255
204 226 255
204 226 255
204 226 255
204 226 255
205 226 255
205 226 255
205 226 255
205 226 255
205 226 255
205 226 255
205 226 255
205 227 255
205 227 255
205 227 255
205 227 255
205 227 255
205 227 255
205 227 255
205 227 255
205 227 255
205 227 255
206 227 255
206 227 255
206 227 255
206 227 255
206 227 255
206 227 255
206 227 255
206 227 255
206 227 255
206 227 255
206 227 255
206 227 255
206 227 255
206 227 255
206 227 255
206 227 255
206 227 255
207 227 255
207 227 255
207 227 255
207 227 255
207 227 255
207 228 255
207 228 255
207 228 255
207 228 255
207 228 255
207 228 255
207 228 255
207 228 255
207 228 255
207 228 255
207 228 255
207 228 255
207 228 255
208 228 255
208 228 255
208 228 255
208 228 255
208 228 255
208 228 255
208 228 255
208 228 255
208 228 255
208 228 255
208 228 255
208 228 255
208 228 255
208 228 255
208 228 255
208 228 255
208 228 255
208 228 255
208 228 255
208 228 255
209 228 255
209 229 255
209 229 255
209 229 255
209 229 255
209 229 255
209 229 255
209 229 255
209 229 255
209 229 255
209 229 255
209 229 255
209 229 255
209 229 255
209 229 255
209 229 255
209 229 255
209 229 255
209 229 255
209 229 255
209 229 255
210 229 255
210 229 255
210 229 255
210 229 255
210 229 255
210 229 255
210 229 255
210 229 255
210 229 255
210 229 255
210 229 255
210 229 255
210 229 255
210 229 255
210 229 255
210 229 255
210 229 255
210 229 255
210 229 255
210 229 255
210 229 255
210 230 255
210 230 255
210 230 255
211 230 255
211 230 255
211 230 255
211 230 255
211 230 255
211 230 255
211 230 255
211 230 255
211 230 255
211 230 255
211 230 255
211 230 255
211 230 255
211 230 255
211 230 255
211 230 255
210 230 255
210 230 255
210 230 255
210 229 255
210 229 255
210 229 255
210 229 255
210 229 255
210 229 255
210 229 255
210 229 255
210 229 255
210 229 255
210 229 255
210 229 255
210 229 255
210 229 255
210 229 255
210 229 255
210 229 255
210 229 255
210 229 255
210 229 255
210 229 255
209 229 255
209 229 255
209 229 255
209 229 255
208 228 254
205 224 251
202 221 247
193 211 236
195 214 239
192 211 236
190 208 233
177 195 219
180 197 221
183 201 226
183 201 225
175 193 216
181 199 224
186 205 230
184 203 228
183 201 226
185 204 229
184 203 228
186 205 230
190 208 233
195 214 240
198 217 243
203 222 249
207 227 254
208 228 255
208 228 255
208 228 255
208 228 255
208 228 255
208 228 255
208 228 255
208 228 255
208 228 255
208 228 255
208 228 255
208 228 255
207 228 255
207 228 255
207 228 255
207 228 255
207 228 255
207 228 255
207 228 255
207 228 255
207 228 255
207 228 255
207 228 255
207 228 255
207 228 255
207 228 255
207 227 255
207 227 255
207 227 255
207 227 255
206 227 255
206 227 255
206 227 255
206 227 255
206 227 255
206 227 255
206 227 255
206 227 255
206 227 255
206 227 255
206 227 255
206 227 255
206 227 255
206 227 255
206 227 255
206 227 255
206 227 255
205 227 255
205 227 255
205 227 255
205 227 255
205 227 255
205 227 255
205 227 255
205 227 255
205 227 255
205 227 255
205 226 255
205 226 255
205 226 255
205 226 255
205 226 255
205 226 255
205 226 255
204 226 255
204 226 255
204 226 255
204 226 255
204 226 255
204 226 255
204 226 255
204 226 255
204 226 255
204 226 255
204 226 255
204 226 255
204 226 255
204 226 255
204 226 255
204 226 255
204 226 255
204 226 255
204 226 255
203 226 255
203 226 255
203 226 255
203 226 255
203 226 255
203 226 255
203 226 255
203 226 255
203 225 255
203 225 255
203 225 255
203 225 255
203 225 255
203 225 255
203 225 255
203 225 255
203 225 255
203 225 255
203 225 255
203 225 255
203 225 255
203 225 255
202 225 255
202 225 255
202 225 255
202 225 255
202 225 255
202 225 255
202 225 255
202 225 255
202 225 255
202 225 255
202 225 255
202 225 255
202 225 255
202 225 255
202 225 255
202 225 255
202 225 255
202 225 255
202 225 255
202 225 255
202 225 255
202 225 255
202 225 255
202 225 255
202 225 255
202 225 255
202 225 255
202 225 255
202 225 255
202 225 255
202 225 255
202 225 255
202 225 255
202 225 255
202 225 255
202 225 255
202 225 255
202 225 255
202 225 255
202 225 255
202 225 255
202 225 255
202 225 255
202 225 255
202 225 255
202 225 255
202 225 255
202 225 255
202 225 255
202 225 255
202 225 255
202 225 255
202 225 255
202 225 255
202 225 255
202 225 255
202 225 255
202 225 255
202 225 255
202 225 255
202 225 255
202 225 255
202 225 255
202 225 255
202 225 255
202 225 255
203 225 255
203 225 255
203 225 255
203 225 255
203 225 255
203 225 255
203 225 255
203 225 255
203 225 255
203 225 255
203 225 255
203 225 255
203 225 255
203 225 255
203 226 255
203 226 255
203 226 255
203 226 255
203 226 255
203 226 255
203 226 255
203 226 255
203 226 255
204 226 255
204 226 255
204 226 255
204 226 255
204 226 255
204 226 255
204 226 255
204 226 255
204 226 255
204 226 255
204 226 255
204 226 255
204 226 255
204 226 255
204 226 255
204 226 255
204 226 255
204 226 255
205 226 255
205 226 255
205 226 255
205 226 255
205 226 255
205 226 255
205 226 255
205 227 255
205 227 255
205 227 255
205 227 255
205 227 255
205 227 255
205 227 255
205 227 255
205 227 255
205 227 255
206 227 255
206 227 255
206 227 255
206 227 255
206 227 255
206 227 255
206 227 255
206 227 255
206 227 255
206 227 255
206 227 255
206 227 255
206 227 255
206 227 255
206 227 255
206 227 255
206 227 255
207 227 255
207 227 255
207 227 255
207 227 255
207 228 255
207 228 255
207 228 255
207 228 255
207 228 255
207 228 255
207 228 255
207 228 255
207 228 255
207 228 255
207 228 255
207 228 255
207 228 255
207 228 255
208 228 255
208 228 255
208 228 255
208 228 255
208 228 255
208 228 255
208 228 255
208 228 255
208 228 255
208 228 255
208 228 255
208 228 255
207 227 254
203 223 248
199 217 240
190 207 228
183 199 217
191 207 224
184 196 204
187 200 210
176 188 196
181 193 199
181 196 212
181 195 207
181 193 200
187 201 215
176 189 198
176 187 191
187 201 211
188 201 212
194 209 227
192 208 225
196 213 234
198 215 237
208 226 250
208 227 253
209 229 255
209 229 255
209 229 255
209 229 255
210 229 255
210 229 255
210 229 255
210 229 255
210 229 255
210 229 255
210 229 255
210 229 255
210 229 255
210 229 255
210 229 255
210 229 255
210 229 255
210 229 255
210 229 255
210 229 255
210 229 255
210 229 255
210 229 255
210 229 255
210 229 255
210 230 255
210 230 255
210 230 255
211 230 255
211 230 255
211 230 255
211 230 255
211 230 255
211 230 255
211 230 255
211 230 255
211 230 255
211 230 255
211 230 255
211 230 255
211 230 255
211 230 255
211 230 255
211 230 255
211 230 255
211 230 255
211 230 255
211 230 255
211 230 255
211 230 255
211 230 255
211 230 255
210 230 255
210 230 255
210 230 255
210 229 255
210 229 255
210 229 255
210 229 255
210 229 255
210 229 255
210 229 255
210 229 255
210 229 255
210 229 255
210 229 255
210 229 255
205 224 250
195 214 239
193 212 237
180 197 221
181 199 223
176 194 218
161 178 201
154 171 194
153 171 194
147 164 188
151 169 192
148 166 190
155 173 198
150 169 194
148 166 190
149 167 191
158 177 203
155 174 199
149 168 192
156 175 200
155 174 200
148 166 191
148 166 191
158 178 204
147 165 190
152 171 196
154 173 199
145 164 188
147 165 190
149 168 192
147 165 190
150 169 194
155 173 198
145 162 185
150 167 190
158 175 199
168 186 210
178 197 223
179 198 223
183 202 227
201 221 248
205 225 252
208 228 255
208 228 255
208 228 255
208 228 255
208 228 255
208 228 255
207 228 255
207 228 255
207 228 255
207 228 255
207 228 255
207 228 255
207 228 255
207 228 255
207 228 255
207 228 255
207 228 255
207 228 255
207 228 255
207 228 255
207 227 255
207 227 255
207 227 255
207 227 255
206 227 255
206 227 255
206 227 255
206 227 255
206 227 255
206 227 255
206 227 255
206 227 255
206 227 255
206 227 255
206 227 255
206 227 255
206 227 255
206 227 255
206 227 255
206 227 255
206 227 255
205 227 255
205 227 255
205 227 255
205 227 255
205 227 255
205 227 255
205 227 255
205 227 255
205 227 255
205 227 255
205 227 255
205 226 255
205 226 255
205 226 255
205 226 255
205 226 255
205 226 255
205 226 255
204 226 255
204 226 255
204 226 255
204 226 255
204 226 255
204 226 255
204 226 255
204 226 255
204 226 255
204 226 255
204 226 255
204 226 255
204 226 255
204 226 255
204 226 255
204 226 255
204 226 255
204 226 255
204 226 255
203 226 255
203 226 255
203 226 255
203 226 255
203 226 255
203 226 255
203 226 255
203 226 255
203 226 255
203 225 255
203 225 255
203 225 255
203 225 255
203 225 255
203 225 255
203 225 255
203 225 255
203 225 255
203 225 255
203 225 255
203 225 255
203 225 255
203 225 255
203 225 255
203 225 255
202 225 255
202 225 255
202 225 255
202 225 255
202 225 255
202 225 255
202 225 255
202 225 255
202 225 255
202 225 255
202 225 255
202 225 255
202 225 255
202 225 255
202 225 255
202 225 255
202 225 255
202 225 255
202 225 255
202 225 255
202 225 255
202 225 255
202 225 255
202 225 255
202 225 255
202 225 255
202 225 255
202 225 255
202 225 255
202 225 255
202 225 255
202 225 255
202 225 255
202 225 255
202 225 255
202 225 255
202 225 255
202 225 255
202 225 255
202 225 255
202 225 255
202 225 255
202 225 255
202 225 255
202 225 255
202 225 255
202 225 255
202 225 255
202 225 255
202 225 255
202 225 255
202 225 255
203 225 255
203 225 255
203 225 255
203 225 255
203 225 255
203 225 255
203 225 255
203 225 255
203 225 255
203 225 255
203 225 255
203 225 255
203 225 255
203 225 255
203 225 255
203 226 255
203 226 255
203 226 255
203 226 255
203 226 255
203 226 255
203 226 255
203 226 255
203 226 255
203 226 255
204 226 255
204 226 255
204 226 255
204 226 255
204 226 255
204 226 255
204 226 255
204 226 255
204 226 255
204 226 255
204 226 255
204 226 255
204 226 255
204 226 255
204 226 255
204 226 255
204 226 255
204 226 255
204 226 255
205 226 255
205 226 255
205 226 255
205 226 255
205 226 255
205 226 255
205 226 255
205 227 255
205 227 255
205 227 255
205 227 255
205 227 255
205 227 255
205 227 255
205 227 255
205 227 255
205 227 255
206 227 255
206 227 255
206 227 255
206 227 255
206 227 255
206 227 255
206 227 255
206 227 255
206 227 255
206 227 255
206 227 255
206 227 255
206 227 255
206 227 255
206 227 255
206 227 255
206 227 255
207 227 255
207 227 255
207 227 255
207 227 255
207 227 255
207 228 255
207 228 255
207 228 255
207 228 255
207 228 255
207 228 255
207 228 255
207 228 255
207 228 255
207 228 255
207 228 255
207 228 255
207 228 255
207 228 255
208 228 255
208 228 255
208 228 255
208 228 255
208 228 255
208 228 255
204 224 250
198 215 237
192 209 228
185 201 217
168 180 187
158 165 158
164 170 159
136 138 112
127 128 99
133 130 87
132 130 87
126 123 82
132 129 86
131 128 85
130 128 85
129 127 84
138 136 90
120 118 79
136 134 90
132 130 87
137 134 89
137 135 90
131 129 85
125 122 80
129 126 84
135 132 87
129 126 84
122 119 79
125 124 80
135 131 86
130 127 84
127 125 82
126 124 81
139 139 109
147 150 133
159 164 155
156 162 154
167 175 172
177 188 196
197 213 231
202 219 239
205 224 249
210 229 255
210 229 255
210 229 255
210 229 255
210 229 255
210 229 255
210 229 255
210 229 255
210 229 255
210 229 255
210 229 255
210 229 255
210 230 255
210 230 255
210 230 255
211 230 255
211 230 255
211 230 255
211 230 255
211 230 255
211 230 255
211 230 255
211 230 255
211 230 255
211 230 255
211 230 255
211 230 255
211 230 255
211 230 255
211 230 255
211 230 255
211 230 255
211 230 255
211 230 255
211 230 255
211 230 255
211 230 255
211 230 255
211 230 255
211 230 255
211 230 255
211 230 255
211 230 255
211 230 255
211 230 255
211 230 255
211 230 255
210 230 255
210 230 255
210 230 255
210 229 255
210 229 255
206 225 250
192 210 235
179 196 219
176 193 216
167 184 207
153 170 192
142 159 180
141 158 180
148 165 188
155 174 198
153 172 196
146 165 188
150 169 194
158 177 203
161 181 207
159 179 204
156 176 202
158 178 204
162 182 208
162 182 209
159 180 207
158 179 207
159 180 208
159 180 208
164 185 213
160 181 208
158 178 206
157 178 206
166 188 217
161 183 211
159 180 208
166 189 218
163 184 213
156 177 206
161 183 212
158 180 208
160 182 211
160 182 209
158 180 208
155 175 202
158 179 207
156 178 206
156 176 203
148 168 194
149 169 195
150 170 195
152 172 198
147 165 190
152 170 194
158 177 201
174 193 218
173 191 216
193 213 239
199 219 246
208 228 255
208 228 255
208 228 255
208 228 255
207 228 255
207 228 255
207 228 255
207 228 255
207 228 255
207 228 255
207 228 255
207 228 255
207 228 255
207 228 255
207 228 255
207 228 255
207 228 255
207 228 255
207 227 255
207 227 255
207 227 255
207 227 255
206 227 255
206 227 255
206 227 255
206 227 255
206 227 255
206 227 255
206 227 255
206 227 255
206 227 255
206 227 255
206 227 255
206 227 255
206 227 255
206 227 255
206 227 255
206 227 255
206 227 255
206 227 255
205 227 255
205 227 255
205 227 255
205 227 255
205 227 255
205 227 255
205 227 255
205 227 255
205 227 255
205 227 255
205 226 255
205 226 255
205 226 255
205 226 255
205 226 255
205 226 255
205 226 255
204 226 255
204 226 255
204 226 255
204 226 255
204 226 255
204 226 255
204 226 255
204 226 255
204 226 255
204 226 255
204 226 255
204 226 255
204 226 255
204 226 255
204 226 255
204 226 255
204 226 255
204 226 255
204 226 255
204 226 255
203 226 255
203 226 255
203 226 255
203 226 255
203 226 255
203 226 255
203 226 255
203 226 255
203 226 255
203 226 255
203 225 255
203 225 255
203 225 255
203 225 255
203 225 255
203 225 255
203 225 255
203 225 255
203 225 255
203 225 255
203 225 255
203 225 255
203 225 255
203 225 255
203 225 255
203 225 255
203 225 255
203 225 255
203 225 255
203 225 255
202 225 255
202 225 255
202 225 255
202 225 255
202 225 255
202 225 255
202 225 255
202 225 255
202 225 255
202 225 255
202 225 255
202 225 255
202 225 255
202 225 255
202 225 255
202 225 255
202 225 255
202 225 255
202 225 255
202 225 255
202 225 255
202 225 255
202 225 255
202 225 255
202 225 255
202 225 255
202 225 255
202 225 255
202 225 255
202 225 255
202 225 255
202 225 255
203 225 255
203 225 255
203 225 255
203 225 255
203 225 255
203 225 255
203 225 255
203 225 255
203 225 255
203 225 255
203 225 255
203 225 255
203 225 255
203 225 255
203 225 255
203 225 255
203 225 255
203 225 255
203 225 255
203 225 255
203 226 255
203 226 255
203 226 255
203 226 255
203 226 255
203 226 255
203 226 255
203 226 255
203 226 255
203 226 255
204 226 255
204 226 255
204 226 255
204 226 255
204 226 255
204 226 255
204 226 255
204 226 255
204 226 255
204 226 255
204 226 255
204 226 255
204 226 255
204 226 255
204 226 255
204 226 255
204 226 255
204 226 255
204 226 255
204 226 255
205 226 255
205 226 255
205 226 255
205 226 255
205 226 255
205 226 255
205 226 255
205 227 255
205 227 255
205 227 255
205 227 255
205 227 255
205 227 255
205 227 255
205 227 255
205 227 255
205 227 255
205 227 255
206 227 255
206 227 255
206 227 255
206 227 255
206 227 255
206 227 255
206 227 255
206 227 255
206 227 255
206 227 255
206 227 255
206 227 255
206 227 255
206 227 255
206 227 255
206 227 255
206 227 255
207 227 255
207 227 255
207 227 255
207 227 255
207 228 255
207 228 255
207 228 255
207 228 255
207 228 255
207 228 255
207 228 255
207 228 255
207 228 255
207 228 255
207 228 255
207 228 255
207 228 255
207 228 255
208 228 255
208 228 255
208 228 255
208 228 255
198 216 239
183 198 212
170 181 188
169 181 186
153 158 145
138 139 111
129 127 84
134 132 88
124 123 82
132 129 86
130 128 85
135 133 89
138 136 90
128 126 84
147 144 96
139 136 90
135 133 89
138 136 91
140 136 90
119 118 79
136 133 88
138 136 90
131 129 86
132 130 87
127 125 83
139 137 92
138 136 91
140 137 91
147 145 97
146 143 95
140 137 91
138 136 91
135 133 88
144 140 92
129 126 84
128 126 83
131 128 84
137 135 89
140 138 91
127 124 82
134 130 85
131 128 84
135 132 86
134 130 85
134 132 87
141 138 92
136 132 84
136 133 90
140 139 104
152 158 148
161 170 168
188 200 208
193 209 226
203 221 246
210 229 255
210 229 255
210 230 255
210 230 255
210 230 255
211 230 255
211 230 255
211 230 255
211 230 255
211 230 255
211 230 255
211 230 255
211 230 255
211 230 255
211 230 255
211 230 255
211 230 255
211 230 255
211 230 255
211 230 255
211 230 255
211 230 255
211 230 255
211 230 255
211 230 255
211 230 255
211 230 255
211 230 255
211 230 255
211 230 255
211 230 255
211 230 255
211 230 255
211 230 255
211 230 255
211 230 255
211 230 255
211 230 255
211 230 255
211 230 255
211 230 255
205 224 249
192 210 234
181 198 221
166 183 205
158 176 199
142 157 178
149 167 190
155 173 196
155 174 198
157 175 199
146 164 187
161 180 206
160 179 204
165 185 212
157 176 202
158 178 204
165 186 213
164 185 212
164 185 213
162 184 212
164 186 214
169 191 220
166 188 217
165 186 214
168 191 220
167 190 219
168 191 220
164 186 216
168 191 221
169 192 223
167 190 220
168 191 221
165 188 218
166 190 220
171 194 225
167 190 220
165 189 219
168 191 221
168 192 223
162 186 216
165 188 218
161 184 213
166 189 219
161 184 213
164 188 218
161 184 213
166 189 219
161 183 213
167 190 220
156 177 206
162 185 216
164 187 217
157 178 207
154 174 200
160 181 209
157 178 206
159 179 207
147 166 191
135 153 175
160 179 205
152 169 192
167 185 209
188 207 233
202 222 249
208 228 255
208 228 255
208 228 255
207 228 255
207 228 255
207 228 255
207 228 255
207 228 255
207 228 255
207 228 255
207 228 255
207 228 255
207 228 255
207 228 255
207 228 255
207 228 255
207 227 255
207 227 255
207 227 255
207 227 255
207 227 255
206 227 255
206 227 255
206 227 255
206 227 255
206 227 255
206 227 255
206 227 255
206 227 255
206 227 255
206 227 255
206 227 255
206 227 255
206 227 255
206 227 255
206 227 255
206 227 255
206 227 255
205 227 255
205 227 255
205 227 255
205 227 255
205 227 255
205 227 255
205 227 255
205 227 255
205 227 255
205 227 255
205 227 255
205 226 255
205 226 255
205 226 255
205 226 255
205 226 255
205 226 255
205 226 255
204 226 255
204 226 255
204 226 255
204 226 255
204 226 255
204 226 255
204 226 255
204 226 255
204 226 255
204 226 255
204 226 255
204 226 255
204 226 255
204 226 255
204 226 255
204 226 255
204 226 255
204 226 255
204 226 255
204 226 255
204 226 255
203 226 255
203 226 255
203 226 255
203 226 255
203 226 255
203 226 255
203 226 255
203 226 255
203 226 255
203 226 255
203 226 255
203 226 255
203 225 255
203 225 255
203 225 255
203 225 255
203 225 255
203 225 255
203 225 255
203 225 255
203 225 255
203 225 255
203 225 255
203 225 255
203 225 255
203 225 255
203 225 255
203 225 255
203 225 255
203 225 255
203 225 255
203 225 255
203 225 255
203 225 255
203 225 255
203 225 255
203 225 255
203 225 255
203 225 255
203 225 255
203 225 255
203 225 255
203 225 255
203 225 255
203 225 255
203 225 255
203 225 255
203 225 255
203 225 255
203 225 255
203 225 255
203 225 255
203 225 255
203 225 255
203 225 255
203 225 255
203 225 255
203 225 255
203 225 255
203 225 255
203 225 255
203 225 255
203 225 255
203 225 255
203 225 255
203 225 255
203 225 255
203 225 255
203 225 255
203 225 255
203 226 255
203 226 255
203 226 255
203 226 255
203 226 255
203 226 255
203 226 255
203 226 255
203 226 255
203 226 255
203 226 255
203 226 255
204 226 255
204 226 255
204 226 255
204 226 255
204 226 255
204 226 255
204 226 255
204 226 255
204 226 255
204 226 255
204 226 255
204 226 255
204 226 255
204 226 255
204 226 255
204 226 255
204 226 255
204 226 255
204 226 255
204 226 255
204 226 255
205 226 255
205 226 255
205 226 255
205 226 255
205 226 255
205 226 255
205 226 255
205 227 255
205 227 255
205 227 255
205 227 255
205 227 255
205 227 255
205 227 255
205 227 255
205 227 255
205 227 255
205 227 255
206 227 255
206 227 255
206 227 255
206 227 255
206 227 255
206 227 255
206 227 255
206 227 255
206 227 255
206 227 255
206 227 255
206 227 255
206 227 255
206 227 255
206 227 255
206 227 255
206 227 255
207 227 255
207 227 255
207 227 255
207 227 255
207 227 255
207 228 255
207 228 255
207 228 255
207 228 255
207 228 255
207 228 255
207 228 255
207 228 255
207 228 255
207 228 255
207 228 255
207 228 255
207 228 255
208 228 255
208 228 255
208 228 255
205 225 251
189 204 219
169 181 190
150 156 147
138 138 107
129 127 84
128 126 84
132 129 86
136 134 90
130 128 85
124 122 81
140 137 91
137 136 92
124 123 82
136 135 90
137 135 90
134 132 88
136 134 90
136 134 90
139 137 91
128 126 84
123 121 81
137 135 90
139 137 91
128 126 84
132 130 87
132 130 87
147 145 97
139 137 92
137 134 89
131 130 87
133 131 87
145 142 94
134 133 87
129 126 84
142 139 93
147 144 96
137 135 89
148 145 97
139 137 90
132 130 86
142 140 93
144 141 93
132 130 87
135 133 89
132 130 87
136 132 86
135 131 87
135 132 87
132 128 84
137 134 87
145 142 92
139 135 88
142 139 91
133 130 85
129 127 84
132 129 85
135 131 86
137 133 85
143 144 122
159 166 162
170 181 188
194 209 226
202 220 242
211 230 255
211 230 255
211 230 255
211 230 255
211 230 255
211 230 255
211 230 255
211 230 255
211 230 255
211 230 255
211 230 255
211 230 255
211 230 255
211 230 255
211 230 255
211 230 255
211 230 255
211 230 255
211 230 255
211 230 255
211 230 255
211 230 255
211 230 255
211 230 255
211 230 255
211 230 255
211 230 255
211 230 255
211 230 255
211 230 255
211 230 255
211 230 255
201 219 244
195 212 236
168 185 207
151 167 189
148 164 186
156 174 198
147 163 186
153 171 195
156 175 199
159 178 203
158 177 202
159 179 204
165 185 212
169 190 218
163 183 209
167 187 214
169 190 218
163 184 211
163 185 213
166 187 216
166 188 217
168 190 219
170 192 221
172 195 225
172 195 225
172 196 226
169 192 223
172 196 227
172 195 226
168 192 223
173 196 227
172 195 226
171 195 226
172 196 227
172 196 227
172 197 228
170 194 226
171 195 227
172 196 228
171 195 227
170 195 226
171 195 227
171 196 227
173 197 228
170 195 227
171 195 227
168 193 225
167 192 224
170 195 227
169 193 225
169 193 225
167 192 224
169 193 225
168 193 225
169 193 225
167 191 223
169 194 226
162 185 216
162 185 216
164 188 218
158 180 209
155 176 204
161 183 212
152 173 200
152 172 199
154 175 202
152 173 199
155 175 202
151 169 193
166 185 209
187 207 233
202 222 249
208 228 255
208 228 255
207 228 255
207 228 255
207 228 255
207 228 255
207 228 255
207 228 255
207 228 255
207 228 255
207 228 255
207 228 255
207 228 255
207 228 255
207 228 255
207 228 255
207 227 255
207 227 255
207 227 255
207 227 255
207 227 255
206 227 255
206 227 255
206 227 255
206 227 255
206 227 255
206 227 255
206 227 255
206 227 255
206 227 255
206 227 255
206 227 255
206 227 255
206 227 255
206 227 255
206 227 255
206 227 255
206 227 255
205 227 255
205 227 255
205 227 255
205 227 255
205 227 255
205 227 255
205 227 255
205 227 255
205 227 255
205 227 255
205 227 255
205 226 255
205 226 255
205 226 255
205 226 255
205 226 255
205 226 255
205 226 255
205 226 255
204 226 255
204 226 255
204 226 255
204 226 255
204 226 255
204 226 255
204 226 255
204 226 255
204 226 255
204 226 255
204 226 255
204 226 255
204 226 255
204 226 255
204 226 255
204 226 255
204 226 255
204 226 255
204 226 255
204 226 255
204 226 255
204 226 255
204 226 255
203 226 255
203 226 255
203 226 255
203 226 255
203 226 255
203 226 255
203 226 255
203 226 255
203 226 255
203 226 255
203 226 255
203 226 255
203 226 255
203 226 255
203 225 255
203 225 255
203 225 255
203 225 255
203 225 255
203 225 255
203 225 255
203 225 255
203 225 255
203 225 255
203 225 255
203 225 255
203 225 255
203 225 255
203 225 255
203 225 255
203 225 255
203 225 255
203 225 255
203 225 255
203 225 255
203 225 255
203 225 255
203 225 255
203 225 255
203 225 255
203 225 255
203 225 255
203 225 255
203 225 255
203 225 255
203 225 255
203 225 255
203 225 255
203 225 255
203 225 255
203 225 255
203 225 255
203 225 255
203 225 255
203 226 255
203 226 255
203 226 255
203 226 255
203 226 255
203 226 255
203 226 255
203 226 255
203 226 255
203 226 255
203 226 255
203 226 255
203 226 255
203 226 255
203 226 255
204 226 255
204 226 255
204 226 255
204 226 255
204 226 255
204 226 255
204 226 255
204 226 255
204 226 255
204 226 255
204 226 255
204 226 255
204 226 255
204 226 255
204 226 255
204 226 255
204 226 255
204 226 255
204 226 255
204 226 255
204 226 255
204 226 255
204 226 255
205 226 255
205 226 255
205 226 255
205 226 255
205 226 255
205 226 255
205 226 255
205 227 255
205 227 255
205 227 255
205 227 255
205 227 255
205 227 255
205 227 255
205 227 255
205 227 255
205 227 255
205 227 255
206 227 255
206 227 255
206 227 255
206 227 255
206 227 255
206 227 255
206 227 255
206 227 255
206 227 255
206 227 255
206 227 255
206 227 255
206 227 255
206 227 255
206 227 255
206 227 255
206 227 255
206 227 255
207 227 255
207 227 255
207 227 255
207 227 255
207 228 255
207 228 255
207 228 255
207 228 255
207 228 255
207 228 255
207 228 255
207 228 255
207 228 255
207 228 255
207 228 255
207 228 255
207 228 255
208 228 255
208 228 255
208 228 255
196 214 236
185 200 213
159 168 165
133 133 106
124 123 82
126 125 84
130 128 86
143 142 95
137 136 91
127 126 84
141 140 93
132 130 87
128 126 84
142 140 94
135 134 90
128 126 84
138 136 91
134 133 89
142 140 93
137 136 92
134 133 90
139 138 93
137 135 90
139 138 93
133 132 88
139 136 90
134 132 87
135 133 88
141 139 92
140 138 92
138 137 92
131 129 87
138 136 91
145 142 95
133 131 87
136 135 88
136 134 89
142 139 93
141 139 93
125 124 81
143 141 94
143 140 93
149 146 97
134 132 87
140 137 90
134 132 87
142 139 93
137 134 87
144 141 93
130 128 85
140 137 90
131 129 84
135 131 86
143 141 93
135 132 87
131 129 86
142 138 92
145 141 93
143 139 92
143 138 90
132 128 84
126 123 80
135 132 86
127 124 80
134 132 87
129 126 81
132 129 83
129 125 81
146 148 127
167 175 170
181 194 206
200 217 238
211 230 255
211 230 255
211 230 255
211 230 255
211 230 255
211 230 255
211 230 255
211 230 255
211 230 255
211 230 255
211 230 255
211 230 255
211 230 255
211 230 255
212 230 255
212 230 255
212 230 255
212 230 255
211 230 255
211 230 255
211 230 255
211 230 255
211 230 255
211 230 255
197 215 239
183 199 222
167 183 205
159 176 198
152 169 191
143 160 181
157 175 199
159 177 200
165 184 209
158 176 200
160 179 204
152 171 195
166 186 213
164 184 211
167 188 216
162 183 209
169 190 218
172 194 224
170 192 221
173 195 224
173 196 225
172 195 225
171 193 221
174 197 227
173 195 225
172 196 226
173 196 226
176 199 228
173 197 228
173 197 228
173 197 228
173 197 228
173 197 228
172 197 228
172 196 228
172 197 228
172 197 228
171 196 228
171 196 228
170 196 228
171 196 228
171 196 228
170 196 228
171 196 228
170 195 228
170 195 228
170 196 228
170 196 228
170 196 228
170 195 228
169 195 228
170 196 228
170 196 228
170 195 228
170 195 228
170 195 228
170 195 228
170 195 228
170 195 228
170 195 228
170 196 228
169 194 227
169 194 226
169 194 226
170 195 227
168 193 225
167 191 223
166 190 221
165 189 220
167 191 223
167 190 221
155 176 204
159 181 209
152 172 199
152 173 199
141 159 183
160 179 204
169 187 212
179 198 223
202 222 248
208 228 255
208 228 255
207 228 255
207 228 255
207 228 255
207 228 255
207 228 255
207 228 255
207 228 255
207 228 255
207 228 255
207 228 255
207 228 255
207 228 255
207 228 255
207 228 255
207 227 255
207 227 255
207 227 255
207 227 255
206 227 255
206 227 255
206 227 255
206 227 255
206 227 255
206 227 255
206 227 255
206 227 255
206 227 255
206 227 255
206 227 255
206 227 255
206 227 255
206 227 255
206 227 255
206 227 255
206 227 255
206 227 255
205 227 255
205 227 255
205 227 255
205 227 255
205 227 255
205 227 255
205 227 255
205 227 255
205 227 255
205 227 255
205 227 255
205 226 255
205 226 255
205 226 255
205 226 255
205 226 255
205 226 255
205 226 255
205 226 255
204 226 255
204 226 255
204 226 255
204 226 255
204 226 255
204 226 255
204 226 255
204 226 255
204 226 255
204 226 255
204 226 255
204 226 255
204 226 255
204 226 255
204 226 255
204 226 255
204 226 255
204 226 255
204 226 255
204 226 255
204 226 255
204 226 255
204 226 255
204 226 255
204 226 255
203 226 255
203 226 255
203 226 255
203 226 255
203 226 255
203 226 255
203 226 255
203 226 255
203 226 255
203 226 255
203 226 255
203 226 255
203 226 255
203 226 255
203 226 255
203 226 255
203 226 255
203 226 255
203 226 255
203 226 255
203 226 255
203 226 255
203 226 255
203 226 255
203 226 255
203 226 255
203 226 255
203 226 255
203 226 255
203 226 255
203 226 255
203 226 255
203 226 255
203 226 255
203 226 255
203 226 255
203 226 255
203 226 255
203 226 255
203 226 255
203 226 255
203 226 255
203 226 255
203 226 255
203 226 255
203 226 255
203 226 255
203 226 255
203 226 255
203 226 255
203 226 255
203 226 255
203 226 255
203 226 255
203 226 255
203 226 255
204 226 255
204 226 255
204 226 255
204 226 255
204 226 255
204 226 255
204 226 255
204 226 255
204 226 255
204 226 255
204 226 255
204 226 255
204 226 255
204 226 255
204 226 255
204 226 255
204 226 255
204 226 255
204 226 255
204 226 255
204 226 255
204 226 255
204 226 255
204 226 255
204 226 255
205 226 255
205 226 255
205 226 255
205 226 255
205 226 255
205 226 255
205 226 255
205 226 255
205 227 255
205 227 255
205 227 255
205 227 255
205 227 255
205 227 255
205 227 255
205 227 255
205 227 255
205 227 255
205 227 255
206 227 255
206 227 255
206 227 255
206 227 255
206 227 255
206 227 255
206 227 255
206 227 255
206 227 255
206 227 255
206 227 255
206 227 255
206 227 255
206 227 255
206 227 255
206 227 255
206 227 255
206 227 255
207 227 255
207 227 255
207 227 255
207 227 255
207 228 255
207 228 255
207 228 255
207 228 255
207 228 255
207 228 255
207 228 255
207 228 255
207 228 255
207 228 255
207 228 255
207 228 255
207 228 255
207 228 255
208 228 255
208 228 255
205 225 252
179 192 204
167 176 173
139 142 117
124 123 82
134 132 88
129 128 86
139 137 92
133 132 88
120 118 79
138 137 92
134 133 90
138 136 91
145 144 97
127 125 84
138 137 92
136 135 90
139 138 93
138 137 92
135 134 90
139 139 93
133 132 88
133 132 88
144 143 96
133 132 89
140 139 93
141 140 94
142 140 93
142 141 95
139 137 91
145 143 95
149 147 98
150 147 97
146 144 97
142 140 93
140 138 92
135 134 90
143 142 95
141 140 94
139 137 91
138 136 91
139 137 92
146 144 96
148 145 96
140 138 92
140 138 92
130 127 84
143 141 93
142 140 93
145 143 95
146 142 93
132 129 84
144 141 93
138 136 90
147 145 96
142 140 91
132 129 85
129 127 84
142 139 91
142 141 94
136 133 87
145 142 93
143 139 91
143 138 90
138 135 89
147 143 93
136 134 87
123 119 78
135 131 87
141 138 90
136 132 84
140 136 90
144 141 92
135 131 84
130 127 83
124 119 76
136 134 105
165 173 173
185 199 212
201 217 238
211 230 255
211 230 255
211 230 255
211 230 255
211 230 255
211 230 255
212 230 255
212 230 255
212 230 255
212 230 255
212 230 255
212 230 255
212 230 255
212 230 255
212 230 255
212 230 255
212 230 255
202 220 245
184 201 224
168 185 207
147 162 183
152 169 191
153 170 192
151 168 191
157 175 199
162 180 204
166 184 209
158 177 202
165 185 212
169 190 217
158 178 204
169 190 218
171 192 219
166 187 214
172 194 223
168 190 218
172 195 224
174 196 226
173 195 225
173 196 226
175 198 228
174 197 227
174 198 228
175 198 228
175 198 228
173 197 228
173 197 228
173 197 228
173 197 228
173 197 228
172 196 228
171 196 228
171 196 228
171 196 228
171 196 228
171 196 228
171 196 228
171 196 228
170 195 228
170 195 228
170 195 228
169 195 228
170 195 228
169 195 228
169 195 228
169 195 228
169 195 228
169 195 228
169 195 228
169 195 228
168 195 228
169 195 228
168 195 228
169 195 228
168 194 228
169 195 228
168 195 228
169 195 228
168 194 228
169 195 228
169 195 228
168 195 228
169 195 228
168 195 228
169 195 228
168 195 228
169 195 228
170 195 228
165 190 223
167 192 224
167 192 224
166 190 221
161 185 216
162 186 217
163 186 217
166 190 220
162 184 213
159 181 209
152 172 199
150 170 195
156 174 198
185 205 231
195 214 241
208 228 255
208 228 255
208 228 255
207 228 255
207 228 255
207 228 255
207 228 255
207 228 255
207 228 255
207 228 255
207 228 255
207 228 255
207 228 255
207 228 255
207 228 255
207 228 255
207 228 255
207 227 255
207 227 255
207 227 255
207 227 255
206 227 255
206 227 255
206 227 255
206 227 255
206 227 255
206 227 255
206 227 255
206 227 255
206 227 255
206 227 255
206 227 255
206 227 255
206 227 255
206 227 255
206 227 255
206 227 255
206 227 255
206 227 255
205 227 255
205 227 255
205 227 255
205 227 255
205 227 255
205 227 255
205 227 255
205 227 255
205 227 255
205 227 255
205 227 255
205 227 255
205 226 255
205 226 255
205 226 255
205 226 255
205 226 255
205 226 255
205 226 255
205 226 255
204 226 255
204 226 255
204 226 255
204 226 255
204 226 255
204 226 255
204 226 255
204 226 255
204 226 255
204 226 255
204 226 255
204 226 255
204 226 255
204 226 255
204 226 255
204 226 255
204 226 255
204 226 255
204 226 255
204 226 255
204 226 255
204 226 255
204 226 255
204 226 255
204 226 255
204 226 255
204 226 255
204 226 255
204 226 255
204 226 255
203 226 255
203 226 255
203 226 255
203 226 255
203 226 255
203 226 255
203 226 255
203 226 255
203 226 255
203 226 255
203 226 255
203 226 255
203 226 255
203 226 255
203 226 255
203 226 255
203 226 255
203 226 255
203 226 255
203 226 255
203 226 255
203 226 255
203 226 255
203 226 255
203 226 255
203 226 255
203 226 255
203 226 255
203 226 255
203 226 255
203 226 255
203 226 255
203 226 255
203 226 255
203 226 255
203 226 255
204 226 255
204 226 255
204 226 255
204 226 255
204 226 255
204 226 255
204 226 255
204 226 255
204 226 255
204 226 255
204 226 255
204 226 255
204 226 255
204 226 255
204 226 255
204 226 255
204 226 255
204 226 255
204 226 255
204 226 255
204 226 255
204 226 255
204 226 255
204 226 255
204 226 255
204 226 255
204 226 255
204 226 255
204 226 255
204 226 255
205 226 255
205 226 255
205 226 255
205 226 255
205 226 255
205 226 255
205 226 255
205 226 255
205 227 255
205 227 255
205 227 255
205 227 255
205 227 255
205 227 255
205 227 255
205 227 255
205 227 255
205 227 255
205 227 255
205 227 255
206 227 255
206 227 255
206 227 255
206 227 255
206 227 255
206 227 255
206 227 255
206 227 255
206 227 255
206 227 255
206 227 255
206 227 255
206 227 255
206 227 255
206 227 255
206 227 255
206 227 255
206 227 255
207 227 255
207 227 255
207 227 255
207 227 255
207 228 255
207 228 255
207 228 255
207 228 255
207 228 255
207 228 255
207 228 255
207 228 255
207 228 255
207 228 255
207 228 255
207 228 255
207 228 255
207 228 255
208 228 255
208 228 255
207 228 254
195 213 235
171 184 193
140 145 132
131 130 89
131 129 87
136 135 90
140 139 93
135 135 90
131 129 87
142 140 94
137 136 91
135 134 90
137 136 91
137 136 91
139 138 93
144 142 95
134 133 89
142 140 94
139 137 91
138 137 92
133 132 88
138 136 91
144 143 96
145 144 96
147 147 99
137 135 90
138 137 92
130 129 86
146 144 96
140 138 92
147 145 97
150 148 99
143 140 93
144 142 95
135 134 89
148 145 97
149 146 97
143 142 94
146 145 97
139 137 91
148 145 96
150 148 99
144 141 94
140 138 92
143 141 94
141 138 92
144 142 95
138 136 90
133 132 88
145 143 94
145 143 95
138 135 89
150 147 97
148 145 95
141 139 92
140 138 90
149 147 98
139 137 90
145 142 94
128 126 84
152 149 97
144 141 92
137 134 88
129 126 83
139 137 90
141 137 89
142 140 92
139 136 90
146 143 94
147 144 93
137 134 87
149 145 96
129 126 81
128 124 80
148 144 95
136 132 84
135 132 86
128 124 82
132 128 83
134 130 85
125 122 77
124 122 76
133 129 84
144 146 127
177 186 190
203 220 239
211 229 254
212 230 255
212 230 255
212 230 255
212 230 255
212 230 255
212 230 255
212 230 255
212 230 255
212 230 255
212 230 255
201 219 243
179 196 218
152 167 188
153 169 191
152 169 191
158 176 199
150 167 190
168 187 212
165 183 208
164 183 208
159 178 203
162 181 207
170 191 218
170 190 218
167 187 214
172 193 221
173 195 224
169 190 218
175 198 227
174 196 225
176 198 227
175 198 228
175 197 227
175 198 228
175 198 228
174 197 228
174 197 228
174 198 228
174 198 228
173 197 228
174 197 228
173 197 228
172 197 228
173 197 228
172 197 228
172 196 228
172 197 228
171 196 228
170 196 228
171 196 228
171 196 228
170 196 228
170 196 228
170 195 228
169 195 228
169 195 228
169 195 228
168 195 228
169 195 228
169 195 228
168 195 228
168 194 228
168 195 228
168 194 228
168 194 228
168 194 228
168 195 228
167 194 228
167 194 228
168 194 228
168 194 228
168 194 228
168 194 228
168 194 228
167 194 228
167 194 228
168 194 228
167 194 228
168 194 228
167 194 228
168 194 228
168 194 228
168 194 228
168 195 228
168 194 228
168 195 228
169 195 228
169 195 228
169 195 228
169 195 227
169 194 226
170 195 227
165 190 221
164 188 219
166 190 220
154 176 204
157 179 208
151 171 198
150 169 195
148 166 189
176 194 219
194 214 240
208 228 255
208 228 255
208 228 255
208 228 255
207 228 255
207 228 255
207 228 255
207 228 255
207 228 255
207 228 255
207 228 255
207 228 255
207 228 255
207 228 255
207 228 255
207 228 255
207 228 255
207 228 255
207 227 255
207 227 255
207 227 255
207 227 255
206 227 255
206 227 255
206 227 255
206 227 255
206 227 255
206 227 255
206 227 255
206 227 255
206 227 255
206 227 255
206 227 255
206 227 255
206 227 255
206 227 255
206 227 255
206 227 255
206 227 255
206 227 255
206 227 255
205 227 255
205 227 255
205 227 255
205 227 255
205 227 255
205 227 255
205 227 255
205 227 255
205 227 255
205 227 255
205 227 255
205 227 255
205 226 255
205 226 255
205 226 255
205 226 255
205 226 255
205 226 255
205 226 255
205 226 255
205 226 255
204 226 255
204 226 255
204 226 255
204 226 255
204 226 255
204 226 255
204 226 255
204 226 255
204 226 255
204 226 255
204 226 255
204 226 255
204 226 255
204 226 255
204 226 255
204 226 255
204 226 255
204 226 255
204 226 255
204 226 255
204 226 255
204 226 255
204 226 255
204 226 255
204 226 255
204 226 255
204 226 255
204 226 255
204 226 255
204 226 255
204 226 255
204 226 255
204 226 255
204 226 255
204 226 255
204 226 255
204 226 255
204 226 255
204 226 255
204 226 255
204 226 255
204 226 255
204 226 255
204 226 255
204 226 255
204 226 255
204 226 255
204 226 255
204 226 255
204 226 255
204 226 255
204 226 255
204 226 255
204 226 255
204 226 255
204 226 255
204 226 255
204 226 255
204 226 255
204 226 255
204 226 255
204 226 255
204 226 255
204 226 255
204 226 255
204 226 255
204 226 255
204 226 255
204 226 255
204 226 255
204 226 255
204 226 255
204 226 255
204 226 255
204 226 255
204 226 255
204 226 255
204 226 255
204 226 255
204 226 255
204 226 255
204 226 255
204 226 255
204 226 255
205 226 255
205 226 255
205 226 255
205 226 255
205 226 255
205 226 255
205 226 255
205 226 255
205 226 255
205 227 255
205 227 255
205 227 255
205 227 255
205 227 255
205 227 255
205 227 255
205 227 255
205 227 255
205 227 255
205 227 255
205 227 255
206 227 255
206 227 255
206 227 255
206 227 255
206 227 255
206 227 255
206 227 255
206 227 255
206 227 255
206 227 255
206 227 255
206 227 255
206 227 255
206 227 255
206 227 255
206 227 255
206 227 255
206 227 255
206 227 255
207 227 255
207 227 255
207 227 255
207 227 255
207 228 255
207 228 255
207 228 255
207 228 255
207 228 255
207 228 255
207 228 255
207 228 255
207 228 255
207 228 255
207 228 255
207 228 255
207 228 255
207 228 255
208 228 255
208 228 255
208 228 255
208 228 255
191 208 229
170 181 184
137 138 113
134 132 89
132 131 87
141 139 93
144 142 95
139 137 92
129 129 87
137 136 91
138 137 92
130 129 87
140 139 94
137 136 91
134 133 89
139 137 92
147 147 99
141 139 93
133 131 87
129 129 87
140 138 93
143 141 95
144 143 96
142 140 94
146 144 97
142 140 94
146 144 96
144 143 96
139 137 91
142 140 93
141 140 94
144 142 95
143 141 94
145 144 97
149 147 99
153 151 101
142 140 93
136 135 90
140 138 93
140 138 93
138 137 92
138 136 91
152 150 101
147 144 96
150 148 99
144 141 94
144 142 93
143 141 94
140 138 93
147 145 96
145 142 95
135 133 88
140 138 91
155 151 100
145 142 93
145 143 95
146 144 97
150 146 95
146 143 93
133 131 87
153 150 99
150 147 97
146 144 95
144 142 90
144 141 93
148 145 96
145 143 95
146 143 93
140 137 90
139 136 90
147 143 92
136 134 89
137 134 87
139 136 89
134 131 84
140 137 90
136 133 85
143 139 92
143 138 89
140 137 90
139 135 87
139 136 90
139 135 86
135 131 83
132 129 84
135 131 84
125 122 77
137 132 85
124 120 75
146 149 131
168 176 172
192 205 218
211 229 254
212 230 255
212 230 255
212 230 255
212 230 255
203 221 245
171 187 208
160 175 196
158 175 198
156 173 195
154 171 194
162 179 203
159 177 200
164 183 208
168 187 212
163 182 208
166 185 211
168 188 214
172 193 220
173 194 221
175 196 225
172 194 221
174 196 225
173 194 223
176 199 228
176 198 227
176 199 228
176 199 228
176 199 228
175 198 228
175 198 228
175 198 228
175 198 228
173 197 228
173 197 228
174 197 228
173 197 228
172 197 228
171 196 228
172 197 228
172 197 228
171 196 228
171 196 228
171 196 228
171 196 228
170 195 228
170 196 228
170 196 228
170 195 228
169 195 228
169 195 228
169 195 228
170 195 228
170 195 228
168 195 228
169 195 228
168 195 228
168 195 228
168 194 228
168 194 228
167 194 228
167 194 228
167 194 228
167 194 228
168 194 228
167 194 228
167 194 228
166 194 228
167 194 228
166 194 228
167 194 228
167 194 228
167 194 228
166 193 228
166 194 228
166 194 228
167 194 228
167 194 228
167 194 228
167 194 228
167 194 228
167 194 228
167 194 228
167 194 228
167 194 228
168 194 228
168 194 228
168 194 228
169 195 228
169 195 228
169 195 228
169 194 227
167 192 224
166 191 223
162 186 217
153 174 203
164 187 218
160 183 212
158 180 208
149 169 195
159 178 203
175 194 219
196 216 242
208 228 255
208 228 255
208 228 255
208 228 255
208 228 255
207 228 255
207 228 255
207 228 255
207 228 255
207 228 255
207 228 255
207 228 255
207 228 255
207 228 255
207 228 255
207 228 255
207 228 255
207 228 255
207 228 255
207 227 255
207 227 255
207 227 255
207 227 255
206 227 255
206 227 255
206 227 255
206 227 255
206 227 255
206 227 255
206 227 255
206 227 255
206 227 255
206 227 255
206 227 255
206 227 255
206 227 255
206 227 255
206 227 255
206 227 255
206 227 255
206 227 255
206 227 255
205 227 255
205 227 255
205 227 255
205 227 255
205 227 255
205 227 255
205 227 255
205 227 255
205 227 255
205 227 255
205 227 255
205 227 255
205 227 255
205 226 255
205 226 255
205 226 255
205 226 255
205 226 255
205 226 255
205 226 255
205 226 255
205 226 255
205 226 255
204 226 255
204 226 255
204 226 255
204 226 255
204 226 255
204 226 255
204 226 255
204 226 255
204 226 255
204 226 255
204 226 255
204 226 255
204 226 255
204 226 255
204 226 255
204 226 255
204 226 255
204 226 255
204 226 255
204 226 255
204 226 255
204 226 255
204 226 255
204 226 255
204 226 255
204 226 255
204 226 255
204 226 255
204 226 255
204 226 255
204 226 255
204 226 255
204 226 255
204 226 255
204 226 255
204 226 255
204 226 255
204 226 255
204 226 255
204 226 255
204 226 255
204 226 255
204 226 255
204 226 255
204 226 255
204 226 255
204 226 255
204 226 255
204 226 255
204 226 255
204 226 255
204 226 255
204 226 255
204 226 255
204 226 255
204 226 255
204 226 255
204 226 255
204 226 255
204 226 255
204 226 255
204 226 255
204 226 255
204 226 255
204 226 255
204 226 255
204 226 255
204 226 255
204 226 255
204 226 255
204 226 255
205 226 255
205 226 255
205 226 255
205 226 255
205 226 255
205 226 255
205 226 255
205 226 255
205 226 255
205 226 255
205 226 255
205 227 255
205 227 255
205 227 255
205 227 255
205 227 255
205 227 255
205 227 255
205 227 255
205 227 255
205 227 255
205 227 255
205 227 255
206 227 255
206 227 255
206 227 255
206 227 255
206 227 255
206 227 255
206 227 255
206 227 255
206 227 255
206 227 255
206 227 255
206 227 255
206 227 255
206 227 255
206 227 255
206 227 255
206 227 255
206 227 255
206 227 255
206 227 255
207 227 255
207 227 255
207 227 255
207 227 255
207 228 255
207 228 255
207 228 255
207 228 255
207 228 255
207 228 255
207 228 255
207 228 255
207 228 255
207 228 255
207 228 255
207 228 255
207 228 255
207 228 255
208 228 255
208 228 255
208 228 255
208 228 255
208 228 255
195 214 237
170 181 186
151 154 133
129 128 86
139 138 93
142 141 95
137 136 91
133 132 88
141 141 95
136 135 90
138 138 93
143 142 95
146 145 97
144 143 96
140 139 94
145 143 96
140 139 93
146 144 97
140 140 94
144 143 96
144 142 95
148 146 98
145 144 97
142 141 95
138 137 93
143 142 95
152 150 101
133 132 88
149 148 99
140 139 94
141 139 93
140 138 93
144 142 95
146 144 97
147 145 97
152 149 99
141 139 93
150 148 99
139 137 92
150 148 99
151 150 100
142 140 94
143 140 93
140 139 93
145 143 95
146 143 95
139 137 92
144 141 94
144 143 95
144 142 95
152 149 99
136 134 88
142 140 94
143 141 94
141 139 91
149 145 95
144 142 93
134 132 87
134 131 85
148 145 96
147 144 95
142 139 93
141 138 90
152 148 97
150 147 97
141 138 91
141 137 90
147 143 93
151 148 97
140 136 89
147 145 94
150 145 94
154 151 100
141 138 90
138 134 88
141 137 90
141 137 90
145 141 90
137 132 85
140 136 88
141 138 90
151 147 95
137 135 87
145 142 92
138 134 88
141 138 88
137 133 86
124 121 78
143 140 90
142 137 84
142 138 90
128 125 79
128 124 78
135 131 83
134 130 83
150 151 123
175 186 189
196 212 231
212 230 255
166 181 202
150 166 187
155 171 192
155 171 194
154 171 194
159 177 200
166 185 211
162 180 204
169 188 213
173 193 220
168 187 213
172 192 219
172 192 219
175 196 224
174 195 224
176 198 227
175 197 226
176 198 227
176 198 227
177 199 228
176 199 228
176 199 228
175 198 228
175 198 228
174 198 228
175 198 228
174 198 228
174 198 228
174 198 228
173 197 228
173 197 228
173 197 228
172 197 228
172 196 228
172 197 228
172 196 228
171 196 228
170 196 228
170 196 228
170 196 228
171 196 228
170 195 228
170 195 228
169 195 228
169 195 228
169 195 228
169 195 228
169 195 228
168 195 228
168 194 228
167 194 228
169 195 228
167 194 228
167 194 228
167 194 228
167 194 228
167 194 228
167 194 228
167 194 228
166 194 228
166 194 228
166 194 228
166 193 228
166 194 228
166 193 228
165 193 228
166 194 228
166 193 228
165 193 228
166 193 228
165 193 228
166 194 228
165 193 228
165 193 228
166 193 228
166 193 228
166 193 228
166 193 228
166 193 228
166 193 228
166 194 228
166 193 228
167 194 228
167 194 228
167 194 228
168 194 228
167 194 228
168 194 228
168 195 228
168 195 228
169 195 228
170 195 228
166 191 224
165 190 221
162 185 216
159 182 212
161 183 212
163 185 214
155 175 202
166 185 211
189 209 235
204 224 251
208 228 255
208 228 255
208 228 255
208 228 255
208 228 255
208 228 255
207 228 255
207 228 255
207 228 255
207 228 255
207 228 255
207 228 255
207 228 255
207 228 255
207 228 255
207 228 255
207 228 255
207 228 255
207 228 255
207 228 255
207 227 255
207 227 255
207 227 255
207 227 255
207 227 255
206 227 255
206 227 255
206 227 255
206 227 255
206 227 255
206 227 255
206 227 255
206 227 255
206 227 255
206 227 255
206 227 255
206 227 255
206 227 255
206 227 255
206 227 255
206 227 255
206 227 255
206 227 255
206 227 255
206 227 255
205 227 255
205 227 255
205 227 255
205 227 255
205 227 255
205 227 255
205 227 255
205 227 255
205 227 255
205 227 255
205 227 255
205 227 255
205 227 255
205 227 255
205 226 255
205 226 255
205 226 255
205 226 255
205 226 255
205 226 255
205 226 255
205 226 255
205 226 255
205 226 255
205 226 255
204 226 255
204 226 255
204 226 255
204 226 255
204 226 255
204 226 255
204 226 255
204 226 255
204 226 255
204 226 255
204 226 255
204 226 255
204 226 255
204 226 255
204 226 255
204 226 255
204 226 255
204 226 255
204 226 255
204 226 255
204 226 255
204 226 255
204 226 255
204 226 255
204 226 255
204 226 255
204 226 255
204 226 255
204 226 255
204 226 255
204 226 255
204 226 255
204 226 255
204 226 255
204 226 255
204 226 255
204 226 255
204 226 255
204 226 255
204 226 255
204 226 255
204 226 255
204 226 255
204 226 255
204 226 255
204 226 255
204 226 255
204 226 255
204 226 255
204 226 255
204 226 255
204 226 255
204 226 255
204 226 255
204 226 255
204 226 255
205 226 255
205 226 255
205 226 255
205 226 255
205 226 255
205 226 255
205 226 255
205 226 255
205 226 255
205 226 255
205 226 255
205 226 255
205 227 255
205 227 255
205 227 255
205 227 255
205 227 255
205 227 255
205 227 255
205 227 255
205 227 255
205 227 255
205 227 255
205 227 255
205 227 255
205 227 255
206 227 255
206 227 255
206 227 255
206 227 255
206 227 255
206 227 255
206 227 255
206 227 255
206 227 255
206 227 255
206 227 255
206 227 255
206 227 255
206 227 255
206 227 255
206 227 255
206 227 255
206 227 255
206 227 255
207 227 255
207 227 255
207 227 255
207 227 255
207 227 255
207 228 255
207 228 255
207 228 255
207 228 255
207 228 255
207 228 255
207 228 255
207 228 255
207 228 255
207 228 255
207 228 255
207 228 255
207 228 255
207 228 255
208 228 255
208 228 255
208 228 255
208 228 255
208 228 255
208 228 255
204 223 250
176 188 194
150 155 141
138 136 91
134 132 88
144 142 95
137 136 92
136 135 90
135 134 90
136 135 91
143 141 95
131 129 87
133 132 89
142 141 95
140 139 93
135 133 89
142 141 95
138 136 91
143 142 95
140 139 93
144 143 96
141 140 94
139 138 93
134 133 90
148 146 98
141 140 94
142 141 95
150 149 100
147 145 97
149 147 99
138 137 92
140 138 93
143 142 95
147 146 98
149 148 99
141 139 93
147 146 97
146 144 97
150 148 99
151 149 99
141 140 94
147 145 96
143 140 93
149 148 99
147 145 97
139 138 93
149 146 97
155 153 102
144 141 93
150 149 99
146 144 96
146 144 96
146 143 94
146 144 96
144 141 93
147 144 95
144 142 95
154 152 101
151 148 97
144 141 93
145 143 94
143 140 92
150 146 95
141 138 91
141 139 90
149 146 95
150 147 96
147 145 95
153 150 98
145 141 93
153 150 100
148 144 95
145 141 93
143 141 92
147 144 95
147 143 93
144 142 93
144 141 91
146 142 92
148 144 93
144 141 92
137 135 87
134 130 85
138 134 85
145 141 91
134 131 86
141 138 90
142 138 90
141 137 90
146 142 92
137 134 88
130 127 80
145 141 90
136 132 84
145 141 91
132 128 84
138 135 86
137 133 82
144 140 90
130 127 80
146 143 95
153 157 143
151 167 188
158 174 196
161 178 202
162 180 204
169 188 213
165 184 208
168 187 213
169 188 214
173 193 220
176 196 223
176 197 225
175 196 224
178 199 227
178 200 228
178 200 228
177 199 228
178 200 228
177 199 228
177 199 228
176 199 228
175 198 228
175 198 228
175 198 228
175 198 228
174 198 228
174 197 228
174 197 228
173 197 228
172 197 228
173 197 228
172 197 228
172 196 228
171 196 228
172 196 228
172 197 228
171 196 228
171 196 228
171 196 228
170 196 228
170 196 228
170 195 228
169 195 228
169 195 228
170 195 228
169 195 228
169 195 228
169 195 228
169 195 228
168 195 228
167 194 228
168 194 228
167 194 228
167 194 228
167 194 228
166 194 228
167 194 228
167 194 228
167 194 228
167 194 228
166 193 228
165 193 228
166 193 228
166 193 228
166 193 228
165 193 228
165 193 228
166 193 228
165 193 228
165 193 228
165 193 228
165 193 228
165 193 228
165 193 228
165 193 228
165 193 228
165 193 228
165 193 228
165 193 228
165 193 228
165 193 228
165 193 228
166 193 228
165 193 228
166 193 228
166 193 228
166 194 228
166 194 228
166 194 228
167 194 228
167 194 228
167 194 228
168 195 228
168 195 228
169 195 228
169 195 228
170 195 227
167 190 221
167 191 223
158 180 208
162 185 214
146 165 191
150 169 194
169 188 212
195 214 240
208 228 255
208 228 255
208 228 255
208 228 255
208 228 255
208 228 255
208 228 255
208 228 255
207 228 255
207 228 255
207 228 255
207 228 255
207 228 255
207 228 255
207 228 255
207 228 255
207 228 255
207 228 255
207 228 255
207 228 255
207 228 255
207 228 255
207 227 255
207 227 255
207 227 255
207 227 255
207 227 255
206 227 255
206 227 255
206 227 255
206 227 255
206 227 255
206 227 255
206 227 255
206 227 255
206 227 255
206 227 255
206 227 255
206 227 255
206 227 255
206 227 255
206 227 255
206 227 255
206 227 255
206 227 255
206 227 255
206 227 255
206 227 255
205 227 255
205 227 255
205 227 255
205 227 255
205 227 255
205 227 255
205 227 255
205 227 255
205 227 255
205 227 255
205 227 255
205 227 255
205 227 255
205 227 255
205 227 255
205 226 255
205 226 255
205 226 255
205 226 255
205 226 255
205 226 255
205 226 255
205 226 255
205 226 255
205 226 255
205 226 255
205 226 255
205 226 255
205 226 255
205 226 255
204 226 255
204 226 255
204 226 255
204 226 255
204 226 255
204 226 255
204 226 255
204 226 255
204 226 255
204 226 255
204 226 255
204 226 255
204 226 255
204 226 255
204 226 255
204 226 255
204 226 255
204 226 255
204 226 255
204 226 255
204 226 255
204 226 255
204 226 255
204 226 255
204 226 255
204 226 255
204 226 255
204 226 255
204 226 255
204 226 255
204 226 255
204 226 255
204 226 255
204 226 255
204 226 255
204 226 255
205 226 255
205 226 255
205 226 255
205 226 255
205 226 255
205 226 255
205 226 255
205 226 255
205 226 255
205 226 255
205 226 255
205 226 255
205 226 255
205 226 255
205 226 255
205 227 255
205 227 255
205 227 255
205 227 255
205 227 255
205 227 255
205 227 255
205 227 255
205 227 255
205 227 255
205 227 255
205 227 255
205 227 255
205 227 255
205 227 255
206 227 255
206 227 255
206 227 255
206 227 255
206 227 255
206 227 255
206 227 255
206 227 255
206 227 255
206 227 255
206 227 255
206 227 255
206 227 255
206 227 255
206 227 255
206 227 255
206 227 255
206 227 255
206 227 255
206 227 255
206 227 255
207 227 255
207 227 255
207 227 255
207 227 255
207 227 255
207 228 255
207 228 255
207 228 255
207 228 255
207 228 255
207 228 255
207 228 255
207 228 255
207 228 255
207 228 255
207 228 255
207 228 255
207 228 255
207 228 255
208 228 255
208 228 255
208 228 255
208 228 255
208 228 255
208 228 255
208 228 255
208 228 255
195 212 232
164 172 171
134 135 103
133 130 87
118 117 79
134 133 89
129 128 86
138 136 91
134 132 88
143 142 95
139 138 93
140 139 93
147 146 97
150 148 99
148 146 98
138 137 92
139 138 93
148 146 98
146 145 97
138 137 92
143 142 95
144 143 96
141 140 94
149 148 99
147 145 97
150 148 99
147 146 98
148 147 99
152 151 101
138 137 92
142 140 94
143 143 96
144 142 95
152 151 101
146 144 96
150 148 99
147 146 98
136 134 89
142 141 95
150 148 99
150 149 100
146 144 96
145 143 95
151 150 100
144 142 95
145 144 97
147 145 97
140 138 93
146 144 96
141 139 93
147 146 97
144 141 93
150 146 97
150 147 98
151 148 98
151 148 99
144 141 94
154 151 101
148 146 97
160 157 104
146 143 95
136 134 89
142 139 90
144 142 95
146 144 96
148 145 95
144 141 93
148 144 95
149 145 95
152 148 97
155 151 99
140 138 88
148 145 95
148 145 95
141 137 90
139 136 88
147 144 94
140 138 90
145 142 92
135 132 84
146 143 91
153 150 99
150 146 97
141 138 90
143 139 90
133 130 85
144 140 90
139 136 86
149 146 95
139 135 85
139 135 87
137 133 87
134 132 86
138 134 86
142 137 86
148 144 93
135 131 85
135 130 84
131 126 80
140 136 87
131 128 82
139 134 86
141 138 87
123 119 75
167 185 208
168 187 212
166 184 209
170 189 214
172 192 218
175 195 221
174 193 219
175 195 223
177 197 225
177 197 225
176 197 225
177 199 228
178 200 228
178 200 228
177 199 228
176 199 228
175 198 228
176 199 228
176 199 228
176 199 228
175 198 228
175 198 228
175 198 228
174 197 228
174 198 228
175 198 228
172 197 228
172 197 228
173 197 228
172 197 228
172 197 228
172 197 228
171 196 228
172 196 228
171 196 228
171 196 228
170 196 228
171 196 228
170 196 228
170 195 228
170 196 228
170 195 228
169 195 228
169 195 228
169 195 228
168 195 228
168 195 228
168 195 228
168 194 228
168 194 228
168 194 228
167 194 228
167 194 228
167 194 228
167 194 228
167 194 228
166 193 228
166 194 228
166 193 228
166 193 228
165 193 228
166 193 228
165 193 228
165 193 228
165 193 228
165 193 228
165 193 228
165 193 228
165 193 228
164 193 228
164 193 228
165 193 228
165 193 228
164 192 228
164 193 228
164 193 228
164 192 228
165 193 228
164 193 228
164 193 228
164 193 228
164 193 228
165 193 228
165 193 228
165 193 228
165 193 228
165 193 228
166 193 228
166 193 228
166 193 228
167 194 228
167 194 228
167 194 228
167 194 228
168 195 228
168 195 228
169 195 228
169 195 227
169 194 227
164 188 219
162 185 214
157 179 208
148 168 194
148 167 192
166 185 211
185 204 229
207 228 255
208 228 255
208 228 255
208 228 255
208 228 255
208 228 255
208 228 255
208 228 255
208 228 255
208 228 255
207 228 255
207 228 255
207 228 255
207 228 255
207 228 255
207 228 255
207 228 255
207 228 255
207 228 255
207 228 255
207 228 255
207 228 255
207 228 255
207 228 255
207 228 255
207 227 255
207 227 255
207 227 255
207 227 255
207 227 255
206 227 255
206 227 255
206 227 255
206 227 255
206 227 255
206 227 255
206 227 255
206 227 255
206 227 255
206 227 255
206 227 255
206 227 255
206 227 255
206 227 255
206 227 255
206 227 255
206 227 255
206 227 255
206 227 255
206 227 255
206 227 255
206 227 255
205 227 255
205 227 255
205 227 255
205 227 255
205 227 255
205 227 255
205 227 255
205 227 255
205 227 255
205 227 255
205 227 255
205 227 255
205 227 255
205 227 255
205 227 255
205 227 255
205 227 255
205 227 255
205 226 255
205 226 255
205 226 255
205 226 255
205 226 255
205 226 255
205 226 255
205 226 255
205 226 255
205 226 255
205 226 255
205 226 255
205 226 255
205 226 255
205 226 255
205 226 255
205 226 255
205 226 255
205 226 255
205 226 255
205 226 255
205 226 255
205 226 255
205 226 255
205 226 255
205 226 255
205 226 255
205 226 255
205 226 255
205 226 255
205 226 255
205 226 255
205 226 255
205 226 255
205 226 255
205 226 255
205 226 255
205 226 255
205 226 255
205 226 255
205 226 255
205 226 255
205 226 255
205 226 255
205 226 255
205 226 255
205 226 255
205 226 255
205 227 255
205 227 255
205 227 255
205 227 255
205 227 255
205 227 255
205 227 255
205 227 255
205 227 255
205 227 255
205 227 255
205 227 255
205 227 255
205 227 255
205 227 255
205 227 255
205 227 255
205 227 255
206 227 255
206 227 255
206 227 255
206 227 255
206 227 255
206 227 255
206 227 255
206 227 255
206 227 255
206 227 255
206 227 255
206 227 255
206 227 255
206 227 255
206 227 255
206 227 255
206 227 255
206 227 255
206 227 255
206 227 255
206 227 255
206 227 255
207 227 255
207 227 255
207 227 255
207 227 255
207 227 255
207 228 255
207 228 255
207 228 255
207 228 255
207 228 255
207 228 255
207 228 255
207 228 255
207 228 255
207 228 255
207 228 255
207 228 255
207 228 255
207 228 255
208 228 255
208 228 255
208 228 255
208 228 255
208 228 255
208 228 255
208 228 255
208 228 255
208 228 255
208 228 255
206 226 252
184 198 213
151 155 141
134 133 89
131 129 87
140 138 93
135 133 89
128 127 85
135 133 89
136 136 91
145 145 97
146 144 96
139 138 93
142 141 95
144 142 95
138 137 93
143 142 95
145 144 97
138 137 93
136 135 90
136 135 91
139 138 93
150 149 101
146 145 97
141 140 94
155 153 103
139 138 93
139 138 93
148 146 98
148 147 99
144 142 95
152 150 100
148 147 99
154 152 102
148 146 98
143 141 95
146 144 96
147 146 97
144 143 96
146 145 97
152 149 99
150 148 99
155 152 101
147 146 97
147 145 97
147 145 96
145 144 97
152 150 100
155 152 101
154 152 102
138 137 92
151 148 99
150 147 97
150 148 99
145 142 93
145 143 95
158 155 104
144 141 93
151 148 98
151 147 97
151 148 97
143 139 92
151 149 99
155 152 101
151 148 97
142 139 92
136 133 87
149 146 97
150 148 98
142 138 90
146 143 93
148 145 95
143 141 92
137 135 89
149 147 97
151 147 96
156 151 98
147 143 93
153 150 97
150 147 95
152 147 95
146 143 95
144 141 92
144 141 93
147 144 94
148 145 94
145 141 90
145 141 90
135 131 84
145 141 90
133 129 82
136 133 87
142 139 88
135 132 84
146 143 93
132 129 84
137 134 84
142 138 87
146 142 91
138 135 86
141 137 87
142 138 89
137 134 83
137 133 84
143 139 90
131 127 83
136 132 84
161 178 202
170 189 214
174 194 220
172 191 217
177 197 224
174 194 220
176 197 224
176 197 225
179 200 228
179 200 228
179 200 228
178 200 228
177 199 228
177 199 228
177 199 228
177 199 228
177 199 228
176 199 228
175 198 228
175 198 228
175 198 228
175 198 228
175 198 228
174 198 228
175 198 228
173 197 228
173 197 228
173 197 228
172 197 228
172 197 228
171 196 228
172 197 228
171 196 228
172 196 228
170 196 228
170 196 228
171 196 228
170 196 228
170 196 228
169 195 228
169 195 228
170 195 228
169 195 228
169 195 228
168 195 228
169 195 228
168 194 228
168 194 228
167 194 228
167 194 228
167 194 228
167 194 228
167 194 228
167 194 228
166 194 228
166 193 228
167 194 228
166 193 228
165 193 228
166 193 228
165 193 228
165 193 228
165 193 228
165 193 228
165 193 228
165 193 228
164 193 228
165 193 228
164 192 228
164 193 228
164 193 228
164 192 228
164 193 228
164 192 228
164 192 228
164 193 228
164 192 228
164 192 228
164 192 228
164 193 228
164 192 228
164 192 228
164 192 228
164 192 228
164 192 228
164 192 228
165 193 228
165 193 228
165 193 228
165 193 228
165 193 228
165 193 228
166 193 228
166 194 228
167 194 228
167 194 228
168 194 228
168 194 228
169 195 228
170 195 228
166 191 223
169 194 226
156 178 207
162 185 214
157 179 207
154 174 200
159 177 201
183 202 228
205 225 252
208 228 255
208 228 255
208 228 255
208 228 255
208 228 255
208 228 255
208 228 255
208 228 255
208 228 255
208 228 255
208 228 255
208 228 255
207 228 255
207 228 255
207 228 255
207 228 255
207 228 255
207 228 255
207 228 255
207 228 255
207 228 255
207 228 255
207 228 255
207 228 255
207 228 255
207 228 255
207 228 255
207 227 255
207 227 255
207 227 255
207 227 255
207 227 255
206 227 255
206 227 255
206 227 255
206 227 255
206 227 255
206 227 255
206 227 255
206 227 255
206 227 255
206 227 255
206 227 255
206 227 255
206 227 255
206 227 255
206 227 255
206 227 255
206 227 255
206 227 255
206 227 255
206 227 255
206 227 255
206 227 255
206 227 255
206 227 255
205 227 255
205 227 255
205 227 255
205 227 255
205 227 255
205 227 255
205 227 255
205 227 255
205 227 255
205 227 255
205 227 255
205 227 255
205 227 255
205 227 255
205 227 255
205 227 255
205 227 255
205 227 255
205 227 255
205 227 255
205 227 255
205 227 255
205 227 255
205 227 255
205 227 255
205 226 255
205 226 255
205 226 255
205 226 255
205 226 255
205 226 255
205 226 255
205 226 255
205 226 255
205 226 255
205 226 255
205 226 255
205 226 255
205 226 255
205 226 255
205 226 255
205 226 255
205 226 255
205 226 255
205 226 255
205 227 255
205 227 255
205 227 255
205 227 255
205 227 255
205 227 255
205 227 255
205 227 255
205 227 255
205 227 255
205 227 255
205 227 255
205 227 255
205 227 255
205 227 255
205 227 255
205 227 255
205 227 255
205 227 255
205 227 255
205 227 255
205 227 255
205 227 255
205 227 255
205 227 255
206 227 255
206 227 255
206 227 255
206 227 255
206 227 255
206 227 255
206 227 255
206 227 255
206 227 255
206 227 255
206 227 255
206 227 255
206 227 255
206 227 255
206 227 255
206 227 255
206 227 255
206 227 255
206 227 255
206 227 255
206 227 255
206 227 255
206 227 255
206 227 255
207 227 255
207 227 255
207 227 255
207 227 255
207 227 255
207 228 255
207 228 255
207 228 255
207 228 255
207 228 255
207 228 255
207 228 255
207 228 255
207 228 255
207 228 255
207 228 255
207 228 255
207 228 255
207 228 255
207 228 255
208 228 255
208 228 255
208 228 255
208 228 255
208 228 255
208 228 255
208 228 255
208 228 255
208 228 255
208 228 255
208 228 255
208 228 255
205 225 252
182 196 210
139 140 111
140 138 92
130 129 87
137 135 90
132 130 87
133 131 87
142 141 94
142 140 94
144 142 95
140 139 94
142 141 95
140 139 93
140 140 94
130 129 87
150 149 100
144 144 97
145 143 96
140 140 94
149 147 98
145 144 97
140 139 93
145 144 97
149 147 99
143 141 94
151 150 101
143 142 95
142 140 94
149 148 99
143 143 96
154 152 101
148 146 98
146 145 97
149 147 99
152 150 101
157 155 104
149 148 99
147 145 97
149 147 98
147 145 97
156 154 103
148 146 97
156 152 101
145 143 95
148 146 97
150 147 98
151 149 100
146 144 95
145 143 96
148 145 97
155 152 102
149 147 98
153 151 101
151 148 98
150 148 99
152 149 99
152 150 99
148 145 96
151 149 99
158 155 103
153 150 100
151 149 99
143 140 93
156 152 99
145 142 94
150 148 97
150 147 97
146 144 95
144 140 92
153 151 99
158 154 101
147 144 95
156 153 101
152 148 97
145 141 91
146 144 93
142 139 91
143 141 93
143 140 93
153 149 95
154 150 99
151 148 95
138 135 88
144 141 90
141 137 87
145 142 92
145 142 93
139 136 88
150 147 95
146 143 91
137 134 87
142 137 87
136 132 84
141 137 87
146 142 91
139 136 90
144 140 91
136 131 84
144 140 90
134 131 84
130 127 79
143 138 87
138 134 87
143 139 87
145 141 90
137 133 84
137 133 84
134 131 83
174 194 219
171 190 216
175 195 221
178 198 225
176 197 224
177 197 225
179 201 228
179 200 228
178 200 228
178 200 228
177 199 228
178 200 228
177 199 228
177 199 228
176 199 228
177 199 228
175 198 228
176 199 228
176 199 228
174 198 228
175 198 228
174 198 228
174 198 228
174 197 228
173 197 228
173 197 228
172 197 228
173 197 228
173 197 228
172 196 228
171 196 228
172 196 228
171 196 228
170 196 228
171 196 228
171 196 228
170 196 228
170 195 228
170 196 228
170 195 228
169 195 228
169 195 228
169 195 228
169 195 228
168 195 228
168 194 228
168 194 228
169 195 228
168 194 228
167 194 228
167 194 228
167 194 228
167 194 228
167 194 228
167 194 228
166 194 228
166 193 228
166 193 228
166 193 228
166 193 228
165 193 228
165 193 228
165 193 228
164 193 228
165 193 228
165 193 228
165 193 228
164 193 228
164 192 228
164 192 228
164 192 228
164 192 228
164 192 228
163 192 228
164 192 228
164 192 228
163 192 228
163 192 228
163 192 228
163 192 228
163 192 228
163 192 228
163 192 228
163 192 228
163 192 228
164 192 228
164 192 228
164 192 228
164 193 228
164 193 228
165 193 228
164 193 228
165 193 228
165 193 228
165 193 228
166 193 228
166 194 228
167 194 228
168 194 228
168 195 228
169 195 228
169 195 228
167 192 225
166 190 221
166 190 220
163 186 216
156 177 206
158 179 206
153 171 196
177 195 220
206 226 253
208 228 255
208 228 255
208 228 255
208 228 255
208 228 255
208 228 255
208 228 255
208 228 255
208 228 255
208 228 255
208 228 255
208 228 255
208 228 255
208 228 255
207 228 255
207 228 255
207 228 255
207 228 255
207 228 255
207 228 255
207 228 255
207 228 255
207 228 255
207 228 255
207 228 255
207 228 255
207 228 255
207 228 255
207 228 255
207 228 255
207 227 255
207 227 255
207 227 255
207 227 255
207 227 255
206 227 255
206 227 255
206 227 255
206 227 255
206 227 255
206 227 255
206 227 255
206 227 255
206 227 255
206 227 255
206 227 255
206 227 255
206 227 255
206 227 255
206 227 255
206 227 255
206 227 255
206 227 255
206 227 255
206 227 255
206 227 255
206 227 255
206 227 255
206 227 255
206 227 255
206 227 255
206 227 255
205 227 255
205 227 255
205 227 255
205 227 255
205 227 255
205 227 255
205 227 255
205 227 255
205 227 255
205 227 255
205 227 255
205 227 255
205 227 255
205 227 255
205 227 255
205 227 255
205 227 255
205 227 255
205 227 255
205 227 255
205 227 255
205 227 255
205 227 255
205 227 255
205 227 255
203 225 254
199 220 251
199 221 252
201 223 253
204 226 255
205 227 255
205 227 255
205 227 255
205 227 255
205 227 255
205 227 255
205 227 255
205 227 255
205 227 255
205 227 255
205 227 255
205 227 255
205 227 255
205 227 255
205 227 255
205 227 255
205 227 255
205 227 255
205 227 255
205 227 255
205 227 255
205 227 255
205 227 255
205 227 255
206 227 255
206 227 255
206 227 255
206 227 255
206 227 255
206 227 255
206 227 255
206 227 255
206 227 255
206 227 255
206 227 255
206 227 255
206 227 255
206 227 255
206 227 255
206 227 255
206 227 255
206 227 255
206 227 255
206 227 255
206 227 255
206 227 255
206 227 255
206 227 255
206 227 255
206 227 255
206 227 255
207 227 255
207 227 255
207 227 255
207 227 255
207 227 255
207 228 255
207 228 255
207 228 255
207 228 255
207 228 255
207 228 255
207 228 255
207 228 255
207 228 255
207 228 255
207 228 255
207 228 255
207 228 255
207 228 255
207 228 255
207 228 255
208 228 255
208 228 255
208 228 255
208 228 255
208 228 255
208 228 255
208 228 255
208 228 255
208 228 255
208 228 255
208 228 255
208 228 255
208 228 255
208 228 255
206 224 248
167 176 174
145 145 109
141 137 91
129 127 85
134 132 88
140 138 92
143 142 95
137 135 90
141 140 94
142 141 95
142 140 94
139 139 94
145 144 97
145 144 97
142 141 95
143 142 95
144 144 97
139 138 93
153 151 101
149 148 100
137 136 91
140 139 93
151 149 100
150 149 100
150 148 99
134 134 91
150 148 99
144 142 95
144 142 95
153 151 101
150 149 100
153 151 101
152 150 101
149 148 99
151 150 101
149 147 99
152 150 101
149 147 98
150 148 99
153 150 100
144 143 95
156 154 103
146 144 96
144 142 95
155 153 102
147 144 95
150 148 99
151 148 99
151 148 97
153 150 99
151 149 100
150 148 97
159 156 103
150 148 99
141 139 93
150 148 99
150 148 99
160 157 103
143 141 93
159 157 104
151 148 97
154 151 101
153 151 100
155 153 102
155 151 99
149 146 96
149 146 97
153 150 99
154 152 100
151 148 97
152 150 100
154 151 99
142 138 90
150 148 98
150 147 98
153 150 98
150 146 94
158 154 102
163 159 104
157 154 101
156 152 97
150 146 95
156 153 101
153 150 95
152 149 97
155 152 98
145 143 92
140 137 87
141 138 90
144 141 93
143 139 90
134 130 85
142 139 90
147 143 93
144 141 91
151 148 95
139 135 87
151 146 92
134 130 80
145 140 90
144 140 87
141 138 88
136 132 83
148 142 90
136 133 84
144 140 88
135 131 84
144 140 88
141 136 84
140 136 86
176 195 221
179 198 225
175 195 221
178 199 226
179 200 228
179 200 228
180 201 228
179 200 228
178 200 228
177 199 228
178 200 228
177 199 228
177 199 228
175 198 228
176 199 228
176 199 228
176 199 228
175 198 228
175 198 228
174 198 228
175 198 228
174 198 228
175 198 228
173 197 228
173 197 228
173 197 228
172 197 228
171 196 228
173 197 228
171 196 228
172 196 228
171 196 228
171 196 228
171 196 228
170 196 228
170 196 228
171 196 228
170 196 228
170 195 228
170 195 228
169 195 228
170 195 228
169 195 228
168 194 228
169 195 228
169 195 228
168 194 228
168 195 228
167 194 228
167 194 228
167 194 228
167 194 228
167 194 228
167 194 228
166 193 228
166 193 228
166 193 228
166 193 228
165 193 228
166 193 228
166 193 228
165 193 228
165 193 228
165 193 228
164 193 228
164 192 228
165 193 228
164 192 228
164 193 228
164 192 228
164 192 228
164 192 228
164 192 228
163 192 228
164 192 228
163 192 228
163 192 228
163 192 228
163 192 228
163 192 228
163 192 228
163 192 228
163 192 228
163 192 228
163 192 228
163 192 228
163 192 228
164 192 228
164 192 228
164 192 228
164 192 228
164 192 228
164 192 228
165 193 228
165 193 228
165 193 228
165 193 228
166 193 228
167 194 228
166 194 228
166 194 228
167 194 228
167 194 228
169 195 228
169 195 227
168 193 225
168 192 224
164 188 218
160 182 211
163 185 213
152 170 195
185 204 230
208 228 255
208 228 255
208 228 255
208 228 255
208 228 255
208 228 255
208 228 255
208 228 255
208 228 255
208 228 255
208 228 255
208 228 255
208 228 255
208 228 255
208 228 255
208 228 255
208 228 255
208 228 255
207 228 255
207 228 255
207 228 255
207 228 255
207 228 255
207 228 255
207 228 255
207 228 255
207 228 255
207 228 255
207 228 255
207 228 255
207 228 255
207 228 255
207 228 255
207 228 255
207 227 255
207 227 255
207 227 255
207 227 255
207 227 255
207 227 255
206 227 255
206 227 255
206 227 255
206 227 255
206 227 255
206 227 255
206 227 255
206 227 255
206 227 255
206 227 255
206 227 255
206 227 255
206 227 255
206 227 255
206 227 255
206 227 255
206 227 255
206 227 255
206 227 255
206 227 255
206 227 255
206 227 255
206 227 255
206 227 255
206 227 255
206 227 255
206 227 255
206 227 255
206 227 255
206 227 255
206 227 255
206 227 255
206 227 255
206 227 255
205 227 255
205 227 255
205 227 255
204 225 254
189 211 244
165 187 228
148 171 217
138 162 212
103 131 194
94 124 191
68 103 179
62 99 177
63 100 179
62 99 173
62 99 175
61 98 176
62 99 178
89 119 183
103 131 192
114 140 198
128 153 205
153 176 221
171 193 232
184 205 240
204 225 254
205 227 255
205 227 255
205 227 255
205 227 255
205 227 255
206 227 255
206 227 255
206 227 255
206 227 255
206 227 255
206 227 255
206 227 255
206 227 255
206 227 255
206 227 255
206 227 255
206 227 255
206 227 255
206 227 255
206 227 255
206 227 255
206 227 255
206 227 255
206 227 255
206 227 255
206 227 255
206 227 255
206 227 255
206 227 255
206 227 255
206 227 255
206 227 255
206 227 255
206 227 255
206 227 255
206 227 255
206 227 255
207 227 255
207 227 255
207 227 255
207 227 255
207 227 255
207 227 255
207 228 255
207 228 255
207 228 255
207 228 255
207 228 255
207 228 255
207 228 255
207 228 255
207 228 255
207 228 255
207 228 255
207 228 255
207 228 255
207 228 255
207 228 255
207 228 255
208 228 255
208 228 255
208 228 255
208 228 255
208 228 255
208 228 255
208 228 255
208 228 255
208 228 255
208 228 255
208 228 255
208 228 255
208 228 255
208 228 255
208 228 255
208 228 255
208 228 255
206 226 253
182 196 207
141 141 110
135 134 90
131 129 86
135 134 90
141 139 93
144 142 95
128 127 86
142 141 95
140 139 94
140 138 93
135 134 90
143 142 95
142 141 95
139 139 93
148 147 99
146 144 96
150 149 100
142 141 95
152 151 102
151 149 100
149 147 98
142 142 95
146 144 97
149 149 100
150 148 99
157 155 104
151 150 101
151 149 100
151 150 101
145 144 96
148 147 99
147 145 97
153 152 102
141 140 94
152 150 100
149 148 99
152 151 101
148 146 98
152 150 101
160 157 105
150 149 100
158 157 105
161 159 105
155 153 102
160 157 104
160 158 106
153 152 102
151 148 98
148 146 97
150 148 99
149 147 98
161 157 104
148 146 97
143 140 93
157 155 103
149 147 97
159 158 105
148 147 98
148 146 97
152 149 99
151 148 97
158 154 100
153 151 100
147 145 97
156 153 101
149 147 95
161 158 103
160 157 103
158 154 103
152 149 99
155 151 99
155 152 99
160 156 102
160 155 101
148 144 95
163 159 103
149 145 93
149 146 94
153 150 99
156 153 99
144 141 92
149 146 93
153 149 97
156 152 99
153 150 98
135 132 86
148 144 93
152 148 94
145 142 90
153 149 96
152 148 97
142 139 90
147 143 93
140 137 88
145 142 91
143 140 91
148 143 92
149 145 92
147 144 95
148 144 94
147 142 89
150 145 91
129 126 80
143 140 88
150 146 96
138 134 86
141 137 85
142 139 88
141 136 85
128 124 79
141 138 84
179 200 227
179 200 227
180 201 228
180 201 228
180 201 228
179 200 228
178 200 228
179 200 228
178 200 228
177 199 228
177 199 228
177 199 228
177 199 228
177 199 228
176 199 228
176 199 228
176 198 228
175 198 228
174 198 228
175 198 228
174 198 228
174 198 228
174 198 228
173 197 228
173 197 228
172 197 228
173 197 228
172 197 228
173 197 228
172 196 228
172 197 228
171 196 228
171 196 228
171 196 228
170 196 228
170 196 228
170 196 228
170 195 228
170 195 228
169 195 228
169 195 228
169 195 228
169 195 228
169 195 228
168 195 228
168 195 228
167 194 228
168 194 228
168 194 228
168 194 228
167 194 228
167 194 228
167 194 228
166 194 228
166 194 228
166 193 228
166 193 228
166 193 228
165 193 228
165 193 228
165 193 228
165 193 228
165 193 228
165 193 228
165 193 228
164 193 228
164 192 228
164 192 228
164 192 228
164 192 228
164 192 228
164 192 228
163 192 228
163 192 228
164 192 228
163 192 228
163 192 228
163 192 228
163 192 228
163 192 228
163 192 228
163 192 228
163 192 228
163 192 228
163 192 228
163 192 228
163 192 228
163 192 228
163 192 228
163 192 228
163 192 228
163 192 228
164 192 228
164 192 228
164 192 228
164 193 228
165 193 228
165 193 228
165 193 228
166 193 228
166 193 228
167 194 228
167 194 228
168 194 228
168 195 228
169 195 228
170 196 228
170 195 227
166 189 220
163 186 216
162 184 213
156 176 203
156 174 199
186 205 230
207 227 254
208 228 255
208 228 255
208 228 255
208 228 255
208 228 255
208 228 255
208 228 255
208 228 255
208 228 255
208 228 255
208 228 255
208 228 255
208 228 255
208 228 255
208 228 255
208 228 255
208 228 255
208 228 255
208 228 255
208 228 255
207 228 255
207 228 255
207 228 255
207 228 255
207 228 255
207 228 255
207 228 255
207 228 255
207 228 255
207 228 255
207 228 255
207 228 255
207 228 255
207 228 255
207 228 255
207 228 255
207 228 255
207 227 255
207 227 255
207 227 255
207 227 255
207 227 255
207 227 255
206 227 255
206 227 255
206 227 255
206 227 255
206 227 255
206 227 255
206 227 255
206 227 255
206 227 255
206 227 255
206 227 255
206 227 255
206 227 255
206 227 255
206 227 255
206 227 255
206 227 255
206 227 255
206 227 255
206 227 255
206 227 255
206 227 255
206 227 255
206 227 255
206 227 255
206 227 255
206 227 255
205 226 255
184 206 240
137 161 211
112 139 198
65 101 176
62 99 178
61 98 174
63 99 174
62 99 179
61 98 175
62 99 176
63 99 178
62 99 175
62 98 170
62 99 177
62 99 170
62 99 175
62 98 174
62 99 177
63 100 179
62 98 175
62 99 176
63 99 178
62 99 176
62 99 178
74 107 181
127 152 205
152 175 220
181 203 239
205 226 255
206 227 255
206 227 255
206 227 255
206 227 255
206 227 255
206 227 255
206 227 255
206 227 255
206 227 255
206 227 255
206 227 255
206 227 255
206 227 255
206 227 255
206 227 255
206 227 255
206 227 255
206 227 255
206 227 255
206 227 255
206 227 255
206 227 255
206 227 255
206 227 255
206 227 255
206 227 255
206 227 255
207 227 255
207 227 255
207 227 255
207 227 255
207 227 255
207 227 255
207 228 255
207 228 255
207 228 255
207 228 255
207 228 255
207 228 255
207 228 255
207 228 255
207 228 255
207 228 255
207 228 255
207 228 255
207 228 255
207 228 255
207 228 255
207 228 255
207 228 255
208 228 255
208 228 255
208 228 255
208 228 255
208 228 255
208 228 255
208 228 255
208 228 255
208 228 255
208 228 255
208 228 255
208 228 255
208 228 255
208 228 255
208 228 255
208 228 255
208 228 255
208 228 255
208 228 255
208 228 255
207 227 253
183 198 214
133 134 106
133 131 87
126 125 83
131 129 86
139 137 92
136 135 90
138 136 91
137 135 90
139 137 92
139 139 93
143 141 95
144 143 96
135 134 91
144 142 95
141 140 94
139 138 93
145 144 97
144 143 96
150 149 100
149 147 99
149 148 100
151 149 100
145 144 96
143 142 96
150 149 100
144 143 96
148 146 98
145 144 97
155 154 103
152 150 101
159 157 105
157 154 103
157 155 104
152 150 101
157 154 103
156 155 104
145 144 97
140 138 92
157 155 104
149 147 98
154 152 101
150 148 99
156 154 103
154 153 103
157 156 104
157 155 103
151 148 99
149 146 97
155 152 101
148 146 98
153 151 100
158 154 102
155 153 101
150 147 97
147 144 95
153 151 100
151 148 99
150 148 99
156 154 103
157 154 101
155 152 101
151 150 98
150 147 97
160 157 103
156 152 101
151 148 98
163 160 106
153 150 99
158 154 101
157 154 101
154 150 99
158 154 100
153 151 100
153 149 97
162 159 103
154 151 99
148 145 97
155 152 97
158 155 102
158 154 102
159 156 101
152 147 94
158 153 99
146 143 94
153 149 96
150 146 95
150 146 94
131 128 83
148 144 92
139 137 87
142 138 90
149 145 90
151 146 96
153 149 95
152 149 97
146 142 93
147 144 93
144 140 89
143 138 90
134 132 82
152 148 96
135 132 84
150 146 93
146 144 92
149 144 91
133 130 83
122 120 77
144 140 86
150 146 93
148 144 93
138 133 87
141 137 84
147 142 90
180 201 228
180 201 228
180 201 228
179 200 228
179 200 228
179 200 228
178 199 228
178 200 228
178 200 228
178 200 228
176 199 228
177 199 228
177 199 228
177 199 228
176 199 228
175 198 228
175 198 228
175 198 228
175 198 228
174 198 228
175 198 228
175 198 228
174 197 228
174 198 228
173 197 228
173 197 228
173 197 228
172 196 228
172 196 228
172 197 228
171 196 228
170 196 228
172 196 228
172 196 228
170 196 228
171 196 228
170 195 228
171 196 228
170 195 228
170 195 228
170 195 228
169 195 228
169 195 228
168 194 228
168 195 228
169 195 228
168 195 228
168 194 228
167 194 228
168 194 228
167 194 228
167 194 228
167 194 228
167 194 228
166 194 228
167 194 228
166 193 228
166 194 228
166 193 228
166 193 228
165 193 228
165 193 228
165 193 228
165 193 228
165 193 228
165 193 228
164 192 228
164 192 228
164 192 228
164 192 228
164 192 228
164 192 228
164 192 228
163 192 228
163 192 228
163 192 228
163 192 228
163 192 228
163 192 228
163 192 228
163 192 228
163 192 228
163 192 228
163 192 228
163 192 228
163 192 228
163 192 228
163 192 228
163 192 228
163 192 228
163 192 228
163 192 228
163 192 228
164 192 228
164 192 228
164 192 228
164 192 228
164 192 228
164 192 228
165 193 228
165 193 228
166 193 228
166 193 228
166 194 228
167 194 228
167 194 228
168 194 228
170 195 228
170 196 228
169 194 226
167 191 223
167 190 220
164 186 214
149 168 194
161 180 205
185 204 229
209 229 255
209 229 255
209 228 255
209 228 255
208 228 255
208 228 255
208 228 255
208 228 255
208 228 255
208 228 255
208 228 255
208 228 255
208 228 255
208 228 255
208 228 255
208 228 255
208 228 255
208 228 255
208 228 255
208 228 255
208 228 255
208 228 255
208 228 255
208 228 255
208 228 255
207 228 255
207 228 255
207 228 255
207 228 255
207 228 255
207 228 255
207 228 255
207 228 255
207 228 255
207 228 255
207 228 255
207 228 255
207 228 255
207 228 255
207 228 255
207 228 255
207 228 255
207 228 255
207 227 255
207 227 255
207 227 255
207 227 255
207 227 255
207 227 255
207 227 255
206 227 255
206 227 255
206 227 255
206 227 255
206 227 255
206 227 255
206 227 255
206 227 255
206 227 255
206 227 255
206 227 255
206 227 255
206 227 255
206 227 255
206 227 255
206 227 255
199 221 251
164 186 227
130 155 207
65 101 179
63 99 177
63 99 175
62 99 174
62 99 174
62 98 173
62 99 177
62 99 176
61 98 172
62 98 174
62 99 175
61 98 168
62 99 173
62 99 173
62 99 176
62 99 179
62 99 170
62 99 173
62 99 176
63 99 175
62 99 177
62 99 179
62 99 173
62 99 175
62 98 174
62 99 175
62 99 177
62 99 175
62 98 174
83 114 184
127 152 205
179 201 238
199 221 251
206 227 255
206 227 255
206 227 255
206 227 255
206 227 255
206 227 255
206 227 255
206 227 255
206 227 255
206 227 255
206 227 255
206 227 255
206 227 255
206 227 255
206 227 255
206 227 255
207 227 255
207 227 255
207 227 255
207 227 255
207 227 255
207 227 255
207 227 255
207 228 255
207 228 255
207 228 255
207 228 255
207 228 255
207 228 255
207 228 255
207 228 255
207 228 255
207 228 255
207 228 255
207 228 255
207 228 255
207 228 255
207 228 255
207 228 255
207 228 255
207 228 255
208 228 255
208 228 255
208 228 255
208 228 255
208 228 255
208 228 255
208 228 255
208 228 255
208 228 255
208 228 255
208 228 255
208 228 255
208 228 255
208 228 255
208 228 255
208 228 255
208 228 255
208 228 255
208 228 255
208 228 255
208 228 255
209 228 255
209 228 255
209 229 255
209 229 255
192 206 218
137 137 110
127 126 85
132 131 87
137 135 90
143 142 95
146 144 97
141 140 94
146 145 97
141 139 94
142 141 95
157 155 104
144 142 95
141 140 94
155 152 101
151 149 100
145 144 97
142 141 95
139 138 93
148 147 99
151 150 101
145 144 97
141 141 95
149 147 99
151 149 100
149 148 99
153 151 101
148 146 97
152 151 101
144 142 95
152 150 101
154 152 102
151 150 101
151 149 100
148 147 99
154 151 101
154 152 101
144 142 96
146 145 97
159 156 104
150 149 100
153 151 101
155 153 103
156 154 103
155 153 102
156 153 102
158 156 104
159 155 103
160 158 105
158 155 103
162 159 106
159 157 105
156 154 103
155 153 101
155 152 101
153 149 98
157 154 102
162 159 106
152 150 99
150 147 97
162 158 104
155 152 101
150 147 97
154 151 100
162 158 104
164 160 104
159 155 101
152 149 98
159 155 103
157 153 99
151 148 97
147 144 95
166 161 106
150 147 97
157 154 99
152 148 98
152 149 97
153 149 95
151 148 97
151 147 96
138 135 87
158 154 100
156 152 98
151 149 98
150 147 95
153 149 96
153 149 99
153 150 97
148 145 93
155 151 98
148 144 92
157 152 99
158 153 99
147 143 92
158 153 98
153 149 96
149 145 90
140 136 85
147 143 92
150 145 92
151 146 93
149 145 95
145 142 92
140 136 86
142 139 87
148 144 92
156 151 97
145 139 88
138 134 84
144 141 92
144 139 87
142 138 88
151 148 95
139 136 87
139 135 86
143 138 86
181 201 228
181 201 228
179 200 228
179 200 228
179 200 228
178 200 228
178 200 228
178 199 228
178 200 228
177 199 228
177 199 228
177 199 228
176 199 228
176 199 228
177 199 228
176 199 228
176 198 228
176 198 228
175 198 228
175 198 228
174 198 228
174 197 228
175 198 228
174 197 228
173 197 228
173 197 228
173 197 228
173 197 228
172 196 228
172 197 228
172 196 228
172 197 228
172 196 228
171 196 228
171 196 228
170 196 228
170 196 228
170 195 228
170 196 228
170 195 228
169 195 228
170 195 228
169 195 228
169 195 228
168 194 228
168 195 228
168 195 228
169 195 228
168 194 228
167 194 228
167 194 228
167 194 228
166 194 228
167 194 228
167 194 228
167 194 228
166 194 228
166 194 228
166 193 228
166 193 228
166 193 228
165 193 228
165 193 228
165 193 228
165 193 228
165 193 228
164 193 228
164 192 228
164 192 228
164 193 228
164 192 228
164 192 228
164 192 228
164 192 228
163 192 228
163 192 228
163 192 228
163 192 228
163 192 228
163 192 228
163 192 228
163 192 228
163 192 228
163 192 228
163 192 228
163 192 228
163 192 228
163 192 228
163 192 228
163 192 228
163 192 228
163 192 228
163 192 228
163 192 228
163 192 228
163 192 228
164 192 228
164 192 228
164 192 228
165 193 228
164 193 228
165 193 228
165 193 228
166 193 228
166 193 228
167 194 228
167 194 228
168 194 228
169 195 228
169 195 228
170 195 227
171 196 228
167 191 223
162 185 214
162 184 212
156 177 203
161 178 202
203 223 250
209 229 255
209 229 255
209 229 255
209 229 255
209 229 255
209 228 255
208 228 255
208 228 255
208 228 255
208 228 255
208 228 255
208 228 255
208 228 255
208 228 255
208 228 255
208 228 255
208 228 255
208 228 255
208 228 255
208 228 255
208 228 255
208 228 255
208 228 255
208 228 255
208 228 255
208 228 255
208 228 255
208 228 255
208 228 255
207 228 255
207 228 255
207 228 255
207 228 255
207 228 255
207 228 255
207 228 255
207 228 255
207 228 255
207 228 255
207 228 255
207 228 255
207 228 255
207 228 255
207 228 255
207 228 255
207 228 255
207 228 255
207 228 255
207 227 255
207 227 255
207 227 255
207 227 255
207 227 255
207 227 255
207 227 255
207 227 255
207 227 255
206 227 255
206 227 255
206 227 255
206 227 255
206 227 255
179 201 237
137 161 209
68 103 175
62 99 176
62 99 176
62 99 175
61 98 169
62 99 173
62 99 174
62 99 177
62 99 173
63 99 176
61 98 173
62 98 164
62 99 177
63 99 172
62 99 173
62 99 171
62 99 177
63 99 175
62 98 171
61 98 171
61 98 171
62 99 176
63 99 174
62 99 171
62 98 173
62 98 169
62 98 173
62 99 173
62 99 174
62 99 176
62 99 175
62 98 173
62 99 177
61 98 174
61 98 176
62 98 176
134 158 208
188 209 243
206 227 255
206 227 255
206 227 255
206 227 255
207 227 255
207 227 255
207 227 255
207 227 255
207 227 255
207 227 255
207 227 255
207 227 255
207 227 255
207 228 255
207 228 255
207 228 255
207 228 255
207 228 255
207 228 255
207 228 255
207 228 255
207 228 255
207 228 255
207 228 255
207 228 255
207 228 255
207 228 255
207 228 255
207 228 255
207 228 255
207 228 255
207 228 255
207 228 255
207 228 255
208 228 255
208 228 255
208 228 255
208 228 255
208 228 255
208 228 255
208 228 255
208 228 255
208 228 255
208 228 255
208 228 255
208 228 255
208 228 255
208 228 255
208 228 255
208 228 255
208 228 255
208 228 255
208 228 255
208 228 255
208 228 255
208 228 255
209 228 255
209 229 255
209 229 255
209 229 255
209 229 255
209 229 255
201 219 242
151 158 153
134 132 88
137 135 90
148 146 98
125 124 83
137 135 91
141 139 93
142 140 94
142 141 95
150 148 99
145 142 95
146 144 97
146 144 97
146 144 97
149 148 100
149 148 100
139 137 92
144 143 97
152 150 101
150 148 99
150 148 99
149 148 99
147 146 98
153 152 102
147 145 98
145 144 96
150 148 99
157 155 104
152 150 101
149 147 99
157 155 104
152 150 100
157 155 104
156 154 103
153 151 101
156 154 103
154 152 101
153 151 101
152 150 100
158 156 104
156 154 103
153 150 100
153 150 100
157 155 104
154 152 102
160 157 105
159 156 104
152 150 100
154 152 101
158 155 103
163 159 104
151 147 97
155 152 101
158 155 104
153 151 99
157 154 103
160 157 104
159 157 104
161 157 104
151 147 97
160 156 103
158 156 102
164 161 106
153 151 98
156 152 101
156 153 101
164 161 107
159 156 103
156 152 101
158 155 102
158 155 103
156 153 101
156 152 99
157 154 100
149 146 96
156 152 100
148 145 95
160 156 102
151 149 96
148 145 95
157 154 98
154 151 97
153 150 95
149 145 94
152 149 97
147 143 90
143 139 88
157 153 98
155 152 98
155 152 99
150 145 94
148 145 93
152 148 95
156 153 97
154 150 97
154 150 95
152 149 96
149 144 93
151 147 95
147 143 90
151 147 95
146 141 92
139 135 85
144 141 91
147 144 93
150 144 93
154 151 95
148 145 94
141 137 89
154 149 95
148 145 90
150 146 91
152 146 93
143 139 88
150 145 93
138 134 84
131 128 80
179 200 228
179 200 228
180 201 228
179 200 228
179 200 228
179 200 228
178 200 228
177 199 228
176 199 228
177 199 228
178 200 228
176 199 228
176 199 228
176 199 228
176 198 228
176 199 228
176 198 228
175 198 228
175 198 228
174 198 228
175 198 228
174 198 228
174 198 228
174 198 228
174 197 228
173 197 228
173 197 228
172 196 228
173 197 228
172 197 228
172 196 228
172 196 228
172 196 228
170 196 228
171 196 228
171 196 228
170 196 228
171 196 228
170 196 228
170 196 228
169 195 228
170 195 228
169 195 228
169 195 228
169 195 228
169 195 228
168 195 228
168 194 228
167 194 228
167 194 228
168 194 228
167 194 228
167 194 228
167 194 228
166 194 228
167 194 228
166 194 228
167 194 228
166 193 228
165 193 228
166 193 228
166 193 228
165 193 228
165 193 228
165 193 228
165 193 228
165 193 228
164 192 228
164 193 228
164 192 228
164 192 228
164 192 228
164 192 228
163 192 228
164 192 228
163 192 228
163 192 228
163 192 228
163 192 228
163 192 228
163 192 228
163 192 228
163 192 228
163 192 228
163 192 228
163 192 228
163 192 228
163 192 228
162 192 228
163 192 228
163 192 228
163 192 228
163 192 228
163 192 228
163 192 228
163 192 228
163 192 228
163 192 228
164 192 228
164 192 228
164 192 228
164 193 228
164 193 228
165 193 228
165 193 228
166 193 228
167 194 228
167 194 228
167 194 228
168 194 228
170 195 228
169 195 228
171 196 228
171 196 227
168 191 221
169 192 221
159 180 207
152 170 194
176 193 217
207 227 254
209 229 255
209 229 255
209 229 255
209 229 255
209 229 255
209 229 255
209 229 255
209 229 255
209 228 255
209 228 255
208 228 255
208 228 255
208 228 255
208 228 255
208 228 255
208 228 255
208 228 255
208 228 255
208 228 255
208 228 255
208 228 255
208 228 255
208 228 255
208 228 255
208 228 255
208 228 255
208 228 255
208 228 255
208 228 255
208 228 255
208 228 255
208 228 255
208 228 255
207 228 255
207 228 255
207 228 255
207 228 255
207 228 255
207 228 255
207 228 255
207 228 255
207 228 255
207 228 255
207 228 255
207 228 255
207 228 255
207 228 255
207 228 255
207 228 255
207 228 255
207 228 255
207 228 255
207 228 255
207 228 255
207 228 255
207 228 255
207 228 255
205 226 254
175 197 233
118 144 202
62 99 178
61 98 176
62 98 175
62 99 177
62 99 175
61 98 169
61 98 171
62 99 171
62 98 172
61 98 174
62 99 173
62 98 168
62 98 171
62 98 168
62 99 170
62 98 171
62 98 170
62 99 171
63 99 174
62 98 170
63 99 176
62 99 177
63 99 173
63 99 174
63 99 169
62 98 168
63 99 176
62 99 174
62 98 164
62 98 168
62 99 174
62 98 173
62 99 170
62 99 173
62 98 174
62 98 175
61 98 168
61 97 167
61 98 173
62 98 175
105 133 194
172 194 232
203 224 253
207 227 255
207 228 255
207 228 255
207 228 255
207 228 255
207 228 255
207 228 255
207 228 255
207 228 255
207 228 255
207 228 255
207 228 255
207 228 255
207 228 255
207 228 255
207 228 255
207 228 255
207 228 255
207 228 255
207 228 255
207 228 255
207 228 255
207 228 255
207 228 255
208 228 255
208 228 255
208 228 255
208 228 255
208 228 255
208 228 255
208 228 255
208 228 255
208 228 255
208 228 255
208 228 255
208 228 255
208 228 255
208 228 255
208 228 255
208 228 255
208 228 255
208 228 255
208 228 255
208 228 255
208 228 255
208 228 255
208 228 255
209 228 255
209 228 255
209 229 255
209 229 255
209 229 255
209 229 255
209 229 255
209 229 255
209 229 255
209 229 255
207 227 252
179 189 193
133 132 96
137 135 90
130 129 86
140 137 91
137 135 90
132 130 87
135 134 90
145 144 96
147 145 97
144 142 95
144 143 96
146 145 97
154 152 102
153 152 102
137 136 91
145 144 97
153 152 102
159 156 104
148 147 99
150 148 99
150 147 98
147 146 98
149 147 98
150 149 100
158 156 104
150 149 100
154 152 101
142 140 94
153 151 101
149 148 99
160 157 105
151 148 99
153 151 101
145 144 97
152 151 101
163 161 108
157 154 103
156 153 102
153 151 101
153 151 101
148 146 98
153 152 103
161 159 106
152 150 100
158 156 104
162 159 106
151 149 99
160 157 104
150 148 99
162 159 105
169 165 110
158 155 103
155 152 101
160 157 104
166 164 109
157 153 101
159 156 103
157 154 103
157 154 102
154 151 100
154 150 98
161 157 104
154 152 101
149 146 95
156 151 99
157 153 102
157 154 99
151 147 97
159 156 103
152 148 97
157 153 101
160 157 103
161 157 102
157 154 101
165 161 105
157 153 99
153 149 96
152 150 97
154 150 97
156 152 97
149 146 93
160 155 99
159 154 99
152 149 95
156 153 98
155 151 97
150 146 95
155 152 97
158 154 100
152 148 95
151 147 95
151 146 95
159 155 100
153 149 96
154 150 96
150 146 96
155 151 97
148 144 91
153 149 96
156 152 99
150 147 94
147 143 92
148 145 92
156 151 96
142 138 84
152 149 93
153 148 94
143 140 90
147 142 88
153 148 95
155 149 96
152 149 96
146 141 92
148 144 90
145 140 87
147 141 90
143 139 87
135 131 84
181 201 228
180 201 228
179 200 228
178 200 228
179 200 228
178 200 228
178 200 228
179 200 228
178 200 228
178 199 228
177 199 228
176 198 228
176 199 228
176 199 228
176 199 228
176 198 228
176 198 228
175 198 228
176 198 228
175 198 228
174 198 228
174 198 228
174 198 228
173 197 228
173 197 228
173 197 228
173 197 228
173 197 228
172 197 228
172 197 228
172 197 228
172 196 228
172 196 228
171 196 228
171 196 228
171 196 228
170 196 228
171 196 228
170 195 228
170 195 228
170 195 228
170 195 228
169 195 228
170 195 228
168 195 228
169 195 228
169 195 228
168 195 228
168 195 228
168 195 228
168 194 228
167 194 228
167 194 228
167 194 228
167 194 228
166 194 228
166 194 228
166 194 228
166 194 228
166 193 228
166 193 228
165 193 228
165 193 228
165 193 228
165 193 228
165 193 228
165 193 228
165 193 228
164 193 228
164 192 228
165 193 228
164 192 228
164 192 228
164 192 228
164 192 228
164 192 228
163 192 228
163 192 228
163 192 228
163 192 228
163 192 228
163 192 228
163 192 228
163 192 228
163 192 228
163 192 228
163 192 228
163 192 228
163 192 228
163 192 228
163 192 228
163 192 228
163 192 228
163 192 228
163 192 228
163 192 228
163 192 228
163 192 228
163 192 228
163 192 228
164 192 228
164 192 228
165 193 228
164 193 228
165 193 228
165 193 228
166 193 228
166 193 228
167 194 228
167 194 228
168 194 228
169 195 228
169 195 228
171 196 228
170 196 228
171 195 226
169 192 223
156 177 204
152 171 196
158 176 200
203 222 248
209 229 255
209 229 255
209 229 255
209 229 255
209 229 255
209 229 255
209 229 255
209 229 255
209 229 255
209 229 255
209 229 255
209 229 255
209 228 255
209 228 255
208 228 255
208 228 255
208 228 255
208 228 255
208 228 255
208 228 255
208 228 255
208 228 255
208 228 255
208 228 255
208 228 255
208 228 255
208 228 255
208 228 255
208 228 255
208 228 255
208 228 255
208 228 255
208 228 255
208 228 255
208 228 255
208 228 255
208 228 255
208 228 255
208 228 255
207 228 255
207 228 255
207 228 255
207 228 255
207 228 255
207 228 255
207 228 255
207 228 255
207 228 255
207 228 255
207 228 255
207 228 255
207 228 255
207 228 255
207 228 255
205 226 254
157 179 223
98 126 188
62 99 175
62 98 171
62 98 173
62 99 174
62 99 175
62 99 171
62 99 174
61 97 166
62 99 172
62 99 177
63 99 175
62 99 174
62 99 173
63 99 173
61 98 172
63 99 175
63 99 171
61 98 166
62 98 162
62 99 173
61 98 167
61 98 165
63 99 174
63 100 174
62 98 174
62 99 177
61 98 168
62 98 165
61 98 169
62 99 174
61 98 175
62 99 174
62 98 169
62 99 172
62 98 170
62 98 173
62 99 170
62 98 172
63 99 177
62 98 168
62 99 170
62 99 175
62 98 170
62 98 173
97 125 184
161 183 223
207 228 255
207 228 255
207 228 255
207 228 255
207 228 255
207 228 255
207 228 255
207 228 255
207 228 255
207 228 255
207 228 255
207 228 255
207 228 255
207 228 255
207 228 255
207 228 255
208 228 255
208 228 255
208 228 255
208 228 255
208 228 255
208 228 255
208 228 255
208 228 255
208 228 255
208 228 255
208 228 255
208 228 255
208 228 255
208 228 255
208 228 255
208 228 255
208 228 255
208 228 255
208 228 255
208 228 255
208 228 255
208 228 255
208 228 255
208 228 255
208 228 255
209 228 255
209 228 255
209 229 255
209 229 255
209 229 255
209 229 255
209 229 255
209 229 255
209 229 255
209 229 255
209 229 255
209 229 255
209 229 255
209 229 255
191 207 226
156 161 143
138 136 90
122 121 81
128 125 83
134 132 89
131 130 87
137 135 91
143 142 96
137 135 90
141 139 94
137 136 92
142 141 95
143 142 95
144 143 96
139 138 93
149 147 99
143 142 95
142 140 94
147 146 99
149 148 99
149 147 99
146 145 98
153 151 102
150 148 99
151 149 100
152 150 100
154 152 101
150 149 100
152 150 101
159 158 106
153 152 102
148 146 98
156 154 103
157 155 104
156 155 104
155 153 102
154 152 102
161 159 107
157 155 104
152 150 101
160 158 106
161 158 106
159 157 105
161 157 104
158 155 103
151 149 100
162 160 106
153 150 100
157 154 103
152 150 100
162 159 105
159 157 104
156 154 103
157 153 102
153 151 100
160 156 104
162 158 105
151 147 96
163 159 104
148 145 95
157 154 103
160 156 103
163 160 106
155 152 99
152 149 98
157 154 101
161 157 103
157 153 101
156 154 101
163 160 106
161 157 102
159 157 104
158 154 101
157 153 99
162 158 105
163 159 104
162 158 102
164 161 106
158 154 101
156 153 97
159 155 99
152 149 96
166 161 104
156 152 100
151 148 97
157 154 100
156 153 100
158 154 99
164 160 103
161 157 103
153 149 97
160 154 98
149 146 96
149 145 91
157 152 97
152 148 94
156 152 100
154 150 95
156 152 94
152 149 94
157 153 97
163 158 99
139 135 86
152 148 94
150 146 93
154 150 95
153 148 93
142 138 87
148 143 90
149 145 91
145 140 87
157 153 97
153 149 95
147 144 92
149 145 93
133 129 83
147 142 90
136 132 82
136 131 81
141 137 85
180 201 228
179 200 228
179 200 228
179 200 228
179 200 228
179 200 228
179 200 228
178 200 228
177 199 228
178 200 228
178 200 228
176 199 228
176 199 228
176 199 228
177 199 228
176 199 228
175 198 228
175 198 228
175 198 228
174 198 228
175 198 228
175 198 228
174 198 228
174 197 228
174 198 228
173 197 228
173 197 228
173 197 228
173 197 228
173 197 228
173 197 228
172 197 228
172 197 228
172 196 228
171 196 228
172 196 228
171 196 228
171 196 228
171 196 228
171 196 228
171 196 228
170 196 228
171 196 228
169 195 228
168 195 228
169 195 228
168 195 228
169 195 228
168 194 228
168 195 228
168 194 228
167 194 228
167 194 228
168 194 228
167 194 228
167 194 228
167 194 228
167 194 228
167 194 228
166 194 228
166 193 228
165 193 228
166 193 228
166 193 228
165 193 228
165 193 228
165 193 228
165 193 228
165 193 228
165 193 228
164 193 228
165 193 228
164 192 228
164 192 228
164 192 228
164 192 228
164 192 228
163 192 228
163 192 228
163 192 228
163 192 228
163 192 228
163 192 228
163 192 228
163 192 228
163 192 228
163 192 228
163 192 228
163 192 228
163 192 228
163 192 228
163 192 228
163 192 228
163 192 228
163 192 228
163 192 228
163 192 228
163 192 228
163 192 228
163 192 228
164 192 228
163 192 228
164 192 228
165 193 228
164 193 228
165 193 228
165 193 228
166 193 228
166 193 228
167 194 228
167 194 228
168 194 228
168 195 228
169 195 228
169 195 228
171 196 228
172 196 227
173 197 228
164 186 214
163 184 212
160 180 206
187 207 232
209 228 255
209 229 255
209 229 255
209 229 255
209 229 255
209 229 255
209 229 255
209 229 255
209 229 255
209 229 255
209 229 255
209 229 255
209 229 255
209 229 255
209 229 255
209 229 255
209 229 255
209 229 255
209 228 255
208 228 255
208 228 255
208 228 255
208 228 255
208 228 255
208 228 255
208 228 255
208 228 255
208 228 255
208 228 255
208 228 255
208 228 255
208 228 255
208 228 255
208 228 255
208 228 255
208 228 255
208 228 255
208 228 255
208 228 255
208 228 255
208 228 255
208 228 255
208 228 255
208 228 255
208 228 255
208 228 255
207 228 255
207 228 255
207 228 255
207 228 255
207 228 255
207 228 255
165 187 227
96 125 185
62 99 177
62 99 175
61 98 172
62 98 171
62 98 169
62 99 173
62 99 176
62 98 173
62 99 170
61 98 174
63 99 173
62 98 170
62 99 173
62 98 165
62 99 175
62 99 170
62 98 168
63 99 172
62 98 167
62 99 174
62 99 171
62 99 173
62 99 169
63 99 171
62 99 173
62 99 173
62 99 170
62 98 169
61 98 167
62 98 169
62 98 170
62 98 167
62 98 171
61 98 169
62 99 171
62 98 172
61 98 171
60 97 168
61 98 170
62 98 173
62 98 171
62 99 172
63 99 172
62 98 168
62 98 172
62 99 174
62 99 178
62 98 176
105 132 193
173 194 227
207 228 255
207 228 255
207 228 255
207 228 255
207 228 255
207 228 255
208 228 255
208 228 255
208 228 255
208 228 255
208 228 255
208 228 255
208 228 255
208 228 255
208 228 255
208 228 255
208 228 255
208 228 255
208 228 255
208 228 255
208 228 255
208 228 255
208 228 255
208 228 255
208 228 255
208 228 255
208 228 255
208 228 255
208 228 255
208 228 255
208 228 255
208 228 255
208 228 255
209 228 255
209 228 255
209 229 255
209 229 255
209 229 255
209 229 255
209 229 255
209 229 255
209 229 255
209 229 255
209 229 255
209 229 255
209 229 255
209 229 255
209 229 255
209 229 255
209 229 255
209 229 255
208 227 253
171 181 184
129 127 87
136 133 89
133 130 87
138 136 91
137 136 92
137 136 91
140 139 93
141 140 94
133 132 89
137 136 91
138 137 92
148 147 99
150 148 99
140 138 93
143 141 95
141 141 96
149 148 99
147 145 98
151 149 99
151 149 101
148 147 99
157 156 104
152 151 101
152 149 100
143 141 95
153 151 102
155 152 102
152 151 102
158 157 105
155 153 103
153 152 102
156 154 103
159 156 104
150 148 99
153 151 102
155 153 103
162 158 105
162 160 107
151 149 100
152 150 101
153 151 101
154 152 101
159 156 104
158 156 104
164 160 106
157 155 103
158 155 103
158 155 103
156 153 101
159 155 103
159 156 103
160 157 104
153 150 100
160 157 104
157 154 102
160 157 103
160 156 103
157 153 101
159 156 103
160 156 103
157 154 103
154 152 100
162 159 104
160 157 104
157 154 101
159 156 103
160 156 103
160 156 103
163 159 104
157 152 99
154 152 101
163 159 104
163 159 104
151 148 97
167 163 106
156 152 98
154 151 99
150 148 96
151 148 97
156 153 97
157 154 101
160 157 103
162 158 101
159 156 99
157 154 101
160 155 101
159 155 101
159 155 101
157 154 98
155 151 97
157 153 99
147 143 93
152 148 95
150 146 93
162 158 103
152 149 97
155 151 98
153 148 97
161 156 101
153 148 95
145 142 91
155 150 96
156 151 95
155 151 96
149 145 93
156 152 96
153 149 95
151 147 95
142 138 84
152 147 93
150 146 90
151 146 93
155 151 99
157 152 94
154 149 95
142 138 85
145 141 88
141 137 85
151 145 90
149 145 90
148 145 91
180 201 228
180 201 228
179 200 228
179 200 228
178 200 228
178 199 228
178 200 228
177 199 228
178 200 228
178 200 228
176 199 228
176 199 228
176 199 228
177 199 228
176 199 228
176 199 228
175 198 228
177 199 228
176 198 228
175 198 228
175 198 228
175 198 228
174 198 228
174 198 228
174 198 228
173 197 228
174 197 228
173 197 228
173 197 228
173 197 228
173 197 228
173 197 228
172 197 228
172 197 228
171 196 228
171 196 228
172 197 228
171 196 228
172 196 228
171 196 228
171 196 228
170 195 228
170 195 228
170 195 228
169 195 228
170 195 228
169 195 228
169 195 228
169 195 228
169 195 228
168 194 228
168 194 228
168 194 228
168 194 228
167 194 228
167 194 228
167 194 228
167 194 228
167 194 228
166 194 228
167 194 228
167 194 228
166 193 228
166 193 228
166 193 228
166 193 228
165 193 228
165 193 228
165 193 228
165 193 228
165 193 228
164 193 228
164 192 228
164 193 228
164 192 228
164 192 228
164 192 228
164 192 228
164 192 228
164 192 228
164 192 228
163 192 228
163 192 228
163 192 228
163 192 228
163 192 228
163 192 228
163 192 228
163 192 228
163 192 228
163 192 228
163 192 228
163 192 228
163 192 228
163 192 228
163 192 228
163 192 228
163 192 228
163 192 228
163 192 228
164 192 228
164 192 228
164 192 228
164 192 228
164 193 228
165 193 228
165 193 228
165 193 228
165 193 228
166 193 228
167 194 228
167 194 228
168 194 228
168 195 228
168 195 228
170 195 228
170 196 228
172 197 228
169 193 224
170 192 221
162 183 211
160 180 207
159 176 199
200 219 245
209 229 255
209 229 255
209 229 255
209 229 255
209 229 255
209 229 255
209 229 255
209 229 255
209 229 255
209 229 255
209 229 255
209 229 255
209 229 255
209 229 255
209 229 255
209 229 255
209 229 255
209 229 255
209 229 255
209 229 255
209 229 255
209 228 255
209 228 255
208 228 255
208 228 255
208 228 255
208 228 255
208 228 255
208 228 255
208 228 255
208 228 255
208 228 255
208 228 255
208 228 255
208 228 255
208 228 255
208 228 255
208 228 255
208 228 255
208 228 255
208 228 255
208 228 255
208 228 255
208 228 255
208 228 255
208 228 255
208 228 255
208 228 255
192 213 244
115 141 198
62 98 172
62 98 171
61 98 173
61 97 170
63 99 176
62 99 173
62 98 171
61 97 162
61 98 165
62 98 173
61 98 165
63 99 174
63 99 174
62 99 174
62 98 167
63 99 174
62 99 168
62 98 168
62 98 168
62 98 162
61 98 166
62 99 166
62 98 166
63 99 168
63 99 174
62 99 168
62 98 171
63 99 173
61 97 164
63 99 167
61 97 164
62 98 166
62 99 171
62 98 168
62 99 172
62 98 168
62 98 170
62 99 169
63 99 172
62 98 174
62 98 168
63 99 171
63 99 168
62 98 169
62 98 169
62 98 173
62 98 173
62 99 173
62 98 172
62 98 171
62 98 176
62 98 175
128 152 202
193 213 245
208 228 255
208 228 255
208 228 255
208 228 255
208 228 255
208 228 255
208 228 255
208 228 255
208 228 255
208 228 255
208 228 255
208 228 255
208 228 255
208 228 255
208 228 255
208 228 255
208 228 255
208 228 255
208 228 255
208 228 255
208 228 255
208 228 255
208 228 255
208 228 255
208 228 255
209 228 255
209 229 255
209 229 255
209 229 255
209 229 255
209 229 255
209 229 255
209 229 255
209 229 255
209 229 255
209 229 255
209 229 255
209 229 255
209 229 255
209 229 255
209 229 255
209 229 255
209 229 255
209 229 255
209 229 255
209 229 255
209 229 255
209 229 255
193 210 232
160 164 145
130 127 85
140 137 91
146 143 95
149 146 98
143 141 94
134 133 89
139 137 92
149 148 100
144 143 96
153 151 101
138 137 93
142 140 94
140 140 95
146 145 97
151 150 101
142 142 96
152 149 100
153 151 101
150 148 100
153 151 101
154 153 103
156 154 103
155 154 103
154 153 103
155 153 103
154 153 102
153 150 100
154 152 102
153 151 101
161 158 106
154 151 101
154 153 103
157 155 103
155 152 102
157 154 103
162 160 107
157 155 103
163 160 106
160 158 105
162 159 106
160 157 104
155 152 101
156 153 102
160 157 104
164 161 108
161 158 105
161 157 104
163 161 108
158 154 102
161 158 103
158 155 102
167 163 108
157 154 102
155 152 101
158 156 103
160 157 104
163 160 106
160 157 104
164 160 106
160 157 101
165 161 105
160 157 103
161 157 103
161 158 103
159 155 101
165 161 106
162 158 103
161 158 104
165 161 107
156 153 101
155 151 98
159 154 99
160 156 101
157 153 99
163 159 103
152 147 96
157 153 99
163 159 104
156 152 97
159 155 100
158 154 100
159 155 99
161 157 103
154 150 98
151 147 93
162 158 101
157 152 99
156 153 100
158 154 100
156 152 99
157 154 100
156 152 98
154 150 95
155 150 98
153 149 96
157 153 97
153 149 96
146 142 90
149 146 93
157 153 99
154 151 97
150 146 91
157 153 97
155 151 95
156 151 97
147 143 93
153 148 94
157 152 96
151 147 88
155 150 95
152 148 95
154 150 95
150 147 94
153 149 93
150 145 92
153 149 94
153 148 94
152 148 93
146 142 88
155 150 94
142 139 88
150 147 95
180 201 228
180 201 228
180 201 228
179 200 228
180 201 228
179 200 228
179 200 228
178 200 228
178 199 228
179 200 228
177 199 228
177 199 228
177 199 228
176 199 228
177 199 228
176 199 228
176 199 228
175 198 228
176 198 228
175 198 228
175 198 228
175 198 228
175 198 228
174 198 228
174 197 228
174 198 228
174 197 228
174 197 228
173 197 228
174 197 228
173 197 228
172 197 228
172 196 228
173 197 228
172 197 228
172 197 228
172 196 228
171 196 228
171 196 228
171 196 228
170 196 228
170 196 228
170 196 228
170 195 228
170 195 228
169 195 228
170 195 228
169 195 228
169 195 228
169 195 228
169 195 228
168 194 228
168 195 228
168 195 228
168 194 228
167 194 228
167 194 228
167 194 228
167 194 228
167 194 228
167 194 228
167 194 228
166 194 228
166 194 228
165 193 228
166 193 228
166 193 228
166 193 228
166 193 228
165 193 228
165 193 228
165 193 228
165 193 228
165 193 228
164 193 228
164 193 228
164 192 228
164 192 228
164 193 228
164 193 228
164 192 228
164 192 228
164 192 228
164 192 228
164 192 228
163 192 228
163 192 228
163 192 228
164 192 228
163 192 228
163 192 228
163 192 228
163 192 228
163 192 228
163 192 228
163 192 228
163 192 228
163 192 228
164 192 228
163 192 228
164 192 228
164 192 228
164 192 228
164 192 228
164 192 228
164 193 228
165 193 228
165 193 228
165 193 228
165 193 228
166 193 228
166 193 228
167 194 228
167 194 228
168 195 228
169 195 228
169 195 228
170 195 228
171 196 228
172 196 227
171 194 224
171 193 223
156 176 202
149 167 190
190 208 233
210 229 255
210 229 255
210 229 255
210 229 255
210 229 255
209 229 255
209 229 255
209 229 255
209 229 255
209 229 255
209 229 255
209 229 255
209 229 255
209 229 255
209 229 255
209 229 255
209 229 255
209 229 255
209 229 255
209 229 255
209 229 255
209 229 255
209 229 255
209 229 255
209 229 255
209 229 255
209 229 255
209 229 255
209 228 255
208 228 255
208 228 255
208 228 255
208 228 255
208 228 255
208 228 255
208 228 255
208 228 255
208 228 255
208 228 255
208 228 255
208 228 255
208 228 255
208 228 255
208 228 255
208 228 255
208 228 255
157 179 221
61 98 172
61 98 174
62 98 171
61 98 167
62 98 174
62 98 173
62 98 172
61 98 170
61 98 169
62 98 164
63 99 174
63 99 168
63 99 171
62 98 165
62 99 168
63 99 173
61 97 165
62 98 169
62 99 169
61 98 169
62 98 168
62 98 165
61 97 162
62 98 168
63 100 175
62 98 165
62 98 173
62 98 165
62 98 169
62 99 167
62 98 170
62 98 164
62 98 169
62 99 172
62 97 159
62 99 167
62 99 170
61 97 165
62 99 172
61 97 164
61 97 164
61 97 169
62 98 170
62 98 170
62 98 166
62 98 170
62 99 170
61 97 171
62 98 166
62 98 164
62 98 172
61 97 169
62 98 173
61 97 168
61 96 169
78 110 181
155 176 217
207 227 255
208 228 255
208 228 255
208 228 255
208 228 255
208 228 255
208 228 255
208 228 255
208 228 255
208 228 255
208 228 255
208 228 255
208 228 255
208 228 255
208 228 255
208 228 255
208 228 255
209 228 255
209 229 255
209 229 255
209 229 255
209 229 255
209 229 255
209 229 255
209 229 255
209 229 255
209 229 255
209 229 255
209 229 255
209 229 255
209 229 255
209 229 255
209 229 255
209 229 255
209 229 255
209 229 255
209 229 255
209 229 255
209 229 255
209 229 255
209 229 255
210 229 255
210 229 255
210 229 255
210 229 255
210 229 255
189 202 215
126 127 100
132 131 87
131 128 86
126 125 83
135 134 90
136 134 90
144 143 96
140 139 95
145 144 98
144 143 96
135 134 90
150 149 100
148 147 99
140 138 93
150 148 99
151 149 100
147 145 98
155 154 103
151 149 100
145 144 97
153 151 102
152 149 100
155 154 104
156 154 103
143 142 95
149 148 100
151 149 100
158 156 104
160 157 105
156 154 103
158 155 103
153 151 101
160 158 106
162 159 106
155 153 102
156 154 103
158 156 105
158 156 104
161 159 106
160 156 104
167 164 108
164 161 108
163 159 106
154 151 101
163 160 106
158 155 103
159 157 104
167 164 109
158 156 103
164 161 106
160 157 104
164 161 106
164 161 106
163 160 106
162 158 104
166 162 108
165 162 108
163 158 104
168 164 108
154 151 99
156 152 99
159 156 103
159 156 101
164 160 104
162 158 105
164 159 104
154 150 99
157 154 102
166 162 107
161 157 104
158 155 101
161 156 100
160 156 104
164 160 103
163 159 104
163 158 103
161 157 103
162 158 102
167 162 104
158 154 101
153 150 98
158 155 101
148 145 94
167 163 105
154 151 97
158 154 97
162 158 101
155 151 97
160 155 101
152 149 95
161 156 101
158 154 99
159 154 97
157 154 99
156 151 98
152 148 95
156 152 95
158 154 99
157 151 95
147 143 91
151 147 92
161 157 101
149 145 90
155 150 95
158 153 95
158 154 99
160 156 100
155 151 94
150 146 92
155 150 93
156 153 95
157 153 96
149 145 90
149 145 90
159 154 97
148 143 90
154 150 96
155 151 95
149 145 90
143 140 88
148 143 86
148 144 93
142 139 85
146 143 90
180 201 228
180 201 228
179 200 228
179 200 228
179 200 228
179 200 228
178 200 228
179 200 228
178 200 228
178 200 228
178 200 228
178 200 228
176 199 228
176 199 228
176 199 228
177 199 228
176 199 228
175 198 228
176 199 228
175 198 228
175 198 228
175 198 228
175 198 228
175 198 228
174 198 228
175 198 228
174 198 228
174 198 228
173 197 228
173 197 228
173 197 228
172 197 228
173 197 228
172 196 228
173 197 228
172 196 228
172 197 228
172 197 228
172 197 228
172 196 228
171 196 228
170 196 228
170 195 228
171 196 228
170 196 228
170 195 228
170 195 228
170 196 228
169 195 228
169 195 228
169 195 228
169 195 228
168 195 228
169 195 228
168 195 228
168 195 228
168 194 228
168 194 228
167 194 228
167 194 228
168 194 228
167 194 228
166 194 228
166 193 228
166 194 228
166 193 228
166 193 228
166 193 228
166 193 228
166 193 228
166 193 228
165 193 228
165 193 228
165 193 228
165 193 228
165 193 228
165 193 228
164 193 228
164 193 228
164 192 228
164 193 228
164 192 228
164 192 228
164 192 228
164 192 228
164 192 228
163 192 228
163 192 228
164 192 228
163 192 228
163 192 228
163 192 228
163 192 228
163 192 228
163 192 228
163 192 228
163 192 228
163 192 228
164 192 228
164 192 228
163 192 228
163 192 228
164 192 228
164 192 228
164 192 228
165 193 228
164 193 228
165 193 228
165 193 228
166 193 228
166 193 228
166 193 228
167 194 228
167 194 228
167 194 228
168 195 228
169 195 228
169 195 228
169 195 228
171 196 228
172 197 228
174 198 228
173 195 225
163 184 212
155 173 198
170 187 211
207 226 251
210 229 255
210 229 255
210 229 255
210 229 255
210 229 255
210 229 255
210 229 255
210 229 255
210 229 255
209 229 255
209 229 255
209 229 255
209 229 255
209 229 255
209 229 255
209 229 255
209 229 255
209 229 255
209 229 255
209 229 255
209 229 255
209 229 255
209 229 255
209 229 255
209 229 255
209 229 255
209 229 255
209 229 255
209 229 255
209 229 255
209 229 255
209 229 255
209 229 255
209 228 255
209 228 255
209 228 255
208 228 255
208 228 255
208 228 255
208 228 255
208 228 255
208 228 255
198 218 248
110 137 195
61 98 173
62 98 171
62 98 168
61 98 169
61 98 168
61 98 168
63 99 174
62 98 166
62 98 171
62 98 167
62 98 164
62 99 173
62 98 167
63 99 171
62 99 171
62 98 168
62 98 167
62 99 165
63 99 172
62 98 172
62 98 166
63 99 172
63 99 170
61 98 164
63 99 173
62 98 167
62 99 172
62 99 167
62 99 166
62 98 165
62 98 166
61 97 163
62 98 166
62 98 168
63 99 172
63 99 170
61 98 169
61 97 169
62 98 168
62 99 172
61 97 165
63 99 169
62 98 169
62 98 166
61 97 162
62 98 172
63 99 171
63 99 175
61 97 164
61 97 167
61 97 164
61 97 168
62 98 168
61 97 169
61 97 163
62 98 171
60 96 166
61 97 170
115 140 195
196 217 247
208 228 255
208 228 255
208 228 255
208 228 255
208 228 255
208 228 255
209 228 255
209 228 255
209 229 255
209 229 255
209 229 255
209 229 255
209 229 255
209 229 255
209 229 255
209 229 255
209 229 255
209 229 255
209 229 255
209 229 255
209 229 255
209 229 255
209 229 255
209 229 255
209 229 255
209 229 255
209 229 255
209 229 255
209 229 255
209 229 255
209 229 255
209 229 255
209 229 255
210 229 255
210 229 255
210 229 255
210 229 255
210 229 255
210 229 255
210 229 255
210 229 255
210 229 255
206 224 248
153 161 157
129 127 84
124 122 82
133 131 89
132 130 87
137 135 90
142 140 94
134 133 90
135 133 90
148 146 98
140 138 93
143 142 96
148 147 99
149 148 99
149 147 99
145 144 98
151 150 101
153 152 102
147 145 97
146 144 97
156 153 103
140 139 94
152 151 102
148 147 99
154 151 101
161 159 106
149 147 99
147 145 97
160 157 105
155 153 103
146 144 97
158 155 103
153 150 100
157 154 103
155 153 103
153 150 101
155 153 103
156 152 101
162 159 106
159 157 105
158 155 103
161 159 107
159 157 105
162 159 106
159 156 103
164 161 106
157 154 102
158 155 103
163 159 105
161 157 103
162 160 107
159 156 104
159 156 103
163 160 105
152 149 98
163 161 106
152 150 100
155 152 101
167 163 107
164 160 105
162 157 103
160 156 104
165 162 107
157 154 101
162 159 106
161 157 102
149 147 96
166 161 105
161 157 102
160 156 101
166 162 106
159 155 102
163 160 106
160 157 101
164 161 106
163 160 104
167 163 106
161 156 102
162 158 101
160 156 101
161 158 102
158 153 98
160 156 98
169 165 104
159 155 99
153 150 95
156 152 98
158 153 99
156 152 99
167 161 104
162 157 103
160 157 101
165 161 104
157 154 98
158 153 99
156 152 97
160 156 99
158 154 99
159 154 98
156 152 97
156 153 96
157 152 96
156 153 99
149 146 93
159 154 99
156 150 95
157 152 95
156 152 96
154 150 93
149 145 92
148 144 90
143 139 87
154 149 94
150 146 95
149 145 93
149 144 93
160 155 100
156 152 95
159 154 97
148 144 90
155 150 95
149 144 90
146 141 87
145 141 88
142 137 87
156 151 93
180 201 228
180 201 228
179 200 228
179 201 228
178 200 228
180 201 228
179 200 228
179 200 228
178 200 228
178 200 228
178 200 228
176 199 228
177 199 228
177 199 228
177 199 228
177 199 228
176 198 228
176 198 228
177 199 228
175 198 228
176 199 228
176 199 228
176 199 228
175 198 228
174 198 228
174 198 228
175 198 228
174 198 228
174 198 228
174 197 228
173 197 228
174 197 228
173 197 228
173 197 228
173 197 228
172 197 228
173 197 228
172 197 228
172 196 228
172 196 228
171 196 228
171 196 228
171 196 228
170 196 228
171 196 228
171 196 228
170 196 228
170 195 228
170 196 228
170 195 228
169 195 228
169 195 228
169 195 228
169 195 228
168 195 228
168 195 228
168 194 228
168 195 228
168 195 228
169 195 228
168 194 228
168 194 228
167 194 228
167 194 228
167 194 228
167 194 228
166 194 228
166 194 228
166 194 228
166 193 228
166 193 228
165 193 228
166 194 228
165 193 228
165 193 228
165 193 228
165 193 228
165 193 228
165 193 228
165 193 228
165 193 228
165 193 228
164 193 228
164 192 228
164 192 228
164 193 228
164 192 228
164 192 228
164 192 228
164 192 228
164 192 228
164 192 228
163 192 228
164 192 228
163 192 228
163 192 228
164 192 228
164 192 228
164 192 228
164 192 228
164 192 228
164 192 228
164 192 228
164 193 228
164 193 228
164 193 228
164 193 228
165 193 228
165 193 228
165 193 228
165 193 228
166 193 228
166 194 228
167 194 228
167 194 228
168 194 228
169 195 228
169 195 228
170 195 228
171 196 228
171 196 228
172 197 228
174 198 228
175 198 228
167 188 217
158 177 203
159 175 197
203 221 247
210 229 255
210 229 255
210 229 255
210 229 255
210 229 255
210 229 255
210 229 255
210 229 255
210 229 255
210 229 255
210 229 255
210 229 255
210 229 255
210 229 255
209 229 255
209 229 255
209 229 255
209 229 255
209 229 255
209 229 255
209 229 255
209 229 255
209 229 255
209 229 255
209 229 255
209 229 255
209 229 255
209 229 255
209 229 255
209 229 255
209 229 255
209 229 255
209 229 255
209 229 255
209 229 255
209 229 255
209 229 255
209 229 255
209 229 255
209 229 255
171 192 227
71 105 179
61 97 167
63 99 174
62 98 170
62 98 174
61 98 168
63 99 172
62 98 169
62 98 173
61 98 169
61 98 169
62 98 168
61 97 165
62 99 167
62 99 170
61 98 166
61 97 158
63 99 170
62 98 162
62 98 168
62 98 165
62 99 174
63 99 169
61 97 165
62 99 170
62 97 160
62 98 165
61 98 165
62 98 166
63 99 172
62 98 156
62 98 167
62 99 170
62 98 166
61 98 160
62 98 167
61 97 160
62 98 160
62 98 167
62 98 169
62 98 163
61 98 169
62 98 168
62 98 163
62 98 168
62 98 171
61 98 166
62 98 171
61 97 165
62 97 163
63 99 169
62 97 164
61 97 159
63 99 173
63 99 173
61 97 168
60 96 168
61 96 164
61 96 164
62 98 168
63 99 172
73 105 172
173 194 229
209 229 255
209 229 255
209 229 255
209 229 255
209 229 255
209 229 255
209 229 255
209 229 255
209 229 255
209 229 255
209 229 255
209 229 255
209 229 255
209 229 255
209 229 255
209 229 255
209 229 255
209 229 255
209 229 255
209 229 255
209 229 255
209 229 255
209 229 255
209 229 255
209 229 255
209 229 255
210 229 255
210 229 255
210 229 255
210 229 255
210 229 255
210 229 255
210 229 255
210 229 255
210 229 255
210 229 255
210 229 255
210 229 255
210 229 255
210 229 255
203 221 243
154 158 142
130 127 84
142 138 92
133 131 88
122 121 81
143 142 96
136 135 91
140 139 93
142 141 95
146 145 99
150 148 100
136 136 92
148 147 99
145 144 96
136 134 91
150 148 99
143 142 96
151 150 101
146 144 97
147 146 98
149 148 99
147 145 98
156 154 104
154 152 103
160 158 106
156 154 103
159 157 105
159 156 104
155 153 103
157 155 104
157 156 105
153 150 99
158 156 105
155 153 102
160 158 105
155 152 102
163 161 108
157 154 103
161 159 106
154 152 102
163 161 108
161 158 106
159 157 105
164 161 107
158 154 101
161 157 104
164 161 108
164 160 106
157 153 100
160 157 104
159 157 104
158 154 102
155 152 101
166 162 107
163 160 106
164 160 105
162 159 106
168 164 106
162 158 104
167 163 108
161 157 103
165 162 106
165 161 105
154 151 99
166 162 107
165 161 106
162 157 104
161 158 104
158 155 102
169 165 107
159 155 101
157 154 101
161 157 103
168 162 105
165 161 104
164 159 103
162 158 103
165 161 104
166 161 104
155 151 97
160 157 101
157 154 99
158 154 100
152 149 95
159 154 98
161 157 103
159 155 97
166 161 101
163 159 103
162 158 101
155 151 98
158 154 98
161 157 100
152 148 92
157 153 99
159 154 97
151 147 93
160 156 100
164 159 103
163 159 100
154 150 95
158 154 101
156 152 95
155 150 95
162 156 101
148 145 92
159 154 97
159 154 96
159 154 99
162 157 101
150 146 90
158 154 100
154 150 93
151 147 94
163 158 99
148 144 90
152 148 94
149 146 91
151 146 90
160 156 97
140 136 86
158 153 97
144 140 87
155 151 92
153 148 93
151 146 91
149 145 91
182 202 228
181 201 228
180 201 228
180 201 228
180 201 228
180 201 228
179 200 228
179 200 228
179 200 228
179 200 228
178 200 228
178 200 228
178 200 228
178 200 228
177 199 228
177 199 228
177 199 228
177 199 228
176 199 228
175 198 228
176 199 228
175 198 228
175 198 228
176 199 228
174 198 228
175 198 228
174 198 228
175 198 228
175 198 228
174 198 228
174 197 228
174 198 228
174 198 228
173 197 228
172 197 228
173 197 228
172 197 228
173 197 228
172 197 228
172 197 228
172 197 228
170 196 228
172 196 228
171 196 228
171 196 228
170 196 228
170 196 228
171 196 228
170 195 228
169 195 228
169 195 228
169 195 228
169 195 228
169 195 228
169 195 228
169 195 228
169 195 228
168 195 228
168 195 228
169 195 228
168 195 228
168 195 228
168 194 228
167 194 228
167 194 228
167 194 228
167 194 228
167 194 228
167 194 228
166 193 228
166 194 228
166 194 228
166 193 228
165 193 228
166 194 228
165 193 228
165 193 228
166 194 228
166 193 228
165 193 228
165 193 228
165 193 228
165 193 228
165 193 228
165 193 228
165 193 228
164 193 228
164 193 228
164 193 228
164 192 228
164 193 228
164 192 228
164 192 228
164 192 228
164 192 228
164 192 228
164 192 228
164 192 228
164 192 228
164 192 228
164 192 228
164 192 228
164 193 228
164 193 228
164 193 228
164 192 228
165 193 228
165 193 228
165 193 228
165 193 228
166 193 228
166 193 228
166 193 228
166 193 228
167 194 228
167 194 228
167 194 228
169 195 228
169 195 228
169 195 228
171 196 228
171 196 228
172 197 228
173 197 228
172 195 225
166 188 217
161 181 208
156 173 196
203 221 247
210 229 255
210 229 255
210 229 255
210 229 255
210 229 255
210 229 255
210 229 255
210 229 255
210 229 255
210 229 255
210 229 255
210 229 255
210 229 255
210 229 255
210 229 255
210 229 255
210 229 255
210 229 255
210 229 255
210 229 255
209 229 255
209 229 255
209 229 255
209 229 255
209 229 255
209 229 255
209 229 255
209 229 255
209 229 255
209 229 255
209 229 255
209 229 255
209 229 255
209 229 255
209 229 255
209 229 255
209 229 255
209 229 255
144 167 212
61 97 165
62 98 173
61 98 166
62 98 172
62 99 171
61 97 169
61 97 170
61 98 173
61 97 166
61 97 168
62 98 168
62 98 168
61 97 160
62 98 167
62 99 168
62 98 162
62 99 172
62 98 166
62 98 166
62 99 170
62 98 162
61 98 166
62 98 166
61 98 166
62 98 169
62 98 165
62 99 166
64 100 172
63 99 173
62 99 166
61 97 163
62 99 167
61 97 163
62 98 160
62 98 167
62 98 160
62 98 168
62 98 165
61 97 164
62 98 162
61 97 159
62 98 166
62 98 163
62 98 168
61 98 165
61 97 166
62 98 160
62 98 161
62 98 166
62 98 167
62 98 170
61 96 156
61 97 162
61 98 167
61 97 164
63 99 172
62 98 165
62 97 169
61 97 166
61 96 162
60 96 163
61 97 165
61 96 164
60 95 167
148 170 211
209 229 255
209 229 255
209 229 255
209 229 255
209 229 255
209 229 255
209 229 255
209 229 255
209 229 255
209 229 255
209 229 255
209 229 255
209 229 255
209 229 255
209 229 255
209 229 255
209 229 255
210 229 255
210 229 255
210 229 255
210 229 255
210 229 255
210 229 255
210 229 255
210 229 255
210 229 255
210 229 255
210 229 255
210 229 255
210 229 255
210 229 255
210 229 255
210 229 255
210 229 255
210 229 255
210 229 255
210 229 255
210 229 255
196 212 229
143 140 102
141 139 94
137 135 90
145 143 95
139 137 91
125 124 85
145 144 96
135 134 91
129 129 88
141 140 95
129 129 88
150 148 100
142 140 94
148 147 99
147 145 98
144 141 95
147 145 98
148 146 98
152 151 102
150 149 100
149 147 99
143 142 96
151 149 100
158 156 104
149 148 99
150 148 99
151 149 100
158 154 103
162 160 108
151 149 100
158 155 103
158 156 103
161 159 106
164 162 109
162 158 105
162 159 105
157 154 103
166 163 109
167 165 110
157 155 103
156 154 103
163 160 107
161 158 105
159 157 104
166 161 106
157 153 101
158 156 104
167 163 108
160 157 104
158 155 103
160 157 104
165 161 106
163 159 105
167 164 109
167 163 108
163 159 105
165 161 106
165 160 105
163 159 104
162 158 103
154 150 98
165 162 106
163 159 104
162 159 102
162 159 104
162 158 104
168 163 104
165 161 103
162 157 103
161 157 102
165 160 104
164 161 104
160 156 101
158 155 101
157 154 99
163 159 103
165 160 103
160 156 101
161 156 101
161 157 103
162 157 101
150 147 97
162 157 101
163 159 102
161 157 102
162 157 101
159 155 98
164 159 101
165 160 103
161 156 99
168 161 104
159 154 98
162 158 102
157 153 99
160 155 98
149 145 95
161 157 103
156 152 97
163 159 104
160 157 97
158 153 99
160 156 97
156 152 97
156 151 96
152 147 92
164 158 99
155 150 97
152 149 95
150 146 92
150 147 91
156 152 97
149 145 91
153 150 93
153 148 93
163 157 99
154 150 93
152 148 93
162 156 99
150 145 88
150 146 90
156 150 91
140 136 85
154 149 93
147 143 90
154 150 95
149 145 90
152 147 91
155 149 92
181 201 228
180 201 228
180 201 228
181 201 228
180 201 228
181 201 228
180 201 228
179 200 228
179 200 228
179 200 228
179 200 228
177 199 228
178 200 228
177 199 228
178 200 228
178 200 228
177 199 228
177 199 228
177 199 228
176 199 228
176 199 228
176 199 228
175 198 228
176 199 228
176 199 228
176 198 228
175 198 228
174 198 228
174 198 228
175 198 228
174 198 228
174 198 228
173 197 228
174 198 228
173 197 228
173 197 228
173 197 228
173 197 228
173 197 228
173 197 228
172 197 228
172 197 228
172 197 228
171 196 228
171 196 228
171 196 228
171 196 228
171 196 228
171 196 228
170 196 228
170 195 228
170 196 228
169 195 228
170 196 228
170 195 228
170 195 228
169 195 228
169 195 228
168 195 228
169 195 228
169 195 228
169 195 228
168 195 228
168 194 228
168 194 228
168 195 228
168 194 228
167 194 228
168 194 228
167 194 228
167 194 228
167 194 228
167 194 228
166 194 228
166 194 228
166 194 228
166 193 228
165 193 228
166 193 228
165 193 228
165 193 228
165 193 228
165 193 228
165 193 228
164 193 228
165 193 228
165 193 228
165 193 228
164 193 228
165 193 228
165 193 228
165 193 228
165 193 228
164 193 228
164 193 228
164 193 228
164 192 228
165 193 228
164 193 228
165 193 228
164 193 228
164 193 228
165 193 228
164 193 228
164 193 228
165 193 228
165 193 228
165 193 228
165 193 228
165 193 228
165 193 228
166 194 228
166 193 228
166 193 228
166 194 228
168 194 228
167 194 228
167 194 228
169 195 228
169 195 228
170 195 228
170 196 228
171 196 228
172 197 228
174 198 228
174 197 227
171 193 221
161 181 208
143 159 180
192 210 234
210 230 255
210 230 255
210 230 255
210 229 255
210 229 255
210 229 255
210 229 255
210 229 255
210 229 255
210 229 255
210 229 255
210 229 255
210 229 255
210 229 255
210 229 255
210 229 255
210 229 255
210 229 255
210 229 255
210 229 255
210 229 255
210 229 255
210 229 255
210 229 255
210 229 255
210 229 255
210 229 255
209 229 255
209 229 255
209 229 255
209 229 255
209 229 255
209 229 255
209 229 255
209 229 255
204 224 252
117 142 194
61 97 166
61 97 166
62 98 167
61 97 169
62 98 165
61 97 166
62 98 172
61 98 165
62 99 172
61 97 164
61 98 164
61 97 160
62 98 170
62 98 168
61 97 164
62 98 166
62 98 166
62 98 161
62 98 163
62 98 162
62 98 165
62 98 166
62 98 167
63 99 171
63 99 164
61 97 158
60 96 157
62 98 167
63 99 169
61 97 162
62 99 166
62 98 164
61 97 163
61 98 162
63 99 163
62 98 167
62 98 167
61 97 164
62 98 164
62 98 166
60 96 156
62 98 165
62 98 165
62 98 164
61 98 164
61 98 162
61 98 162
62 97 161
63 99 167
62 97 164
62 97 164
61 97 162
61 97 163
61 96 160
62 98 168
61 97 161
62 97 162
61 97 167
61 96 159
61 95 164
61 96 164
61 96 169
61 96 164
61 97 165
60 95 163
61 96 166
123 147 197
209 229 255
209 229 255
209 229 255
209 229 255
209 229 255
209 229 255
209 229 255
209 229 255
209 229 255
210 229 255
210 229 255
210 229 255
210 229 255
210 229 255
210 229 255
210 229 255
210 229 255
210 229 255
210 229 255
210 229 255
210 229 255
210 229 255
210 229 255
210 229 255
210 229 255
210 229 255
210 229 255
210 229 255
210 229 255
210 229 255
210 229 255
210 229 255
210 229 255
210 230 255
210 230 255
211 230 255
194 208 222
133 131 94
130 127 84
131 129 85
129 128 86
131 129 86
139 137 91
125 125 84
133 133 90
145 144 97
136 135 91
143 142 96
148 147 100
137 136 92
143 141 95
146 145 98
147 145 99
143 142 96
148 147 100
150 150 102
155 153 102
160 158 106
154 152 103
142 141 96
150 149 100
153 151 101
154 152 102
152 150 100
162 159 106
159 155 103
160 158 106
162 159 106
154 153 102
158 155 103
158 155 103
161 158 106
158 156 103
157 155 103
160 157 104
158 155 103
161 158 106
162 159 105
160 158 105
162 159 106
163 160 107
169 165 109
160 157 104
167 163 108
162 159 106
166 163 108
161 158 104
165 161 106
162 159 104
165 162 107
161 157 102
162 158 104
167 163 106
161 158 104
161 157 103
160 157 104
161 157 102
162 159 103
168 164 107
159 156 102
165 161 106
168 164 106
168 163 106
163 158 104
167 164 106
159 154 101
169 163 105
165 161 105
167 162 104
161 157 101
168 163 104
161 157 101
165 161 104
159 156 100
163 158 102
161 157 102
163 158 102
162 158 101
165 160 103
162 157 101
162 158 102
167 162 103
162 157 102
160 156 100
156 152 95
164 159 102
154 150 93
164 159 101
167 162 101
161 156 100
161 156 98
158 154 96
159 155 99
163 158 100
159 155 97
154 149 97
160 154 98
159 155 95
162 158 100
165 160 103
156 150 93
160 156 97
153 148 91
163 157 98
160 155 97
156 151 97
149 145 91
157 152 95
157 152 95
152 147 90
160 155 94
147 143 87
150 146 93
154 149 93
151 146 87
158 153 93
154 148 91
148 144 90
162 157 97
156 150 94
151 146 91
145 141 89
155 150 91
153 150 93
145 141 84
153 149 95
181 201 228
180 201 228
180 201 228
180 201 228
179 200 228
180 201 228
180 201 228
179 200 228
179 200 228
179 200 228
179 200 228
179 200 228
178 200 228
178 200 228
178 200 228
177 199 228
178 200 228
177 199 228
177 199 228
177 199 228
176 199 228
177 199 228
176 199 228
177 199 228
176 199 228
175 198 228
176 199 228
175 198 228
175 198 228
175 198 228
174 197 228
174 198 228
174 198 228
174 198 228
174 198 228
173 197 228
173 197 228
173 197 228
172 197 228
173 197 228
173 197 228
172 196 228
172 197 228
172 197 228
171 196 228
172 196 228
172 197 228
171 196 228
171 196 228
171 196 228
171 196 228
170 196 228
171 196 228
170 195 228
170 196 228
170 195 228
170 196 228
170 195 228
169 195 228
169 195 228
169 195 228
169 195 228
169 195 228
169 195 228
168 195 228
168 194 228
168 194 228
168 194 228
168 194 228
167 194 228
168 194 228
168 194 228
167 194 228
167 194 228
167 194 228
167 194 228
166 193 228
166 194 228
167 194 228
166 193 228
166 193 228
166 193 228
166 193 228
165 193 228
165 193 228
166 193 228
166 193 228
165 193 228
165 193 228
165 193 228
165 193 228
165 193 228
165 193 228
165 193 228
165 193 228
165 193 228
165 193 228
164 193 228
164 193 228
165 193 228
165 193 228
165 193 228
165 193 228
165 193 228
165 193 228
165 193 228
165 193 228
165 193 228
166 193 228
166 193 228
166 193 228
166 193 228
166 194 228
166 194 228
167 194 228
168 194 228
167 194 228
168 195 228
168 195 228
168 195 228
169 195 228
169 195 228
171 196 228
171 196 228
173 197 228
174 197 228
174 197 227
171 194 223
167 187 213
162 180 205
182 199 223
211 230 255
211 230 255
211 230 255
211 230 255
211 230 255
211 230 255
210 230 255
210 230 255
210 230 255
210 229 255
210 229 255
210 229 255
210 229 255
210 229 255
210 229 255
210 229 255
210 229 255
210 229 255
210 229 255
210 229 255
210 229 255
210 229 255
210 229 255
210 229 255
210 229 255
210 229 255
210 229 255
210 229 255
210 229 255
210 229 255
210 229 255
210 229 255
210 229 255
208 227 254
119 143 199
62 98 173
61 97 169
62 98 170
61 97 168
62 98 166
61 97 166
62 98 169
62 98 168
62 98 165
61 97 166
62 98 165
62 98 166
60 96 155
63 99 168
62 98 168
63 99 171
62 98 166
62 99 169
60 96 157
61 97 161
62 98 162
62 98 158
62 98 163
62 98 159
62 98 164
62 98 166
61 97 160
62 98 161
62 98 164
61 97 162
62 97 158
62 98 168
62 98 162
63 99 168
61 97 159
62 98 163
62 99 168
62 98 167
62 98 166
61 97 165
61 97 155
61 97 156
61 97 159
62 98 162
63 99 167
62 98 169
62 99 167
61 96 161
62 98 164
61 97 164
61 96 159
61 98 168
62 98 163
62 97 154
62 98 168
61 97 166
61 96 157
62 98 165
62 98 163
62 98 166
62 98 165
60 96 160
61 97 160
62 97 164
60 95 161
60 95 162
60 96 162
62 97 170
110 134 184
199 219 248
210 229 255
210 229 255
210 229 255
210 229 255
210 229 255
210 229 255
210 229 255
210 229 255
210 229 255
210 229 255
210 229 255
210 229 255
210 229 255
210 229 255
210 229 255
210 229 255
210 229 255
210 229 255
210 229 255
210 229 255
210 229 255
210 229 255
210 229 255
210 229 255
210 230 255
210 230 255
210 230 255
211 230 255
211 230 255
211 230 255
211 230 255
211 230 255
211 230 255
170 181 186
140 136 88
130 128 86
128 126 85
136 133 89
138 137 92
138 137 92
142 140 94
140 139 93
146 146 99
140 139 94
138 137 94
147 145 97
150 148 99
143 142 96
137 136 92
145 144 98
152 150 101
146 145 99
148 146 98
143 141 95
141 140 95
147 146 98
149 148 100
159 156 105
155 153 103
157 155 104
154 152 103
154 152 102
156 154 103
159 158 106
158 156 104
155 153 102
152 151 102
163 161 107
157 154 102
163 160 107
159 156 104
163 160 107
164 161 108
162 158 104
159 156 104
161 158 105
160 156 103
161 157 103
162 158 103
169 165 108
159 156 104
165 161 106
165 162 106
159 155 101
164 159 104
162 159 104
158 155 103
168 163 106
168 164 108
168 163 106
169 165 109
165 161 106
164 160 106
162 158 104
166 162 106
165 161 105
162 158 104
167 163 104
168 164 107
164 161 107
171 167 109
157 153 99
170 166 108
162 159 103
165 160 103
164 160 105
168 163 107
165 161 103
167 162 105
167 163 105
167 162 104
161 157 101
161 157 103
163 159 102
158 153 99
165 160 103
165 161 104
159 155 100
167 162 104
157 153 98
165 161 101
158 154 99
161 157 100
166 161 101
156 153 95
159 154 99
159 154 99
158 154 100
161 156 97
168 162 100
164 159 101
165 160 103
160 156 99
159 154 99
151 146 87
164 159 103
156 151 94
157 153 96
165 160 100
155 152 96
155 150 96
157 152 89
153 149 93
156 152 95
153 149 93
145 141 88
162 157 101
155 151 93
159 154 95
155 151 93
159 154 93
145 142 90
157 153 94
156 152 92
150 146 93
150 146 93
160 154 94
154 150 93
152 146 87
153 148 87
155 149 93
154 150 92
150 144 86
160 156 95
181 201 228
181 201 228
181 201 228
180 201 228
180 201 228
180 201 228
181 201 228
179 200 228
180 201 228
178 200 228
179 200 228
178 200 228
178 200 228
179 200 228
178 200 228
177 199 228
177 199 228
177 199 228
177 199 228
176 199 228
177 199 228
177 199 228
176 199 228
176 199 228
176 199 228
176 198 228
176 198 228
175 198 228
175 198 228
176 199 228
176 199 228
175 198 228
175 198 228
174 198 228
175 198 228
174 198 228
174 198 228
173 197 228
173 197 228
174 197 228
174 197 228
173 197 228
172 197 228
172 197 228
172 196 228
173 197 228
172 197 228
171 196 228
172 196 228
172 197 228
171 196 228
171 196 228
171 196 228
170 196 228
171 196 228
170 195 228
171 196 228
170 196 228
170 195 228
169 195 228
169 195 228
170 195 228
170 195 228
170 195 228
169 195 228
169 195 228
168 195 228
169 195 228
168 194 228
168 194 228
168 194 228
168 194 228
168 194 228
168 194 228
167 194 228
167 194 228
167 194 228
167 194 228
167 194 228
167 194 228
166 194 228
167 194 228
166 193 228
166 193 228
166 194 228
166 194 228
166 194 228
166 193 228
165 193 228
166 193 228
166 193 228
166 193 228
165 193 228
165 193 228
166 193 228
165 193 228
165 193 228
165 193 228
165 193 228
165 193 228
165 193 228
165 193 228
165 193 228
165 193 228
166 193 228
166 193 228
166 193 228
166 193 228
166 193 228
166 193 228
166 193 228
166 193 228
167 194 228
167 194 228
167 194 228
167 194 228
167 194 228
168 194 228
168 194 228
169 195 228
169 195 228
170 195 228
170 195 228
171 196 228
172 197 228
173 197 228
174 198 228
175 198 228
174 196 225
163 183 209
156 174 198
185 202 226
211 230 255
211 230 255
211 230 255
211 230 255
211 230 255
211 230 255
211 230 255
211 230 255
211 230 255
211 230 255
211 230 255
211 230 255
210 230 255
210 230 255
210 230 255
210 229 255
210 229 255
210 229 255
210 229 255
210 229 255
210 229 255
210 229 255
210 229 255
210 229 255
210 229 255
210 229 255
210 229 255
210 229 255
210 229 255
210 229 255
210 229 255
202 221 248
99 127 189
60 96 163
62 99 171
61 98 169
61 98 170
62 98 171
62 98 167
62 98 161
62 98 163
62 98 169
62 99 171
62 98 167
61 97 164
61 97 161
61 97 165
62 98 165
62 98 162
61 97 160
62 98 165
62 98 169
62 98 163
62 98 159
62 97 159
61 97 156
62 98 164
62 99 164
62 98 166
62 98 161
61 97 153
61 98 163
62 97 160
62 98 161
62 98 162
62 97 155
62 98 165
62 98 161
62 99 169
61 97 158
62 98 157
62 98 160
63 99 166
62 98 164
62 98 166
62 98 164
62 98 167
62 98 160
63 99 167
62 98 166
61 96 154
62 98 162
62 98 164
62 99 166
62 97 163
62 98 166
62 98 167
62 98 164
61 96 158
61 97 156
62 98 167
62 98 163
61 96 157
62 98 163
62 98 171
60 96 163
61 97 162
61 96 161
60 96 164
61 97 170
61 96 165
61 96 165
61 96 168
89 117 175
195 214 243
210 229 255
210 229 255
210 229 255
210 229 255
210 229 255
210 229 255
210 229 255
210 229 255
210 229 255
210 229 255
210 229 255
210 229 255
210 229 255
210 229 255
210 229 255
210 229 255
210 230 255
210 230 255
210 230 255
211 230 255
211 230 255
211 230 255
211 230 255
211 230 255
211 230 255
211 230 255
211 230 255
211 230 255
211 230 255
211 230 255
211 230 255
169 177 176
135 132 86
133 130 86
136 134 89
134 134 90
134 131 88
139 137 92
138 136 92
133 132 89
134 134 91
143 143 98
137 136 94
139 138 94
145 144 98
146 144 97
151 149 100
144 143 98
142 140 95
153 152 103
152 149 100
151 149 99
151 150 102
152 150 100
152 149 100
151 150 102
156 154 103
151 150 101
157 155 105
149 147 98
158 155 104
160 157 105
157 155 104
162 158 105
156 154 103
160 158 105
163 161 107
160 157 104
160 157 104
159 156 104
165 161 107
157 154 102
160 157 104
161 157 104
160 157 105
161 159 106
163 160 106
164 160 105
163 160 104
164 161 108
162 158 105
168 164 107
164 160 104
164 161 106
166 163 107
167 163 108
161 157 103
166 162 105
164 161 105
168 163 106
167 162 104
166 161 105
164 161 106
164 160 102
164 160 104
169 164 107
170 165 106
164 160 104
171 166 107
164 161 105
162 159 103
165 161 103
171 166 109
166 161 102
167 163 106
163 158 103
167 163 104
163 159 99
160 155 99
166 162 104
168 163 103
166 161 103
167 162 103
162 158 101
171 165 107
164 161 101
164 160 103
162 158 102
165 160 103
162 158 99
161 156 98
162 158 99
168 163 101
164 160 103
159 154 97
159 155 99
151 147 94
165 161 102
166 162 102
167 162 103
161 156 97
164 158 102
159 156 97
161 158 101
163 158 99
160 156 99
166 161 100
165 160 102
157 152 94
159 154 95
157 152 97
164 158 98
163 157 100
156 151 95
164 158 97
163 158 99
156 151 93
157 151 94
157 152 94
162 157 99
160 155 99
149 144 86
159 153 94
154 149 94
160 154 93
150 145 94
155 149 92
159 155 96
139 135 77
164 157 97
149 145 90
149 144 85
155 149 93
182 202 228
180 201 228
182 202 228
181 201 228
180 201 228
180 201 228
180 201 228
180 201 228
179 200 228
180 201 228
180 201 228
179 200 228
179 200 228
178 200 228
179 200 228
178 200 228
179 200 228
178 200 228
178 200 228
178 200 228
177 199 228
177 199 228
177 199 228
177 199 228
177 199 228
177 199 228
177 199 228
175 198 228
175 198 228
175 198 228
175 198 228
175 198 228
175 198 228
175 198 228
175 198 228
175 198 228
174 198 228
175 198 228
174 197 228
173 197 228
174 198 228
174 197 228
173 197 228
173 197 228
173 197 228
172 197 228
173 197 228
172 197 228
172 197 228
171 196 228
171 196 228
172 196 228
172 196 228
171 196 228
171 196 228
170 196 228
170 196 228
171 196 228
170 196 228
171 196 228
170 196 228
170 195 228
170 196 228
170 196 228
169 195 228
170 195 228
169 195 228
169 195 228
169 195 228
169 195 228
168 195 228
168 195 228
168 195 228
168 194 228
168 195 228
167 194 228
167 194 228
168 194 228
168 194 228
167 194 228
167 194 228
167 194 228
166 194 228
167 194 228
167 194 228
167 194 228
166 194 228
166 194 228
166 194 228
166 193 228
166 193 228
166 193 228
166 194 228
166 193 228
166 193 228
166 193 228
166 194 228
166 193 228
166 193 228
165 193 228
166 193 228
165 193 228
166 193 228
166 193 228
166 193 228
166 193 228
166 193 228
166 193 228
166 193 228
166 194 228
166 194 228
167 194 228
167 194 228
167 194 228
168 194 228
167 194 228
168 194 228
168 195 228
168 194 228
168 195 228
169 195 228
170 196 228
170 196 228
171 196 228
172 196 228
173 197 228
173 197 228
174 198 228
175 198 228
175 197 226
169 189 217
160 179 203
174 190 213
211 230 255
211 230 255
211 230 255
211 230 255
211 230 255
211 230 255
211 230 255
211 230 255
211 230 255
211 230 255
211 230 255
211 230 255
211 230 255
211 230 255
211 230 255
211 230 255
211 230 255
211 230 255
211 230 255
210 230 255
210 230 255
210 230 255
210 230 255
210 229 255
210 229 255
210 229 255
210 229 255
210 229 255
210 229 255
205 225 251
114 139 196
61 97 171
59 95 165
62 98 166
61 97 169
62 98 167
62 98 169
61 97 161
60 96 155
61 97 165
63 98 167
61 97 166
62 98 168
62 98 164
62 98 162
62 97 160
62 98 166
61 98 165
62 98 167
63 99 171
62 98 164
63 99 164
62 99 166
63 99 169
61 97 160
61 97 162
63 99 164
62 98 164
61 97 162
60 96 159
62 98 164
62 98 161
62 98 167
62 97 162
62 98 169
62 98 162
63 99 163
62 98 164
61 97 161
62 99 168
62 98 163
62 98 161
62 98 164
62 98 166
61 97 153
62 98 166
61 97 162
62 99 169
63 99 168
62 98 161
62 98 162
61 97 161
61 97 160
63 99 168
62 97 160
62 98 160
62 98 165
62 98 162
63 98 164
62 97 160
62 98 165
62 98 166
61 97 163
61 97 161
60 95 158
62 97 164
61 97 163
61 95 157
60 95 160
61 96 158
61 96 166
61 97 164
61 96 166
87 114 168
201 221 248
210 229 255
210 229 255
210 229 255
210 229 255
210 229 255
210 229 255
210 230 255
210 230 255
210 230 255
210 230 255
211 230 255
211 230 255
211 230 255
211 230 255
211 230 255
211 230 255
211 230 255
211 230 255
211 230 255
211 230 255
211 230 255
211 230 255
211 230 255
211 230 255
211 230 255
211 230 255
211 230 255
211 230 255
211 230 255
176 185 186
110 107 71
135 132 87
134 131 87
130 129 87
138 137 91
146 142 95
143 143 97
137 136 91
142 141 95
146 144 97
137 136 91
134 134 91
150 149 101
138 138 94
139 138 94
142 142 97
144 143 97
153 151 102
145 144 97
149 147 100
153 152 102
152 150 101
152 150 102
155 153 102
155 152 102
158 157 105
156 154 103
155 153 102
155 153 103
152 150 99
155 153 102
162 160 105
162 160 106
158 155 103
159 157 105
157 156 105
161 159 106
158 156 105
159 157 105
166 163 109
163 160 106
157 155 101
166 163 108
162 159 106
169 164 108
159 155 102
165 161 107
164 160 103
164 160 106
164 160 106
167 163 107
167 163 108
167 163 108
158 155 102
164 160 104
169 166 108
165 161 104
171 167 109
164 160 104
165 161 103
169 165 107
158 155 101
166 162 106
168 163 106
159 156 99
168 164 106
166 161 106
170 166 109
161 158 103
167 163 106
165 162 106
166 162 105
162 158 103
168 164 104
165 161 101
163 159 101
158 153 98
170 165 105
165 161 101
159 155 100
163 159 102
164 159 101
165 161 103
169 164 105
164 159 103
166 161 103
162 159 101
160 156 100
159 154 97
165 161 101
160 157 99
162 157 99
163 159 101
152 148 94
161 156 99
168 163 103
162 157 97
164 160 101
159 154 96
163 158 99
157 153 95
157 152 94
161 156 99
158 154 96
156 151 95
159 154 95
156 151 94
155 151 93
161 155 97
158 152 95
154 150 88
164 159 101
161 157 97
165 159 98
156 150 93
166 161 100
150 145 88
161 154 95
155 150 93
159 155 97
144 140 85
146 142 91
155 150 93
152 147 91
155 151 97
152 148 92
153 148 90
156 150 93
151 146 91
157 151 93
143 139 86
146 143 90
182 202 228
181 201 228
182 202 228
181 201 228
181 201 228
180 201 228
180 201 228
180 201 228
179 200 228
180 201 228
180 201 228
180 201 228
178 200 228
179 200 228
180 201 228
179 200 228
179 200 228
178 200 228
178 200 228
178 200 228
179 200 228
178 200 228
177 199 228
178 200 228
177 199 228
176 199 228
176 199 228
176 199 228
176 199 228
176 199 228
176 199 228
175 198 228
176 199 228
176 199 228
175 198 228
175 198 228
174 198 228
174 198 228
175 198 228
174 198 228
174 198 228
173 197 228
173 197 228
174 198 228
173 197 228
173 197 228
173 197 228
173 197 228
172 197 228
173 197 228
172 197 228
172 197 228
172 197 228
172 196 228
172 196 228
171 196 228
171 196 228
171 196 228
171 196 228
171 196 228
171 196 228
170 196 228
170 196 228
170 196 228
170 195 228
170 196 228
170 195 228
169 195 228
169 195 228
170 196 228
169 195 228
169 195 228
169 195 228
169 195 228
169 195 228
168 194 228
168 195 228
169 195 228
167 194 228
168 194 228
168 194 228
167 194 228
167 194 228
167 194 228
167 194 228
167 194 228
167 194 228
167 194 228
167 194 228
166 194 228
166 194 228
166 194 228
166 194 228
167 194 228
167 194 228
167 194 228
166 193 228
166 194 228
166 194 228
166 193 228
166 194 228
166 194 228
166 194 228
166 194 228
166 193 228
166 193 228
166 193 228
166 193 228
166 193 228
167 194 228
167 194 228
167 194 228
167 194 228
167 194 228
167 194 228
167 194 228
168 194 228
168 194 228
169 195 228
169 195 228
170 195 228
170 196 228
170 196 228
171 196 228
171 196 228
173 197 228
172 197 228
173 197 228
174 198 228
176 199 228
175 196 225
167 187 213
164 182 207
185 203 227
211 230 255
211 230 255
211 230 255
211 230 255
211 230 255
211 230 255
211 230 255
211 230 255
211 230 255
211 230 255
211 230 255
211 230 255
211 230 255
211 230 255
211 230 255
211 230 255
211 230 255
211 230 255
211 230 255
211 230 255
211 230 255
211 230 255
211 230 255
211 230 255
211 230 255
211 230 255
211 230 255
209 228 254
101 127 186
61 97 170
60 96 169
61 97 168
62 98 170
61 98 170
61 96 162
61 97 164
61 97 161
61 98 166
61 97 162
61 96 159
61 97 166
62 98 163
62 99 168
62 99 170
61 97 158
62 98 164
62 98 161
61 97 162
62 98 165
62 98 161
62 98 161
62 98 165
61 97 159
61 97 162
61 97 159
63 99 166
62 98 159
61 97 153
62 98 162
61 96 156
62 97 160
62 99 167
62 98 163
62 98 161
62 98 158
61 97 164
62 98 158
62 98 164
61 97 158
62 98 162
61 97 153
61 97 158
62 98 160
61 97 152
61 97 159
62 97 161
62 98 161
63 98 163
62 98 162
62 98 162
61 96 156
62 98 166
61 96 156
61 97 161
62 98 168
62 98 162
61 96 158
62 98 167
60 95 151
62 97 164
62 97 156
61 96 162
61 96 156
61 96 157
60 94 153
61 97 162
61 96 160
60 94 153
59 93 148
60 95 157
62 97 166
60 94 160
59 93 156
114 138 184
201 220 248
211 230 255
211 230 255
211 230 255
211 230 255
211 230 255
211 230 255
211 230 255
211 230 255
211 230 255
211 230 255
211 230 255
211 230 255
211 230 255
211 230 255
211 230 255
211 230 255
211 230 255
211 230 255
211 230 255
211 230 255
211 230 255
211 230 255
211 230 255
211 230 255
211 230 255
211 230 255
211 230 254
162 172 177
134 130 84
129 127 84
145 141 94
125 124 84
130 129 87
139 137 92
142 140 95
134 133 90
138 137 92
134 133 91
138 137 93
137 137 93
140 138 93
141 140 95
142 141 96
138 137 94
144 143 97
148 147 100
154 152 103
152 149 100
139 139 95
147 144 97
151 150 101
151 150 101
159 156 104
160 159 107
158 156 105
158 156 104
156 154 103
161 158 104
156 153 101
158 154 103
162 160 106
162 158 105
158 156 104
164 161 106
159 156 104
163 159 105
158 155 102
167 163 106
167 163 107
159 156 103
161 157 102
164 161 106
168 164 108
163 158 103
166 162 107
164 161 106
163 160 105
170 166 107
168 164 107
167 163 107
164 159 104
167 163 107
165 161 106
172 167 109
173 169 111
159 156 103
165 160 105
165 161 103
162 158 103
165 162 104
171 166 108
166 160 102
165 160 102
171 165 108
167 163 104
166 162 104
163 159 102
171 165 103
166 162 103
169 165 106
162 156 99
166 162 103
167 163 105
163 158 100
164 159 103
161 157 99
168 163 103
165 159 99
165 161 102
163 158 100
166 162 100
166 160 102
165 161 104
165 160 99
162 157 100
161 156 102
162 158 100
162 158 101
168 163 103
163 158 100
166 161 104
161 156 100
159 154 95
168 162 103
168 163 101
159 155 97
167 162 101
163 158 100
162 157 99
164 159 103
153 148 93
160 155 95
163 158 95
154 150 94
162 156 95
163 158 101
160 155 96
162 156 95
159 153 93
157 151 95
157 153 95
158 154 95
156 151 94
156 152 93
158 153 91
157 152 95
160 155 94
154 149 90
161 156 96
158 153 94
161 155 95
158 153 93
159 154 96
164 158 97
150 145 88
162 157 97
149 145 90
150 145 90
154 150 95
159 154 96
148 144 82
181 202 228
181 202 228
181 202 228
181 202 228
181 202 228
181 201 228
181 201 228
180 201 228
181 201 228
180 201 228
180 201 228
179 200 228
179 200 228
180 201 228
178 200 228
179 200 228
179 200 228
180 201 228
178 200 228
179 200 228
178 200 228
177 199 228
177 199 228
177 199 228
178 200 228
177 199 228
178 200 228
177 199 228
177 199 228
176 199 228
177 199 228
176 199 228
176 199 228
176 198 228
175 198 228
175 198 228
176 199 228
176 198 228
175 198 228
175 198 228
174 198 228
174 198 228
174 198 228
175 198 228
174 198 228
173 197 228
173 197 228
174 198 228
173 197 228
173 197 228
174 197 228
173 197 228
173 197 228
172 196 228
172 197 228
171 196 228
172 197 228
172 196 228
171 196 228
171 196 228
171 196 228
171 196 228
171 196 228
171 196 228
170 196 228
171 196 228
171 196 228
170 195 228
170 195 228
170 195 228
169 195 228
170 195 228
170 195 228
169 195 228
169 195 228
168 195 228
168 195 228
169 195 228
168 195 228
169 195 228
169 195 228
168 194 228
168 195 228
168 194 228
168 194 228
168 194 228
168 194 228
168 194 228
168 194 228
167 194 228
167 194 228
167 194 228
167 194 228
167 194 228
167 194 228
167 194 228
167 194 228
167 194 228
167 194 228
167 194 228
167 194 228
166 194 228
166 194 228
167 194 228
167 194 228
167 194 228
167 194 228
167 194 228
168 194 228
167 194 228
167 194 228
168 194 228
167 194 228
167 194 228
167 194 228
168 194 228
169 195 228
168 195 228
169 195 228
168 195 228
169 195 228
170 195 228
170 196 228
171 196 228
171 196 228
172 197 228
172 197 228
173 197 228
174 197 228
175 198 228
176 199 228
176 198 226
172 192 219
156 174 198
189 207 231
212 230 255
212 230 255
212 230 255
212 230 255
211 230 255
211 230 255
211 230 255
211 230 255
211 230 255
211 230 255
211 230 255
211 230 255
211 230 255
211 230 255
211 230 255
211 230 255
211 230 255
211 230 255
211 230 255
211 230 255
211 230 255
211 230 255
211 230 255
211 230 255
211 230 255
211 230 255
128 151 202
61 97 169
61 97 168
61 97 158
61 97 168
62 98 170
61 97 163
61 97 166
62 98 168
62 98 165
62 97 161
60 96 158
62 98 168
60 96 157
62 98 164
61 97 161
62 98 161
61 97 159
62 98 160
62 98 159
62 98 163
62 97 160
62 98 167
62 98 158
62 98 157
61 97 158
61 96 155
62 98 162
63 99 165
62 98 161
62 98 163
62 98 157
60 96 155
62 98 163
61 97 156
62 98 164
61 97 161
62 98 161
62 98 165
63 99 163
62 98 161
63 99 168
61 97 157
62 98 162
62 99 166
62 98 162
62 98 159
62 97 159
61 96 151
61 97 159
59 94 148
62 98 160
61 97 153
61 96 160
62 97 158
62 98 166
63 99 168
61 97 158
62 97 157
62 97 158
62 98 165
62 97 161
62 98 166
60 95 155
61 97 162
61 96 153
61 97 160
61 96 161
61 96 157
59 93 152
61 96 159
61 97 164
60 95 158
59 94 155
61 97 166
60 94 152
60 95 158
128 151 198
210 229 255
211 230 255
211 230 255
211 230 255
211 230 255
211 230 255
211 230 255
211 230 255
211 230 255
211 230 255
211 230 255
211 230 255
211 230 255
211 230 255
211 230 255
211 230 255
211 230 255
211 230 255
211 230 255
211 230 255
211 230 255
211 230 255
212 230 255
212 230 255
212 230 255
212 230 255
172 182 186
134 131 86
135 133 89
135 134 90
135 133 88
140 138 93
128 128 87
137 136 92
136 136 93
131 130 88
133 133 92
137 135 92
131 132 91
142 141 96
136 135 92
143 141 95
143 143 97
141 140 96
149 147 99
152 151 102
153 151 102
153 151 101
143 143 99
155 154 104
150 148 99
156 152 101
162 159 106
158 156 104
159 156 104
154 152 102
156 154 101
152 150 100
160 158 105
154 154 104
162 160 106
164 161 108
160 157 103
163 160 105
164 160 105
164 160 103
159 157 103
165 162 107
165 161 105
159 157 103
160 157 102
165 161 106
162 159 104
164 159 104
164 161 105
170 165 107
166 162 105
169 164 107
167 163 106
167 163 105
163 159 102
168 164 107
165 162 105
168 164 107
166 162 104
165 162 108
165 161 102
166 161 101
170 166 106
167 162 105
171 167 106
168 163 105
163 160 102
169 164 102
166 162 106
170 165 108
169 164 105
164 160 102
160 156 98
168 164 107
169 164 104
168 164 106
163 160 102
171 164 103
164 160 100
163 159 102
163 157 101
170 164 104
163 159 97
167 163 103
169 164 103
169 164 102
169 164 104
156 152 95
158 153 95
170 165 104
159 155 93
157 152 98
165 161 101
165 160 99
167 162 101
165 160 103
166 161 99
166 161 103
162 157 99
167 162 102
159 155 100
164 159 98
159 154 96
167 162 103
158 154 99
165 161 100
160 155 96
156 152 93
157 152 95
157 154 95
163 159 95
162 158 99
162 157 97
159 154 95
164 159 97
162 156 97
164 158 97
162 156 96
159 154 97
152 147 89
157 151 91
161 156 97
153 148 90
161 155 91
158 153 95
155 150 93
151 147 89
154 149 92
158 152 93
157 151 94
158 152 93
158 154 95
160 155 95
152 147 88
154 149 90
182 202 228
183 203 228
181 202 228
181 201 228
182 202 228
181 201 228
181 202 228
181 201 228
181 201 228
180 201 228
180 201 228
180 201 228
180 201 228
180 201 228
179 200 228
179 200 228
179 200 228
180 201 228
179 200 228
179 200 228
178 200 228
179 200 228
178 200 228
178 200 228
178 200 228
178 200 228
177 199 228
177 199 228
177 199 228
177 199 228
176 199 228
177 199 228
176 199 228
176 199 228
176 199 228
176 198 228
176 199 228
176 199 228
175 198 228
175 198 228
176 198 228
175 198 228
175 198 228
175 198 228
175 198 228
173 197 228
174 198 228
174 198 228
174 198 228
175 198 228
173 197 228
173 197 228
173 197 228
173 197 228
173 197 228
173 197 228
173 197 228
172 197 228
173 197 228
173 197 228
173 197 228
171 196 228
171 196 228
171 196 228
171 196 228
171 196 228
171 196 228
171 196 228
171 196 228
171 196 228
171 196 228
171 196 228
170 196 228
171 196 228
170 195 228
170 195 228
170 195 228
170 195 228
169 195 228
169 195 228
169 195 228
169 195 228
169 195 228
168 195 228
169 195 228
169 195 228
169 195 228
168 195 228
168 194 228
168 195 228
168 195 228
168 194 228
168 194 228
167 194 228
168 194 228
167 194 228
168 194 228
167 194 228
168 194 228
167 194 228
167 194 228
167 194 228
167 194 228
168 194 228
168 194 228
168 194 228
167 194 228
167 194 228
168 194 228
168 194 228
168 194 228
168 194 228
168 195 228
169 195 228
169 195 228
169 195 228
169 195 228
169 195 228
169 195 228
169 195 228
169 195 228
169 195 228
171 196 228
171 196 228
171 196 228
172 196 228
172 197 228
173 197 228
173 197 228
174 198 228
176 199 228
177 199 228
173 194 223
170 190 217
165 183 207
180 196 218
212 230 255
212 230 255
212 230 255
212 230 255
212 230 255
212 230 255
212 230 255
212 230 255
212 230 255
212 230 255
212 230 255
212 230 255
211 230 255
211 230 255
211 230 255
211 230 255
211 230 255
211 230 255
211 230 255
211 230 255
211 230 255
211 230 255
211 230 255
211 230 255
134 156 204
60 96 165
60 96 161
61 97 170
61 97 168
61 96 160
60 95 163
61 97 163
62 97 168
62 98 169
61 97 163
62 98 163
62 98 164
61 97 162
62 98 165
62 97 159
61 96 156
62 98 161
62 98 161
62 98 162
62 97 161
62 98 165
62 97 156
62 98 165
62 97 159
61 97 160
62 98 159
61 97 158
62 98 166
62 97 156
62 98 151
62 97 157
62 98 160
62 98 160
62 98 157
62 98 162
62 98 158
61 97 153
62 98 162
62 97 159
62 98 162
62 98 162
62 98 161
61 97 162
62 97 158
62 98 158
62 97 158
61 97 153
61 97 159
61 97 158
61 96 155
61 97 159
61 97 165
62 98 162
61 97 158
61 97 159
62 98 165
61 96 157
61 96 157
61 97 155
62 98 164
61 97 165
62 97 155
62 97 159
62 98 168
62 97 162
61 97 165
61 97 163
61 96 158
61 96 156
60 95 155
61 95 158
60 95 161
60 94 149
60 94 158
61 96 159
61 95 164
60 93 154
60 95 161
138 160 202
211 230 255
211 230 255
211 230 255
211 230 255
211 230 255
211 230 255
211 230 255
211 230 255
211 230 255
211 230 255
211 230 255
211 230 255
211 230 255
212 230 255
212 230 255
212 230 255
212 230 255
212 230 255
212 230 255
212 230 255
212 230 255
212 230 255
212 230 255
212 230 255
179 190 197
124 121 81
132 130 86
125 124 85
122 121 83
130 129 88
131 131 91
128 128 88
128 128 87
138 137 93
127 127 88
138 136 92
140 140 96
132 131 89
140 139 95
138 138 94
148 147 100
148 147 100
139 139 95
144 143 97
145 145 98
143 142 95
146 145 98
151 149 100
158 156 105
155 154 104
151 149 100
151 150 100
152 149 100
155 153 102
146 144 96
155 153 102
158 156 104
157 154 103
159 157 105
163 159 105
163 159 106
162 158 104
157 155 103
165 161 105
164 160 106
166 163 106
167 162 107
165 162 106
158 156 103
169 165 106
159 155 102
166 162 106
160 157 103
169 165 109
166 163 107
165 161 104
162 159 103
170 166 108
169 165 108
166 162 106
163 159 103
165 162 102
165 161 104
166 162 104
165 161 105
164 161 102
171 166 108
168 163 104
165 160 104
167 163 104
168 163 104
167 164 107
167 162 101
167 162 103
170 164 106
170 164 106
165 161 104
165 161 104
165 160 101
167 163 105
167 163 103
164 160 101
161 158 103
166 161 103
161 157 99
164 160 102
167 162 101
165 161 102
169 164 104
163 158 100
162 159 102
160 155 98
170 165 102
166 162 99
165 161 103
166 161 101
168 163 101
164 159 101
161 156 99
166 160 99
167 162 101
161 157 100
163 159 101
169 165 104
167 162 103
168 163 103
157 152 93
160 156 96
159 153 95
158 154 97
167 161 97
161 156 94
163 158 96
160 156 95
162 157 95
170 164 103
165 159 101
164 159 99
164 158 97
161 155 93
159 154 90
161 157 95
162 157 97
158 152 96
161 156 98
163 158 100
147 143 87
154 150 93
154 149 91
155 150 90
159 154 95
150 146 90
156 151 92
156 150 90
152 146 87
164 158 94
149 144 89
153 148 88
156 149 93
150 145 92
182 202 228
183 202 228
183 202 228
182 202 228
182 202 228
181 202 228
182 202 228
181 201 228
181 201 228
181 201 228
180 201 228
181 201 228
181 202 228
180 201 228
180 201 228
179 200 228
180 201 228
179 200 228
181 201 228
181 201 228
179 200 228
179 200 228
179 200 228
178 200 228
177 199 228
178 200 228
178 200 228
179 200 228
177 199 228
177 199 228
177 199 228
177 199 228
177 199 228
176 199 228
176 199 228
177 199 228
176 199 228
177 199 228
177 199 228
176 199 228
176 198 228
176 199 228
175 198 228
176 199 228
175 198 228
175 198 228
175 198 228
175 198 228
175 198 228
174 198 228
174 198 228
175 198 228
173 197 228
173 197 228
173 197 228
173 197 228
173 197 228
174 198 228
173 197 228
172 197 228
173 197 228
172 197 228
172 197 228
172 196 228
172 196 228
173 197 228
171 196 228
171 196 228
172 197 228
171 196 228
171 196 228
171 196 228
170 196 228
171 196 228
170 196 228
170 196 228
170 196 228
170 195 228
170 196 228
170 195 228
169 195 228
170 195 228
170 196 228
170 196 228
170 195 228
170 195 228
170 195 228
169 195 228
169 195 228
168 195 228
169 195 228
169 195 228
168 195 228
169 195 228
169 195 228
169 195 228
168 194 228
169 195 228
169 195 228
169 195 228
168 194 228
168 195 228
168 195 228
168 194 228
168 194 228
168 195 228
168 195 228
168 194 228
168 195 228
168 194 228
168 194 228
169 195 228
169 195 228
168 195 228
169 195 228
169 195 228
169 195 228
169 195 228
170 195 228
170 195 228
170 195 228
169 195 228
170 196 228
171 196 228
171 196 228
173 197 228
173 197 228
173 197 228
174 197 228
174 198 228
175 198 228
176 199 228
177 199 228
173 194 221
174 194 220
166 184 208
192 209 233
212 230 255
212 230 255
212 230 255
212 230 255
212 230 255
212 230 255
212 230 255
212 230 255
212 230 255
212 230 255
212 230 255
212 230 255
212 230 255
212 230 255
212 230 255
212 230 255
212 230 255
212 230 255
212 230 255
212 230 255
211 230 255
211 230 255
164 184 223
60 97 170
61 97 165
60 95 160
60 96 160
62 98 164
61 97 159
61 97 164
60 96 161
62 97 164
61 96 157
62 98 164
62 98 164
62 98 164
61 97 159
60 96 158
62 98 160
62 97 160
61 96 156
61 96 152
62 98 162
62 97 157
62 97 160
61 96 154
62 98 169
61 97 162
61 96 154
62 97 155
62 98 163
62 99 165
61 97 156
61 97 158
62 98 162
63 98 161
61 97 158
61 96 152
62 98 160
62 97 158
61 97 155
61 97 156
61 97 158
62 98 160
61 97 158
62 98 163
61 97 154
62 98 160
62 98 162
62 98 158
63 99 168
62 98 156
62 98 161
61 97 156
61 96 148
61 96 158
61 97 159
61 97 154
63 98 161
60 95 153
61 96 156
61 97 160
61 96 157
62 97 160
62 98 160
61 95 154
62 97 158
61 98 164
61 96 158
61 97 161
60 96 163
61 96 161
61 95 157
62 98 164
60 96 159
60 95 158
61 97 161
61 96 161
61 95 160
59 93 156
60 93 153
60 94 162
59 93 158
160 180 216
211 230 255
211 230 255
212 230 255
212 230 255
212 230 255
212 230 255
212 230 255
212 230 255
212 230 255
212 230 255
212 230 255
212 230 255
212 230 255
212 230 255
212 230 255
212 230 255
212 230 255
212 230 255
212 230 255
212 230 255
212 230 255
212 230 255
187 200 212
121 118 77
121 119 80
128 126 84
128 126 85
135 133 90
137 134 90
141 140 95
129 128 88
144 143 98
133 133 92
137 136 93
140 139 94
133 133 92
141 141 96
149 148 99
151 150 102
141 140 94
149 148 100
136 135 92
155 153 103
144 144 97
151 150 101
151 149 100
152 149 99
151 149 99
160 157 105
152 150 100
155 153 102
152 150 101
159 156 104
159 157 103
153 150 101
160 157 104
161 158 104
153 151 100
159 156 102
165 161 107
165 161 107
159 156 103
160 157 104
163 160 105
160 158 104
160 158 104
167 164 108
167 163 107
162 159 103
167 163 106
159 155 102
167 163 107
167 162 104
168 163 105
161 157 102
170 165 108
168 164 107
165 161 104
170 165 106
161 157 102
169 164 104
165 161 104
173 167 108
171 166 105
167 162 103
167 162 104
169 164 105
168 162 103
170 166 108
172 168 106
172 167 104
169 164 100
172 167 108
172 167 108
169 165 104
170 165 106
167 162 103
166 161 101
165 161 104
170 166 104
163 159 103
166 162 102
163 158 98
169 164 103
160 156 98
163 159 103
169 163 103
171 164 101
165 160 102
167 162 101
162 156 97
164 161 104
169 164 103
161 156 99
166 160 101
167 162 100
162 157 100
166 162 103
161 156 99
166 161 101
165 160 99
164 160 101
165 160 99
161 157 95
168 162 103
170 164 104
162 158 97
165 160 99
160 156 97
158 153 92
158 154 96
167 162 99
158 153 95
158 154 96
157 153 96
160 155 97
158 154 96
162 158 97
157 153 94
156 151 88
155 151 90
163 157 95
161 157 95
160 154 91
160 155 93
153 149 90
152 149 88
161 156 95
168 162 103
147 143 85
160 155 94
154 148 88
157 152 95
155 150 93
153 147 85
152 147 89
165 158 97
157 150 91
149 145 86
183 202 228
182 202 228
182 202 228
182 202 228
182 202 228
182 202 228
182 202 228
182 202 228
181 201 228
182 202 228
181 201 228
182 202 228
181 201 228
180 201 228
181 201 228
180 201 228
181 201 228
180 201 228
179 200 228
180 201 228
180 201 228
180 201 228
179 200 228
179 200 228
179 200 228
179 200 228
178 199 228
178 199 228
179 200 228
178 200 228
178 200 228
177 199 228
178 200 228
178 200 228
177 199 228
178 200 228
177 199 228
177 199 228
178 200 228
178 200 228
177 199 228
176 199 228
176 199 228
176 199 228
176 198 228
176 199 228
176 199 228
175 198 228
175 198 228
176 198 228
175 198 228
175 198 228
174 198 228
174 198 228
174 197 228
174 197 228
174 197 228
174 198 228
174 198 228
173 197 228
174 198 228
174 197 228
173 197 228
173 197 228
173 197 228
173 197 228
173 197 228
172 197 228
172 197 228
173 197 228
172 196 228
172 197 228
172 196 228
172 196 228
170 196 228
171 196 228
171 196 228
172 196 228
171 196 228
171 196 228
171 196 228
171 196 228
170 196 228
170 196 228
170 195 228
171 196 228
170 195 228
170 195 228
170 195 228
169 195 228
169 195 228
169 195 228
169 195 228
169 195 228
169 195 228
169 195 228
169 195 228
169 195 228
169 195 228
169 195 228
169 195 228
168 195 228
169 195 228
169 195 228
169 195 228
169 195 228
169 195 228
168 194 228
169 195 228
168 195 228
169 195 228
169 195 228
169 195 228
169 195 228
169 195 228
170 195 228
170 195 228
170 196 228
170 195 228
170 195 228
170 195 228
171 196 228
171 196 228
171 196 228
171 196 228
172 196 228
173 197 228
174 198 228
173 197 228
174 198 228
176 199 228
177 199 228
178 200 228
179 200 228
172 192 219
162 181 206
157 174 195
197 215 238
212 231 255
212 231 255
212 231 255
212 231 255
212 231 255
212 230 255
212 230 255
212 230 255
212 230 255
212 230 255
212 230 255
212 230 255
212 230 255
212 230 255
212 230 255
212 230 255
212 230 255
212 230 255
212 230 255
212 230 255
186 205 237
69 102 171
60 96 162
61 96 162
62 97 163
61 96 163
62 98 168
61 97 160
61 97 162
61 97 163
61 97 161
63 98 165
62 97 159
61 96 157
61 97 160
62 98 166
61 97 152
61 97 158
61 97 164
61 97 153
61 97 163
61 97 164
62 99 164
61 97 155
62 98 159
62 98 165
63 99 166
61 97 161
61 96 156
62 98 161
62 98 161
61 97 159
63 99 163
61 97 151
61 97 157
62 98 161
62 98 156
62 97 160
61 96 153
63 99 161
62 98 163
62 97 158
63 99 165
62 98 160
62 98 158
61 96 154
62 98 163
61 97 161
61 97 158
62 98 157
61 97 160
61 97 151
61 97 159
62 97 158
61 97 156
62 98 158
61 97 153
61 97 159
61 96 152
62 97 159
61 97 158
62 98 164
61 97 156
61 96 155
61 96 160
61 97 161
61 97 158
62 97 162
61 97 155
61 97 158
61 96 156
61 96 157
61 96 154
61 95 149
60 95 156
61 95 156
60 94 158
61 95 158
60 95 153
60 93 152
61 95 158
60 93 155
61 92 144
189 208 239
212 230 255
212 230 255
212 230 255
212 230 255
212 230 255
212 230 255
212 230 255
212 230 255
212 230 255
212 230 255
212 230 255
212 230 255
212 230 255
212 230 255
212 230 255
212 231 255
212 231 255
212 231 255
212 231 255
212 231 255
197 213 232
136 135 101
126 123 82
133 132 88
129 127 85
138 137 94
118 118 81
123 123 85
124 123 84
128 127 87
137 137 94
141 140 95
139 139 95
139 138 94
141 139 94
142 141 96
135 134 92
145 144 98
150 148 100
135 135 93
151 150 102
143 142 96
150 149 100
140 139 94
143 142 97
154 153 103
148 147 98
148 146 98
150 148 100
148 146 97
156 154 102
154 153 101
152 149 98
158 155 104
160 157 103
156 153 101
162 159 104
160 157 106
166 162 106
158 156 103
157 154 100
159 156 104
161 157 103
161 157 102
162 157 102
164 161 105
165 161 104
170 166 107
163 159 105
170 165 108
165 161 103
170 165 106
166 161 102
168 163 105
163 159 102
166 162 104
170 165 108
171 167 109
170 165 108
170 166 106
168 164 104
169 164 106
168 164 105
164 161 104
170 165 106
167 162 103
171 167 108
171 166 106
172 167 107
173 167 106
170 165 105
168 163 104
169 163 101
168 164 104
168 163 104
165 160 101
164 160 104
166 161 103
158 153 97
169 164 105
169 163 103
165 161 97
169 164 104
164 160 98
165 161 97
173 167 102
167 162 101
164 160 101
162 157 99
166 162 101
158 153 95
165 160 100
166 160 99
165 161 100
166 161 102
161 156 97
166 161 101
168 163 99
162 158 97
165 160 103
165 160 99
166 161 99
159 155 94
166 161 102
163 158 97
168 163 102
167 162 99
161 157 95
165 160 98
165 160 95
156 152 93
166 161 103
156 153 92
154 149 90
164 158 99
166 161 97
166 159 97
156 152 90
169 162 100
165 159 101
155 151 95
157 153 88
169 163 100
156 151 94
158 153 96
158 153 89
157 152 95
151 146 89
156 150 93
147 143 82
157 152 93
155 151 90
156 151 93
156 152 90
147 142 84
153 148 92
153 148 90
151 147 87
182 202 228
183 202 228
183 203 228
183 203 228
182 202 228
182 202 228
182 202 228
182 202 228
182 202 228
182 202 228
182 202 228
181 202 228
181 202 228
181 201 228
181 201 228
180 201 228
181 201 228
180 201 228
181 202 228
181 201 228
179 200 228
180 201 228
179 200 228
180 201 228
180 201 228
179 200 228
178 200 228
179 200 228
179 200 228
179 200 228
179 200 228
178 200 228
178 200 228
178 200 228
179 200 228
179 200 228
177 199 228
178 199 228
177 199 228
177 199 228
176 199 228
177 199 228
175 198 228
177 199 228
177 199 228
177 199 228
176 199 228
176 199 228
175 198 228
175 198 228
175 198 228
176 198 228
175 198 228
175 198 228
175 198 228
175 198 228
176 198 228
175 198 228
174 198 228
174 198 228
175 198 228
174 198 228
174 197 228
174 198 228
174 198 228
173 197 228
172 197 228
172 197 228
172 197 228
172 197 228
173 197 228
172 197 228
173 197 228
173 197 228
171 196 228
173 197 228
172 197 228
172 197 228
171 196 228
172 196 228
171 196 228
171 196 228
171 196 228
171 196 228
170 195 228
170 196 228
170 196 228
170 196 228
170 196 228
170 196 228
170 196 228
170 195 228
170 195 228
170 195 228
169 195 228
169 195 228
170 195 228
169 195 228
170 196 228
169 195 228
170 196 228
169 195 228
169 195 228
170 195 228
170 195 228
170 195 228
170 195 228
170 195 228
170 195 228
170 195 228
169 195 228
169 195 228
169 195 228
170 195 228
170 195 228
170 195 228
170 195 228
171 196 228
170 196 228
171 196 228
172 197 228
171 196 228
172 196 228
171 196 228
172 196 228
173 197 228
173 197 228
173 197 228
174 198 228
174 198 228
175 198 228
176 199 228
177 199 228
177 199 228
180 201 228
178 198 225
173 192 218
163 180 202
209 227 251
213 231 255
213 231 255
213 231 255
213 231 255
212 231 255
212 231 255
212 231 255
212 231 255
212 231 255
212 231 255
212 231 255
212 231 255
212 231 255
212 231 255
212 230 255
212 230 255
212 230 255
212 230 255
203 222 249
90 117 173
61 97 162
61 97 168
60 96 163
61 97 159
60 95 154
63 98 167
61 96 157
61 96 156
61 97 167
61 97 158
62 97 161
61 96 162
61 97 163
62 98 167
61 96 153
61 97 165
61 97 160
62 98 166
62 98 159
61 97 152
62 98 160
62 97 155
61 96 155
61 97 156
62 97 155
62 98 154
61 96 157
61 97 157
61 97 159
62 98 160
62 97 160
61 96 152
62 98 155
62 98 158
63 99 168
61 97 161
61 97 154
62 98 159
62 98 157
62 98 160
61 97 151
62 98 165
61 97 164
63 98 159
62 98 161
61 97 161
62 98 162
62 98 161
60 95 148
61 96 158
62 98 159
62 97 155
61 97 162
62 98 163
61 96 158
62 98 160
62 98 161
61 97 160
62 98 161
61 96 148
62 97 165
61 96 152
60 95 152
60 95 153
62 97 155
60 94 153
61 96 151
61 96 154
61 96 161
60 95 158
61 96 157
61 96 158
60 96 156
61 96 164
61 95 158
62 96 162
59 94 153
60 95 158
59 93 155
60 94 156
60 94 157
60 95 159
77 105 162
206 224 250
212 230 255
212 230 255
212 230 255
212 230 255
212 230 255
212 231 255
212 231 255
212 231 255
212 231 255
212 231 255
212 231 255
212 231 255
212 231 255
212 231 255
212 231 255
213 231 255
213 231 255
213 231 255
206 222 244
146 144 108
133 130 86
126 124 82
137 135 91
135 134 91
122 123 86
139 137 93
128 128 89
127 126 86
139 139 96
130 130 87
141 141 97
133 132 90
134 135 94
134 134 93
133 132 90
148 146 98
142 141 95
144 144 99
144 142 96
153 152 101
151 149 101
147 145 97
157 155 103
139 138 91
149 147 98
157 154 103
153 150 101
153 150 101
156 154 103
154 151 100
156 154 102
153 152 98
158 155 101
157 154 100
159 157 106
164 160 106
162 159 104
158 155 101
161 158 104
161 158 103
161 158 103
163 159 102
163 159 104
167 163 106
161 158 104
159 155 102
169 164 107
163 160 104
168 164 105
169 165 107
166 162 106
161 158 101
171 165 107
163 160 103
168 164 106
162 158 102
170 165 105
166 161 104
167 163 104
167 163 103
173 168 109
171 166 104
163 160 102
166 162 104
167 161 103
171 167 107
174 168 105
166 161 100
175 170 109
165 160 99
171 166 105
170 166 107
168 163 102
169 165 104
172 166 104
169 164 106
168 163 101
167 162 101
171 165 106
170 165 103
171 166 104
169 163 102
165 161 100
169 164 103
167 162 103
167 162 103
172 166 104
164 159 101
170 165 104
163 157 99
164 160 99
163 158 100
165 160 101
162 157 96
169 163 103
172 166 103
159 154 92
162 158 97
159 155 94
161 155 92
163 158 97
169 164 101
161 157 97
164 158 97
157 152 90
169 164 101
166 162 98
163 158 97
165 160 97
166 160 97
159 154 95
164 159 93
163 158 96
161 156 95
161 155 97
161 154 91
159 155 93
159 154 91
158 153 94
159 154 96
165 159 95
154 149 92
158 152 93
164 158 98
161 156 95
161 155 93
153 149 92
163 157 97
160 153 93
146 142 82
161 155 95
158 153 88
160 154 93
153 147 90
153 149 88
155 150 84
151 146 85
184 203 228
183 203 228
183 202 228
183 202 228
183 202 228
183 202 228
184 203 228
182 202 228
183 202 228
184 203 228
181 201 228
181 202 228
181 201 228
182 202 228
181 201 228
182 202 228
181 201 228
181 201 228
181 201 228
180 201 228
180 201 228
181 201 228
180 201 228
181 202 228
180 201 228
179 200 228
180 201 228
179 200 228
180 201 228
179 200 228
179 200 228
179 200 228
180 201 228
179 200 228
179 200 228
179 200 228
178 200 228
178 200 228
177 199 228
178 200 228
177 199 228
178 200 228
177 199 228
177 199 228
176 199 228
178 199 228
177 199 228
176 199 228
176 199 228
176 199 228
176 199 228
176 199 228
175 198 228
176 199 228
175 198 228
176 198 228
176 199 228
175 198 228
175 198 228
175 198 228
174 197 228
175 198 228
174 197 228
175 198 228
175 198 228
174 198 228
173 197 228
173 197 228
173 197 228
173 197 228
174 198 228
173 197 228
173 197 228
173 197 228
172 197 228
173 197 228
172 196 228
173 197 228
173 197 228
173 197 228
172 197 228
172 196 228
172 196 228
171 196 228
171 196 228
171 196 228
172 196 228
171 196 228
171 196 228
171 196 228
170 196 228
171 196 228
171 196 228
170 196 228
171 196 228
170 196 228
171 196 228
171 196 228
171 196 228
171 196 228
171 196 228
170 195 228
171 196 228
170 195 228
170 196 228
170 196 228
170 196 228
170 195 228
171 196 228
171 196 228
171 196 228
170 196 228
170 196 228
171 196 228
171 196 228
171 196 228
171 196 228
171 196 228
171 196 228
171 196 228
171 196 228
171 196 228
171 196 228
172 197 228
172 196 228
173 197 228
173 197 228
173 197 228
174 198 228
174 198 228
176 199 228
176 198 228
177 199 228
178 200 228
180 201 228
180 201 228
175 195 221
163 180 204
171 186 208
212 230 255
213 231 255
213 231 255
213 231 255
213 231 255
213 231 255
213 231 255
213 231 255
213 231 255
213 231 255
213 231 255
213 231 255
213 231 255
212 231 255
212 231 255
212 231 255
212 231 255
212 231 255
139 161 203
60 95 168
59 94 160
60 96 166
60 96 159
62 97 167
61 96 164
60 96 160
61 96 156
61 97 160
61 96 162
61 97 160
60 95 152
61 96 156
62 97 158
61 97 159
60 95 146
62 98 165
61 97 156
61 97 158
61 96 154
61 96 150
62 98 160
61 96 154
61 97 161
62 98 156
62 98 158
62 98 163
62 98 159
62 98 158
61 97 157
61 97 156
62 98 157
62 97 160
62 97 155
61 97 158
62 97 154
62 98 157
62 98 160
62 98 159
62 98 159
61 97 149
61 96 151
60 95 145
61 97 156
61 96 155
62 97 160
60 96 150
61 97 155
61 97 154
62 98 160
62 98 153
61 97 156
61 96 149
62 98 163
62 97 163
60 95 147
62 98 156
62 97 153
62 97 156
62 98 159
63 98 162
62 97 154
61 96 147
62 97 156
61 97 155
61 96 155
61 97 154
61 96 152
62 97 155
60 95 153
60 95 154
60 94 148
61 96 154
59 94 153
63 98 167
60 94 150
59 94 156
60 93 147
60 94 158
59 91 151
58 91 149
60 94 154
57 90 148
58 91 152
146 166 204
212 231 255
212 231 255
212 231 255
212 231 255
213 231 255
213 231 255
213 231 255
213 231 255
213 231 255
213 231 255
213 231 255
213 231 255
213 231 255
213 231 255
213 231 255
213 231 255
213 231 255
212 229 253
151 156 144
134 131 86
135 133 89
125 124 84
121 121 82
129 129 88
120 121 84
127 127 88
122 123 86
135 135 91
138 138 94
130 130 89
137 135 92
138 139 96
137 137 94
136 136 93
139 139 94
140 139 95
146 145 99
144 144 98
142 141 95
150 147 98
147 146 99
158 155 102
157 155 104
160 158 106
140 138 91
154 151 101
150 148 99
152 150 99
160 157 103
148 146 96
157 155 103
159 156 105
160 157 103
152 150 99
156 153 102
159 156 102
164 161 106
164 160 103
159 156 103
160 156 102
158 156 102
160 157 103
166 162 104
156 153 98
166 162 106
167 164 104
168 162 103
172 167 107
165 161 106
170 165 105
166 161 100
168 164 104
171 167 109
168 162 103
167 163 101
167 163 102
168 163 102
173 169 110
171 166 106
168 164 103
171 167 107
168 164 102
170 165 103
174 169 108
167 163 105
169 164 103
166 160 100
168 164 103
175 169 106
176 169 106
168 163 101
168 163 101
163 158 100
168 163 100
170 165 99
169 163 103
173 166 102
169 164 104
167 162 99
170 165 104
169 164 99
167 162 101
171 166 103
165 161 103
171 167 106
163 158 97
166 161 99
169 163 100
169 162 101
166 160 99
167 161 101
172 166 102
172 165 99
169 163 101
166 161 101
170 164 103
168 163 103
160 156 94
164 159 97
168 163 101
160 156 94
163 158 99
164 159 97
163 158 97
169 163 100
163 159 98
164 159 95
160 154 95
159 155 95
163 158 95
163 157 97
163 158 95
153 149 92
158 153 94
166 161 99
167 162 102
153 149 90
163 157 95
165 159 97
156 151 88
163 158 93
165 159 94
160 154 95
164 159 97
147 143 84
155 150 93
152 147 87
159 154 92
155 149 90
159 153 89
160 155 97
161 155 95
154 148 91
152 147 88
156 151 92
150 145 82
162 156 94
185 204 228
185 204 228
184 203 228
183 203 228
183 203 228
184 203 228
183 203 228
184 203 228
184 203 228
184 203 228
182 202 228
183 202 228
182 202 228
183 202 228
183 202 228
182 202 228
181 202 228
182 202 228
180 201 228
182 202 228
180 201 228
181 201 228
181 201 228
180 201 228
181 201 228
180 201 228
180 201 228
180 201 228
180 201 228
180 201 228
179 200 228
179 200 228
179 201 228
179 200 228
179 200 228
179 200 228
179 200 228
179 200 228
180 201 228
178 200 228
179 200 228
178 200 228
178 200 228
178 200 228
178 200 228
177 199 228
177 199 228
178 200 228
178 200 228
175 198 228
177 199 228
177 199 228
177 199 228
176 199 228
176 199 228
177 199 228
176 198 228
176 199 228
175 198 228
176 198 228
175 198 228
175 198 228
175 198 228
176 199 228
174 198 228
175 198 228
175 198 228
175 198 228
174 198 228
173 197 228
174 198 228
174 198 228
173 197 228
174 198 228
174 198 228
174 197 228
174 197 228
173 197 228
173 197 228
172 197 228
173 197 228
173 197 228
173 197 228
172 197 228
172 197 228
172 197 228
173 197 228
172 196 228
171 196 228
173 197 228
172 197 228
172 197 228
171 196 228
172 197 228
171 196 228
171 196 228
171 196 228
171 196 228
171 196 228
171 196 228
171 196 228
171 196 228
171 196 228
171 196 228
171 196 228
171 196 228
171 196 228
171 196 228
171 196 228
172 196 228
171 196 228
171 196 228
171 196 228
171 196 228
171 196 228
171 196 228
171 196 228
172 196 228
171 196 228
171 196 228
172 197 228
173 197 228
172 197 228
172 197 228
173 197 228
173 197 228
174 197 228
175 198 228
174 197 228
175 198 228
175 198 228
176 199 228
176 199 228
178 200 228
179 200 228
180 201 228
180 200 227
178 198 224
164 181 204
183 199 221
213 231 255
213 231 255
213 231 255
213 231 255
213 231 255
213 231 255
213 231 255
213 231 255
213 231 255
213 231 255
213 231 255
213 231 255
213 231 255
213 231 255
213 231 255
213 231 255
191 210 240
59 93 157
61 96 161
60 96 164
60 96 161
60 96 165
60 96 163
61 97 159
61 97 162
60 95 155
61 96 157
61 97 157
60 95 147
61 97 159
60 96 156
62 98 164
60 96 156
62 97 161
61 97 161
61 97 157
61 96 155
61 97 159
62 98 161
61 97 163
60 96 149
61 97 158
61 97 155
61 97 156
61 96 153
62 97 161
62 98 160
62 97 159
62 97 155
62 97 159
62 97 154
62 98 162
62 98 158
60 96 153
62 98 157
63 99 166
62 98 156
61 97 151
61 97 159
62 98 159
62 98 161
60 96 151
63 98 159
62 97 151
61 96 153
62 98 155
62 98 156
62 97 153
62 98 153
62 98 160
61 96 158
62 97 152
61 96 160
62 97 155
63 99 166
62 98 159
62 98 163
62 98 159
61 97 155
62 98 160
60 95 153
61 96 149
61 97 164
60 95 150
61 96 156
60 95 150
61 96 157
61 96 157
60 95 146
60 95 149
60 95 157
59 94 151
59 94 150
60 95 154
59 93 150
60 94 152
60 95 159
59 95 157
60 95 161
59 91 145
58 92 147
59 94 157
57 90 145
191 210 238
213 231 255
213 231 255
213 231 255
213 231 255
213 231 255
213 231 255
213 231 255
213 231 255
213 231 255
213 231 255
213 231 255
213 231 255
213 231 255
213 231 255
213 231 255
213 231 255
173 183 187
121 118 77
121 121 81
126 125 83
119 119 82
122 121 83
115 115 79
124 124 86
134 133 91
121 121 84
143 143 97
123 123 86
123 125 86
126 126 87
134 134 91
132 133 92
142 141 95
134 135 91
138 137 92
132 133 90
150 148 99
149 147 99
146 144 95
145 145 98
153 151 101
147 145 98
147 145 95
150 148 98
157 154 102
151 149 98
160 157 103
156 155 104
151 148 96
154 152 101
154 153 102
156 154 102
154 152 100
160 157 104
158 155 101
162 159 104
157 154 99
160 156 102
158 155 98
168 165 107
168 164 105
163 159 100
165 161 104
165 162 102
163 159 101
158 155 97
164 160 103
169 165 104
169 164 104
173 168 108
169 163 104
170 166 105
166 162 103
168 163 105
169 164 104
173 168 107
163 159 103
169 164 103
168 163 105
170 165 103
171 166 106
173 168 105
169 164 105
171 166 104
168 163 101
171 166 107
176 170 108
167 162 99
171 165 104
169 165 104
170 165 105
170 165 104
174 168 106
173 168 107
168 162 101
172 167 106
170 165 103
165 159 97
164 159 99
166 162 97
170 164 102
167 162 101
167 162 103
166 161 98
167 162 100
168 163 102
169 164 99
163 157 98
169 164 101
169 164 100
167 162 99
163 158 95
165 160 97
168 162 102
163 158 93
163 159 94
168 163 102
168 162 102
167 162 101
165 159 99
163 158 95
166 162 100
163 157 95
171 164 100
166 161 97
161 155 93
167 161 95
164 159 97
157 152 90
168 161 97
165 160 99
161 156 95
164 159 99
163 158 98
163 158 99
158 152 91
159 153 95
159 154 90
160 155 93
155 150 87
157 151 92
168 162 101
157 152 93
156 151 93
157 152 89
155 150 91
156 150 91
159 153 92
158 153 89
161 155 96
157 152 95
161 155 93
152 146 87
156 151 91
163 156 91
155 149 88
184 203 228
184 203 228
184 203 228
185 203 228
185 204 228
184 203 228
183 203 228
184 203 228
183 203 228
183 203 228
183 202 228
183 202 228
183 202 228
181 202 228
183 202 228
182 202 228
182 202 228
181 201 228
182 202 228
181 201 228
182 202 228
181 201 228
182 202 228
182 202 228
181 202 228
182 202 228
181 201 228
180 201 228
180 201 228
180 201 228
179 200 228
180 201 228
180 201 228
179 200 228
180 201 228
180 201 228
180 201 228
180 201 228
178 200 228
180 201 228
179 200 228
179 200 228
178 200 228
178 200 228
178 200 228
178 200 228
177 199 228
178 200 228
178 200 228
178 200 228
178 199 228
178 200 228
177 199 228
177 199 228
177 199 228
176 199 228
176 199 228
177 199 228
177 199 228
176 199 228
177 199 228
176 199 228
177 199 228
176 198 228
176 198 228
176 198 228
175 198 228
175 198 228
175 198 228
175 198 228
175 198 228
175 198 228
174 198 228
175 198 228
175 198 228
173 197 228
174 198 228
173 197 228
175 198 228
173 197 228
173 197 228
173 197 228
173 197 228
173 197 228
172 197 228
173 197 228
173 197 228
172 197 228
173 197 228
173 197 228
173 197 228
173 197 228
172 197 228
172 197 228
173 197 228
172 197 228
172 196 228
172 197 228
172 197 228
172 197 228
172 197 228
172 197 228
173 197 228
172 197 228
170 196 228
172 196 228
172 197 228
171 196 228
172 197 228
172 196 228
172 196 228
172 196 228
172 196 228
172 197 228
172 196 228
171 196 228
173 197 228
172 197 228
172 197 228
172 197 228
173 197 228
173 197 228
173 197 228
174 197 228
172 196 227
171 195 226
173 197 228
172 195 226
173 196 227
174 197 227
174 197 227
176 199 228
177 199 228
177 199 228
178 200 228
179 200 228
181 201 228
178 197 224
170 188 213
163 180 202
201 218 242
213 231 255
213 231 255
213 231 255
213 231 255
213 231 255
213 231 255
213 231 255
213 231 255
213 231 255
213 231 255
213 231 255
213 231 255
213 231 255
213 231 255
207 225 251
91 118 173
60 96 163
59 94 152
60 95 154
60 95 160
60 95 159
61 96 162
60 96 155
60 95 156
61 97 155
61 96 157
61 97 161
61 97 161
61 96 151
61 96 147
61 96 158
62 98 164
61 97 153
62 98 159
61 97 157
62 97 162
61 97 155
62 98 162
60 95 146
61 97 161
61 97 152
61 96 154
60 96 153
61 97 152
61 97 152
62 98 163
60 96 151
62 97 158
61 96 153
62 98 156
62 98 158
62 97 153
61 97 156
62 97 159
63 99 161
62 98 152
61 97 157
61 97 160
62 98 162
61 97 152
61 97 154
61 97 159
62 97 151
61 97 153
61 97 156
61 96 145
61 97 155
62 98 159
60 95 154
62 97 153
60 95 149
61 97 151
62 98 161
61 96 158
62 98 163
60 95 150
60 96 153
62 98 163
60 96 151
61 96 152
61 96 151
61 97 155
62 97 157
61 96 157
61 96 149
60 95 150
61 96 158
61 97 159
61 96 158
61 95 154
61 95 153
61 96 160
59 94 153
61 95 153
62 96 160
60 95 156
59 93 151
61 95 160
59 92 147
60 95 161
59 92 154
61 95 155
94 118 165
206 224 249
213 231 255
213 231 255
213 231 255
213 231 255
213 231 255
213 231 255
213 231 255
213 231 255
213 231 255
213 231 255
213 231 255
213 231 255
213 231 255
213 231 255
189 201 212
128 126 84
134 131 84
130 127 83
126 125 86
129 129 88
121 121 84
132 131 89
131 132 92
123 123 85
119 119 82
137 136 93
132 133 92
136 135 91
134 133 90
139 139 96
145 144 98
138 139 96
140 141 97
143 142 97
141 141 98
149 148 99
143 141 94
141 141 95
151 150 100
142 140 92
147 145 97
150 149 100
154 152 101
150 148 98
151 150 99
160 156 103
155 152 99
153 151 100
149 146 97
155 152 100
159 155 102
163 160 105
156 154 101
157 154 101
166 162 105
164 160 106
167 163 104
154 151 98
165 161 102
166 162 101
168 163 103
165 161 104
162 159 101
163 159 102
166 162 103
171 166 108
165 160 101
169 165 107
170 165 102
173 168 106
171 166 105
168 163 105
166 161 103
166 162 102
164 160 98
167 163 104
172 166 105
161 158 101
170 165 103
168 163 103
174 169 106
169 164 102
169 164 103
165 161 99
168 164 103
169 164 102
171 166 106
169 164 101
168 163 101
169 164 103
170 164 104
173 167 104
175 169 104
169 164 101
164 161 98
172 167 106
170 165 103
168 163 100
171 165 103
175 169 108
164 160 100
161 158 97
171 166 100
168 163 99
164 159 99
166 162 99
166 161 99
170 164 99
166 161 97
169 164 102
171 166 103
164 158 100
171 165 98
165 160 98
166 160 96
169 163 101
170 164 100
168 162 99
158 153 95
164 160 97
164 159 99
165 160 97
163 158 97
165 160 99
163 158 90
164 159 97
165 159 95
160 154 92
162 156 91
166 161 99
166 160 99
161 156 91
161 156 91
164 159 99
161 156 90
158 153 96
170 165 97
158 154 92
166 160 95
163 157 95
154 148 90
160 154 92
163 157 97
158 152 89
159 153 93
155 150 89
156 150 92
167 161 97
154 149 88
158 152 90
153 148 90
160 156 92
155 151 87
148 144 85
147 142 84
184 203 228
185 203 228
185 203 228
185 203 228
184 203 228
184 203 228
184 203 228
183 202 228
183 203 228
183 203 228
183 203 228
183 203 228
183 202 228
183 202 228
183 202 228
183 202 228
183 202 228
182 202 228
184 203 228
182 202 228
182 202 228
182 202 228
182 202 228
183 202 228
182 202 228
182 202 228
181 202 228
182 202 228
181 202 228
181 202 228
180 201 228
180 201 228
181 201 228
181 201 228
181 201 228
180 201 228
180 201 228
179 200 228
179 200 228
179 200 228
180 201 228
179 200 228
179 200 228
179 200 228
179 200 228
179 200 228
178 200 228
179 200 228
178 200 228
180 201 228
178 200 228
179 200 228
178 200 228
177 199 228
178 200 228
178 199 228
177 199 228
177 199 228
177 199 228
178 200 228
177 199 228
177 199 228
176 199 228
176 199 228
176 199 228
176 199 228
177 199 228
176 199 228
176 199 228
175 198 228
176 199 228
175 198 228
176 199 228
176 199 228
175 198 228
174 198 228
175 198 228
175 198 228
175 198 228
174 198 228
174 198 228
175 198 228
175 198 228
173 197 228
175 198 228
175 198 228
173 197 228
174 198 228
174 197 228
173 197 228
174 197 228
174 197 228
173 197 228
173 197 228
174 197 228
172 196 228
173 197 228
173 197 228
172 197 228
173 197 228
172 197 228
173 197 228
172 197 228
172 197 228
173 197 228
173 197 228
173 197 228
173 197 228
172 197 228
172 197 228
173 197 228
172 197 228
172 197 228
172 197 228
173 197 228
172 196 228
172 197 228
173 197 228
172 197 228
173 197 228
173 197 228
172 196 228
168 192 224
172 196 227
169 193 225
171 194 226
170 193 226
169 193 225
165 189 222
167 190 223
169 192 224
169 192 224
172 195 225
178 200 228
179 200 228
179 200 228
180 201 228
182 202 228
180 200 227
173 191 214
152 166 186
206 223 247
214 231 255
214 231 255
214 231 255
214 231 255
214 231 255
214 231 255
213 231 255
213 231 255
213 231 255
213 231 255
213 231 255
213 231 255
213 231 255
150 171 211
59 94 164
57 91 150
58 93 155
59 94 160
60 95 159
60 95 158
60 95 158
61 96 158
60 95 156
60 95 151
60 95 157
61 96 153
62 97 155
61 97 156
61 97 161
60 95 155
62 97 159
61 96 148
61 96 152
61 96 154
60 95 143
62 97 155
61 97 159
62 97 158
61 97 156
61 97 158
60 95 155
62 98 156
61 97 156
62 97 154
60 96 148
61 97 154
61 96 147
61 97 154
62 98 165
62 98 159
63 98 156
61 96 153
63 99 166
61 97 155
61 96 152
61 97 149
61 96 148
62 98 156
61 96 152
61 97 152
62 98 162
60 95 152
61 97 154
62 97 151
61 96 150
62 97 156
62 98 156
62 98 153
62 98 161
61 97 155
61 96 156
61 97 157
62 98 157
61 96 152
62 97 151
62 98 153
61 96 153
62 97 161
61 96 160
61 96 149
61 96 155
62 97 160
59 93 146
60 95 156
61 96 157
61 96 157
60 95 155
60 95 150
59 94 151
60 95 152
61 97 157
60 95 154
60 94 152
61 96 158
58 92 147
60 94 151
60 95 156
58 92 151
59 92 153
59 93 157
59 93 153
57 89 146
147 167 199
213 231 255
213 231 255
213 231 255
213 231 255
213 231 255
213 231 255
213 231 255
213 231 255
214 231 255
214 231 255
214 231 255
214 231 255
214 231 255
211 228 251
128 129 99
109 107 70
116 114 77
118 117 79
131 129 88
123 123 83
133 132 91
119 117 79
119 119 83
130 131 90
115 116 81
132 132 90
136 135 93
132 133 92
138 138 95
134 134 91
137 136 92
141 140 95
140 139 96
139 138 93
143 142 95
145 144 97
140 139 93
143 142 95
142 140 94
156 154 102
143 142 96
147 145 99
154 153 100
146 145 97
148 147 98
157 154 102
157 154 100
159 156 103
156 153 100
157 153 96
157 154 102
161 158 103
163 159 103
160 157 99
160 157 103
172 167 107
163 160 105
155 151 95
167 163 104
169 164 105
165 161 103
166 162 105
164 160 103
165 160 103
168 164 101
165 161 105
164 160 101
164 161 100
173 167 104
166 162 105
170 165 105
167 164 104
166 163 104
169 164 106
167 163 105
174 168 106
166 162 101
174 168 104
171 165 102
164 160 96
171 166 102
171 166 106
167 163 100
170 165 103
169 164 105
172 167 104
167 163 102
170 164 101
169 163 102
171 166 99
163 159 98
174 168 104
165 161 99
170 165 101
170 164 102
175 170 107
169 164 101
169 165 103
167 162 101
169 163 101
171 166 104
171 165 101
170 165 100
168 161 101
171 165 103
170 164 104
167 161 100
173 167 104
168 162 101
169 163 98
168 162 98
166 161 99
167 162 101
167 161 93
167 161 98
166 161 97
163 158 93
159 155 94
161 156 92
170 164 99
164 159 98
171 165 100
166 159 96
170 165 100
165 160 95
166 160 95
166 160 95
168 163 101
165 159 96
166 161 99
165 160 97
165 160 95
158 153 92
164 158 96
164 159 96
164 159 92
158 153 91
163 157 89
162 157 94
160 154 95
160 154 95
156 152 92
153 148 88
165 159 95
158 153 88
157 152 91
160 154 93
163 157 94
156 150 87
159 152 92
158 152 90
161 154 91
157 153 90
152 147 84
154 148 84
185 204 228
185 204 228
185 204 228
184 203 228
184 203 228
185 204 228
184 203 228
186 204 228
185 203 228
185 203 228
184 203 228
185 203 228
183 202 228
184 203 228
183 202 228
184 203 228
184 203 228
183 202 228
183 202 228
183 202 228
183 203 228
183 203 228
183 202 228
183 203 228
182 202 228
183 202 228
181 201 228
181 201 228
181 201 228
182 202 228
181 201 228
181 201 228
181 201 228
181 201 228
181 202 228
181 202 228
180 201 228
180 201 228
180 201 228
180 201 228
180 201 228
181 201 228
180 201 228
180 201 228
180 201 228
179 200 228
179 200 228
179 200 228
179 200 228
180 201 228
179 200 228
179 200 228
179 200 228
178 200 228
178 200 228
178 200 228
179 200 228
178 200 228
177 199 228
177 199 228
177 199 228
177 199 228
177 199 228
177 199 228
177 199 228
177 199 228
177 199 228
177 199 228
176 199 228
176 199 228
177 199 228
176 199 228
176 199 228
176 199 228
176 198 228
175 198 228
175 198 228
176 198 228
176 198 228
175 198 228
175 198 228
175 198 228
176 198 228
175 198 228
175 198 228
174 198 228
174 198 228
175 198 228
174 198 228
175 198 228
175 198 228
174 197 228
175 198 228
174 198 228
174 197 228
174 197 228
173 197 228
173 197 228
174 198 228
174 197 228
174 198 228
173 197 228
174 198 228
174 198 228
173 197 228
173 197 228
174 197 228
173 197 228
173 197 228
173 197 228
174 197 228
174 198 228
173 197 228
172 197 228
174 198 228
174 197 228
174 197 228
174 198 228
174 197 228
174 197 228
173 197 228
169 192 225
167 191 224
166 189 222
164 188 221
158 182 218
156 179 215
165 188 222
162 185 219
155 178 214
167 191 223
160 183 216
168 190 222
175 197 227
174 196 225
180 201 228
180 201 228
180 201 228
181 201 227
179 198 223
164 181 203
186 202 224
214 231 255
214 231 255
214 231 255
214 231 255
214 231 255
214 231 255
214 231 255
214 231 255
214 231 255
214 231 255
214 231 255
214 231 255
198 216 244
74 104 165
59 94 163
59 95 159
60 95 156
59 94 152
60 94 154
59 94 152
60 96 159
62 97 164
60 95 154
62 97 153
60 95 154
61 97 156
61 97 158
62 97 162
61 97 161
62 98 156
62 98 159
61 96 156
62 98 158
60 95 155
61 97 158
62 98 159
61 97 153
62 98 165
62 98 165
62 98 159
62 98 163
62 97 155
60 95 153
61 97 154
61 97 155
62 97 154
61 97 155
62 98 159
62 97 153
61 97 158
63 99 162
62 98 161
62 98 159
62 97 152
61 97 155
62 98 156
63 99 163
62 97 155
63 98 156
61 97 152
61 96 153
62 97 158
61 97 149
61 96 152
62 98 161
62 97 153
61 97 154
61 96 147
60 95 145
61 96 149
62 98 158
62 97 156
61 97 155
62 98 160
61 96 160
61 96 150
62 97 152
63 98 162
61 96 151
60 95 154
61 97 154
62 98 162
60 95 149
61 96 150
62 97 160
60 95 146
62 97 160
61 96 154
61 95 152
59 92 143
59 93 141
59 93 146
59 93 150
59 92 142
58 92 149
59 93 146
58 91 147
62 96 155
58 91 146
58 91 146
58 91 146
59 91 154
79 105 154
204 222 247
214 231 255
214 231 255
214 231 255
214 231 255
214 231 255
214 231 255
214 231 255
214 231 255
214 231 255
214 231 255
214 231 255
214 231 255
171 179 178
127 123 79
126 124 83
109 109 75
118 118 81
124 125 87
127 127 88
119 120 84
120 121 84
125 125 88
121 121 84
122 123 87
127 128 88
115 117 81
122 124 87
121 122 85
128 128 87
136 136 93
133 133 91
143 143 98
137 135 90
145 143 95
149 147 98
148 147 98
153 151 101
143 141 95
153 150 98
146 144 96
155 152 100
152 151 100
153 150 99
158 155 100
152 149 97
152 150 99
157 154 99
144 143 95
154 151 99
159 156 102
152 150 97
159 156 98
163 159 100
160 156 101
171 165 107
163 159 102
156 153 100
162 159 102
169 165 104
157 154 97
164 160 100
172 167 109
166 162 103
165 160 103
166 162 102
164 160 103
168 164 101
164 160 102
171 166 102
170 164 104
168 163 100
171 166 104
171 166 102
167 163 104
172 166 104
173 167 104
173 167 105
169 163 103
168 164 102
173 167 101
169 163 100
171 165 102
167 162 101
171 167 104
170 165 101
167 161 100
168 163 98
169 163 97
169 163 100
167 162 102
172 167 104
174 169 104
168 163 100
169 162 100
172 166 98
166 161 98
172 165 103
171 165 100
170 165 101
169 163 98
166 161 97
167 162 100
169 163 99
171 166 103
173 167 99
171 166 101
171 165 98
168 162 101
168 162 98
173 167 103
170 165 102
168 162 97
165 161 103
162 157 95
162 157 95
161 156 92
163 156 97
167 163 97
170 163 95
166 160 95
166 161 100
165 160 95
170 164 100
170 165 100
162 157 93
167 161 100
156 151 90
165 159 98
164 158 95
158 153 96
164 158 95
164 158 94
158 153 91
160 155 94
160 154 93
165 159 90
156 151 86
156 151 90
160 155 94
163 157 93
165 159 94
155 151 87
162 157 95
164 158 96
157 151 87
160 154 87
164 157 94
154 150 83
156 150 87
153 147 84
154 149 84
154 148 85
156 151 88
163 157 95
186 204 228
186 204 228
185 203 228
186 204 228
186 204 228
186 204 228
185 203 228
185 204 228
185 203 228
184 203 228
184 203 228
185 203 228
185 204 228
184 203 228
184 203 228
183 203 228
183 203 228
185 203 228
182 202 228
183 202 228
183 202 228
183 202 228
183 202 228
183 203 228
183 202 228
182 202 228
183 202 228
183 202 228
182 202 228
183 203 228
182 202 228
182 202 228
183 202 228
183 202 228
182 202 228
181 201 228
181 201 228
181 201 228
180 201 228
181 201 228
180 201 228
180 201 228
181 201 228
181 201 228
180 201 228
180 201 228
180 201 228
179 200 228
179 200 228
179 200 228
179 200 228
180 201 228
180 201 228
179 200 228
179 200 228
179 200 228
179 200 228
178 200 228
179 200 228
178 200 228
178 200 228
178 200 228
177 199 228
178 200 228
177 199 228
178 200 228
177 199 228
177 199 228
176 199 228
177 199 228
178 200 228
177 199 228
177 199 228
176 199 228
177 199 228
176 199 228
176 199 228
176 198 228
177 199 228
176 199 228
176 199 228
176 199 228
176 199 228
176 199 228
176 199 228
176 199 228
175 198 228
175 198 228
175 198 228
176 199 228
175 198 228
175 198 228
175 198 228
174 198 228
175 198 228
175 198 228
175 198 228
176 199 228
175 198 228
174 198 228
174 198 228
175 198 228
175 198 228
175 198 228
174 197 228
174 198 228
174 198 228
174 198 228
174 198 228
174 198 228
174 198 228
173 197 228
175 198 228
174 197 228
174 197 228
174 198 228
175 198 228
174 197 228
170 194 226
165 189 223
163 187 221
166 190 222
160 183 218
164 188 221
156 180 214
155 178 214
149 173 210
158 182 216
154 177 213
148 171 207
161 184 217
160 183 217
158 181 215
158 181 215
163 185 218
167 188 220
177 198 227
181 201 228
183 202 228
182 201 227
177 196 220
166 182 204
203 220 243
214 232 255
214 232 255
214 232 255
214 232 255
214 232 255
214 232 255
214 232 255
214 231 255
214 231 255
214 231 255
214 231 255
120 142 186
58 92 156
59 94 157
59 94 160
60 95 158
60 95 160
60 95 157
60 96 157
60 95 149
60 96 151
60 96 155
61 97 156
61 96 158
61 96 155
60 95 152
61 96 156
60 95 141
62 97 160
61 96 154
61 97 155
60 96 152
60 94 142
61 96 148
61 96 152
61 96 146
61 96 157
61 97 154
63 98 160
62 97 154
62 98 152
61 96 142
62 97 159
61 97 149
62 98 162
61 96 152
62 97 153
62 98 160
61 97 152
62 97 155
62 98 162
60 96 146
62 98 156
61 97 156
61 97 154
61 97 156
62 98 156
62 97 153
62 98 155
60 96 148
62 97 154
61 97 159
61 96 150
61 97 153
62 98 156
62 98 156
62 97 156
61 96 151
61 96 150
61 97 158
59 94 139
61 97 155
60 96 152
62 97 155
61 97 155
61 96 151
60 96 152
62 97 156
61 97 159
61 96 153
60 95 145
60 95 141
62 97 154
61 96 157
61 96 153
60 95 157
60 94 149
60 95 154
61 95 151
60 95 154
60 94 147
60 94 147
60 95 151
59 93 148
59 93 146
62 97 160
60 94 155
59 92 146
59 91 143
59 91 147
60 93 151
58 90 149
130 149 186
214 231 255
214 231 255
214 231 255
214 231 255
214 232 255
214 232 255
214 232 255
214 232 255
214 232 255
214 232 255
214 232 255
197 211 227
121 118 77
114 113 76
115 114 78
117 116 80
114 113 76
110 111 78
129 130 90
114 113 79
124 125 86
123 123 85
120 121 84
130 131 92
131 130 89
130 130 90
124 124 87
130 131 90
137 137 92
138 136 91
137 136 91
140 140 95
137 136 91
145 144 97
144 143 97
143 142 95
148 146 98
140 140 94
152 150 99
153 152 102
150 147 97
154 153 100
152 150 99
149 148 101
157 153 102
151 149 98
158 156 101
160 156 100
146 145 94
158 156 104
161 157 101
161 158 102
157 154 100
157 154 97
164 160 97
168 163 103
163 159 102
158 155 100
156 154 98
168 163 103
164 160 101
165 161 103
164 161 103
163 159 99
167 162 99
164 160 100
164 160 102
169 164 105
164 159 100
172 168 108
168 164 105
171 165 102
168 164 102
166 161 99
166 162 103
174 168 104
171 166 104
172 166 104
172 167 104
167 162 99
173 167 104
172 166 100
169 164 98
168 163 101
171 165 101
170 164 101
172 167 104
176 170 104
173 167 103
167 161 100
170 165 103
175 169 106
166 160 97
174 169 103
174 168 103
175 168 103
172 166 100
169 163 95
167 162 103
172 166 101
169 163 100
168 162 98
170 164 100
172 166 100
168 162 100
168 163 98
169 163 101
170 163 99
166 159 97
171 165 101
170 164 100
172 165 98
158 153 92
167 162 98
172 165 99
167 160 97
167 161 94
171 165 99
165 159 97
165 159 94
166 160 95
163 158 93
164 159 95
165 159 92
168 162 98
162 157 97
169 163 98
160 155 90
166 161 97
164 158 97
162 156 90
163 157 93
163 158 95
160 155 90
164 159 93
162 156 94
158 153 91
166 161 96
158 154 91
160 156 95
159 154 91
160 154 90
158 153 90
159 154 90
156 151 88
164 158 94
157 151 88
150 146 83
161 155 90
151 145 84
166 161 95
154 148 90
159 154 90
155 150 85
187 204 228
185 204 228
186 204 228
186 204 228
186 204 228
186 204 228
186 204 228
184 203 228
186 204 228
185 203 228
186 204 228
185 203 228
185 204 228
184 203 228
185 204 228
185 204 228
185 203 228
184 203 228
184 203 228
185 203 228
184 203 228
184 203 228
183 203 228
183 202 228
184 203 228
184 203 228
183 202 228
182 202 228
183 203 228
182 202 228
182 202 228
183 202 228
181 202 228
182 202 228
182 202 228
182 202 228
183 202 228
182 202 228
181 202 228
182 202 228
183 202 228
182 202 228
181 201 228
181 201 228
182 202 228
181 201 228
181 201 228
181 201 228
181 201 228
180 201 228
180 201 228
181 201 228
180 201 228
180 201 228
180 201 228
180 201 228
179 200 228
181 201 228
178 200 228
180 201 228
179 200 228
179 200 228
178 200 228
178 200 228
178 200 228
179 200 228
179 200 228
178 199 228
178 200 228
178 200 228
178 199 228
178 200 228
178 200 228
177 199 228
178 200 228
178 200 228
178 199 228
177 199 228
177 199 228
177 199 228
177 199 228
177 199 228
177 199 228
177 199 228
176 199 228
177 199 228
176 199 228
177 199 228
175 198 228
176 199 228
176 199 228
176 199 228
176 199 228
175 198 228
175 198 228
176 199 228
175 198 228
176 199 228
175 198 228
176 199 228
174 198 228
175 198 228
175 198 228
175 198 228
175 198 228
175 198 228
175 198 228
175 198 228
175 198 228
175 198 228
174 198 228
175 198 228
176 198 228
176 199 228
175 198 228
175 198 228
176 198 228
171 194 226
171 194 225
167 190 223
164 188 220
157 181 216
157 180 213
156 179 214
154 178 213
152 176 213
154 177 213
156 179 214
150 174 211
155 178 213
147 170 205
150 173 210
153 175 211
152 174 210
163 185 218
163 185 218
172 193 223
178 198 226
180 199 227
182 202 228
178 196 220
169 186 208
171 186 207
214 231 255
214 232 255
214 232 255
214 232 255
214 232 255
214 232 255
214 232 255
214 232 255
214 232 255
214 232 255
193 211 239
61 94 157
58 93 156
59 93 151
59 94 161
60 95 154
61 96 163
60 95 155
61 97 166
61 96 157
60 95 153
60 96 159
61 97 157
61 97 158
61 97 156
61 96 157
59 94 148
61 96 155
60 95 148
62 98 158
61 96 157
61 96 157
62 97 154
61 97 155
60 95 151
61 97 152
62 98 158
61 96 148
61 96 143
61 97 157
61 97 156
60 95 142
60 96 154
61 97 153
60 96 150
61 96 152
61 97 151
62 98 159
61 96 158
62 97 157
62 98 160
62 97 150
61 96 147
61 97 154
62 97 151
61 97 152
60 95 146
61 96 150
62 98 159
62 98 155
61 96 150
62 98 156
61 96 154
61 96 148
60 95 143
61 97 155
61 97 150
62 97 153
61 97 153
61 96 155
60 95 144
60 94 143
61 97 157
62 97 154
60 95 148
61 96 150
61 96 150
61 96 148
60 96 150
61 96 153
60 95 151
60 95 149
60 94 146
60 95 152
60 94 146
62 96 151
60 94 142
59 93 140
60 94 157
60 95 152
60 94 144
61 96 149
59 91 135
60 94 149
58 91 142
60 95 152
60 93 151
59 93 152
60 93 148
59 91 151
59 92 149
57 89 142
60 90 145
196 213 240
214 232 255
214 232 255
214 232 255
214 232 255
214 232 255
214 232 255
214 232 255
214 232 255
214 232 255
214 232 255
144 149 137
126 124 80
132 129 84
109 107 70
114 114 80
110 111 76
118 120 85
115 116 81
120 121 84
110 111 78
115 116 82
123 124 87
123 124 87
130 130 89
120 121 85
132 132 91
139 138 93
141 140 94
122 124 87
123 124 84
137 137 93
141 139 91
140 139 94
132 133 91
136 135 91
140 139 94
146 145 98
140 138 91
153 152 102
142 140 94
149 147 96
153 151 100
150 148 97
146 145 98
154 152 96
162 159 104
160 156 100
156 153 98
151 149 98
157 154 100
163 159 99
157 154 98
160 156 100
161 158 97
164 160 102
160 157 99
166 163 104
164 161 102
166 161 101
168 162 102
171 165 101
162 158 100
172 165 103
170 166 107
163 158 100
168 163 102
170 165 99
168 164 102
174 168 104
170 165 104
169 164 104
170 165 104
168 164 98
173 168 106
169 164 102
171 166 103
171 164 95
174 168 104
172 167 102
169 164 98
170 165 100
174 168 101
174 168 105
169 164 99
174 167 103
171 167 106
175 169 107
166 161 95
171 165 101
171 166 103
171 166 99
170 165 101
165 160 97
171 165 100
168 163 95
168 162 93
170 166 103
173 168 104
169 164 104
171 166 101
164 159 94
172 166 103
174 168 105
166 160 95
173 167 101
168 163 99
169 162 98
174 168 104
167 162 98
166 161 97
172 166 101
169 163 99
169 163 99
170 164 97
163 157 90
162 157 92
163 157 92
168 163 101
164 159 97
165 160 94
161 156 92
164 159 98
170 165 102
168 162 96
167 162 97
168 162 97
163 157 91
161 156 91
162 157 96
163 158 93
159 154 87
161 157 90
161 155 92
150 144 83
165 158 88
160 155 90
158 154 90
160 153 90
166 161 98
154 149 88
164 158 94
161 155 88
156 151 90
163 157 90
164 159 95
156 150 90
161 156 90
163 157 93
153 148 87
147 143 81
156 150 88
156 151 88
156 151 89
186 204 228
186 204 228
186 204 228
186 204 228
186 204 228
186 204 228
186 204 228
186 204 228
186 204 228
185 203 228
186 204 228
185 204 228
184 203 228
184 203 228
185 204 228
185 203 228
186 204 228
186 204 228
185 203 228
185 204 228
184 203 228
184 203 228
184 203 228
184 203 228
185 203 228
184 203 228
184 203 228
183 202 228
184 203 228
184 203 228
183 203 228
183 203 228
183 202 228
183 202 228
182 202 228
183 202 228
183 202 228
182 202 228
182 202 228
182 202 228
182 202 228
181 201 228
182 202 228
182 202 228
181 201 228
181 201 228
181 201 228
181 202 228
181 201 228
181 201 228
181 201 228
182 202 228
181 201 228
180 201 228
181 201 228
180 201 228
181 201 228
180 201 228
180 201 228
180 201 228
180 201 228
180 201 228
180 201 228
179 200 228
179 200 228
180 201 228
180 201 228
179 200 228
179 200 228
179 200 228
179 200 228
179 200 228
179 200 228
179 200 228
179 200 228
178 199 228
178 200 228
178 200 228
178 200 228
178 199 228
176 199 228
178 199 228
178 200 228
177 199 228
179 200 228
177 199 228
177 199 228
176 199 228
177 199 228
177 199 228
178 199 228
177 199 228
177 199 228
177 199 228
177 199 228
177 199 228
177 199 228
177 199 228
175 198 228
177 199 228
177 199 228
177 199 228
176 199 228
176 199 228
177 199 228
176 199 228
175 198 228
176 199 228
176 199 228
176 198 228
177 199 228
176 199 228
175 198 228
176 199 228
176 199 228
176 199 228
174 196 227
167 190 221
162 185 218
159 182 214
157 180 214
160 183 216
156 179 213
152 175 211
150 173 208
144 167 204
144 168 206
134 157 198
143 166 204
147 170 207
138 161 199
135 158 197
140 163 201
148 170 207
151 173 208
146 168 205
161 182 215
163 184 216
172 192 221
178 197 225
181 200 225
179 197 221
160 176 198
191 207 228
215 232 255
215 232 255
215 232 255
215 232 255
215 232 255
215 232 255
215 232 255
215 232 255
215 232 255
140 160 202
58 91 153
59 93 153
59 93 151
59 93 154
58 93 149
59 94 149
60 95 159
60 96 151
62 97 159
60 95 150
61 96 149
61 96 159
61 96 149
62 98 163
61 96 152
60 95 151
61 97 153
61 97 158
60 95 150
61 96 150
62 98 160
61 97 157
62 97 159
62 98 165
61 96 145
60 95 143
62 97 156
61 97 157
59 94 145
61 96 145
61 97 154
61 96 155
61 95 145
62 97 154
62 98 155
62 97 152
61 97 151
60 95 147
61 97 153
61 97 151
62 98 157
61 96 151
61 97 153
61 96 143
61 97 154
60 95 145
60 96 149
61 96 142
61 97 151
61 97 159
62 97 155
62 98 156
59 94 144
62 97 154
61 97 154
60 95 149
61 96 151
61 96 156
62 97 151
61 96 154
62 98 159
61 97 158
61 96 144
62 98 158
62 97 153
61 96 155
59 94 137
61 96 150
60 95 146
60 94 143
61 97 156
62 97 155
60 95 151
60 95 152
62 96 157
61 95 144
60 94 143
59 94 143
62 97 162
61 95 146
62 96 152
59 93 148
61 96 149
60 94 147
60 94 152
60 94 151
58 91 141
58 90 140
58 91 144
57 89 148
57 89 143
55 87 144
131 150 184
215 232 255
215 232 255
215 232 255
215 232 255
215 232 255
215 232 255
215 232 255
215 232 255
215 232 255
182 193 199
107 106 69
108 107 71
112 112 77
108 108 73
128 127 86
125 126 87
108 109 76
99 101 72
108 110 78
111 113 78
116 118 83
114 115 78
126 127 88
119 119 82
126 126 87
122 123 83
134 133 91
129 129 89
142 141 94
131 131 90
139 137 93
141 140 93
131 131 90
140 140 91
142 141 95
147 145 96
147 144 94
143 142 96
155 152 100
147 145 95
142 141 89
147 145 94
157 154 100
152 149 96
156 152 98
154 152 101
162 159 102
161 156 99
165 161 106
158 155 101
156 153 98
158 155 98
163 159 101
162 158 100
160 156 99
162 157 98
165 160 104
166 162 104
165 161 101
167 163 103
169 164 103
171 166 103
167 162 101
168 163 103
173 167 106
170 165 103
168 163 99
170 165 99
171 165 101
169 164 102
171 166 103
171 166 100
172 167 103
173 168 103
170 165 102
172 166 101
168 163 99
169 164 99
169 163 100
173 167 102
176 170 107
171 165 101
173 168 104
167 162 96
171 166 101
173 167 103
172 166 103
170 165 102
172 165 98
172 167 102
173 167 100
171 165 98
171 166 100
172 166 101
173 166 102
168 164 98
173 167 104
172 166 99
177 171 103
171 165 100
167 161 94
169 163 99
174 168 103
170 164 101
171 164 99
171 166 101
164 159 99
168 162 99
167 162 95
164 160 93
172 166 102
166 161 97
161 156 90
162 157 93
168 163 98
168 162 99
167 161 97
167 161 94
166 160 98
166 161 95
166 159 94
169 163 101
167 162 95
166 159 92
162 157 94
163 158 93
165 159 95
164 158 95
163 157 95
164 158 94
165 159 95
164 158 90
164 157 94
159 155 90
164 158 95
158 152 87
160 154 91
157 151 84
151 145 86
155 150 85
159 155 91
151 146 83
162 157 93
156 151 90
159 153 88
165 158 93
145 141 83
157 152 84
150 144 87
161 155 93
162 157 93
157 152 91
157 151 87
187 205 228
187 205 228
188 205 228
186 204 228
186 204 228
186 204 228
187 204 228
186 204 228
186 204 228
187 205 228
186 204 228
186 204 228
185 204 228
185 204 228
186 204 228
186 204 228
185 204 228
185 204 228
185 204 228
184 203 228
185 204 228
186 204 228
185 203 228
184 203 228
185 204 228
185 204 228
184 203 228
184 203 228
186 204 228
184 203 228
184 203 228
183 203 228
184 203 228
183 203 228
184 203 228
183 202 228
183 203 228
183 202 228
184 203 228
183 202 228
183 202 228
184 203 228
183 202 228
182 202 228
183 202 228
183 202 228
182 202 228
181 201 228
182 202 228
182 202 228
182 202 228
182 202 228
181 202 228
182 202 228
181 201 228
181 201 228
181 201 228
181 201 228
182 202 228
180 201 228
180 201 228
180 201 228
180 201 228
180 201 228
181 201 228
180 201 228
180 201 228
180 201 228
180 201 228
179 200 228
179 200 228
180 201 228
178 200 228
179 200 228
180 201 228
178 200 228
179 200 228
178 199 228
179 200 228
178 200 228
178 200 228
179 200 228
179 200 228
177 199 228
179 200 228
179 200 228
178 200 228
178 200 228
177 199 228
177 199 228
178 200 228
177 199 228
178 200 228
177 199 228
178 200 228
178 199 228
178 200 228
177 199 228
178 200 228
178 200 228
176 199 228
178 199 228
177 199 228
176 199 228
177 199 228
177 199 228
176 199 228
177 199 228
177 199 228
177 199 228
177 199 228
176 198 228
177 199 228
177 199 228
176 199 228
171 193 224
171 194 224
166 189 221
165 187 219
153 176 211
156 178 213
160 183 218
153 176 210
144 167 204
150 173 208
144 167 204
140 164 200
139 162 200
129 153 195
124 148 189
128 152 194
131 154 193
132 154 194
131 153 193
137 159 197
125 147 189
141 163 200
147 168 204
167 187 218
175 195 222
182 201 227
183 201 225
167 184 206
167 182 202
215 232 255
215 232 255
215 232 255
215 232 255
215 232 255
215 232 255
215 232 255
215 232 255
200 218 244
65 97 165
57 91 150
58 92 142
60 95 162
59 93 147
61 96 154
60 95 152
61 97 159
61 96 155
61 96 154
60 95 152
61 97 152
60 96 156
60 95 147
60 95 149
62 98 162
60 95 142
61 96 152
61 96 151
61 96 148
61 96 153
62 98 159
61 96 151
60 96 143
62 97 152
61 96 155
60 94 136
59 95 143
62 97 158
60 96 149
61 96 145
61 97 160
61 96 149
62 98 157
60 95 143
62 97 154
61 96 151
62 97 158
61 95 144
62 97 153
61 97 150
61 97 149
60 94 136
61 96 150
61 96 148
61 97 152
61 96 153
60 95 141
61 96 151
61 97 151
61 97 153
61 96 147
61 97 153
62 98 154
61 95 144
61 96 145
62 98 159
62 98 155
61 97 158
62 98 152
60 95 150
62 98 159
62 97 155
60 95 147
61 96 151
60 95 145
60 95 140
62 97 150
59 94 147
61 95 146
60 95 140
61 96 157
61 97 154
61 96 152
62 96 161
58 93 140
60 94 143
60 95 145
61 96 153
60 95 153
59 92 144
58 91 145
59 92 143
61 95 158
60 94 141
61 95 156
59 92 144
60 93 143
57 89 133
58 90 139
57 88 135
57 87 136
57 89 140
56 87 141
200 218 244
215 232 255
215 232 255
215 232 255
215 232 255
215 232 255
215 232 255
215 232 255
214 231 254
142 140 107
112 110 72
114 114 79
117 118 82
113 114 79
110 111 77
111 112 79
106 105 72
113 115 81
115 116 80
119 120 84
104 106 74
112 114 81
119 120 84
121 123 85
133 134 92
126 127 88
120 122 85
126 127 88
126 127 87
127 127 88
138 138 92
132 133 90
139 139 93
130 131 84
140 139 93
143 142 94
149 146 95
141 139 91
154 152 97
150 148 98
149 147 97
154 151 97
156 154 99
151 148 99
162 159 103
156 154 98
157 154 99
156 153 98
154 150 96
162 158 103
162 159 102
162 158 99
164 159 102
162 159 99
165 161 104
163 159 99
160 156 100
169 164 101
162 158 100
165 161 100
167 162 100
169 163 101
171 167 103
170 165 102
166 161 98
169 164 98
167 163 101
172 166 105
176 170 107
170 164 102
174 168 106
170 166 100
169 164 100
170 166 102
172 166 103
168 164 98
166 161 98
174 168 104
169 164 98
163 158 95
173 167 102
174 168 105
169 164 98
169 164 100
171 166 99
169 164 100
172 167 103
169 164 98
170 166 102
172 166 100
173 167 103
166 161 95
169 163 97
168 163 99
169 165 98
172 166 103
176 169 103
168 163 97
167 163 97
174 168 101
170 163 97
169 163 95
174 168 103
166 161 95
167 162 98
171 165 103
175 168 103
168 163 100
170 163 96
166 161 96
165 159 90
175 167 101
167 161 97
173 166 99
162 158 91
168 163 96
171 164 97
172 166 100
161 155 90
165 160 95
168 161 99
169 163 100
168 163 97
165 159 92
168 162 95
163 158 93
168 161 93
157 151 88
163 156 92
164 158 93
167 162 95
162 157 91
163 157 92
160 155 92
166 160 96
157 152 85
160 154 83
159 154 90
160 155 93
161 156 89
158 153 86
161 156 92
157 152 88
157 151 87
165 159 91
158 152 87
160 154 89
154 149 88
165 159 93
158 152 93
154 149 87
158 153 90
160 154 87
188 205 228
187 205 228
187 205 228
187 205 228
186 204 228
188 205 228
188 205 228
187 205 228
186 204 228
187 205 228
187 205 228
186 204 228
186 204 228
186 204 228
186 204 228
186 204 228
186 204 228
186 204 228
186 204 228
185 204 228
186 204 228
185 203 228
186 204 228
186 204 228
186 204 228
185 203 228
186 204 228
184 203 228
185 204 228
184 203 228
185 203 228
185 203 228
186 204 228
184 203 228
183 203 228
184 203 228
184 203 228
184 203 228
185 203 228
183 202 228
184 203 228
183 202 228
183 202 228
183 202 228
183 202 228
184 203 228
184 203 228
182 202 228
183 203 228
183 202 228
182 202 228
182 202 228
182 202 228
182 202 228
182 202 228
181 201 228
183 202 228
180 201 228
181 201 228
182 202 228
181 201 228
181 201 228
182 202 228
180 201 228
182 202 228
182 202 228
180 201 228
181 201 228
180 201 228
180 201 228
180 201 228
180 201 228
180 201 228
180 201 228
181 202 228
179 200 228
180 201 228
180 201 228
179 200 228
180 201 228
179 200 228
179 200 228
180 201 228
179 200 228
179 200 228
180 201 228
179 200 228
179 200 228
180 201 228
179 200 228
179 200 228
178 200 228
178 200 228
178 200 228
178 200 228
179 200 228
178 200 228
178 200 228
179 200 228
178 199 228
178 200 228
178 200 228
177 199 228
178 200 228
178 200 228
178 200 228
177 199 228
177 199 228
178 200 228
178 200 228
178 200 228
178 200 228
178 200 228
178 199 228
175 197 227
173 194 224
171 193 224
160 182 216
162 185 218
151 173 208
148 170 206
145 168 206
145 168 202
139 161 199
140 163 201
128 150 192
126 149 189
127 151 190
124 148 190
120 143 186
129 152 195
121 145 186
122 145 188
129 151 190
131 154 195
138 160 196
131 153 192
150 171 206
158 178 211
166 186 216
166 185 215
183 201 226
177 194 217
161 176 195
200 216 239
215 232 255
215 232 255
215 232 255
215 232 255
215 232 255
215 232 255
215 232 255
152 171 207
58 92 156
58 93 158
58 93 156
58 92 152
59 94 150
60 95 147
60 94 146
59 93 145
61 96 155
60 95 153
61 96 158
59 94 148
61 96 153
61 96 153
61 97 155
59 94 136
60 95 149
60 96 145
61 96 151
61 96 148
61 96 151
60 95 147
61 97 152
61 96 148
61 96 152
60 95 143
61 96 149
60 95 148
61 96 145
59 93 142
62 98 156
62 98 156
61 96 148
60 96 146
62 98 155
60 96 152
61 96 154
61 96 145
61 96 148
62 98 159
61 97 151
61 96 150
61 96 148
62 98 154
61 96 152
60 96 148
61 96 143
60 95 140
60 96 149
62 97 158
62 97 151
60 95 142
60 96 150
60 96 143
61 96 150
61 97 156
60 96 143
61 96 149
62 97 152
62 97 155
61 96 149
60 95 144
62 97 150
61 96 152
61 95 145
61 97 151
61 96 148
61 96 156
61 97 151
60 94 141
61 97 152
61 94 148
61 96 152
60 95 146
60 95 148
60 94 149
59 94 144
60 95 149
60 94 147
61 95 149
60 95 155
60 94 149
60 94 145
60 94 150
60 94 139
59 92 142
58 91 138
58 92 137
58 90 139
59 92 149
56 87 134
57 89 138
59 91 151
57 88 144
155 173 202
215 232 255
215 232 255
215 232 255
215 232 255
215 232 255
215 232 255
215 232 255
188 201 214
106 104 69
115 114 77
102 103 73
105 104 71
107 108 76
113 114 78
99 100 71
121 122 85
104 106 75
108 110 78
116 118 81
122 123 85
113 114 79
120 121 83
116 118 83
127 127 86
118 120 85
126 126 85
131 132 92
128 128 89
129 130 90
136 136 90
138 137 92
132 132 89
137 136 91
144 143 96
139 138 90
136 135 91
148 146 95
153 150 97
146 145 96
152 150 96
149 147 96
154 151 100
149 147 94
156 153 98
161 157 103
157 154 96
156 153 97
151 148 94
158 155 100
154 152 96
158 154 99
161 157 98
169 164 104
159 155 100
161 156 96
162 159 102
164 160 100
168 163 103
168 164 101
168 163 100
170 164 101
172 167 102
171 165 98
165 159 96
171 166 103
167 162 102
168 163 98
172 167 102
169 164 99
173 167 103
173 166 104
175 169 103
170 165 99
170 165 101
170 164 100
180 172 107
174 168 102
173 168 104
174 168 104
172 165 99
175 169 104
173 168 101
169 164 97
170 165 102
175 168 101
167 162 100
170 165 98
168 164 102
174 168 104
171 166 100
169 164 99
170 164 99
167 163 95
171 165 96
173 166 101
171 166 101
169 163 99
171 166 99
174 167 102
175 168 101
166 160 93
169 163 99
166 161 97
166 160 95
172 165 100
170 164 102
173 166 99
170 164 99
169 163 99
167 161 96
171 165 101
163 158 91
165 160 91
169 163 99
162 157 94
168 163 93
165 159 97
168 162 93
166 160 93
162 157 92
164 158 91
164 158 90
165 159 91
167 162 97
167 161 94
162 156 90
165 159 98
164 158 94
170 164 101
163 157 89
167 161 93
159 153 89
163 157 93
167 161 97
160 153 85
162 157 90
162 156 86
163 156 90
162 156 88
162 156 93
163 157 91
157 153 84
164 158 92
165 159 93
152 147 88
157 151 84
161 155 91
155 150 84
161 154 90
160 154 89
150 144 82
157 152 85
189 205 228
189 206 228
187 204 228
188 205 228
188 205 228
187 205 228
188 205 228
186 204 228
187 205 228
187 205 228
186 204 228
187 205 228
187 204 228
187 205 228
187 205 228
187 204 228
187 204 228
186 204 228
186 204 228
186 204 228
186 204 228
187 204 228
186 204 228
186 204 228
186 204 228
185 204 228
186 204 228
184 203 228
186 204 228
186 204 228
186 204 228
185 204 228
186 204 228
185 204 228
184 203 228
184 203 228
184 203 228
185 203 228
184 203 228
185 203 228
184 203 228
183 202 228
185 203 228
184 203 228
183 203 228
184 203 228
184 203 228
184 203 228
184 203 228
183 203 228
183 202 228
183 203 228
182 202 228
183 202 228
184 203 228
183 202 228
182 202 228
183 202 228
183 202 228
182 202 228
182 202 228
182 202 228
183 202 228
181 202 228
183 202 228
182 202 228
181 201 228
183 202 228
182 202 228
181 201 228
180 201 228
181 201 228
181 201 228
181 202 228
181 201 228
181 201 228
181 201 228
181 201 228
181 201 228
181 201 228
180 201 228
181 201 228
180 201 228
180 201 228
180 201 228
180 201 228
180 201 228
180 201 228
180 201 228
180 201 228
179 200 228
179 201 228
179 200 228
179 200 228
179 200 228
179 200 228
179 200 228
178 200 228
179 200 228
179 200 228
179 200 228
179 200 228
179 200 228
178 200 228
180 201 228
179 200 228
179 200 228
180 201 228
179 200 228
179 200 228
178 200 228
179 200 228
178 200 228
179 200 228
173 194 223
166 188 219
163 185 216
155 177 210
156 178 213
148 170 206
144 166 201
144 166 203
144 167 203
137 159 199
132 155 194
131 153 190
122 146 189
114 138 183
114 138 185
106 130 174
119 142 184
109 133 177
115 139 183
105 128 175
117 139 182
115 137 181
133 154 192
126 147 189
133 153 192
149 169 202
162 182 213
174 193 220
177 195 219
172 189 211
168 183 204
214 231 254
216 232 255
216 232 255
216 232 255
216 232 255
215 232 255
214 231 255
67 96 147
55 88 148
58 93 144
57 91 153
59 94 161
60 95 155
59 94 155
61 96 152
59 94 151
60 94 152
60 95 151
59 94 150
61 97 161
60 95 146
60 96 151
60 94 141
61 96 157
61 97 156
60 96 148
61 96 155
61 96 149
60 95 142
60 95 142
60 95 143
61 96 153
60 95 138
61 96 152
61 96 145
61 97 151
62 98 158
61 95 149
61 96 147
61 97 152
61 96 150
61 97 155
61 96 148
62 97 153
61 97 153
61 97 151
60 95 146
61 96 149
61 96 145
61 97 153
59 94 141
61 96 143
61 96 152
61 97 151
61 96 146
61 97 153
61 97 149
61 96 145
61 96 147
62 97 156
61 97 153
61 96 150
61 97 153
60 95 143
61 96 151
61 96 152
60 95 148
61 95 146
62 97 150
60 95 149
61 96 153
60 95 143
61 96 156
62 97 155
60 95 144
61 96 151
62 97 157
61 96 149
62 97 154
61 96 154
61 96 150
61 95 147
59 93 141
59 93 140
62 97 157
60 95 151
58 91 141
61 95 146
59 93 144
60 94 146
60 93 146
58 91 145
58 91 140
61 95 153
60 93 146
61 94 153
59 93 145
59 92 149
56 88 130
58 90 136
57 89 144
56 86 133
77 102 146
212 229 252
215 232 255
216 232 255
216 232 255
216 232 255
216 232 255
216 232 255
137 139 119
114 113 78
110 111 77
114 115 79
116 115 79
113 113 79
113 115 81
106 107 75
104 107 77
102 105 76
103 105 73
119 120 83
113 115 82
115 117 82
115 116 82
110 112 77
123 124 85
123 124 86
131 132 91
126 125 83
131 131 89
125 125 85
129 130 85
134 134 92
143 141 93
139 138 90
140 138 92
142 140 91
136 136 91
143 142 92
150 147 93
147 145 91
144 143 95
154 151 97
151 148 95
155 152 97
155 151 95
160 156 99
159 155 100
155 151 94
159 156 97
156 153 93
156 153 95
165 160 102
164 160 101
164 159 95
161 158 98
168 164 103
159 155 96
163 158 95
167 163 99
161 158 98
164 160 99
169 164 100
166 161 102
166 162 102
170 163 100
170 165 101
170 165 103
172 166 99
170 164 100
173 167 104
171 165 100
170 165 98
166 161 99
173 167 104
175 169 104
171 166 101
172 167 100
175 169 103
171 166 104
175 169 102
174 168 105
172 167 98
169 164 97
169 164 96
172 166 98
171 167 98
174 168 100
170 165 97
171 165 96
170 165 97
174 167 102
172 167 97
172 166 98
171 165 98
173 166 102
171 165 97
173 166 97
174 167 101
166 161 93
167 162 97
167 161 98
169 163 97
171 165 97
172 166 100
170 164 98
166 161 99
169 163 97
170 164 97
171 165 95
168 162 95
166 159 95
161 156 93
165 160 93
167 162 99
169 163 95
172 165 95
172 166 97
165 159 92
165 159 93
166 159 93
164 158 92
171 164 100
168 162 97
165 159 95
170 164 95
164 158 90
167 161 96
166 159 93
162 156 90
168 161 96
167 161 95
164 157 94
163 158 87
163 158 90
161 154 88
162 156 92
163 157 94
166 159 95
162 156 93
158 152 87
161 154 90
167 160 94
163 156 91
150 145 87
162 156 88
155 150 84
164 158 93
157 151 84
157 151 88
168 161 90
158 153 87
153 147 82
159 154 90
189 205 228
189 206 228
189 205 228
189 205 228
189 206 228
188 205 228
189 206 228
187 205 228
189 205 228
187 205 228
187 205 228
187 205 228
188 205 228
188 205 228
187 204 228
187 205 228
188 205 228
186 204 228
186 204 228
187 204 228
187 205 228
187 204 228
186 204 228
187 204 228
187 205 228
186 204 228
187 204 228
186 204 228
186 204 228
186 204 228
187 204 228
186 204 228
185 203 228
185 204 228
185 203 228
185 204 228
186 204 228
185 204 228
185 204 228
185 203 228
185 204 228
185 203 228
185 204 228
185 203 228
184 203 228
184 203 228
184 203 228
186 204 228
184 203 228
184 203 228
183 203 228
184 203 228
184 203 228
183 203 228
183 202 228
183 202 228
183 203 228
183 202 228
183 203 228
183 202 228
183 203 228
183 202 228
183 203 228
183 203 228
181 202 228
183 203 228
183 202 228
182 202 228
182 202 228
183 202 228
182 202 228
183 202 228
183 202 228
182 202 228
182 202 228
182 202 228
181 201 228
181 201 228
182 202 228
181 201 228
182 202 228
181 201 228
180 201 228
180 201 228
182 202 228
181 202 228
181 201 228
180 201 228
180 201 228
180 201 228
180 201 228
181 201 228
180 201 228
180 201 228
181 201 228
181 201 228
179 201 228
181 201 228
181 201 228
180 201 228
180 201 228
180 201 228
180 201 228
179 200 228
179 200 228
179 200 228
179 200 228
180 201 228
180 201 228
179 201 228
180 201 228
180 201 228
178 199 227
169 190 220
171 192 221
169 191 222
167 188 219
157 179 212
155 177 211
150 172 207
149 171 208
145 168 203
138 160 197
126 148 189
134 157 196
123 146 188
128 151 188
117 141 185
102 126 175
109 132 176
104 128 177
98 122 169
100 124 176
108 132 177
96 120 166
108 131 177
116 138 182
134 155 194
130 150 189
133 153 191
141 160 195
164 183 214
172 190 217
181 198 220
164 179 199
202 218 240
216 233 255
216 233 255
216 233 255
216 232 255
216 232 255
186 203 232
58 92 155
57 92 153
60 95 153
58 92 151
60 95 152
60 95 154
59 93 149
60 95 152
59 94 151
60 95 155
60 95 146
61 96 158
58 93 145
61 96 150
60 95 154
59 94 149
60 95 153
61 96 152
60 95 146
60 95 145
61 96 145
60 94 142
61 97 158
61 96 146
61 96 153
60 95 144
62 98 156
60 95 144
60 95 149
61 96 149
61 96 145
61 97 156
61 96 146
61 97 150
61 97 149
60 95 146
61 97 155
60 95 144
61 96 147
61 97 151
60 96 150
60 95 144
61 97 151
61 97 151
61 96 141
61 97 148
61 96 152
61 96 154
61 97 155
61 96 150
61 96 143
61 96 141
61 97 147
62 97 155
61 96 147
61 95 149
61 97 155
62 98 153
61 96 140
62 96 151
61 96 147
60 95 148
61 95 143
61 97 154
60 95 135
61 96 142
62 97 154
60 95 154
60 95 147
60 95 145
62 97 155
59 94 141
60 94 145
60 95 146
61 96 149
60 93 140
62 96 155
59 94 142
60 94 145
60 94 149
60 95 151
60 94 139
60 94 145
60 94 150
59 94 144
59 93 142
57 90 137
60 93 144
60 93 143
57 90 140
58 90 138
58 90 140
57 88 139
57 89 142
54 84 117
55 84 127
181 198 224
216 232 255
216 232 255
216 233 255
216 233 255
216 233 255
192 204 214
101 99 64
118 116 78
110 110 74
104 105 72
94 96 68
101 102 72
109 111 78
106 108 77
99 101 72
106 109 78
107 109 76
107 109 77
113 115 82
123 124 85
120 122 84
125 126 87
124 125 86
126 126 85
135 135 91
125 127 87
133 132 87
135 134 90
135 134 88
139 138 91
132 132 84
141 139 90
141 141 92
143 141 91
145 142 94
147 146 97
154 151 98
151 149 97
148 145 93
147 144 92
154 151 96
147 145 90
160 157 102
152 150 94
151 148 95
156 154 97
162 159 100
162 158 98
166 162 100
153 151 95
161 157 98
158 155 97
164 160 100
164 159 99
163 158 95
166 162 102
165 160 98
165 161 97
169 164 99
164 160 99
166 162 98
163 159 98
168 163 97
168 162 99
170 165 98
167 162 99
169 164 99
166 162 98
169 165 101
169 164 98
167 162 97
173 166 100
169 164 99
172 165 99
172 167 102
174 168 102
168 162 97
170 164 95
170 165 101
174 168 101
168 163 98
174 168 102
174 168 102
174 168 99
172 167 99
171 166 99
176 169 103
173 166 100
173 167 100
175 168 102
171 166 97
174 168 99
170 166 98
172 166 99
170 164 97
169 162 96
170 164 96
171 165 96
167 161 94
169 164 96
169 163 95
169 164 99
164 159 92
172 166 97
165 160 94
171 163 95
163 158 95
169 163 95
171 165 99
171 165 95
172 165 96
167 161 95
165 159 89
171 165 96
172 166 98
170 163 95
169 162 97
161 156 90
164 158 91
164 158 93
167 161 95
161 155 95
164 158 93
163 157 92
165 160 90
164 159 94
165 158 93
163 157 90
165 158 93
159 154 89
159 153 90
157 151 87
161 155 91
158 153 86
161 155 90
158 153 84
162 156 90
165 160 89
158 152 87
157 151 87
159 153 89
160 154 89
154 149 85
163 158 90
155 149 85
159 153 87
160 153 90
157 152 92
159 154 84
159 153 91
154 148 81
189 206 228
190 206 228
188 205 228
189 206 228
189 206 228
189 206 228
189 206 228
189 205 228
188 205 228
188 205 228
189 206 228
189 206 228
187 205 228
188 205 228
188 205 228
187 204 228
188 205 228
188 205 228
188 205 228
188 205 228
188 205 228
187 205 228
187 205 228
186 204 228
186 204 228
187 205 228
187 205 228
187 205 228
187 204 228
186 204 228
186 204 228
186 204 228
187 204 228
186 204 228
187 204 228
186 204 228
186 204 228
186 204 228
186 204 228
187 204 228
186 204 228
186 204 228
186 204 228
185 203 228
186 204 228
185 204 228
185 204 228
186 204 228
184 203 228
185 204 228
185 204 228
185 203 228
186 204 228
185 203 228
184 203 228
184 203 228
184 203 228
184 203 228
184 203 228
184 203 228
185 203 228
184 203 228
184 203 228
184 203 228
183 202 228
184 203 228
184 203 228
183 203 228
183 202 228
183 203 228
183 202 228
183 202 228
184 203 228
183 202 228
183 202 228
183 202 228
182 202 228
183 203 228
183 202 228
183 202 228
182 202 228
182 202 228
182 202 228
182 202 228
182 202 228
182 202 228
182 202 228
182 202 228
183 202 228
181 202 228
181 202 228
181 202 228
181 201 228
181 201 228
180 201 228
181 201 228
181 201 228
180 201 228
181 201 228
180 201 228
181 201 228
180 201 228
181 202 228
180 201 228
181 201 228
181 201 228
180 201 228
180 201 228
181 201 228
180 201 228
181 201 228
180 201 228
177 197 224
176 196 225
166 187 216
164 186 215
165 187 216
152 173 204
160 181 213
156 178 212
151 173 207
132 154 191
129 151 191
117 140 183
118 141 184
115 139 183
108 132 177
103 127 173
117 140 183
103 127 174
95 120 167
96 119 162
95 120 169
96 120 169
98 121 168
100 123 171
98 120 168
111 132 174
126 146 185
124 144 184
136 156 194
156 174 205
157 175 206
180 198 223
179 196 218
175 189 208
216 233 255
216 233 255
216 233 255
216 233 255
216 233 255
125 145 186
56 90 148
57 91 152
57 91 156
57 91 143
58 91 144
58 92 147
59 94 146
58 92 142
60 95 152
58 93 142
59 94 143
60 96 152
60 94 147
60 95 148
59 94 144
59 93 139
60 95 151
61 96 154
60 95 145
60 96 143
60 94 146
60 96 147
61 96 155
63 98 163
62 97 149
61 96 151
60 95 138
61 96 146
60 95 142
61 97 154
62 97 152
61 96 152
60 96 149
60 95 146
61 96 149
60 95 141
61 97 153
61 97 148
59 94 139
62 97 154
61 96 140
61 96 143
61 96 147
61 97 145
61 96 148
63 99 156
61 97 149
61 97 151
60 95 142
62 97 149
61 96 149
63 98 154
61 96 152
62 97 156
61 97 154
62 97 148
61 96 144
62 97 156
62 97 154
61 96 149
61 96 151
60 95 142
60 95 147
61 96 150
61 96 146
60 95 139
59 94 140
60 95 142
61 96 147
61 96 147
61 96 148
62 98 154
60 95 147
61 95 148
60 95 152
60 93 142
60 94 143
61 96 149
59 93 140
60 94 147
60 94 145
59 93 138
59 93 142
60 95 146
59 92 149
60 94 141
57 90 136
60 93 146
59 91 138
57 89 142
56 88 134
59 91 139
57 88 139
57 88 132
57 89 139
57 88 138
115 134 169
216 233 255
216 233 255
216 233 255
216 233 255
216 233 255
138 143 135
116 113 71
112 110 74
112 112 77
105 106 74
99 100 69
105 106 75
102 104 75
99 101 73
118 119 82
112 115 81
110 112 79
110 112 80
111 114 82
110 113 79
117 119 83
123 124 84
121 122 86
121 122 84
121 122 84
126 127 85
129 129 85
125 125 84
125 126 85
125 126 85
140 138 89
145 142 93
140 140 92
138 138 90
145 143 94
143 141 88
150 147 97
143 140 90
144 143 92
144 143 92
157 153 98
153 151 97
153 150 92
149 146 93
160 156 100
152 149 91
155 152 96
156 153 92
159 155 95
165 161 100
172 167 102
158 155 95
161 157 99
159 154 95
165 161 102
162 158 97
164 160 96
168 163 99
165 160 96
164 159 99
165 160 100
166 162 96
168 163 98
171 165 103
168 164 102
170 164 100
169 163 98
171 166 100
172 167 100
164 159 95
172 166 98
166 162 99
168 163 93
171 166 99
174 166 101
168 163 99
172 166 98
172 167 99
172 166 100
168 163 95
175 168 100
172 167 101
170 164 94
170 164 93
172 166 102
169 163 96
173 167 97
173 168 102
173 167 97
173 167 99
171 165 96
168 163 97
168 163 97
172 166 97
175 169 102
170 164 98
167 161 95
171 165 100
168 162 93
173 166 99
170 165 95
170 165 96
170 163 95
171 165 96
171 164 92
168 163 90
163 158 90
171 165 97
166 160 95
168 162 95
167 161 94
166 160 90
164 159 95
166 160 93
166 160 92
169 163 95
168 161 95
163 157 90
164 158 92
165 159 93
173 166 97
168 162 96
164 158 91
166 160 93
160 153 84
158 153 90
164 158 93
164 159 93
165 159 94
159 155 92
162 156 90
165 159 92
166 160 90
157 152 81
160 155 88
164 158 89
158 153 88
163 157 87
156 150 86
167 161 94
162 155 90
156 151 80
159 153 85
160 153 85
162 155 90
157 151 84
154 149 82
162 157 87
158 152 84
151 146 84
152 146 84
190 206 228
189 206 228
189 206 228
189 206 228
189 206 228
189 206 228
190 206 228
190 206 228
188 205 228
189 206 228
190 206 228
188 205 228
189 206 228
189 206 228
188 205 228
188 205 228
188 205 228
187 205 228
188 205 228
188 205 228
188 205 228
188 205 228
188 205 228
187 205 228
187 205 228
187 205 228
188 205 228
187 205 228
187 205 228
187 205 228
187 204 228
186 204 228
187 204 228
187 205 228
188 205 228
187 205 228
186 204 228
186 204 228
187 205 228
186 204 228
187 205 228
187 205 228
186 204 228
185 204 228
186 204 228
186 204 228
186 204 228
186 204 228
186 204 228
186 204 228
186 204 228
185 203 228
186 204 228
185 203 228
184 203 228
185 204 228
185 204 228
185 203 228
186 204 228
184 203 228
184 203 228
185 203 228
184 203 228
183 203 228
185 203 228
185 203 228
185 203 228
185 203 228
184 203 228
184 203 228
184 203 228
184 203 228
184 203 228
183 203 228
183 202 228
184 203 228
183 203 228
183 203 228
183 202 228
183 202 228
182 202 228
184 203 228
183 202 228
183 203 228
183 203 228
183 202 228
183 202 228
182 202 228
183 202 228
182 202 228
183 202 228
182 202 228
181 202 228
182 202 228
182 202 228
181 202 228
182 202 228
182 202 228
182 202 228
181 202 228
183 202 228
181 202 228
181 202 228
183 202 228
181 201 228
182 202 228
182 202 228
181 201 228
182 202 228
181 202 228
182 202 228
181 201 228
179 199 226
171 192 220
168 189 218
162 182 212
158 180 212
152 173 205
153 174 207
142 164 197
139 161 195
129 151 189
123 146 186
123 145 184
117 140 184
109 132 175
110 134 178
98 123 170
98 122 167
70 97 154
76 102 157
79 105 159
85 111 164
82 107 157
66 94 153
81 105 157
86 109 158
82 105 156
98 120 168
117 137 178
129 149 187
138 158 192
160 178 208
173 190 216
181 197 219
165 178 196
202 218 239
216 233 255
216 233 255
216 233 255
209 225 249
63 95 156
57 90 145
57 91 149
58 92 147
58 92 148
59 93 148
59 94 139
60 95 155
59 94 151
59 94 145
60 95 149
59 94 139
62 97 149
59 95 149
59 94 141
60 95 149
60 95 154
61 96 154
61 96 152
62 97 153
61 97 151
60 95 142
61 96 150
61 96 157
59 94 145
60 95 139
61 96 146
61 96 150
61 96 147
60 95 142
60 95 146
61 96 148
62 97 156
60 96 149
61 97 149
61 96 153
61 96 149
60 95 151
60 95 143
60 95 139
61 96 153
60 95 139
62 97 147
61 96 148
61 96 147
61 96 149
60 95 138
59 93 136
61 96 149
60 95 135
61 96 143
61 96 149
60 95 142
61 96 152
60 95 143
61 96 148
61 96 143
60 94 142
60 95 141
61 96 146
62 98 153
61 96 151
60 95 143
61 96 142
60 95 142
60 96 150
61 96 148
61 95 143
61 96 145
60 94 138
61 96 150
61 96 150
61 96 147
61 95 143
60 95 145
61 96 153
61 97 155
61 95 146
60 94 143
60 95 148
59 92 139
60 94 145
60 93 136
59 92 138
61 95 149
61 94 142
60 94 146
60 94 146
60 95 150
59 93 149
57 89 135
58 90 138
58 90 133
56 87 129
58 90 140
57 88 143
55 85 132
58 86 132
212 229 251
216 233 255
216 233 255
216 233 255
207 222 242
123 120 77
94 93 61
109 107 71
91 93 68
99 99 69
97 98 68
104 106 74
94 97 68
112 114 79
97 100 69
90 94 68
97 101 74
101 103 72
118 119 82
130 130 88
113 115 81
117 118 81
116 117 78
120 120 83
132 132 88
121 122 81
127 127 85
126 127 87
139 138 91
136 135 89
140 139 90
144 142 91
142 140 89
141 139 88
152 149 95
138 137 88
147 144 89
147 146 92
139 137 87
152 150 95
151 149 92
161 157 95
149 146 92
156 153 97
152 149 91
156 153 97
158 154 94
159 155 95
160 155 92
158 154 96
159 156 99
163 159 100
165 161 99
151 149 89
167 163 99
165 161 98
165 161 97
164 160 97
168 163 99
165 160 97
166 161 95
164 160 94
168 163 100
170 164 100
167 162 99
169 164 96
166 160 95
169 164 98
168 163 92
166 161 98
168 163 93
171 165 100
173 167 99
176 169 100
169 164 102
172 166 95
174 167 100
171 165 97
168 163 93
172 166 100
170 164 97
171 165 95
177 170 103
172 166 98
172 166 95
171 166 95
175 169 102
173 168 97
176 169 100
172 166 96
166 161 92
174 167 98
170 162 96
172 166 103
172 166 103
167 161 90
168 163 93
166 161 92
172 167 97
169 163 99
166 161 91
170 164 97
169 162 94
165 160 90
170 164 97
171 164 96
163 157 87
166 160 93
169 163 95
172 165 98
170 164 94
170 163 94
169 162 93
170 164 94
167 161 95
161 155 89
165 158 90
170 163 95
162 156 90
165 159 93
161 155 89
168 162 95
164 157 93
163 158 93
161 156 87
167 160 96
166 159 94
158 152 87
165 159 88
164 159 91
171 165 95
152 147 84
162 156 84
165 158 88
162 156 86
165 158 95
168 162 94
158 153 87
162 157 95
159 153 91
163 158 94
159 153 86
159 153 87
158 152 88
154 148 82
158 152 92
159 153 87
155 150 84
157 152 84
161 157 93
166 158 87
190 206 228
189 206 228
191 207 228
190 206 228
190 206 228
189 205 228
191 207 228
189 206 228
189 206 228
187 205 228
189 206 228
189 206 228
188 205 228
189 206 228
189 206 228
189 206 228
188 205 228
189 205 228
188 205 228
189 206 228
189 206 228
189 206 228
188 205 228
189 205 228
189 206 228
188 205 228
188 205 228
188 205 228
188 205 228
187 205 228
188 205 228
187 204 228
187 205 228
189 206 228
188 205 228
188 205 228
186 204 228
187 205 228
187 204 228
187 205 228
187 205 228
188 205 228
187 205 228
187 204 228
186 204 228
187 204 228
187 205 228
187 205 228
187 204 228
187 205 228
187 205 228
187 205 228
186 204 228
186 204 228
186 204 228
187 204 228
185 203 228
186 204 228
186 204 228
186 204 228
186 204 228
184 203 228
185 203 228
186 204 228
185 203 228
186 204 228
184 203 228
186 204 228
185 204 228
185 204 228
185 204 228
185 204 228
185 203 228
185 203 228
184 203 228
184 203 228
184 203 228
184 203 228
184 203 228
184 203 228
184 203 228
183 203 228
184 203 228
184 203 228
184 203 228
183 202 228
183 202 228
183 203 228
183 203 228
184 203 228
183 202 228
183 202 228
183 203 228
183 203 228
183 202 228
183 203 228
183 203 228
182 202 228
183 202 228
183 203 228
183 203 228
183 203 228
184 203 228
182 202 228
183 202 228
183 202 228
184 203 228
183 202 228
183 202 228
183 202 228
183 202 228
181 201 228
175 194 221
170 190 219
171 191 219
157 178 207
150 171 204
149 169 202
142 163 198
142 164 196
141 163 199
125 147 184
116 138 179
112 135 177
105 129 169
107 131 173
100 123 166
88 112 156
82 108 158
66 95 150
70 97 149
58 86 145
56 85 143
57 85 142
54 82 141
57 84 144
58 84 146
88 111 161
79 104 160
103 124 167
106 126 170
123 143 182
134 151 182
157 175 205
175 191 214
169 184 204
187 202 222
217 233 255
217 233 255
217 233 255
181 197 226
57 91 158
57 90 144
58 92 150
59 93 150
59 94 152
59 93 151
59 93 145
59 94 147
59 94 147
59 94 144
59 94 150
59 94 146
60 96 153
60 94 146
60 95 149
60 95 146
59 94 139
60 95 147
59 94 138
60 95 144
62 97 155
61 96 151
61 96 154
60 95 141
60 95 147
61 96 147
59 94 144
62 97 155
59 93 139
61 96 144
62 97 156
61 96 153
61 96 146
61 96 150
61 97 150
62 98 154
62 97 147
60 95 143
62 97 155
61 97 154
60 95 142
61 96 145
61 95 145
61 96 143
61 95 144
61 97 151
60 96 151
62 97 153
62 97 154
61 96 150
61 96 157
62 97 155
62 97 153
62 97 158
62 97 154
61 96 147
62 97 155
60 94 135
60 95 145
62 97 153
61 96 141
60 95 147
59 93 142
60 95 146
60 94 142
61 96 144
61 95 149
59 93 139
60 94 143
60 95 151
62 97 153
60 94 146
60 95 145
61 96 149
60 94 150
60 94 143
60 94 144
60 94 144
59 93 145
59 93 145
61 95 143
57 90 129
58 92 135
61 96 154
60 94 149
58 91 135
59 93 142
60 94 145
60 94 141
59 93 142
58 90 134
56 88 134
58 90 142
57 88 129
58 90 142
57 89 137
55 85 138
52 79 120
176 192 214
217 233 255
217 233 255
217 233 255
164 173 175
98 97 64
100 100 68
104 104 70
94 95 66
84 87 63
89 92 65
98 102 76
97 100 72
96 99 70
103 105 75
99 102 71
92 95 69
90 94 67
104 108 76
116 117 79
100 104 70
116 117 79
120 121 82
115 116 77
130 130 88
127 128 81
124 125 85
129 129 86
136 134 88
132 131 82
137 137 89
142 140 91
131 130 84
135 135 86
136 135 90
138 138 90
142 140 92
155 152 98
157 154 98
150 147 89
157 153 98
163 159 100
150 147 91
158 154 97
159 155 95
152 149 91
156 152 95
158 154 94
158 153 93
163 159 95
158 154 89
163 158 97
163 159 98
170 164 100
162 158 96
161 157 94
162 157 92
160 156 94
157 153 91
166 160 95
168 162 96
169 164 98
166 162 102
167 161 97
169 164 97
166 162 97
167 161 94
167 163 96
162 158 93
170 164 95
168 163 96
169 164 99
170 165 99
173 167 99
169 164 96
168 162 96
172 167 101
170 165 95
170 165 94
172 167 102
170 165 97
171 165 96
168 163 95
174 167 99
171 165 97
174 168 100
174 167 97
169 163 92
173 167 99
168 162 93
173 166 99
172 166 98
172 166 95
168 163 90
168 162 90
167 161 90
173 166 99
170 164 93
166 160 89
172 166 92
171 164 94
171 164 93
165 160 88
170 163 95
168 162 95
169 163 88
173 167 97
167 160 92
169 162 94
173 167 98
168 163 93
170 164 94
162 156 87
165 159 91
174 167 97
165 159 90
164 158 87
165 160 90
172 164 98
158 153 90
166 160 93
168 162 93
161 156 89
167 160 89
172 165 98
164 158 91
169 162 93
165 158 90
167 160 93
162 157 88
158 153 86
161 154 93
166 160 93
163 157 87
159 153 85
158 151 84
160 154 86
160 154 88
159 154 80
161 156 90
156 151 80
164 157 87
154 148 83
163 157 89
167 160 90
157 152 84
159 153 86
160 154 86
153 147 82
149 145 74
157 151 86
190 207 228
190 206 228
191 207 228
190 206 228
191 207 228
190 206 228
191 207 228
190 206 228
189 206 228
190 206 228
189 206 228
189 206 228
189 206 228
190 206 228
191 207 228
191 207 228
189 206 228
190 206 228
190 206 228
190 206 228
189 206 228
189 206 228
190 206 228
190 206 228
190 206 228
188 205 228
189 206 228
188 205 228
187 205 228
188 205 228
189 206 228
188 205 228
188 205 228
188 205 228
187 205 228
188 205 228
188 205 228
188 205 228
187 205 228
188 205 228
187 205 228
188 205 228
187 205 228
187 205 228
188 205 228
187 205 228
188 205 228
187 204 228
186 204 228
188 205 228
187 205 228
187 205 228
187 204 228
186 204 228
185 204 228
187 204 228
186 204 228
187 205 228
186 204 228
186 204 228
188 205 228
186 204 228
187 205 228
186 204 228
186 204 228
186 204 228
186 204 228
186 204 228
185 204 228
185 204 228
186 204 228
185 204 228
185 204 228
184 203 228
185 204 228
186 204 228
185 203 228
184 203 228
186 204 228
184 203 228
186 204 228
185 204 228
185 203 228
185 203 228
185 204 228
185 203 228
185 203 228
186 204 228
184 203 228
184 203 228
184 203 228
184 203 228
184 203 228
185 203 228
185 203 228
183 202 228
184 203 228
184 203 228
184 203 228
185 203 228
183 202 228
183 202 228
183 202 228
183 203 228
184 203 228
183 203 228
183 203 228
183 203 228
184 203 228
184 203 228
180 199 225
177 197 224
173 192 218
168 187 215
162 182 212
162 182 211
146 167 198
149 170 204
147 167 199
138 160 196
130 152 189
130 152 189
117 139 177
114 137 180
103 126 170
99 123 168
93 118 165
74 100 149
66 94 149
61 89 146
57 86 141
54 84 145
52 83 147
47 75 131
48 77 139
48 77 136
48 77 141
50 78 139
68 91 145
77 100 155
88 110 160
108 127 166
130 148 185
145 163 195
161 178 205
174 190 211
164 177 194
217 233 255
217 233 255
217 233 255
136 154 189
56 89 148
56 89 144
56 90 143
56 89 133
59 93 151
57 91 142
59 94 149
59 93 148
59 93 149
60 95 151
60 95 154
60 95 140
61 95 140
59 94 140
60 95 149
59 94 141
60 95 149
60 94 147
61 96 146
62 97 152
60 95 146
61 96 148
59 94 140
60 96 152
60 95 147
60 95 146
60 94 135
61 96 154
61 96 150
61 96 143
60 95 138
61 96 145
60 95 142
61 96 147
60 95 139
61 96 147
61 97 154
61 97 152
61 96 149
62 97 154
61 95 143
61 96 147
61 96 150
61 96 147
61 96 144
60 94 142
62 97 145
62 97 150
60 95 141
61 97 154
62 98 158
61 96 142
60 95 144
60 95 142
61 96 150
61 97 150
61 96 149
61 96 148
62 97 156
60 94 141
60 95 138
62 98 154
60 95 139
61 96 140
61 95 144
61 96 146
60 94 143
62 96 148
60 94 139
60 94 146
60 95 144
60 94 145
59 93 142
61 96 149
59 92 134
60 94 145
62 97 153
60 93 141
59 94 146
60 94 151
61 96 153
60 94 149
60 94 145
59 93 143
59 92 136
60 94 143
59 93 144
57 90 137
58 90 131
58 91 143
56 88 129
58 90 132
57 88 130
56 88 130
56 87 133
54 84 122
54 84 134
52 80 118
145 162 192
217 233 255
217 233 255
217 233 255
134 136 117
105 103 66
85 87 61
86 86 60
92 94 66
92 93 67
95 98 70
87 90 65
104 106 75
94 96 66
93 95 65
87 92 68
105 108 77
99 103 75
105 108 76
109 111 76
109 111 75
115 117 79
116 118 81
119 121 83
119 121 79
124 124 84
120 120 80
134 134 89
133 133 87
137 136 88
131 131 80
134 134 87
133 132 86
139 138 90
139 137 86
139 138 87
143 140 87
140 139 88
145 143 90
154 151 97
157 154 94
153 151 97
152 148 92
150 147 90
159 156 93
155 151 91
159 155 96
155 151 89
157 153 93
158 153 92
161 156 97
156 152 91
159 155 93
167 162 97
161 157 94
168 163 99
165 161 93
169 163 99
165 160 96
170 165 100
164 159 95
166 161 93
166 162 97
172 167 99
166 160 94
169 164 96
172 166 99
168 163 96
167 162 96
173 167 97
174 167 99
170 165 100
170 164 96
169 163 98
172 166 97
169 164 99
168 164 91
175 168 100
173 168 97
173 167 97
170 164 98
170 165 93
168 163 96
172 166 94
171 165 96
177 170 100
168 163 96
173 167 95
175 168 95
175 169 98
172 166 96
171 164 95
173 166 98
174 168 101
173 166 87
173 167 97
173 167 96
169 162 92
169 163 95
169 164 92
173 166 97
166 160 93
170 164 97
173 165 94
168 161 90
170 163 94
172 165 99
167 160 91
167 162 92
168 162 93
170 164 92
168 162 95
163 157 84
171 164 97
170 163 97
165 159 92
164 158 92
166 159 90
165 159 90
166 158 87
172 165 96
172 165 96
168 161 90
164 158 88
168 162 92
164 159 91
160 156 87
163 158 83
163 156 90
158 152 85
162 156 90
160 153 87
167 160 93
158 151 86
157 151 87
161 156 84
160 155 82
161 155 84
156 150 87
162 157 90
160 154 93
160 154 87
160 153 86
153 147 80
156 151 80
161 154 90
156 150 85
158 153 85
161 156 90
161 154 90
163 156 84
191 207 228
191 207 228
191 207 228
192 207 228
192 207 228
191 207 228
191 207 228
190 207 228
191 207 228
190 206 228
191 207 228
190 206 228
190 206 228
189 206 228
190 206 228
190 206 228
189 206 228
190 206 228
189 206 228
189 206 228
190 206 228
191 207 228
189 206 228
189 206 228
189 206 228
189 206 228
189 206 228
190 206 228
190 206 228
189 206 228
189 206 228
189 206 228
189 206 228
189 205 228
190 206 228
189 206 228
187 205 228
187 205 228
188 205 228
188 205 228
188 205 228
188 205 228
190 206 228
190 206 228
189 205 228
187 205 228
189 206 228
188 205 228
188 205 228
188 205 228
187 205 228
188 205 228
188 205 228
188 205 228
187 205 228
187 205 228
187 205 228
187 205 228
187 205 228
187 204 228
187 205 228
187 204 228
187 205 228
188 205 228
187 204 228
188 205 228
187 205 228
185 204 228
186 204 228
186 204 228
188 205 228
186 204 228
186 204 228
186 204 228
186 204 228
186 204 228
186 204 228
186 204 228
186 204 228
185 204 228
185 204 228
186 204 228
186 204 228
186 204 228
186 204 228
186 204 228
186 204 228
186 204 228
185 204 228
185 203 228
184 203 228
184 203 228
185 203 228
184 203 228
186 204 228
185 204 228
185 204 228
185 204 228
185 204 228
186 204 228
184 203 228
184 203 228
184 203 228
184 203 228
185 203 228
186 204 228
185 204 228
185 203 228
184 203 228
182 201 225
179 197 223
171 189 216
172 191 217
173 192 218
161 180 208
157 177 209
156 175 203
147 168 199
142 163 198
135 156 194
130 151 189
116 138 177
111 133 169
105 128 166
91 115 159
92 116 165
84 108 155
69 95 149
55 85 142
50 80 132
52 83 143
49 80 137
50 80 134
50 81 143
50 81 146
47 75 130
47 76 136
46 75 136
48 77 141
46 75 139
75 96 146
97 117 159
113 132 172
121 139 176
138 155 187
169 184 207
157 169 187
209 225 246
217 233 255
217 233 255
92 115 163
55 87 144
58 91 151
57 91 143
58 92 142
57 90 151
59 94 152
59 94 140
58 92 138
60 95 147
60 94 149
59 93 139
58 93 143
60 95 148
60 95 149
59 94 144
60 95 146
60 95 140
61 96 152
59 93 140
61 97 156
60 94 140
61 96 149
61 96 146
60 95 137
60 95 139
60 95 138
60 95 139
60 95 146
60 95 145
61 96 146
61 96 144
59 94 133
60 94 141
60 95 139
60 95 136
60 95 140
62 98 160
61 96 151
62 97 147
61 97 144
62 97 151
60 94 140
60 95 143
61 96 151
61 96 151
60 95 144
61 96 137
62 97 152
60 95 138
61 97 150
61 97 154
61 95 144
61 96 145
61 96 154
61 96 153
60 95 139
60 94 143
61 96 149
60 95 139
61 95 135
60 95 140
59 93 137
61 95 140
60 95 141
61 96 149
61 95 146
61 95 148
62 96 147
59 93 132
61 95 141
61 96 143
61 96 147
61 96 145
60 93 143
59 94 145
61 96 147
60 95 148
61 95 143
61 96 148
59 93 137
60 94 142
60 95 139
61 95 145
59 93 141
59 92 138
60 94 145
60 94 141
59 91 143
59 92 138
59 93 144
57 89 132
57 89 136
58 90 141
58 90 136
54 84 124
55 86 133
56 87 139
51 78 111
90 111 149
217 233 255
217 233 255
199 213 232
112 110 70
93 92 63
107 106 69
98 99 68
86 88 63
90 93 66
91 94 66
92 96 70
83 86 61
93 97 70
84 89 66
84 89 67
112 113 78
94 98 70
103 106 74
101 104 74
97 99 67
107 108 74
112 113 76
119 119 80
108 111 74
130 130 87
124 124 83
130 129 83
120 120 79
138 137 89
125 124 80
131 130 85
131 131 85
135 134 85
138 136 86
144 143 89
145 142 90
145 143 94
148 146 91
155 150 92
149 146 91
156 153 96
151 148 92
157 153 91
152 149 90
158 154 91
147 144 84
151 147 87
162 158 97
149 147 93
156 153 91
160 156 91
165 160 99
163 158 91
161 157 93
164 159 98
164 159 96
163 159 91
167 162 96
167 162 99
170 164 99
169 164 95
165 160 93
170 163 98
167 162 93
170 165 101
168 162 98
172 166 97
167 162 93
173 167 100
163 160 90
170 164 91
168 162 91
174 168 102
172 167 100
167 161 93
175 169 102
170 164 98
176 169 101
172 166 96
174 168 98
170 164 93
173 168 102
173 167 93
175 168 99
168 163 93
171 166 97
172 166 99
175 166 98
171 165 97
174 168 99
169 163 90
172 166 98
176 170 99
174 168 97
173 167 98
174 167 99
167 161 90
173 167 99
172 166 99
172 166 93
171 164 94
169 163 93
169 163 92
174 167 95
171 164 90
164 158 89
171 164 94
167 160 92
170 163 93
167 162 98
168 162 93
170 163 94
167 161 93
164 158 92
172 166 91
165 159 92
171 165 96
167 161 91
163 158 92
168 162 91
171 165 97
169 162 89
163 157 85
166 159 88
169 163 90
168 163 95
158 153 85
164 158 89
158 152 82
163 157 87
168 162 96
162 155 87
166 159 93
163 157 87
161 154 83
165 159 90
165 159 90
161 155 82
164 158 92
162 156 84
161 155 87
163 156 90
162 155 90
154 148 80
153 148 81
157 151 88
153 147 84
145 141 78
157 152 87
147 141 82
192 207 228
191 207 228
192 207 228
192 207 228
191 207 228
191 207 228
191 207 228
191 207 228
190 207 228
190 206 228
191 207 228
190 206 228
191 207 228
190 206 228
191 207 228
192 207 228
191 207 228
191 207 228
190 206 228
191 207 228
190 207 228
190 206 228
190 206 228
190 206 228
190 206 228
190 206 228
190 206 228
189 206 228
190 206 228
189 206 228
189 206 228
189 206 228
191 207 228
190 206 228
190 206 228
189 206 228
189 205 228
190 206 228
190 206 228
188 205 228
189 205 228
189 206 228
189 206 228
189 206 228
189 206 228
189 205 228
189 205 228
190 206 228
188 205 228
190 206 228
189 206 228
189 206 228
187 205 228
189 205 228
189 206 228
188 205 228
187 205 228
188 205 228
189 206 228
188 205 228
189 206 228
188 205 228
188 205 228
187 205 228
188 205 228
187 205 228
188 205 228
188 205 228
188 205 228
187 204 228
187 205 228
187 204 228
187 205 228
188 205 228
186 204 228
186 204 228
187 205 228
187 205 228
187 204 228
187 205 228
187 205 228
188 205 228
187 204 228
186 204 228
186 204 228
186 204 228
187 204 228
187 204 228
187 205 228
187 205 228
186 204 228
186 204 228
187 204 228
187 205 228
186 204 228
187 205 228
186 204 228
186 204 228
185 204 228
186 204 228
186 204 228
186 204 228
185 204 228
186 204 228
185 203 228
186 204 228
185 204 228
185 204 228
186 204 227
185 202 226
179 196 219
171 189 215
173 191 214
166 185 211
167 186 213
155 173 201
147 167 198
139 159 193
151 171 203
130 151 188
124 145 182
117 139 179
111 134 170
95 118 164
79 105 157
64 91 139
62 90 138
51 82 133
51 82 143
50 80 139
50 80 131
47 76 122
50 80 133
48 78 136
48 77 130
47 76 132
47 76 132
47 75 132
47 76 137
46 74 135
41 67 126
72 94 145
98 116 155
125 142 177
147 164 194
156 171 196
166 180 199
180 195 212
218 234 255
198 214 239
52 83 136
55 87 128
55 88 135
56 89 138
57 91 139
58 92 144
59 94 147
58 93 150
59 94 145
58 92 144
59 94 146
61 96 153
61 96 157
59 94 145
59 93 134
59 94 141
60 95 138
60 95 139
60 96 145
60 95 145
60 95 145
60 95 146
62 98 156
61 96 149
61 96 151
59 93 142
61 96 148
60 95 141
61 96 154
61 96 142
61 95 146
61 96 149
60 95 144
61 96 144
61 96 140
60 95 142
59 94 144
61 96 143
60 95 143
59 94 131
60 95 140
60 95 137
61 96 143
60 95 137
61 96 145
61 96 145
61 96 145
61 96 144
60 95 147
60 95 142
61 96 149
60 95 143
62 97 149
61 96 152
60 95 147
60 95 143
62 97 147
61 96 145
62 97 149
62 97 150
60 94 140
61 96 150
57 91 133
59 93 131
61 96 150
60 95 146
60 94 139
60 95 139
60 94 145
60 95 138
60 94 142
61 95 144
60 94 141
59 93 140
60 95 142
59 94 146
60 94 144
61 95 151
60 94 137
59 92 130
58 93 137
59 93 129
59 93 138
59 92 132
58 91 142
58 91 135
60 94 152
59 93 144
58 91 128
59 93 138
58 91 143
58 91 134
58 91 141
59 92 144
59 91 140
58 91 139
54 84 125
57 88 132
54 83 121
51 79 118
198 213 235
218 234 255
176 186 191
112 111 68
85 84 54
84 85 59
84 85 60
82 84 59
75 79 58
79 83 62
86 89 62
101 104 74
80 83 60
81 85 63
87 91 64
106 108 75
108 109 74
110 113 78
95 99 65
113 115 76
106 107 74
112 114 77
124 124 81
127 127 83
113 115 79
118 119 78
132 131 86
131 131 84
129 128 84
130 130 84
136 134 86
142 140 91
135 135 86
143 141 90
145 143 93
135 135 84
141 139 86
146 144 91
140 138 83
142 139 81
150 149 94
151 148 89
156 152 96
153 149 89
158 154 94
145 144 86
147 145 86
164 159 95
165 160 94
158 155 93
162 158 94
165 160 97
161 157 94
164 160 96
156 152 91
161 157 96
165 161 95
164 160 95
172 165 99
162 157 91
166 161 95
163 157 92
163 159 86
169 163 95
170 164 94
169 164 100
167 161 94
168 163 92
172 165 98
172 165 95
171 165 96
168 162 94
172 166 96
169 164 94
172 166 91
167 162 90
172 166 95
172 165 97
171 165 95
169 163 90
175 168 98
170 163 91
176 169 101
171 166 96
173 167 97
172 166 95
175 168 102
173 166 99
168 162 91
172 165 95
171 165 94
173 167 95
174 168 97
173 166 96
174 168 98
175 168 98
168 163 93
167 161 90
169 163 90
168 162 86
167 161 88
167 160 90
165 159 92
167 160 86
168 163 87
171 163 92
170 164 97
166 160 84
170 164 95
167 161 90
171 164 92
170 164 93
166 161 87
164 159 86
164 158 87
166 159 90
171 164 96
162 157 90
165 158 82
163 158 89
167 160 91
164 158 90
164 158 95
163 158 87
160 154 87
169 162 91
159 154 85
155 150 84
160 154 86
162 156 87
158 152 87
164 158 90
166 160 94
161 156 84
161 155 87
160 155 87
155 150 79
161 155 88
165 159 89
154 149 80
159 152 78
159 154 80
159 152 80
155 150 85
161 155 88
157 151 81
153 148 82
158 152 84
161 155 92
156 150 81
192 207 226
191 207 225
190 206 223
192 207 227
192 207 228
190 206 226
192 207 228
191 207 226
191 207 228
192 207 228
192 207 227
192 207 228
191 207 228
191 207 228
192 208 228
191 207 228
191 207 228
191 207 228
191 207 228
191 207 228
191 207 228
191 207 228
192 207 228
191 207 228
191 207 228
191 207 228
190 206 228
192 207 228
191 207 228
190 206 228
189 206 228
189 206 228
190 206 228
191 207 228
190 206 228
190 206 228
190 206 228
190 206 228
189 206 228
190 206 228
190 206 228
189 205 228
189 206 228
190 206 228
189 206 228
189 205 228
189 206 228
189 206 228
190 207 228
190 206 228
190 206 228
189 205 228
189 206 228
189 206 228
190 206 228
189 206 228
189 206 228
189 206 228
189 206 228
188 205 228
188 205 228
189 206 228
188 205 228
188 205 228
189 206 228
188 205 228
188 205 228
189 206 228
190 206 228
188 205 228
189 206 228
189 205 228
189 206 228
188 205 228
188 205 228
188 205 228
188 205 228
188 205 228
187 205 228
187 205 228
188 205 228
188 205 228
188 205 228
187 205 228
187 205 228
187 205 228
187 205 228
188 205 228
188 205 228
186 204 228
187 205 228
188 205 228
188 205 228
187 205 228
187 205 228
187 205 228
187 205 228
186 204 228
187 204 228
188 205 228
187 204 228
187 204 228
186 204 228
187 204 228
186 204 228
186 204 228
187 205 228
186 203 227
183 200 221
183 201 224
179 197 219
172 190 215
166 185 210
160 177 203
153 172 199
154 173 203
153 172 201
151 170 198
146 165 194
129 150 185
131 152 184
108 130 170
93 117 159
74 100 148
88 112 157
60 89 141
55 85 137
50 81 127
53 84 143
50 80 134
50 80 135
50 79 133
49 78 135
49 78 135
50 80 138
47 76 134
45 73 126
45 73 129
42 68 122
40 65 120
43 70 129
54 79 135
74 95 146
99 116 156
123 139 171
145 161 189
164 178 196
171 185 198
218 234 255
182 199 225
56 89 152
56 89 143
57 91 144
58 92 146
59 93 146
57 91 140
60 95 148
59 93 146
57 91 130
58 93 140
59 93 142
59 93 140
58 92 139
61 96 151
60 94 138
60 95 141
61 96 148
61 96 146
61 96 149
60 94 144
61 96 154
59 93 134
60 95 138
61 96 149
60 95 141
61 97 151
59 94 137
60 95 141
62 97 156
60 95 143
60 95 141
60 96 144
61 96 152
60 95 143
59 94 140
61 96 143
60 95 141
60 95 139
60 95 137
61 96 145
61 96 140
60 95 143
59 94 143
62 98 154
61 96 146
61 95 143
61 96 148
60 94 135
61 96 142
60 95 142
60 96 148
60 96 141
62 97 148
61 96 150
60 95 140
60 95 133
60 95 144
61 96 148
62 97 152
60 95 140
61 96 145
61 96 141
60 95 145
59 93 133
61 96 154
60 94 138
62 96 151
60 94 141
60 94 140
61 96 150
60 94 140
60 94 139
60 94 142
60 94 141
60 95 149
60 95 142
60 95 149
60 95 146
60 95 143
58 93 129
60 94 148
60 94 138
60 94 145
61 96 151
57 91 136
60 93 140
58 91 129
57 89 134
57 89 127
58 91 129
57 89 132
57 89 129
59 91 136
58 90 138
58 90 143
55 85 120
57 89 122
56 85 125
54 83 120
53 81 113
182 197 218
218 234 255
129 130 107
86 88 59
96 95 64
73 75 52
82 84 58
71 74 54
66 69 48
64 69 51
91 94 65
86 91 65
79 84 61
82 86 59
91 94 67
95 98 69
88 92 66
102 105 74
109 110 75
113 115 79
100 104 70
117 118 80
112 114 75
123 124 84
114 117 78
127 126 82
121 121 77
124 124 82
132 132 87
123 125 79
140 138 88
134 134 86
137 135 85
141 139 89
142 141 87
144 141 90
144 142 86
141 138 81
149 147 93
142 141 87
158 152 90
145 142 85
149 147 90
149 146 86
145 143 83
158 154 90
157 153 93
158 155 95
159 155 92
166 161 94
160 155 92
163 159 97
164 159 92
160 155 89
168 163 100
162 158 96
163 159 90
168 163 93
166 160 93
170 164 94
168 163 93
166 161 94
165 160 87
166 161 96
167 162 91
167 161 94
165 160 94
171 165 97
170 164 94
174 168 100
170 163 96
172 166 97
171 165 93
174 167 96
172 165 94
170 165 91
173 167 99
173 166 95
165 159 87
174 167 98
172 166 97
170 165 97
170 164 93
173 167 98
169 162 96
170 164 94
172 166 98
171 166 94
167 162 93
169 163 93
171 165 90
169 164 91
176 169 101
170 164 95
172 166 96
167 162 94
174 167 95
174 167 95
165 160 87
175 168 97
162 156 81
171 165 94
171 164 93
169 162 91
166 161 89
163 157 86
167 161 87
169 163 93
169 162 92
170 164 93
162 157 86
171 164 91
170 164 91
168 162 94
169 163 93
168 162 91
160 155 84
163 158 87
162 157 90
168 161 89
172 166 100
167 161 86
170 164 93
161 154 85
168 162 92
165 160 90
168 162 90
164 157 87
162 156 86
167 161 93
161 156 88
167 160 90
158 153 82
165 159 90
156 152 84
165 158 90
156 150 78
164 158 92
164 158 87
163 157 87
164 157 87
153 147 81
158 152 82
162 155 87
161 155 87
157 151 84
155 149 81
164 158 90
159 153 84
156 150 81
191 206 224
189 205 218
192 207 224
190 206 221
191 206 224
189 205 220
191 207 225
192 207 228
192 207 225
190 206 221
192 207 226
191 207 227
192 207 227
192 207 228
191 207 226
191 207 227
191 207 227
191 207 227
192 207 227
192 207 228
191 207 228
192 207 228
191 207 228
191 207 227
192 207 228
191 207 228
191 207 228
190 206 228
191 207 228
191 207 228
191 207 228
191 207 228
191 207 228
192 207 228
191 207 228
190 206 228
191 207 228
191 207 228
191 207 228
192 207 228
190 206 228
190 206 228
190 206 228
191 207 228
191 207 228
190 206 228
190 206 228
189 206 228
190 206 228
190 206 228
190 206 228
189 206 228
189 206 228
190 206 228
189 206 228
189 206 228
190 206 228
190 206 228
190 206 228
190 206 228
189 206 228
190 206 228
189 206 228
190 206 228
190 206 228
189 206 228
189 206 228
189 205 228
190 206 228
189 206 228
190 206 228
190 206 228
189 206 228
189 206 228
189 205 228
189 206 228
189 206 228
188 205 228
188 205 228
189 206 228
188 205 228
188 205 228
189 205 228
190 206 228
189 206 228
189 206 228
189 206 228
188 205 228
187 205 228
188 205 228
188 205 228
188 205 228
189 206 228
189 206 228
188 205 228
188 205 228
188 205 228
188 205 228
188 205 228
188 205 228
188 205 228
187 205 228
189 205 228
188 205 228
187 205 228
188 205 228
188 205 228
184 201 224
183 200 221
178 195 219
178 196 219
171 187 210
166 183 207
162 180 207
157 176 205
159 177 202
146 164 191
133 152 184
135 154 185
122 143 177
122 142 176
104 126 167
88 112 149
86 110 155
70 96 141
58 86 129
52 82 131
51 82 129
51 81 130
50 80 137
50 80 131
48 76 128
49 78 138
48 77 128
48 78 134
45 73 127
46 74 130
45 72 126
45 73 129
40 65 118
42 68 123
41 66 119
59 82 135
83 100 142
117 133 167
139 154 184
164 179 198
157 169 183
217 232 254
141 158 191
56 89 142
56 89 142
56 89 141
57 91 141
58 92 137
57 91 144
57 91 131
58 93 145
60 95 149
59 93 147
60 94 145
59 94 135
60 94 150
59 94 145
59 93 142
59 93 142
60 94 131
60 95 140
60 95 147
61 96 150
60 94 133
61 96 146
61 96 150
60 95 143
61 97 152
60 94 142
61 96 143
59 93 137
61 95 145
59 94 132
61 96 148
59 93 137
60 94 136
60 95 136
60 95 141
61 97 156
61 96 144
60 95 144
61 96 149
59 94 139
60 95 137
60 95 141
61 96 144
61 96 145
61 96 147
61 96 147
60 95 144
59 94 136
59 94 137
60 95 142
61 96 143
60 95 141
60 95 138
61 96 148
62 97 151
61 96 147
61 95 140
62 98 150
61 96 150
60 95 143
62 98 152
60 94 144
61 96 149
59 93 139
61 96 143
60 95 140
60 94 134
60 94 140
59 93 134
60 93 138
60 94 143
59 93 141
61 95 146
60 95 140
59 93 135
60 95 146
61 96 149
60 94 144
61 94 140
59 93 139
59 92 136
59 92 137
60 94 147
59 93 142
60 94 140
60 94 143
59 93 135
58 91 136
58 90 140
60 93 142
58 91 134
57 89 130
57 89 135
59 90 130
57 88 128
56 87 124
57 88 137
55 84 119
51 78 110
52 80 120
145 161 184
212 227 248
103 103 75
86 86 57
97 98 65
79 79 53
78 80 57
79 83 58
60 66 48
85 88 61
82 84 57
72 76 55
81 86 63
84 87 61
88 92 62
90 95 67
92 95 65
97 100 67
101 104 73
100 104 68
110 112 76
110 113 76
112 114 77
116 117 78
120 120 76
106 108 72
135 134 85
123 123 77
145 142 90
130 128 79
143 140 90
131 130 81
135 134 80
145 142 89
151 148 93
135 134 79
144 142 86
149 145 89
143 141 89
148 145 90
155 151 94
146 144 89
151 147 87
156 152 89
159 155 95
155 151 93
157 152 93
159 155 92
164 159 94
155 151 85
157 154 93
164 158 91
158 154 90
171 165 97
160 156 92
160 156 89
165 159 96
155 151 90
166 161 92
171 166 99
160 156 90
168 162 91
169 163 95
169 164 96
169 164 95
169 163 95
167 162 93
168 162 89
171 165 91
167 161 87
171 165 95
167 162 90
171 165 94
169 163 91
171 166 95
174 166 98
171 165 92
173 167 97
169 163 95
172 166 96
172 165 97
171 165 89
168 162 88
173 166 90
167 162 91
167 161 86
173 166 93
168 163 90
174 167 93
175 168 95
169 164 90
166 160 91
170 164 93
170 164 93
170 164 91
170 164 95
171 165 92
164 159 86
170 164 87
168 163 93
172 166 97
168 161 93
163 158 90
171 166 93
166 160 89
168 162 92
166 160 84
169 163 91
170 164 95
169 162 90
169 162 93
172 166 93
166 159 88
167 161 91
167 160 92
166 160 90
169 163 91
166 161 92
166 160 87
160 154 87
171 164 97
166 160 90
162 157 88
167 160 91
169 161 93
166 159 90
163 157 84
166 160 88
164 158 91
161 155 84
161 154 84
157 150 84
162 155 84
158 153 88
164 158 87
162 155 90
163 157 86
160 153 88
158 152 84
158 152 87
166 159 90
162 157 88
165 159 89
163 157 93
162 155 87
165 158 90
158 151 82
152 146 82
159 153 84
161 155 88
190 205 220
190 206 224
189 205 218
191 207 225
190 205 220
189 205 220
189 205 219
190 206 223
189 205 218
189 205 218
190 206 225
190 206 223
190 206 224
191 207 225
192 207 223
191 207 224
191 207 226
190 206 224
191 206 224
192 207 227
191 207 225
192 207 226
191 207 225
192 207 228
189 205 223
190 206 223
191 207 226
192 207 228
192 207 227
192 207 228
191 207 227
190 206 223
191 207 227
192 207 228
192 207 228
191 207 228
191 207 228
191 207 226
191 207 228
192 207 228
191 207 228
191 207 227
191 207 228
191 207 228
191 207 228
191 207 228
191 207 228
191 207 228
191 207 228
191 207 228
191 207 228
190 206 228
190 206 228
190 206 228
191 207 228
191 207 228
191 207 228
191 207 228
191 207 228
192 207 228
190 206 228
191 207 228
190 206 228
190 206 228
189 206 228
190 206 228
190 206 228
190 206 228
191 207 228
190 206 228
190 206 228
190 206 228
189 206 228
191 207 228
189 206 228
190 206 228
190 206 228
190 206 228
188 205 228
190 206 228
190 206 228
190 206 228
189 206 228
189 206 228
190 206 228
190 206 228
190 206 228
190 206 228
190 206 228
187 205 228
189 206 228
189 205 228
189 206 228
189 205 228
189 206 228
189 206 228
189 205 228
189 206 228
188 205 228
188 205 228
189 205 228
188 205 228
188 205 228
189 206 228
189 206 228
189 205 228
188 205 228
186 202 221
182 198 217
176 192 211
177 194 217
169 184 205
170 188 210
163 180 202
154 173 198
153 170 196
147 165 191
127 146 180
136 156 190
117 138 172
110 131 162
100 122 160
88 112 154
81 106 142
62 89 135
52 82 133
51 80 127
51 82 131
50 80 125
49 79 128
49 79 134
48 77 126
48 77 129
49 78 134
45 72 123
47 74 125
47 75 126
46 74 127
41 67 122
40 66 118
43 69 124
39 64 121
40 65 119
60 80 126
100 117 153
138 153 181
148 163 184
160 174 186
202 217 236
104 123 159
53 84 135
55 88 141
54 87 134
56 89 140
59 93 150
58 92 141
58 91 132
59 93 141
58 92 139
60 94 146
59 93 135
59 93 142
60 94 147
60 94 143
60 95 144
60 94 147
59 93 146
62 97 147
61 95 142
59 93 141
61 96 151
60 95 139
60 95 140
59 93 135
60 95 142
59 92 140
60 94 135
60 95 148
60 95 141
60 95 147
61 96 145
60 94 141
61 96 144
60 95 144
59 93 127
60 95 145
60 95 145
59 94 129
61 96 145
60 95 144
60 95 148
59 93 135
61 96 149
60 94 139
61 96 142
61 96 143
61 96 148
62 97 147
62 98 155
61 96 147
60 94 135
60 95 139
60 95 145
61 96 149
60 95 136
60 95 141
60 94 143
62 97 155
59 93 135
60 95 144
60 95 139
61 96 139
61 96 145
61 95 145
60 94 135
62 98 153
61 96 148
60 94 140
59 93 133
61 96 139
61 96 147
58 91 130
60 95 138
61 96 153
60 94 136
61 95 142
59 93 146
60 94 139
60 94 137
59 92 133
59 93 137
59 93 137
59 91 134
59 92 134
59 93 133
59 92 133
58 91 134
60 93 140
58 92 138
59 91 130
58 90 131
56 88 127
59 91 140
58 91 142
57 88 132
56 86 135
55 85 127
56 86 122
52 79 113
53 81 109
119 136 157
204 217 233
100 98 65
90 90 59
79 80 54
85 86 60
73 75 53
73 76 55
68 73 54
67 73 54
63 69 51
82 87 63
82 85 62
80 85 61
82 87 61
99 101 71
94 97 67
89 93 64
101 104 70
104 106 69
98 101 70
118 119 77
107 110 75
109 111 70
112 113 74
117 118 76
130 129 83
123 124 76
130 129 80
140 138 84
129 129 79
147 145 86
139 137 86
133 131 82
131 130 77
137 136 81
149 146 92
144 140 86
141 139 83
148 145 90
161 156 93
152 148 87
158 155 92
156 152 91
159 155 88
154 150 89
155 151 89
155 152 85
160 156 92
162 157 94
160 156 90
161 156 92
164 159 97
162 158 93
163 158 90
165 160 94
158 154 88
166 161 95
164 159 93
167 162 96
165 160 93
167 161 92
164 159 90
170 165 97
171 165 94
169 163 96
171 166 94
164 160 90
167 162 90
166 161 87
169 163 94
169 163 95
170 164 91
171 164 93
171 165 94
169 163 91
173 166 94
174 167 95
171 164 89
168 162 91
170 163 89
175 167 96
169 163 92
169 164 95
169 162 87
165 160 91
175 168 94
169 163 89
171 165 92
174 167 94
170 164 95
172 165 94
170 164 88
171 164 96
169 164 87
173 166 93
168 163 90
173 166 92
170 163 89
168 162 92
164 158 86
171 164 93
166 160 87
167 162 87
168 163 90
168 162 90
167 160 89
163 157 90
169 161 91
168 161 84
171 163 93
169 162 90
166 160 87
169 163 90
162 157 86
160 154 84
169 162 90
169 163 91
167 160 87
165 158 81
165 159 90
165 159 90
166 160 87
173 164 95
159 153 83
166 159 92
162 157 86
163 157 84
164 158 84
170 163 91
161 155 87
163 157 85
159 152 85
165 158 91
163 157 87
163 156 85
164 158 88
157 152 88
156 151 79
159 153 85
161 154 83
164 157 89
167 160 90
157 151 81
157 151 82
152 147 79
159 152 85
166 159 84
158 151 82
154 148 81
189 205 217
189 205 217
189 205 218
191 206 220
189 204 213
187 203 212
189 205 216
189 204 217
191 206 220
190 205 220
189 205 217
190 206 219
192 207 226
188 204 212
190 205 221
189 205 219
189 205 216
190 205 220
190 205 216
190 205 221
190 205 219
190 206 221
190 205 220
191 206 224
191 207 226
189 205 218
191 207 225
189 205 218
191 206 221
192 207 228
191 206 224
190 206 223
192 207 228
190 206 221
191 207 226
192 207 228
192 207 226
191 207 227
190 206 225
191 206 225
190 206 227
191 207 226
191 207 226
190 206 223
192 207 227
191 206 225
191 206 225
191 207 227
192 207 227
191 207 227
192 207 228
190 206 226
191 207 228
193 208 228
191 207 227
192 208 228
192 207 227
190 206 227
192 207 228
192 207 228
191 207 228
192 207 228
192 207 228
191 207 228
191 207 228
190 206 228
191 207 228
191 207 228
191 207 228
191 207 228
190 206 228
191 207 228
191 207 228
191 207 228
190 206 228
192 207 228
190 207 228
191 207 228
189 206 228
190 207 228
189 206 228
191 207 228
191 207 228
189 206 228
190 206 228
190 206 228
190 206 228
190 206 228
190 206 228
190 206 228
191 207 228
190 206 228
191 207 228
190 206 228
190 206 228
189 206 228
190 206 228
189 206 228
190 206 228
189 206 228
189 206 228
189 206 228
191 207 228
189 206 228
190 206 228
190 206 228
188 205 226
185 200 218
182 198 217
183 198 217
176 191 211
168 184 208
163 180 206
156 173 194
162 178 200
148 166 193
148 166 196
133 152 182
119 139 173
126 146 179
115 134 165
108 128 160
93 115 151
62 90 133
59 89 144
53 84 133
52 83 134
50 79 123
49 78 128
49 78 131
49 78 129
47 75 112
49 78 131
46 73 119
47 75 125
46 73 127
43 70 120
43 70 120
42 69 120
43 69 119
39 64 116
36 59 113
36 60 113
42 64 114
79 95 135
113 128 160
137 152 173
156 170 180
184 198 214
76 100 148
56 89 145
55 88 140
56 89 138
57 90 143
58 93 140
59 93 142
58 92 141
58 91 134
59 93 146
57 91 131
60 94 142
59 93 139
60 94 143
59 93 142
59 94 141
59 94 140
59 94 143
61 96 148
59 94 137
61 96 144
60 95 150
60 95 143
59 94 132
61 96 143
62 97 147
59 93 135
59 93 135
60 94 139
59 93 131
61 95 140
60 95 147
59 93 131
60 94 139
62 97 153
60 95 135
60 94 145
60 95 145
62 97 149
61 96 143
60 95 138
60 96 143
60 95 137
59 94 134
60 94 135
60 95 143
60 95 142
60 95 140
61 95 147
60 95 139
60 94 131
61 96 142
60 96 140
60 95 139
60 95 139
61 95 142
60 95 133
60 95 139
60 95 134
60 95 143
60 95 147
59 93 135
60 94 147
60 95 141
60 94 144
61 96 144
60 95 139
60 94 142
58 92 139
60 94 140
58 92 136
59 93 134
60 94 139
59 93 137
61 96 156
60 94 141
62 96 156
60 95 141
59 92 136
59 93 135
60 94 139
59 92 129
60 94 138
59 93 130
58 91 134
60 93 133
60 94 141
59 93 141
58 91 133
57 90 132
58 90 129
58 90 137
58 89 127
58 90 126
56 87 130
54 85 124
54 85 121
58 90 138
53 83 123
53 82 122
53 81 118
61 84 116
172 180 182
97 96 62
96 94 61
86 85 59
75 76 52
57 61 45
77 80 59
69 72 50
67 72 52
63 67 49
66 71 51
72 78 56
82 85 60
88 92 65
82 86 61
79 84 59
102 105 71
104 105 68
103 104 69
100 103 71
113 115 78
114 114 72
121 122 80
109 110 73
119 119 76
126 126 78
123 124 79
126 126 82
129 129 79
136 134 87
129 129 85
136 135 82
138 137 81
141 140 85
131 130 80
145 143 84
140 138 80
146 143 82
150 147 86
149 146 84
148 144 83
150 147 85
156 152 94
160 156 93
158 154 91
158 154 92
155 152 89
156 152 88
156 154 93
154 151 88
160 155 90
158 154 90
162 158 90
162 158 94
158 154 84
166 161 91
166 161 90
161 156 86
164 160 94
164 160 90
164 160 89
168 163 94
165 159 89
167 162 89
169 164 91
164 159 93
164 160 92
168 163 98
167 162 93
168 163 88
172 166 95
169 164 93
169 164 96
173 167 97
169 163 89
166 160 91
170 164 93
167 161 87
169 163 86
171 164 92
170 164 84
172 166 90
171 165 93
170 164 93
171 165 90
172 165 95
169 163 89
170 163 91
170 164 93
170 164 91
169 164 85
170 164 91
166 162 90
165 159 87
172 165 92
168 162 84
171 165 90
170 163 93
170 163 86
175 168 95
165 159 85
173 166 92
166 160 85
170 163 90
171 165 91
168 161 88
170 163 87
167 160 83
168 162 87
164 158 89
171 165 91
166 159 87
166 160 87
168 161 88
163 158 84
165 158 89
171 165 91
169 162 89
162 157 83
170 163 90
164 157 90
161 155 80
170 163 87
157 152 82
163 157 87
163 157 90
163 157 84
166 159 88
164 158 87
158 153 79
156 152 80
168 162 91
160 153 90
162 156 87
161 154 84
160 154 85
161 155 87
158 152 87
158 151 84
160 155 81
154 149 78
165 159 85
156 150 80
159 153 84
163 155 82
153 148 77
159 152 80
158 151 85
152 145 75
189 205 216
191 206 219
189 205 218
190 205 217
189 205 213
188 204 212
190 205 218
191 206 219
189 204 213
189 204 214
190 205 217
189 205 219
188 204 214
190 205 216
188 204 213
191 206 221
190 206 220
190 206 220
191 206 219
189 205 217
191 206 224
190 205 219
190 206 221
190 205 218
189 204 214
191 206 225
189 205 219
191 206 221
189 205 218
189 205 219
190 206 221
192 207 225
190 205 220
190 205 218
191 206 220
189 205 218
190 206 220
192 207 224
192 207 223
192 207 227
191 206 223
190 205 221
192 207 227
191 206 223
190 206 223
192 207 226
189 205 220
190 206 225
190 206 220
191 206 225
190 206 224
189 205 219
189 205 221
190 206 220
190 206 225
190 206 223
189 205 219
191 207 226
191 206 224
191 206 224
191 207 226
191 206 226
190 205 220
191 206 226
191 207 228
191 207 226
191 206 226
190 206 227
191 207 227
190 206 225
191 206 225
193 208 228
192 207 227
191 207 228
191 206 226
192 207 228
191 207 227
192 207 228
192 207 227
191 207 228
191 207 226
191 207 228
190 206 227
191 207 226
192 207 228
191 207 228
191 207 228
190 206 228
191 207 228
191 207 228
191 207 228
191 207 228
191 207 228
190 206 228
192 207 228
192 207 228
191 207 228
191 207 228
191 207 227
191 207 228
191 207 228
192 207 228
190 206 228
190 207 228
190 206 228
191 207 228
190 206 226
184 198 217
184 199 218
181 197 219
172 189 211
173 189 211
159 174 192
159 175 198
151 168 192
160 177 205
148 165 188
144 162 188
129 147 173
118 137 165
115 135 163
96 118 150
65 93 143
70 95 131
53 83 125
50 80 118
50 80 130
50 80 131
49 78 127
49 78 129
49 78 130
48 77 124
48 77 128
46 74 123
48 76 132
46 74 120
44 72 124
42 68 111
39 64 109
41 67 119
38 62 114
38 63 110
37 61 111
33 55 101
59 74 111
99 114 146
134 148 170
148 162 170
166 181 187
52 83 129
54 87 142
54 86 143
55 88 127
56 90 140
57 91 135
57 91 135
59 93 144
58 93 137
58 92 140
59 93 140
59 93 135
58 91 133
60 94 152
59 93 147
59 94 130
59 93 143
60 95 145
59 94 140
58 92 127
60 96 144
61 96 143
60 95 139
60 94 138
60 95 141
60 94 135
60 95 138
60 95 144
60 94 144
60 96 142
60 95 132
58 91 131
61 96 148
60 95 141
60 94 138
60 95 144
61 96 139
61 96 149
60 95 141
59 94 143
60 94 137
60 95 137
61 95 143
59 94 139
60 95 139
59 93 129
60 94 138
60 95 137
61 96 151
62 97 155
61 95 140
60 95 137
61 96 148
59 94 136
59 94 134
61 96 142
61 96 141
61 96 143
60 95 136
60 95 137
61 95 146
59 93 132
60 94 134
61 96 138
60 95 142
60 94 137
59 93 134
61 96 148
60 95 138
59 93 137
60 94 144
59 94 139
60 94 138
61 96 145
60 95 136
59 93 128
60 94 133
59 92 132
58 91 123
59 93 134
61 95 147
61 95 144
59 93 137
58 91 136
58 91 130
59 93 137
60 94 151
59 93 142
57 89 118
57 90 126
58 90 133
59 92 136
59 93 134
58 90 137
56 87 122
58 90 128
55 85 121
55 84 114
56 86 116
55 84 123
53 82 119
49 76 111
144 150 146
90 89 58
74 75 45
80 79 54
68 70 49
67 70 49
71 75 52
63 68 49
68 73 53
78 81 59
64 70 51
75 80 55
81 85 59
83 88 62
93 97 68
99 102 67
94 96 65
94 97 61
114 115 75
112 113 75
108 110 71
110 112 76
111 112 71
109 111 73
127 126 81
126 125 81
127 126 78
127 126 82
135 132 82
135 134 80
133 131 79
138 137 84
144 141 86
143 140 84
131 130 80
141 139 77
136 134 81
145 143 87
147 144 88
148 145 88
152 147 82
157 153 95
154 150 85
155 151 89
156 152 87
154 149 88
162 156 90
154 151 84
163 158 94
159 154 90
158 153 87
152 148 81
157 153 86
164 160 94
155 151 87
164 159 88
162 157 91
170 164 96
165 158 87
164 159 91
169 163 91
165 160 84
168 163 96
163 158 86
173 167 95
167 161 84
161 157 86
165 160 89
167 162 91
168 163 91
170 165 93
169 164 91
169 163 90
169 163 92
169 163 87
166 160 87
169 163 92
171 164 92
169 164 89
162 157 85
170 164 88
169 163 91
173 166 95
172 165 93
169 162 88
173 167 93
167 161 90
172 166 93
172 166 93
171 164 88
171 165 93
171 164 90
171 164 92
166 160 87
174 167 91
175 167 97
170 163 91
173 165 97
171 165 88
166 160 83
169 162 89
171 164 89
167 161 85
170 164 87
170 164 90
167 160 85
170 164 87
164 158 84
168 161 85
169 163 87
166 160 90
168 162 92
170 163 87
167 160 87
172 165 95
164 159 87
166 159 84
166 160 86
167 161 87
165 159 87
161 155 85
171 164 93
169 162 88
167 159 92
167 161 92
162 156 84
165 158 86
159 153 80
162 156 84
163 157 86
159 153 78
164 158 89
158 152 81
161 154 86
167 160 90
158 152 80
166 160 93
162 156 84
162 156 83
161 155 81
160 154 86
155 149 80
164 157 85
161 155 84
157 150 84
160 154 84
158 151 80
163 156 84
155 150 81
187 203 208
189 204 213
187 202 206
188 204 209
189 204 214
188 204 211
189 204 216
187 203 206
187 202 204
188 204 212
188 203 211
189 204 211
188 204 211
190 205 218
188 204 212
190 206 219
189 205 216
190 205 217
189 204 217
187 203 211
189 204 213
188 203 211
189 205 214
190 205 218
188 204 216
191 206 221
190 205 218
187 203 209
189 205 218
189 204 214
190 206 220
189 204 213
192 207 221
187 203 212
189 205 217
189 205 216
189 205 216
188 204 213
189 204 213
191 206 221
190 205 218
189 204 217
190 205 218
187 203 212
189 204 216
188 204 209
189 205 217
190 206 221
189 205 216
187 203 212
189 204 216
189 204 217
190 205 219
191 206 223
189 205 217
189 205 219
190 205 218
190 205 219
190 205 218
191 206 221
189 205 221
189 205 218
188 204 218
189 205 217
190 205 221
190 205 220
190 206 223
192 207 227
189 204 214
190 206 225
190 206 223
190 205 220
190 206 224
191 206 220
189 205 219
191 206 225
189 205 218
190 206 224
190 205 220
192 207 226
189 205 219
190 205 221
190 205 220
190 206 224
191 206 224
191 206 226
190 205 220
190 206 223
190 206 223
193 207 226
191 207 227
190 205 221
190 206 224
189 205 221
190 206 225
193 208 228
192 207 227
191 206 224
191 206 226
191 207 226
191 206 225
191 206 224
189 205 218
191 207 227
189 205 224
189 205 220
186 202 216
186 201 217
182 197 214
182 198 212
175 189 205
175 191 208
165 181 200
164 180 204
156 173 195
140 158 180
137 153 178
130 148 174
122 141 166
112 131 158
100 122 157
91 113 148
69 94 137
61 89 135
51 82 127
50 80 125
52 82 127
50 79 125
50 80 127
48 77 125
49 78 132
48 77 127
45 72 118
45 72 113
45 72 110
45 72 120
43 69 114
43 69 115
43 69 117
38 62 106
38 62 107
34 56 101
34 56 98
31 52 99
46 64 106
89 103 133
126 140 162
155 170 177
143 157 167
53 85 125
53 84 130
54 86 121
56 89 133
58 92 140
58 91 142
57 90 139
57 91 139
57 91 135
57 91 124
58 92 133
60 94 141
59 94 138
59 94 138
58 92 137
60 94 142
58 93 132
59 93 142
59 93 134
61 96 149
59 93 135
61 95 144
60 94 146
59 94 137
61 96 142
58 91 133
60 95 142
61 96 144
61 96 138
60 94 136
60 95 132
60 95 138
60 94 139
59 94 135
59 94 129
60 95 150
60 94 140
60 94 136
59 94 134
61 96 144
60 94 135
59 93 131
58 92 136
60 95 134
60 95 135
61 96 145
59 93 131
60 95 139
61 96 150
60 95 134
61 96 148
60 95 136
61 96 142
60 94 143
60 94 139
62 97 152
60 95 144
59 94 134
61 96 142
59 94 128
61 96 142
59 94 124
60 94 138
60 96 142
61 96 143
60 95 140
59 94 134
62 97 149
60 94 144
61 95 141
60 95 145
60 94 140
59 93 131
60 94 145
60 94 141
61 95 141
61 96 148
61 95 149
59 93 139
60 94 138
59 93 139
60 95 142
59 93 134
58 92 129
58 91 134
59 92 127
59 92 143
59 93 131
59 92 138
58 92 130
57 89 124
56 88 122
56 87 123
57 89 134
56 87 128
58 90 135
56 86 121
56 86 123
55 85 123
52 80 113
51 79 110
47 71 101
103 105 83
87 86 53
74 75 48
61 62 41
58 61 41
64 68 49
62 68 52
64 69 51
54 59 43
69 74 53
73 78 54
74 79 55
76 82 58
81 83 55
91 94 65
86 90 60
89 93 56
95 97 60
101 103 70
104 107 66
106 107 68
115 116 74
109 111 72
122 122 76
114 113 70
117 118 69
121 122 76
123 122 76
129 129 79
135 134 84
127 126 79
133 131 76
136 135 78
136 134 83
135 135 86
147 145 80
152 148 91
148 144 81
156 152 90
151 146 86
147 144 78
153 149 88
148 147 85
153 149 89
160 155 87
150 147 90
151 148 84
155 151 87
159 155 91
157 153 87
160 154 90
156 152 88
161 156 88
162 158 87
166 161 95
159 155 87
168 162 93
164 160 89
164 159 94
164 159 91
167 161 94
166 161 92
163 158 88
174 168 99
167 161 92
170 164 92
167 162 92
171 165 97
170 164 92
171 165 90
168 163 91
170 164 94
168 162 91
168 162 92
172 165 97
167 161 84
171 165 92
172 165 95
170 164 94
168 162 86
172 166 90
174 167 95
170 163 87
170 164 89
169 163 90
168 163 88
172 166 90
170 163 91
172 166 93
169 162 90
168 161 88
169 162 85
173 166 93
174 167 96
169 164 90
173 166 94
166 160 88
171 165 92
171 165 90
169 163 90
169 162 92
170 163 90
166 160 89
166 160 79
165 159 84
171 165 89
163 158 87
166 159 75
164 159 87
166 162 88
166 160 87
170 163 91
171 164 86
169 164 93
165 158 89
157 151 80
162 156 82
165 158 84
164 158 84
162 157 83
165 159 88
166 159 87
162 156 80
162 156 82
162 157 85
167 161 91
167 160 83
162 156 83
160 155 84
160 153 79
162 156 86
166 159 85
161 156 84
165 159 88
161 154 84
166 159 88
164 157 86
158 152 84
164 158 87
159 154 85
161 155 84
157 150 80
156 151 79
151 146 77
158 151 81
156 150 78
154 147 80
164 157 88
164 158 88
188 204 213
186 202 203
188 204 208
187 202 204
183 200 192
187 203 207
188 203 208
187 203 211
187 203 206
188 203 208
189 204 213
187 203 208
186 202 203
188 204 211
186 202 204
186 203 208
188 203 208
189 204 216
190 205 216
188 203 207
187 203 209
185 201 204
185 201 198
186 202 206
189 204 214
186 202 206
186 203 208
190 205 216
185 201 203
188 203 209
188 203 207
187 203 207
190 205 217
189 204 213
188 203 208
188 203 209
186 202 204
185 202 204
189 205 218
187 203 209
189 204 216
188 204 211
186 202 208
188 204 212
190 205 216
188 204 209
188 204 214
187 203 211
190 206 221
188 204 213
188 203 211
189 205 219
188 204 211
186 202 211
188 204 211
190 205 216
189 205 216
191 206 223
189 204 214
188 204 213
189 204 214
188 204 216
189 205 216
190 205 219
190 206 220
189 205 217
188 204 217
190 205 220
189 205 218
188 204 214
189 204 213
189 205 217
188 204 214
189 205 219
190 205 220
189 205 219
190 206 219
190 206 219
189 205 219
189 204 214
189 204 216
189 205 218
188 204 216
187 204 214
189 205 220
190 206 221
188 204 212
189 204 216
188 204 214
190 206 223
189 205 218
190 205 220
190 205 218
189 205 221
189 205 218
189 205 216
190 205 220
188 204 212
190 206 221
190 205 218
189 205 223
188 204 214
191 206 224
191 206 221
192 206 224
186 201 214
183 198 208
181 195 203
181 196 210
184 198 215
169 184 195
169 185 200
170 184 200
166 182 198
159 176 196
141 157 178
148 165 192
132 150 177
124 142 171
128 146 174
92 114 151
83 105 143
72 96 136
58 86 133
50 79 120
51 81 126
50 80 119
49 78 124
49 79 126
49 78 125
47 75 120
48 77 121
49 79 126
48 77 120
46 74 110
45 73 118
43 69 114
41 67 107
44 71 121
37 61 101
39 63 109
36 59 102
37 61 108
31 51 96
31 51 96
82 96 131
114 129 144
141 155 164
138 153 170
54 86 136
54 85 123
54 86 126
55 88 130
57 90 136
57 91 140
58 91 144
57 91 128
58 92 136
60 94 148
57 91 138
57 91 127
60 94 136
58 93 137
61 95 144
58 92 121
60 94 139
61 95 142
59 93 134
60 94 138
60 95 139
60 94 145
59 94 134
60 95 137
60 94 140
60 94 141
60 95 147
60 95 144
60 94 143
60 94 143
60 94 138
61 96 141
59 94 137
60 95 145
60 94 135
60 95 139
59 94 136
60 95 141
59 93 136
59 93 130
60 95 143
60 95 139
59 93 134
59 93 131
61 96 143
60 95 142
60 94 135
59 94 140
61 95 134
60 95 142
61 95 143
59 94 128
59 94 134
60 95 140
61 96 139
60 94 134
61 96 146
60 95 140
60 94 133
61 96 145
60 94 130
60 94 139
60 95 142
59 94 135
61 96 139
60 94 135
61 95 142
60 95 141
60 95 141
59 93 128
58 91 120
60 94 141
58 92 133
61 96 146
60 94 136
59 92 129
59 92 139
59 93 129
58 92 134
59 94 139
58 90 123
61 95 144
58 90 135
59 92 138
59 93 138
58 92 134
59 92 135
57 90 125
58 92 135
59 91 132
57 90 133
57 89 128
55 86 116
57 88 131
58 90 133
57 88 130
55 86 125
52 80 116
54 84 122
56 86 125
51 77 106
46 70 98
76 82 70
100 97 59
73 74 47
63 65 44
72 74 51
65 68 48
65 69 49
52 59 43
69 73 52
70 74 51
57 64 47
73 78 56
81 84 53
75 81 54
85 90 65
88 92 64
97 98 64
92 94 61
99 101 65
109 110 68
115 114 69
107 107 65
112 113 73
109 111 64
115 116 71
122 122 73
132 130 77
124 124 70
134 132 78
126 127 77
130 129 77
133 132 78
134 132 75
137 135 79
132 129 79
143 139 76
153 149 89
148 145 85
139 138 78
156 152 84
148 144 83
146 144 83
153 150 84
153 149 86
147 144 81
149 145 84
154 150 82
160 155 87
156 153 90
159 156 87
159 154 88
154 151 85
162 157 91
159 154 86
158 153 84
165 160 87
166 160 88
166 160 91
164 158 87
163 159 89
167 160 93
165 159 89
169 163 95
168 161 95
164 158 84
166 161 94
168 162 91
170 164 90
170 164 90
166 161 90
168 162 83
165 160 88
168 162 85
174 167 93
171 164 90
170 164 90
170 163 91
170 164 91
173 167 97
170 163 88
168 163 91
167 162 85
171 165 94
173 167 95
168 162 87
167 162 82
168 162 88
170 163 89
172 166 94
169 163 90
168 162 83
172 166 91
165 160 82
171 164 87
166 160 87
167 161 84
168 161 91
170 163 90
174 167 94
167 160 83
167 161 87
167 160 85
174 166 97
167 160 88
169 161 89
174 167 95
164 159 84
168 162 84
170 163 90
168 161 85
166 160 87
168 162 87
170 163 90
164 158 87
172 165 91
165 159 84
168 162 87
167 161 90
161 155 81
169 162 90
166 159 87
166 159 86
167 161 83
167 160 82
166 159 88
159 153 84
166 160 86
162 156 86
157 152 80
165 159 85
156 151 79
164 158 84
159 153 79
163 156 84
160 154 86
163 157 83
161 154 80
160 155 79
160 154 79
163 157 85
162 157 86
150 145 73
165 158 85
163 157 86
152 147 79
152 146 73
160 154 85
157 152 83
157 150 82
188 203 207
186 202 204
187 202 202
184 200 191
185 201 198
189 204 209
186 202 202
185 201 200
187 203 208
191 206 216
184 200 194
187 203 207
188 204 211
187 202 202
187 203 211
186 202 203
186 202 200
187 203 208
187 203 209
188 203 209
189 204 212
186 202 206
189 204 212
189 204 211
188 203 207
186 202 200
184 200 198
188 203 211
189 204 211
188 204 214
183 199 191
189 204 212
189 205 214
188 204 211
186 202 206
186 202 200
188 204 212
188 204 211
186 202 202
189 204 213
189 204 214
188 204 212
189 204 214
187 203 208
188 204 214
187 203 206
188 203 209
188 203 207
188 203 211
186 202 208
188 204 212
188 204 211
188 204 213
185 201 202
189 204 213
188 203 208
187 203 208
185 201 199
187 202 206
185 202 203
188 203 208
186 203 208
188 203 212
187 203 208
187 203 209
185 201 204
187 202 209
185 202 207
186 202 206
190 205 218
188 203 211
189 204 213
189 204 214
188 204 214
186 202 208
188 203 212
187 203 212
188 204 212
189 204 214
188 204 217
188 204 214
185 201 202
185 202 204
186 202 208
190 205 218
188 203 209
189 204 214
188 203 212
190 205 219
186 202 206
188 204 211
189 204 217
190 205 218
186 202 207
188 204 214
189 204 214
187 203 208
189 205 217
188 203 211
188 204 213
186 203 209
188 203 213
189 204 214
188 204 214
188 204 215
187 202 212
183 198 208
180 194 200
178 193 204
172 186 192
166 181 192
166 182 192
155 170 177
152 168 186
149 166 183
135 153 176
139 155 178
133 152 176
128 145 170
113 132 165
98 119 151
77 100 139
63 89 120
50 80 120
51 81 125
49 78 119
47 76 116
51 81 122
49 79 125
49 77 123
48 77 123
50 79 126
45 72 113
47 74 118
44 71 113
46 73 117
44 71 114
42 67 115
40 65 106
41 67 115
38 62 102
34 56 97
30 50 92
32 53 91
29 49 90
66 80 112
93 105 127
132 146 150
141 156 171
50 80 127
53 85 131
54 87 122
56 89 132
57 90 139
58 92 143
57 91 138
57 91 129
59 93 140
58 92 135
59 93 137
60 94 149
61 97 154
60 95 138
60 94 141
57 90 128
59 94 138
60 94 136
61 96 150
58 93 135
61 96 149
59 94 135
60 94 135
61 96 139
59 94 138
59 93 138
59 93 136
59 93 132
61 96 140
60 94 139
61 95 146
60 94 144
61 96 145
60 95 141
61 96 139
62 97 149
61 96 145
60 94 137
61 96 141
60 95 137
59 93 137
61 96 145
60 95 136
60 95 139
58 93 123
60 95 131
60 95 139
61 96 135
59 94 128
59 94 129
60 95 134
59 94 130
60 95 141
59 94 140
60 95 130
60 95 137
58 92 125
59 93 135
60 94 143
60 95 141
60 95 144
60 94 131
61 95 136
59 93 136
60 95 139
58 92 125
59 93 138
61 95 142
58 92 129
60 93 138
61 95 135
59 93 130
59 93 135
59 93 136
60 94 135
59 93 130
58 91 133
60 93 134
59 93 129
61 95 142
60 94 142
61 95 142
59 93 135
60 93 145
59 92 140
59 93 130
59 91 133
58 91 130
59 92 137
58 92 124
58 90 128
59 92 134
58 91 124
58 90 137
58 89 126
57 89 124
55 85 120
54 84 114
54 83 122
53 81 111
50 78 104
49 75 97
84 90 81
89 86 52
71 70 41
61 63 44
61 64 46
40 46 32
53 58 40
52 58 43
63 69 49
58 63 44
60 67 52
72 76 53
65 71 53
74 80 57
70 75 45
94 95 62
88 91 62
84 88 55
99 101 65
100 103 68
106 108 66
109 111 68
104 105 66
110 111 67
102 103 68
110 111 70
122 122 71
130 128 78
130 129 74
133 131 77
141 138 84
133 131 81
134 132 85
130 129 74
141 139 83
150 147 89
149 146 84
141 139 73
138 137 75
145 142 78
148 145 82
154 150 86
150 147 86
150 146 84
144 142 77
149 145 82
149 146 87
147 144 81
154 150 82
154 151 81
158 153 84
158 153 89
160 155 87
163 159 94
162 157 81
165 160 86
164 159 91
164 158 86
167 161 90
164 159 87
167 161 89
170 164 91
161 157 89
161 157 85
163 157 86
166 161 87
163 158 84
169 162 89
171 164 94
168 162 87
172 165 91
169 163 90
168 162 86
169 163 85
168 162 86
171 164 91
174 167 92
168 162 86
165 160 81
172 165 90
173 165 95
165 159 84
173 166 93
165 160 82
172 165 87
168 162 87
173 166 88
174 167 92
165 159 78
167 161 85
165 159 84
168 162 84
167 160 80
170 164 92
168 162 89
171 163 90
167 161 84
172 165 88
169 163 92
168 160 87
167 161 89
167 160 84
162 156 75
168 161 87
166 161 87
168 162 87
167 162 85
169 161 88
162 156 80
167 161 85
165 158 82
166 159 87
163 156 84
160 154 82
160 155 77
165 159 85
172 165 88
166 159 84
164 158 87
156 151 78
163 157 82
169 163 89
164 158 82
162 156 80
166 160 87
166 160 80
164 157 80
164 157 86
164 158 90
161 156 84
164 157 84
166 159 89
162 156 84
159 153 80
167 161 88
160 154 84
157 151 80
157 151 84
148 143 68
161 155 78
160 155 83
161 155 87
155 150 78
155 149 77
165 158 88
161 154 80
151 145 80
151 146 75
156 150 80
185 201 200
185 201 198
185 201 198
186 202 199
186 202 199
184 200 191
186 202 203
185 201 200
187 203 207
185 202 203
186 202 203
187 202 202
186 202 200
185 201 196
186 202 204
188 204 209
180 196 181
186 202 198
186 201 200
188 203 206
184 200 196
188 203 208
186 202 202
185 201 199
185 201 200
187 203 207
186 202 206
182 198 188
185 201 195
188 203 207
185 201 196
187 202 204
186 201 199
187 202 202
188 204 212
184 200 196
184 200 196
188 203 206
185 201 200
186 202 202
183 199 194
187 202 203
188 203 207
189 204 212
186 202 204
186 202 204
185 201 200
188 204 211
184 200 198
186 202 202
184 200 196
185 201 198
188 203 209
187 202 203
187 202 206
186 202 206
186 202 202
184 200 195
185 201 196
185 201 199
188 203 209
185 201 202
188 204 209
186 201 199
188 204 212
187 203 208
188 204 212
184 201 203
185 201 203
186 202 204
186 202 203
184 200 196
185 201 202
188 203 209
189 205 216
186 202 203
188 203 206
185 201 200
185 201 200
185 201 198
186 202 200
189 204 213
185 201 202
185 201 199
186 202 203
185 201 204
186 202 202
186 202 204
186 202 202
187 203 209
186 202 204
188 203 204
188 204 209
186 202 203
187 203 208
188 203 208
188 203 209
186 202 206
188 204 208
186 202 203
188 204 213
186 202 206
187 203 207
190 205 217
182 198 194
182 196 202
185 200 204
181 195 196
175 190 191
168 183 180
174 189 198
167 182 180
165 181 196
156 171 181
151 169 182
135 153 167
133 149 165
126 144 165
119 138 163
112 130 156
89 111 144
77 100 132
67 91 128
51 81 126
52 82 127
51 80 123
51 81 124
49 78 115
48 76 116
47 74 103
48 77 121
46 74 118
47 76 117
44 70 108
41 67 103
43 69 106
41 66 102
40 65 108
37 61 90
39 63 104
36 59 102
33 55 96
29 48 86
33 55 100
30 49 87
47 61 91
106 119 139
127 141 144
125 141 153
45 74 111
54 87 139
54 86 130
56 89 131
53 85 116
58 92 137
58 91 137
58 91 131
57 91 132
58 92 126
58 92 135
59 92 140
60 95 139
59 93 141
59 93 133
60 94 143
60 95 141
59 94 129
59 94 138
60 95 135
59 94 145
59 94 128
59 93 138
59 93 138
60 94 132
59 93 133
60 94 137
59 93 137
59 94 132
59 93 131
60 94 141
60 94 136
58 92 133
60 94 134
59 94 133
61 96 139
58 93 125
58 93 127
61 96 147
59 94 134
61 95 140
60 95 142
60 95 139
60 95 136
60 95 142
61 96 148
60 94 138
60 94 136
60 95 134
59 93 132
60 94 138
60 95 141
60 94 138
59 94 125
60 94 137
61 96 144
62 97 148
61 97 147
61 96 149
60 94 135
60 94 137
60 94 139
59 93 133
60 94 138
59 93 134
58 92 126
60 94 136
59 93 132
59 94 134
59 93 140
59 93 134
61 96 142
60 94 129
58 92 126
60 94 138
58 92 130
59 93 141
61 95 139
59 92 135
58 92 133
60 94 139
58 92 127
57 90 132
58 92 125
59 92 133
58 90 138
59 92 134
57 89 131
57 88 121
57 89 135
55 86 121
58 92 134
54 84 109
58 90 136
58 90 127
56 87 122
57 88 128
54 82 112
53 83 116
55 84 123
51 79 110
51 79 115
55 65 61
80 79 47
67 66 43
61 62 40
55 57 39
46 51 31
43 49 32
45 54 42
51 57 40
58 65 47
59 65 44
75 80 54
72 76 51
65 71 51
71 77 54
74 79 52
93 95 60
89 92 57
99 100 62
97 99 62
114 115 72
103 104 67
115 115 72
115 115 70
125 125 74
121 120 69
127 127 71
135 133 79
130 129 69
131 128 79
133 132 76
133 130 75
130 130 74
132 131 77
135 133 77
142 141 78
141 139 79
149 144 79
147 143 76
142 138 78
154 150 87
146 143 80
152 149 84
150 146 83
146 143 72
154 149 85
153 149 88
151 147 81
152 148 82
159 155 81
161 157 86
150 147 76
153 149 85
163 158 87
159 154 86
162 158 84
161 156 85
163 157 84
166 159 93
160 156 86
164 159 91
167 161 84
166 160 88
161 156 80
161 157 84
167 161 90
161 156 78
164 159 85
170 162 88
167 161 87
164 159 81
167 161 86
168 163 87
170 163 85
170 164 90
167 162 87
166 160 91
164 158 80
168 162 84
166 161 85
172 165 87
170 164 87
172 165 90
173 167 96
168 162 90
167 162 88
165 159 83
168 161 85
166 160 84
171 164 92
171 165 90
168 161 87
169 163 85
173 165 96
173 166 89
171 164 88
167 162 81
171 165 83
171 164 89
167 160 87
169 162 87
170 163 92
162 156 76
167 160 86
158 153 80
170 164 87
165 158 79
171 163 90
166 159 84
167 161 84
164 158 79
163 157 76
160 154 79
163 157 82
168 161 86
165 158 87
165 160 78
172 164 91
163 157 81
161 156 81
165 158 84
161 154 82
164 157 87
169 161 91
162 155 87
161 155 76
162 155 80
162 155 80
162 156 83
169 162 86
158 152 84
159 153 84
162 155 82
159 153 80
158 152 83
158 152 81
162 156 82
151 147 77
152 146 76
147 142 72
155 150 78
162 156 83
157 151 78
161 154 84
161 155 84
159 154 78
156 150 76
152 146 77
156 150 75
185 201 196
182 199 190
182 199 188
184 200 192
183 200 192
185 201 195
184 200 195
185 201 200
184 200 191
183 199 191
190 205 212
183 199 188
185 201 195
185 201 196
186 201 199
183 199 192
182 198 184
186 202 202
184 199 192
185 201 199
184 200 190
184 200 194
183 199 190
185 201 196
187 202 203
183 200 191
185 201 199
186 202 200
183 199 191
184 200 192
185 200 199
183 200 194
183 200 191
186 202 200
184 200 194
184 200 195
185 201 195
187 203 204
183 199 188
187 202 203
185 201 195
186 202 203
186 202 202
185 201 195
184 200 191
185 201 198
184 200 191
185 201 199
184 200 194
183 199 191
184 200 194
188 203 206
186 202 202
184 200 196
186 201 200
184 200 195
186 202 203
184 200 194
188 203 209
184 200 194
185 201 200
184 200 194
185 201 198
185 201 196
187 203 207
184 201 196
186 202 199
185 201 200
188 203 208
188 203 209
185 200 195
185 201 200
187 203 208
186 202 200
186 202 200
187 202 206
185 201 198
188 203 207
185 202 203
186 201 198
184 200 196
185 201 198
184 200 196
186 202 200
185 201 196
183 199 195
186 202 202
185 201 198
188 204 208
185 201 198
183 200 195
184 200 198
183 200 196
185 201 203
181 197 184
185 201 198
186 202 200
185 201 203
184 201 198
182 199 190
187 202 202
187 203 207
181 198 184
184 200 197
182 198 194
186 201 206
180 194 193
180 194 193
173 187 182
165 180 182
164 179 181
162 178 177
156 170 171
155 171 178
140 156 169
142 159 171
136 152 163
125 143 168
117 136 157
101 122 145
98 118 142
84 106 135
60 88 130
49 78 116
49 79 114
50 80 117
50 79 114
49 78 109
48 77 117
46 74 115
48 77 116
49 77 120
45 72 105
46 74 113
44 70 102
42 67 108
44 70 112
42 67 110
37 61 98
38 62 94
34 56 95
36 58 102
33 54 92
32 52 88
28 46 86
42 55 84
97 110 114
125 139 150
106 124 145
50 81 121
55 88 132
55 87 131
56 89 137
57 90 135
54 86 127
58 92 133
57 90 124
58 91 137
58 92 134
58 92 134
58 92 135
57 91 133
60 94 138
58 92 132
60 94 137
59 93 138
59 93 133
59 93 139
59 93 134
60 95 141
60 94 136
59 92 137
60 95 145
58 92 125
58 93 127
59 94 140
60 94 142
59 93 138
58 92 130
61 96 143
59 93 124
60 95 139
58 92 132
58 92 133
59 94 136
59 94 131
58 93 128
59 93 131
60 94 139
60 94 141
59 94 134
61 96 139
59 93 128
60 95 144
59 93 134
60 95 141
59 93 134
60 95 134
59 93 136
60 95 136
60 95 136
59 93 135
60 94 137
60 95 139
60 94 139
61 96 143
59 93 124
60 94 135
59 92 139
59 93 124
59 94 139
61 96 144
60 93 137
60 94 139
59 93 132
61 95 146
60 95 144
59 94 126
60 94 140
58 92 124
59 93 129
60 95 141
59 92 129
59 92 132
58 91 124
59 94 132
59 93 132
59 92 132
59 93 130
57 89 125
58 91 132
58 91 132
60 94 143
59 91 133
59 92 128
58 90 133
55 88 117
58 89 134
58 91 130
56 88 126
58 90 129
55 87 119
58 92 140
56 87 124
57 89 125
56 86 124
56 87 125
55 85 122
51 78 106
52 80 116
48 72 89
69 78 69
69 70 43
57 57 34
52 53 32
52 56 37
51 56 40
43 48 32
45 52 37
44 51 32
57 65 46
65 70 47
70 74 48
77 81 56
63 68 43
84 87 48
72 78 51
79 84 55
89 92 60
104 103 62
100 102 64
106 107 68
114 116 75
102 104 61
116 116 69
113 112 69
112 113 65
122 122 77
126 125 73
119 120 68
121 121 71
131 129 78
135 132 75
134 132 76
130 130 73
140 137 79
142 139 79
145 142 82
136 134 75
134 132 76
149 145 85
150 147 85
147 143 82
154 149 84
146 144 80
151 148 87
150 146 76
153 148 84
156 151 86
158 153 81
151 148 84
154 151 81
154 150 83
160 155 79
163 158 89
161 157 85
163 158 88
155 152 74
160 156 83
161 156 84
165 159 86
167 161 95
167 161 90
165 160 88
162 157 85
168 162 89
166 161 84
170 163 88
162 158 85
168 162 88
170 164 88
171 165 89
174 167 93
170 163 88
169 163 88
167 161 90
169 163 88
165 159 82
169 163 88
170 163 87
168 162 87
170 163 89
168 162 83
173 167 94
174 167 87
166 160 83
171 165 87
170 164 87
167 160 86
172 166 89
168 162 87
171 164 87
170 163 89
170 164 86
169 162 83
166 160 84
166 160 87
163 157 80
166 161 80
165 159 83
172 165 87
173 166 90
172 165 91
168 162 86
164 158 80
158 152 76
163 157 78
165 159 87
167 161 87
163 157 84
165 159 78
168 160 81
166 160 86
168 162 85
161 155 80
166 159 80
161 155 78
165 159 87
167 160 90
161 155 84
165 159 86
165 158 84
171 163 86
159 154 78
165 158 75
166 159 87
164 158 84
159 152 76
166 159 84
160 153 80
159 153 84
166 159 84
161 156 85
160 154 84
154 148 78
159 153 75
161 154 89
159 153 78
158 153 80
152 145 76
153 146 76
164 158 84
161 156 78
165 158 84
163 156 87
158 153 82
156 150 82
156 151 83
154 147 77
160 154 86
182 199 187
185 201 194
184 200 190
188 203 207
185 201 195
185 201 198
185 201 194
182 198 183
184 200 196
185 201 198
185 201 196
185 201 198
183 199 190
181 197 183
185 201 196
184 200 192
181 198 183
185 201 196
185 201 196
187 202 202
185 201 198
186 202 202
184 200 195
186 201 198
184 200 190
185 201 199
185 200 192
183 199 188
185 201 196
186 202 198
185 201 195
186 202 203
185 201 198
183 199 191
184 200 191
183 199 190
189 204 208
184 200 194
186 201 199
183 199 184
184 200 195
181 197 181
184 200 196
184 200 195
184 200 191
182 198 190
183 199 192
187 202 204
183 199 188
180 197 183
185 200 194
183 199 192
183 199 186
180 197 183
185 201 198
184 200 190
182 198 187
184 200 191
185 201 195
184 200 192
184 200 196
182 198 188
186 202 199
182 198 190
184 200 196
184 200 192
187 203 204
185 201 196
185 200 188
184 200 194
185 201 196
185 201 199
187 202 199
182 199 190
184 200 195
182 198 184
183 199 191
184 200 191
185 200 196
184 200 194
186 202 202
187 202 200
185 200 196
181 197 184
182 197 187
185 201 199
185 201 196
184 200 194
185 200 195
182 198 188
183 199 192
185 201 196
186 202 202
186 201 199
186 202 202
184 200 195
182 198 188
183 199 190
184 200 192
180 197 184
184 200 196
182 198 187
184 200 192
184 200 196
183 199 192
177 191 186
177 192 176
170 184 164
169 184 177
174 189 187
155 171 168
156 171 170
151 166 171
153 168 172
149 165 172
141 158 162
131 149 146
111 130 145
93 114 127
99 119 146
91 112 142
80 102 133
58 86 120
51 80 118
51 81 123
49 79 112
51 81 116
50 78 120
47 75 113
48 77 111
47 75 112
44 71 99
45 72 110
44 70 100
44 70 107
42 67 101
38 62 86
41 66 104
37 59 93
37 60 92
33 54 90
34 56 96
33 54 91
32 52 85
27 45 75
40 55 84
88 100 109
125 138 136
92 111 129
52 82 117
52 83 113
55 87 133
57 90 137
54 86 125
58 92 141
58 91 140
56 89 128
56 89 125
57 91 131
58 92 128
56 89 116
58 92 142
59 93 137
59 93 131
59 93 134
59 93 133
58 92 139
59 94 137
58 92 126
59 93 144
59 93 130
59 93 134
60 94 140
61 95 144
59 94 135
58 93 133
58 92 128
60 94 130
59 93 131
60 95 137
59 93 130
61 96 143
60 94 136
57 91 125
59 93 133
60 94 136
59 93 134
60 95 142
59 93 131
60 94 135
60 94 136
60 94 134
59 94 133
60 95 140
60 95 134
60 95 141
60 94 139
61 96 141
61 96 149
60 95 142
59 93 128
60 95 142
61 95 140
60 94 140
59 93 140
60 95 140
59 93 126
60 95 140
60 95 136
61 95 142
60 94 135
60 94 128
60 94 139
59 93 134
60 95 143
60 95 142
61 95 142
59 93 133
59 93 135
59 93 134
60 95 146
60 94 134
59 91 127
59 92 129
60 95 139
58 91 125
58 92 124
60 94 140
58 91 129
60 94 142
59 92 133
58 91 131
59 93 136
59 93 133
58 91 125
59 93 134
59 92 132
58 91 119
58 91 131
58 91 136
58 91 130
57 90 130
56 87 119
55 85 117
57 88 130
56 86 119
55 85 117
49 75 85
51 77 108
47 72 95
52 79 105
61 71 75
71 71 38
50 51 26
40 43 25
48 52 35
46 53 39
47 51 33
39 46 29
51 56 35
56 63 46
55 60 39
60 66 50
73 77 50
58 64 42
73 78 51
94 96 60
88 92 62
90 92 58
98 100 60
95 98 63
106 108 67
108 109 71
109 109 62
112 112 70
103 104 66
109 110 65
125 123 68
120 120 72
125 124 72
124 125 74
138 135 73
124 123 73
125 125 73
131 129 68
137 134 75
124 124 72
136 133 72
143 141 75
143 140 77
141 139 78
151 146 77
146 143 73
152 148 75
148 144 82
154 150 83
152 147 84
159 153 87
148 145 80
156 151 85
146 143 76
158 154 84
153 149 76
162 156 84
153 149 74
160 155 85
157 151 83
161 156 79
165 159 82
166 160 84
160 155 80
156 151 79
168 162 87
164 158 84
166 161 88
161 157 81
170 163 91
165 160 82
170 164 89
170 164 89
165 160 89
171 164 87
165 160 78
168 162 84
169 163 87
170 162 90
168 162 84
167 161 83
167 162 83
172 166 89
167 159 85
171 164 87
170 163 84
164 159 83
169 162 83
169 163 87
163 158 78
169 162 83
171 164 88
168 162 80
169 163 90
169 163 86
170 164 90
170 164 84
172 165 83
166 160 82
163 157 83
169 161 85
166 160 84
168 160 87
167 161 81
169 163 83
165 158 81
166 160 86
169 163 89
160 154 75
167 160 83
167 160 84
170 164 85
171 163 89
163 158 75
163 158 78
165 159 84
162 156 81
162 156 81
168 161 88
165 158 84
169 163 87
163 157 88
167 160 85
163 158 81
164 159 78
167 160 81
168 161 84
164 157 81
163 156 80
167 161 87
159 153 73
171 163 87
165 158 87
163 157 79
161 155 80
162 156 84
160 153 80
157 152 74
163 157 84
158 152 77
156 150 76
152 147 72
158 151 84
163 156 87
162 156 77
158 152 77
165 158 88
157 150 75
163 155 84
156 150 76
159 153 80
146 140 73
152 146 72
184 200 192
182 198 184
182 198 184
185 201 194
185 200 191
182 198 183
181 198 184
180 197 181
184 200 188
185 200 191
184 199 187
183 199 188
184 199 188
180 196 175
184 200 192
183 199 188
180 197 178
185 200 190
183 199 184
179 196 177
183 199 188
183 199 190
181 198 186
183 199 186
181 198 186
184 200 192
182 198 187
184 200 190
183 199 192
183 199 187
185 201 195
180 197 177
182 198 184
184 200 187
184 200 191
183 199 187
183 199 187
181 198 183
186 201 198
184 199 190
186 201 195
182 198 186
183 199 188
184 200 192
184 200 191
180 196 177
182 199 190
182 198 188
185 201 196
185 200 192
180 197 178
181 197 180
181 198 183
180 197 180
182 198 186
182 199 188
182 198 186
183 200 191
181 198 184
183 199 188
184 200 194
185 200 191
180 196 178
184 200 192
183 199 188
181 198 180
182 198 186
183 199 188
186 201 196
180 197 178
183 199 190
186 201 198
184 200 194
181 197 178
184 200 190
183 199 188
184 200 194
179 196 180
182 198 186
179 196 180
183 199 188
181 197 181
182 198 178
183 199 187
184 200 191
183 198 188
181 197 181
181 198 188
180 197 178
179 196 171
185 201 195
185 201 192
182 198 188
180 196 177
183 199 188
180 197 180
181 197 184
185 201 199
178 194 172
181 197 187
183 199 190
182 197 181
183 199 191
183 199 188
183 198 187
180 194 186
176 190 171
178 191 177
172 186 177
160 174 165
159 173 166
157 172 157
154 168 165
151 167 164
141 157 144
137 154 144
122 138 144
121 139 143
120 138 153
86 108 125
100 119 139
83 105 135
55 82 113
51 80 115
49 78 105
52 82 126
47 75 117
49 78 117
46 74 94
48 76 114
47 74 110
46 73 110
45 72 100
46 73 108
44 70 107
42 68 106
41 65 95
38 61 94
40 64 95
36 59 94
36 59 94
31 52 78
29 47 78
29 48 78
30 50 78
31 45 71
81 94 104
107 120 119
97 114 135
50 80 115
52 83 130
54 87 128
56 89 140
56 88 125
57 90 128
58 91 134
57 90 127
58 91 125
55 89 124
57 90 128
58 92 130
57 90 121
58 92 129
59 93 128
58 92 131
58 93 131
59 93 139
59 94 139
59 93 132
59 93 133
58 92 126
58 92 132
61 96 139
58 92 133
60 95 140
60 94 136
60 94 139
60 94 135
60 94 138
59 93 129
60 95 135
61 95 139
59 93 129
61 96 139
61 96 141
61 96 142
59 93 129
60 94 126
59 93 125
60 94 141
59 94 131
60 94 139
58 92 128
58 93 126
60 94 137
58 92 118
61 96 144
58 92 131
60 95 142
60 95 144
59 94 130
60 95 133
60 94 132
59 93 131
59 92 129
60 94 135
61 95 137
60 94 140
60 95 140
59 94 141
59 94 133
59 93 141
59 94 140
59 94 133
59 93 132
60 94 139
58 92 133
59 93 129
58 91 129
59 93 130
58 91 121
59 92 131
59 93 132
59 93 139
61 96 146
59 93 134
59 92 132
57 90 129
59 92 135
59 92 121
59 93 130
59 92 126
60 94 137
58 91 126
61 95 142
58 92 132
56 88 117
59 91 133
60 93 140
57 90 127
56 87 129
58 89 130
56 87 121
56 87 124
55 85 117
53 82 106
54 83 113
53 82 112
54 83 112
51 77 107
50 77 101
66 77 80
68 68 36
68 67 37
45 48 28
35 40 29
42 44 24
38 43 31
47 52 37
46 52 36
44 50 32
55 61 40
61 66 41
73 79 53
72 77 51
67 72 44
71 77 52
86 89 56
81 86 53
90 92 54
117 118 73
99 101 60
100 101 63
87 91 54
110 110 67
103 105 62
116 116 66
115 116 64
116 117 66
127 124 70
122 121 71
120 120 70
126 124 72
128 126 70
127 126 70
138 136 76
145 142 76
144 141 84
139 136 76
137 135 71
139 136 72
143 140 73
146 144 84
154 150 85
142 139 71
157 152 82
143 141 80
150 147 78
156 152 85
155 151 82
149 145 74
160 155 82
155 151 84
151 147 80
161 155 86
163 158 85
155 150 76
158 152 87
164 159 87
166 161 84
164 159 88
158 153 83
160 155 80
162 157 84
168 162 89
170 164 87
161 154 80
165 158 85
167 160 83
167 161 91
166 161 86
164 158 82
166 160 80
166 160 85
171 164 87
171 165 91
168 161 87
168 161 82
166 160 82
163 157 80
171 165 89
167 160 83
167 160 83
171 165 90
168 163 87
170 162 88
164 159 86
167 161 87
166 160 79
169 162 85
170 163 84
168 163 87
172 165 86
163 157 82
173 165 90
166 159 80
165 159 85
168 161 86
167 160 85
165 159 83
168 162 82
169 162 84
172 165 90
162 156 81
172 165 89
168 161 86
157 152 80
168 161 83
163 157 75
162 157 78
156 151 69
161 155 75
166 159 81
163 156 81
167 161 86
166 159 80
164 158 75
164 158 79
164 157 84
164 159 81
169 162 90
168 161 83
169 162 87
162 155 81
158 152 76
164 158 83
164 157 83
160 154 78
161 155 80
156 150 75
159 153 83
161 156 80
160 154 87
169 162 85
159 153 79
169 162 89
152 147 76
148 143 75
157 152 76
156 150 79
152 147 75
158 152 72
162 155 80
161 154 85
161 154 80
157 151 75
162 155 80
160 153 84
164 158 79
151 147 75
184 200 194
181 197 183
184 200 192
181 198 181
182 198 183
184 200 188
183 199 184
180 197 177
184 200 190
182 198 184
184 200 191
185 201 198
184 199 188
185 200 192
182 198 184
182 198 180
187 202 200
180 196 177
183 199 184
184 199 187
180 197 180
182 199 187
182 198 186
182 198 186
182 198 181
184 200 191
183 199 184
183 199 187
184 200 192
181 198 181
184 200 195
179 196 172
183 199 194
181 198 181
180 197 178
182 198 180
182 198 184
178 195 169
179 196 174
177 194 168
179 196 175
179 195 171
184 200 191
183 198 188
180 197 177
179 196 174
178 195 169
182 198 181
182 198 184
179 196 172
183 199 187
181 198 183
183 199 186
182 198 183
181 198 183
178 195 168
181 197 181
178 195 174
180 197 178
181 198 183
184 199 192
182 198 181
181 197 180
180 196 177
182 198 184
182 198 183
181 197 178
183 199 186
181 197 180
177 194 166
180 196 180
182 198 184
183 199 188
183 199 186
182 198 178
180 196 180
178 195 168
181 197 180
180 196 177
182 198 183
179 195 175
181 197 184
180 197 177
182 198 187
179 195 175
181 197 180
178 195 171
179 195 177
181 198 180
183 199 187
180 197 178
180 197 178
181 197 178
182 198 186
180 196 181
177 193 169
179 196 174
181 197 186
178 194 171
179 196 172
182 198 187
176 193 166
181 196 178
182 198 187
179 194 177
175 190 173
177 192 173
175 189 177
169 183 161
161 176 149
156 171 148
151 165 149
159 174 172
139 155 137
135 152 144
126 143 140
131 146 137
120 139 140
109 128 133
107 125 141
102 121 127
74 99 120
54 83 108
51 81 119
50 79 113
51 81 113
48 76 108
48 76 115
48 76 109
47 75 105
47 75 109
47 74 112
44 70 105
44 71 106
44 71 105
42 68 96
42 67 96
40 65 101
36 59 87
38 61 90
37 61 92
31 52 80
31 51 81
33 54 75
27 46 72
36 49 77
71 84 95
129 144 136
95 112 117
51 81 117
54 85 119
54 86 120
54 85 116
54 86 130
58 91 138
57 90 121
57 90 127
54 86 120
58 91 127
58 91 132
59 93 133
57 89 129
58 91 135
59 93 130
60 94 144
58 92 135
58 91 128
59 93 132
57 90 128
57 91 122
60 95 133
57 91 128
59 94 142
59 94 141
59 93 134
59 93 134
58 92 132
60 95 135
59 94 128
58 92 136
60 95 139
60 94 135
58 92 122
60 94 136
59 94 128
59 94 130
60 95 142
59 94 136
60 95 139
59 93 135
61 96 143
60 94 134
61 96 143
59 94 129
59 93 134
58 92 128
60 95 137
58 92 118
59 93 134
59 93 134
59 93 122
61 95 139
61 96 140
60 94 129
60 94 135
60 94 137
60 95 134
60 95 139
59 94 123
60 94 130
58 92 129
59 93 131
60 95 140
60 94 133
59 92 129
58 91 122
60 95 137
60 94 139
59 93 140
59 93 138
60 94 135
59 93 141
59 93 120
59 93 128
59 93 131
59 93 132
59 92 130
58 92 132
58 92 131
60 93 132
59 92 132
59 92 127
59 93 138
57 90 121
58 90 127
57 90 125
57 90 123
57 89 125
58 91 125
56 87 120
60 93 135
55 86 121
54 84 118
57 88 126
54 84 113
56 86 118
55 84 115
53 82 118
51 80 110
50 76 94
47 72 102
61 69 63
60 59 28
68 68 34
42 43 23
27 32 17
36 42 30
34 42 29
41 48 32
53 57 34
41 49 33
49 56 35
55 60 38
65 72 45
70 76 48
83 85 47
79 83 51
89 90 57
85 88 54
93 94 57
86 89 54
104 106 63
98 100 59
108 108 67
100 103 61
112 112 61
118 116 69
123 122 70
122 121 69
128 127 73
121 120 68
123 123 73
134 132 72
139 137 71
135 134 71
134 132 68
134 131 69
143 140 76
139 136 72
146 143 79
137 135 74
136 134 70
149 146 85
149 146 80
148 144 77
145 143 75
151 146 79
157 152 83
158 154 76
156 151 80
154 149 77
154 149 78
153 148 82
152 147 72
149 144 78
158 153 83
155 151 81
160 155 81
160 155 84
163 157 85
167 161 86
165 160 88
159 154 78
170 163 88
161 156 82
168 162 88
169 163 87
170 164 92
165 159 84
159 155 78
168 162 89
166 160 83
168 161 84
164 158 78
164 159 81
166 160 86
168 162 88
171 164 88
167 160 83
170 163 86
165 159 78
167 160 87
166 161 78
167 161 80
169 162 84
167 161 84
164 158 89
162 156 72
166 161 79
168 162 84
172 165 87
167 161 79
169 163 88
168 161 84
168 162 81
166 159 80
168 162 84
169 163 84
165 159 78
164 158 80
166 159 80
170 162 89
165 158 84
168 161 83
171 165 90
163 158 76
171 164 84
167 162 87
170 162 89
169 162 86
162 155 77
162 156 81
164 159 86
165 159 84
165 158 84
156 150 77
167 160 87
163 156 78
159 152 79
162 156 80
163 156 82
170 162 88
159 153 82
163 157 80
163 157 80
161 156 80
153 148 72
165 158 86
162 156 80
156 149 76
158 151 80
161 154 80
160 154 75
165 158 81
164 158 80
158 152 80
154 149 72
163 156 82
156 149 74
155 150 79
160 153 83
163 156 77
156 150 82
160 154 73
160 154 80
156 151 76
156 150 76
160 154 81
153 147 72
160 153 77
182 198 183
179 195 171
181 197 178
184 200 188
185 201 194
184 200 194
181 197 177
182 199 187
182 198 181
181 197 178
182 198 183
182 198 183
183 199 187
179 196 174
179 196 171
183 198 186
181 198 180
180 196 174
183 199 188
180 197 178
179 196 175
182 198 183
181 197 178
180 196 175
181 197 183
181 198 181
180 197 177
176 193 158
178 195 166
178 195 171
183 199 186
181 197 180
180 197 178
179 196 174
179 196 175
181 197 181
181 198 184
182 198 183
183 199 190
180 196 171
181 197 178
181 197 175
183 199 184
181 197 177
182 198 181
183 199 187
183 199 184
176 193 160
177 194 166
176 193 163
179 196 172
180 196 174
177 193 165
182 198 181
179 195 168
180 196 172
179 195 168
175 192 160
179 196 172
178 194 168
179 196 172
181 197 178
180 196 172
182 198 186
182 198 181
181 197 174
181 197 181
182 198 184
182 198 178
179 196 172
180 196 175
177 194 168
181 197 181
178 195 171
181 198 180
175 192 158
179 195 172
178 194 171
178 194 158
177 194 163
180 196 178
178 195 171
181 197 180
180 196 175
184 199 187
175 192 161
180 196 174
180 196 178
180 196 172
178 194 172
181 197 181
177 194 166
181 197 186
180 196 180
177 194 171
181 196 181
180 197 177
178 195 175
180 196 172
180 196 174
178 195 172
179 195 171
175 191 156
180 196 177
177 193 165
170 185 155
173 186 160
168 183 150
171 185 161
159 174 146
159 172 155
150 164 148
143 157 136
146 162 150
149 164 153
131 147 137
121 140 144
117 133 128
108 126 122
90 111 129
93 114 120
72 96 124
56 84 108
51 81 113
50 79 113
50 79 108
49 77 117
46 74 106
49 77 119
46 74 107
46 73 100
46 73 102
46 74 106
40 65 93
40 65 98
43 69 100
41 65 96
40 65 93
38 62 101
37 60 91
34 56 85
32 52 72
30 50 79
30 49 71
27 44 64
35 46 59
71 82 83
110 122 117
105 122 133
51 82 119
53 85 128
54 85 120
55 87 125
56 89 129
54 86 123
57 90 129
56 89 132
56 90 125
58 91 132
58 91 125
57 91 130
56 89 125
57 90 125
59 93 138
56 89 124
59 93 133
59 93 136
59 94 136
58 92 123
59 93 130
58 92 125
60 95 145
58 92 124
58 92 131
60 94 130
60 95 141
58 92 128
59 92 127
59 93 124
60 95 141
60 95 133
58 93 127
59 93 129
60 94 134
60 94 130
59 93 131
60 95 141
60 94 135
59 94 126
60 94 134
59 94 135
59 93 135
61 96 144
59 94 127
60 95 134
59 92 125
60 95 137
60 94 139
60 95 135
60 94 127
59 94 134
60 94 135
58 92 127
60 94 134
59 93 132
59 93 133
60 94 135
62 96 150
60 94 138
59 93 129
59 93 129
58 92 123
60 94 133
60 95 139
61 95 143
57 90 129
58 92 135
58 91 123
61 95 148
58 92 134
59 92 133
59 93 124
60 94 139
60 95 135
58 92 130
58 91 126
60 94 134
59 94 134
59 92 128
59 93 132
59 91 128
58 92 138
57 90 131
57 89 128
58 90 134
58 91 128
57 88 113
58 91 133
58 91 137
55 86 122
56 88 113
54 83 114
56 88 121
55 85 112
54 83 118
55 85 117
55 84 114
50 77 104
53 80 102
52 79 101
48 73 102
62 71 71
74 73 37
52 52 30
41 43 17
37 39 24
41 45 29
40 45 30
52 58 38
50 56 31
51 57 35
60 65 33
67 72 44
53 61 37
66 69 34
75 78 44
67 72 42
89 90 51
75 80 50
83 87 54
91 93 50
96 98 50
105 105 57
97 98 57
111 111 60
105 105 56
108 109 59
120 120 63
116 116 60
128 126 75
119 118 66
130 129 72
138 136 67
135 132 72
134 132 70
139 136 73
135 132 66
134 131 70
120 120 61
144 140 72
144 142 76
137 135 69
139 135 74
143 141 73
151 146 74
144 141 73
144 141 78
155 151 81
153 148 78
156 151 82
153 149 76
156 151 79
152 148 79
153 149 80
155 150 75
156 152 74
153 148 79
156 151 79
155 150 81
157 152 80
163 157 84
160 155 86
158 154 81
161 156 78
162 156 77
165 159 78
170 164 87
162 157 80
165 159 84
165 160 81
167 161 86
168 162 88
162 157 86
168 162 84
168 161 87
170 162 87
166 160 81
161 156 73
165 159 86
166 159 77
167 162 83
167 161 79
170 164 87
167 160 82
167 160 85
166 160 80
163 156 80
169 163 83
170 163 80
167 161 80
174 166 91
169 162 79
170 163 82
172 165 89
166 159 80
165 159 80
165 159 81
168 161 84
168 161 84
164 158 81
169 163 85
170 163 88
165 159 78
167 160 80
168 161 86
164 158 77
160 154 70
164 158 77
168 162 88
167 161 84
167 160 84
165 159 84
159 153 73
165 157 75
167 161 79
162 155 74
162 156 78
166 160 80
161 155 75
167 161 83
169 162 87
166 158 79
163 156 84
162 155 76
163 156 82
156 151 71
160 154 81
163 156 76
156 150 76
154 149 68
160 154 75
161 156 80
158 152 82
156 150 74
164 157 79
160 155 78
159 153 82
161 155 79
160 153 76
157 150 74
167 160 84
155 149 76
151 146 73
161 155 84
153 147 78
154 148 77
157 150 76
162 155 79
162 156 81
156 150 76
184 200 192
182 198 181
180 197 175
181 197 177
178 195 169
181 197 180
180 196 175
180 197 177
183 198 184
180 196 174
182 198 181
183 198 180
180 197 180
182 198 186
182 198 186
178 195 169
178 195 172
179 196 175
176 193 166
179 196 174
180 197 178
181 197 181
184 200 188
181 197 175
182 198 180
179 196 172
179 195 168
179 196 172
181 197 175
179 195 168
180 196 175
182 198 180
178 194 172
180 197 177
180 196 175
177 194 163
179 195 171
181 197 172
181 197 178
179 195 174
178 195 168
180 196 177
179 196 171
176 193 156
181 197 177
179 195 169
179 195 175
179 196 169
176 192 161
178 195 166
180 196 172
179 196 171
177 194 168
180 196 174
180 197 177
179 195 168
178 195 169
177 194 163
177 194 161
174 191 153
177 194 163
176 193 165
179 195 172
177 194 166
179 195 171
178 195 169
178 194 166
177 194 165
180 197 174
178 195 168
174 191 151
176 192 161
178 195 171
174 191 150
176 193 165
180 197 174
179 195 168
177 194 161
175 192 156
176 193 160
183 199 181
174 191 160
175 193 155
180 196 172
181 197 180
174 191 155
176 193 161
175 191 160
175 192 156
177 193 165
175 191 158
173 190 151
176 193 160
176 192 163
176 193 160
177 193 163
173 190 163
175 192 161
179 195 174
176 193 160
172 189 156
177 194 165
176 192 171
173 189 161
175 190 159
168 181 145
170 184 150
170 184 151
166 182 151
166 181 159
163 178 164
148 163 122
145 160 137
141 153 116
143 158 140
134 150 129
130 147 142
100 119 108
109 127 123
100 120 126
98 118 109
65 91 118
62 88 121
49 78 108
48 76 106
49 78 101
48 76 109
50 79 108
47 75 110
46 74 106
43 69 87
45 71 107
44 70 99
44 70 96
44 70 98
41 66 88
40 64 91
39 62 94
39 63 84
34 55 79
34 56 83
28 46 73
32 53 82
27 44 67
28 46 68
43 56 67
87 100 103
113 126 113
91 110 114
50 80 115
54 86 129
54 85 120
53 84 122
55 88 127
56 88 125
57 90 133
57 90 129
56 89 122
57 90 132
58 91 133
58 91 130
56 88 113
57 90 125
60 94 136
59 94 139
57 91 118
61 95 141
58 91 123
59 93 139
58 92 126
59 94 135
58 92 126
60 95 139
58 93 131
57 91 117
59 93 130
59 93 132
61 96 146
59 93 133
59 93 136
59 93 132
59 94 128
59 93 134
60 94 145
59 94 135
59 93 131
59 94 134
58 92 131
59 93 122
60 95 136
60 94 131
60 94 132
60 94 140
61 95 140
60 95 133
61 95 136
59 93 133
59 93 130
61 96 149
60 95 144
61 97 147
59 93 131
60 94 135
58 92 129
60 95 140
61 96 139
59 93 133
58 91 122
60 94 136
60 94 126
60 94 131
60 95 143
59 93 138
59 93 135
60 94 137
59 93 131
60 94 136
59 94 138
58 91 121
59 93 133
60 94 136
59 93 131
59 93 133
59 93 129
58 91 125
58 91 129
58 90 126
58 91 122
58 91 131
58 92 128
60 93 139
59 91 126
58 91 130
56 88 118
57 88 126
58 90 120
59 92 124
57 89 122
59 92 131
58 90 123
58 90 128
57 88 127
55 86 112
56 86 117
55 85 118
53 83 107
55 84 120
51 79 101
53 82 114
53 81 108
51 77 90
71 78 64
80 79 43
53 54 23
46 48 26
47 48 16
46 50 25
39 43 26
62 66 33
43 51 37
54 59 40
42 49 31
53 59 32
60 67 40
56 64 41
75 80 51
71 76 48
76 78 42
86 88 46
83 88 50
92 94 52
100 101 55
101 103 58
103 104 60
106 107 60
116 115 63
124 122 65
110 111 59
120 119 61
121 120 64
131 128 69
122 120 69
124 123 67
116 115 70
126 125 66
136 133 71
139 136 72
131 129 71
134 132 66
135 132 65
137 135 73
145 142 72
146 143 72
151 147 74
157 152 81
151 147 75
140 137 72
150 146 76
143 138 64
154 150 79
148 146 71
155 150 81
155 151 75
161 156 81
147 143 74
154 149 72
159 154 76
160 155 77
166 161 84
157 152 76
163 157 79
163 157 86
161 155 75
160 154 72
160 154 72
162 157 82
166 160 86
164 159 83
162 156 78
163 156 80
160 155 77
168 161 87
169 162 79
167 161 78
164 159 76
168 160 85
163 157 77
168 162 81
167 161 84
169 162 83
167 161 81
169 163 83
166 160 75
167 161 80
168 161 84
175 167 85
167 160 75
168 161 82
161 156 74
169 162 83
170 163 83
166 160 82
169 162 86
169 162 83
163 157 75
169 163 85
169 161 87
167 161 80
167 161 78
165 159 78
165 159 83
166 159 82
166 159 79
167 160 80
164 158 76
167 160 83
161 156 75
156 151 72
164 158 79
165 159 84
169 163 84
166 160 80
165 159 81
161 155 80
164 158 77
166 159 77
169 162 87
162 155 80
164 158 83
168 160 85
161 156 75
162 155 77
160 154 80
159 154 75
157 150 75
162 155 76
162 155 86
165 158 82
157 151 73
158 152 77
159 154 79
158 152 79
163 156 77
162 155 80
160 153 79
157 152 78
153 148 70
153 147 73
160 155 72
160 154 76
166 159 82
153 148 72
155 149 72
152 146 72
155 150 71
159 151 77
149 143 75
153 147 71
160 154 78
151 145 72
179 196 174
181 197 180
181 197 174
180 197 174
181 197 178
182 198 177
181 197 175
182 198 181
180 196 175
174 192 153
178 194 166
182 198 181
179 195 166
178 195 166
179 196 171
179 195 166
183 199 184
179 196 171
180 197 177
179 195 171
180 197 175
178 195 166
180 196 172
178 195 166
179 196 171
178 195 166
181 197 175
178 195 169
178 195 171
180 197 177
181 197 177
178 194 166
178 195 166
178 195 169
182 198 181
177 194 166
178 195 166
180 196 171
179 195 169
179 195 166
180 196 177
181 197 172
173 191 150
175 192 155
177 194 165
179 195 168
179 196 172
178 195 168
179 196 168
175 192 155
181 197 180
177 193 155
177 194 169
178 194 165
175 192 158
176 193 155
175 192 158
176 193 161
179 195 168
175 192 160
177 194 163
180 196 172
174 192 153
174 191 153
178 195 166
173 190 153
177 194 160
178 194 163
179 196 169
178 194 168
174 191 156
176 193 160
178 195 165
173 190 150
177 194 163
178 194 165
174 191 151
177 194 165
176 192 161
176 193 161
177 194 160
174 192 155
174 191 153
177 193 158
179 195 169
172 189 150
171 188 146
175 192 153
175 192 153
174 191 155
173 190 151
175 191 156
178 194 163
175 191 163
171 189 146
176 192 156
175 191 165
177 194 171
173 190 158
174 190 148
176 192 165
175 191 160
174 189 153
171 188 142
175 191 161
164 180 131
164 179 133
161 175 138
159 172 137
158 173 127
157 172 131
154 169 128
151 165 135
139 154 126
124 140 119
131 147 128
119 135 117
110 126 120
110 130 120
94 113 106
86 107 103
77 100 104
58 83 100
47 75 101
49 77 106
48 76 102
45 72 93
48 77 113
46 73 97
45 72 107
46 73 101
45 72 99
43 69 91
44 70 97
43 68 101
43 69 93
39 63 91
41 66 98
38 61 89
35 57 78
35 57 71
33 55 76
27 45 64
27 44 65
28 46 63
43 56 50
108 121 111
123 139 121
108 124 120
49 78 111
54 85 118
54 85 115
55 87 120
59 92 138
54 87 120
56 89 120
55 88 120
56 89 132
59 92 139
58 91 126
59 93 131
58 92 134
58 92 137
59 93 129
58 91 133
57 90 123
60 94 141
57 90 120
58 91 134
57 91 128
59 93 132
59 93 131
58 92 131
59 93 126
60 95 135
58 92 129
59 93 123
59 94 141
60 94 130
59 94 130
59 93 126
58 92 124
58 92 119
60 94 137
61 95 138
60 94 131
59 93 131
60 94 133
60 94 130
59 93 126
59 93 135
60 95 134
60 94 134
58 92 132
60 94 140
58 91 117
59 93 139
59 93 130
58 92 129
60 94 128
60 95 134
59 93 134
60 94 140
59 93 128
60 94 136
59 93 128
60 94 133
60 94 140
60 95 133
59 93 134
60 94 136
60 94 131
57 91 116
59 94 134
60 95 138
59 93 128
60 94 135
59 93 128
59 92 130
58 91 120
60 94 135
60 94 133
58 91 122
60 93 137
58 90 120
59 93 128
59 93 134
57 90 129
57 89 119
60 93 135
57 89 121
59 92 126
56 87 121
55 87 120
58 91 128
58 90 127
57 88 117
58 89 128
57 89 124
55 87 116
56 88 125
57 88 120
57 87 123
55 85 117
54 83 110
53 81 100
52 81 117
56 85 120
50 76 94
50 76 98
43 66 89
79 85 76
78 76 35
61 62 27
40 43 21
42 47 25
38 43 20
37 42 18
40 47 26
41 48 32
49 56 34
49 56 37
58 65 37
62 67 38
58 63 38
70 74 40
63 69 46
72 76 48
87 89 49
88 91 52
84 87 48
90 93 54
97 99 57
101 102 55
99 100 53
106 106 54
121 120 70
122 121 65
118 117 61
123 121 66
122 121 64
109 108 53
121 120 63
126 125 61
133 130 67
128 127 67
126 125 72
140 136 73
135 132 68
143 139 76
146 143 74
137 134 65
145 143 69
147 144 74
139 137 70
144 141 78
143 140 71
144 139 71
151 146 78
148 144 73
150 146 81
148 145 73
151 147 72
163 157 82
151 146 74
157 151 72
158 153 81
158 151 77
159 154 82
156 150 72
166 159 78
150 146 71
157 152 74
166 159 79
162 157 78
158 152 77
163 157 76
160 155 72
159 155 76
161 155 73
165 159 74
168 161 85
166 161 85
163 157 82
162 157 75
166 160 80
167 161 78
166 160 77
166 160 78
172 165 90
172 164 86
161 156 69
164 159 80
167 160 85
165 158 78
166 159 82
171 164 87
170 163 80
160 155 72
169 161 80
167 161 84
165 159 80
170 163 86
166 159 80
167 159 80
167 160 81
160 154 77
169 163 79
165 158 80
167 160 80
170 163 87
165 158 78
165 160 79
166 160 79
165 158 81
163 156 74
169 162 76
168 161 84
163 156 79
164 157 84
165 158 80
162 156 80
161 155 80
165 159 80
164 157 80
160 153 72
160 154 77
162 155 77
162 156 77
162 155 78
161 153 80
166 158 79
161 153 73
166 160 89
161 155 80
156 150 70
167 160 85
163 157 78
160 154 78
162 155 76
158 151 72
162 155 79
158 152 71
158 152 76
158 153 73
167 160 89
156 150 72
157 149 75
154 148 72
162 156 80
160 154 79
153 146 68
154 148 69
159 153 81
160 154 80
159 153 78
145 139 69
153 146 75
160 153 76
157 151 75
180 196 174
180 196 171
180 197 180
181 197 174
177 194 166
178 194 165
178 195 163
177 194 161
182 197 175
178 194 161
178 195 166
175 192 151
176 193 160
181 197 178
175 192 150
176 193 155
179 196 174
176 193 158
181 197 174
179 196 168
179 196 169
177 194 165
178 195 168
178 194 165
179 195 169
179 195 172
177 194 160
175 192 158
179 195 169
178 194 163
175 192 160
179 195 166
177 194 160
179 195 166
176 193 160
176 193 156
174 191 148
180 196 172
179 195 168
176 193 158
177 194 166
176 193 160
178 195 165
175 192 155
178 194 160
174 191 151
175 192 156
174 191 155
180 197 174
178 194 160
179 196 171
178 195 168
175 192 153
176 193 156
175 192 156
176 192 158
178 194 161
175 192 156
178 195 165
172 190 142
173 190 141
174 191 146
175 192 151
177 194 165
175 191 151
174 191 150
174 190 156
171 189 137
173 190 153
174 191 153
176 192 156
175 192 158
177 193 160
175 192 158
177 194 160
176 193 158
175 192 161
173 190 150
172 190 146
178 194 160
177 193 163
178 194 165
171 188 139
178 194 163
175 191 160
168 185 131
170 187 139
172 190 148
174 190 155
171 187 142
173 190 146
171 188 146
177 193 163
174 190 155
170 186 135
169 187 139
176 191 161
171 188 146
168 184 141
169 186 139
170 188 141
168 185 127
172 190 146
169 185 137
171 186 150
165 181 131
170 185 139
165 178 138
155 170 120
158 173 138
154 169 143
146 162 103
146 161 123
142 158 128
127 144 125
134 150 135
118 136 112
110 128 104
101 119 118
104 122 111
79 101 92
72 96 108
62 87 103
51 80 108
50 79 112
47 75 104
47 74 104
49 78 106
46 74 101
47 74 100
48 76 101
44 69 96
42 68 89
43 69 87
41 67 89
42 67 99
41 66 87
41 65 86
37 59 74
35 56 75
33 54 76
31 50 66
31 50 62
28 46 64
27 44 62
61 73 57
97 110 97
137 151 129
118 133 127
50 79 110
49 78 106
55 87 125
56 88 130
54 86 119
56 88 128
56 88 125
55 87 119
56 88 118
58 91 137
57 91 117
59 93 128
60 94 140
58 92 128
56 90 113
59 93 129
58 91 128
58 91 120
57 90 133
58 92 126
57 90 119
59 94 136
59 93 138
58 92 125
60 95 132
59 93 125
59 93 135
58 92 131
60 94 129
59 93 130
59 93 123
59 93 134
59 93 125
59 93 138
60 95 133
59 94 127
58 92 120
59 93 126
59 93 130
60 94 135
61 95 143
60 94 141
59 93 127
59 93 130
59 93 129
60 95 137
61 95 134
59 92 129
60 94 142
59 93 125
60 94 133
59 93 130
60 94 122
59 93 137
60 94 134
60 94 129
60 94 136
59 94 130
60 94 135
60 94 130
59 94 128
59 93 129
59 93 128
58 92 128
60 93 129
59 93 128
58 92 129
59 93 129
58 93 125
60 94 134
60 94 142
59 94 130
58 91 128
59 93 137
58 91 124
60 94 135
58 91 127
57 90 114
58 91 127
58 92 121
58 91 134
55 87 109
59 92 126
58 92 138
56 88 118
58 91 132
58 90 133
58 92 132
56 88 123
58 90 122
58 91 127
57 88 120
55 86 120
53 83 109
56 87 123
54 84 109
55 86 114
55 84 114
53 81 113
51 78 98
50 76 92
47 72 95
66 71 63
68 68 22
55 56 18
37 39 22
40 43 19
46 50 21
41 46 19
54 58 25
42 47 27
49 55 34
56 63 32
54 59 34
50 58 41
65 69 38
66 71 40
84 86 47
79 83 46
79 84 48
89 91 47
101 101 54
86 89 48
104 106 58
102 103 51
96 98 50
112 112 58
114 114 59
106 106 51
118 116 61
115 115 65
119 118 63
121 119 62
126 123 61
128 125 60
131 128 67
135 133 70
135 133 70
134 132 65
135 132 71
145 141 76
138 135 68
143 139 73
142 139 74
149 144 77
145 140 71
151 147 73
141 137 63
148 144 75
138 135 59
153 148 81
152 147 82
150 146 77
157 151 78
158 153 78
155 149 76
149 146 72
157 151 73
158 153 75
157 152 81
158 154 77
158 152 76
159 153 77
162 156 77
165 159 82
166 161 80
159 154 74
161 154 74
166 159 84
162 156 77
165 160 77
165 159 83
158 153 67
167 160 82
168 161 87
166 160 84
164 159 80
166 160 78
167 161 82
166 160 77
164 157 85
169 162 82
165 159 78
169 162 83
167 160 80
163 158 78
168 161 83
168 161 85
170 163 85
167 161 85
168 161 77
167 161 75
169 162 84
162 156 74
162 156 73
165 160 74
164 158 82
165 159 74
169 162 84
165 158 79
167 160 80
169 161 78
161 155 75
164 157 77
167 161 80
168 162 81
168 162 84
158 152 71
166 160 81
166 160 83
166 159 81
162 157 75
161 155 72
165 159 77
168 160 83
168 161 81
167 161 80
165 158 80
164 157 85
160 154 77
161 155 79
162 156 83
162 156 78
165 157 87
163 156 78
161 154 79
162 156 77
163 157 77
155 149 75
164 157 80
164 157 80
155 149 71
160 154 78
163 156 79
154 146 73
168 161 87
157 150 73
157 150 77
158 151 69
157 150 81
156 150 76
158 152 80
157 149 77
158 152 76
155 148 76
155 149 73
152 146 70
156 150 69
154 148 77
151 144 75
151 146 76
177 194 161
180 197 177
179 195 168
178 195 166
179 196 171
181 197 175
181 197 175
180 197 177
174 191 153
174 191 148
180 196 169
175 192 151
179 195 171
171 189 141
178 194 163
175 192 153
175 193 160
177 194 160
177 194 163
179 195 163
174 191 146
176 193 153
177 194 163
179 195 165
172 190 141
171 189 144
176 192 156
174 191 146
177 194 161
178 195 166
175 192 153
178 194 166
173 190 144
175 192 153
176 193 158
174 191 148
170 188 129
173 190 151
177 194 161
176 193 160
178 195 163
175 192 156
174 191 148
174 192 151
173 190 150
174 192 153
174 192 153
175 192 156
174 191 146
172 189 146
178 194 165
174 191 153
171 189 133
172 189 141
174 191 146
175 192 155
171 188 137
172 189 150
174 191 146
172 189 139
175 192 151
172 189 142
172 189 141
174 190 160
173 190 148
174 191 153
169 187 137
171 189 137
177 194 161
174 191 151
169 187 129
169 187 131
168 187 131
172 189 141
173 190 141
171 188 135
168 186 129
167 185 131
169 188 127
166 185 123
174 190 153
169 186 133
170 188 135
171 188 137
171 188 144
174 191 150
171 188 146
173 190 151
169 187 141
171 188 142
172 189 151
171 188 137
170 188 139
167 184 135
170 188 139
165 183 127
171 188 139
171 187 135
174 189 158
172 189 146
170 187 141
165 182 131
160 177 118
173 188 155
166 183 127
166 182 140
168 183 144
164 179 138
157 172 111
155 170 128
144 159 124
150 166 128
131 146 113
136 151 106
130 148 112
112 130 108
112 130 104
115 131 113
107 123 92
99 118 103
100 120 98
67 91 92
65 88 86
52 80 103
51 80 119
46 74 90
48 77 88
43 70 87
47 75 99
45 71 90
44 70 93
46 73 104
44 70 96
44 71 89
43 68 92
41 66 86
39 62 87
37 60 69
35 57 64
35 56 67
33 54 64
27 46 50
24 40 48
29 49 62
32 47 51
73 86 61
104 118 97
146 160 143
139 153 137
46 75 95
50 80 110
56 88 130
54 86 120
58 92 131
54 86 113
57 90 125
56 89 122
57 90 130
56 88 117
59 92 132
55 87 118
56 89 123
58 91 131
58 91 124
59 93 130
57 90 127
58 92 127
59 93 134
58 92 131
57 90 116
57 90 112
58 92 135
59 93 126
58 92 129
59 93 131
58 92 130
58 92 128
59 92 128
59 93 133
60 94 133
58 92 128
58 91 120
60 94 134
59 93 132
60 94 134
60 94 131
59 93 126
60 93 133
59 93 137
59 93 129
57 91 126
56 89 111
59 94 126
58 92 125
61 95 137
60 94 134
61 95 143
60 94 139
61 95 142
59 94 139
60 94 141
58 92 128
59 93 127
59 93 126
59 93 128
57 91 126
60 94 126
59 93 128
58 92 122
58 92 122
60 94 133
59 93 130
57 91 117
58 91 131
59 93 130
58 91 126
57 90 128
59 92 136
59 92 130
59 92 132
58 92 130
59 92 131
58 91 128
58 91 125
58 91 124
58 92 126
57 90 115
58 91 130
57 90 130
58 91 131
58 92 130
58 91 134
57 90 127
57 90 118
57 88 116
58 91 127
58 90 120
58 90 123
56 88 121
56 87 114
55 85 119
58 90 124
54 84 104
54 82 110
54 85 112
53 83 111
54 84 107
51 78 107
52 79 108
49 75 90
51 77 94
82 87 69
74 72 32
57 60 21
56 55 16
45 46 13
44 47 14
53 53 18
46 49 15
40 45 22
47 53 31
46 50 24
55 60 34
53 58 34
65 70 41
53 60 31
76 79 41
81 84 42
83 84 37
84 86 47
95 96 49
98 99 50
98 99 58
108 108 59
100 101 56
102 103 56
112 111 57
113 113 60
111 111 59
115 115 57
110 111 60
124 123 64
117 117 57
121 119 59
122 121 62
131 128 71
133 131 69
131 129 64
136 133 67
137 134 64
131 126 63
145 141 76
140 137 71
138 136 68
144 140 73
144 141 67
140 137 66
147 143 77
146 143 70
149 144 69
143 139 61
149 144 73
151 146 69
153 148 76
147 144 69
159 154 80
157 152 76
157 152 78
149 145 67
155 150 73
159 154 78
159 154 74
161 155 79
155 150 76
164 158 80
161 155 72
160 156 78
162 157 74
160 154 80
163 157 72
165 159 76
165 159 80
163 157 74
163 157 78
163 157 73
167 160 77
164 158 79
162 157 79
167 160 79
164 159 77
161 155 71
162 156 80
171 164 83
167 161 78
166 160 81
160 154 76
164 157 78
166 160 80
166 158 73
170 163 84
164 158 75
165 159 77
165 159 78
164 159 77
163 156 76
162 156 73
168 161 82
165 158 79
167 161 84
159 153 72
163 157 76
165 159 80
164 158 78
168 162 88
163 156 79
166 159 71
163 157 78
162 156 80
157 150 69
167 161 82
159 153 75
161 155 82
159 153 77
158 152 71
159 153 75
166 160 78
169 161 85
157 150 72
162 156 78
159 154 75
158 152 73
164 158 82
158 152 71
156 150 78
160 153 80
165 158 79
163 156 74
160 154 79
165 158 82
161 156 81
162 156 77
158 152 75
160 153 77
161 154 83
156 151 71
157 151 73
147 141 70
154 148 72
155 149 77
156 149 74
157 151 76
159 152 77
160 153 77
154 148 80
155 149 73
158 151 79
156 149 75
159 153 80
148 142 71
153 148 72
177 193 160
179 196 172
176 193 158
177 194 161
177 194 161
172 190 144
178 195 163
181 197 177
178 195 165
176 193 153
176 193 158
176 193 155
174 191 150
173 191 146
173 191 144
177 194 161
175 192 151
173 190 141
175 192 153
175 192 158
174 191 146
173 190 144
177 194 163
174 191 146
175 192 150
174 191 150
173 190 146
173 190 146
172 190 146
178 194 163
175 192 153
174 191 148
178 194 171
176 193 161
177 193 155
173 191 144
176 193 156
173 191 146
173 190 148
178 194 160
171 189 131
171 188 135
175 191 155
170 188 139
176 193 153
173 191 148
174 191 146
173 190 142
170 188 135
174 191 151
170 187 133
178 195 165
175 192 150
169 187 131
172 189 142
173 190 141
170 187 137
171 189 139
175 192 148
172 189 148
171 189 137
174 191 146
175 191 150
172 189 133
171 188 137
173 190 155
169 187 125
172 190 142
171 188 139
169 187 129
172 189 144
167 185 118
172 189 142
166 183 127
167 185 109
171 189 135
171 188 137
177 193 156
167 184 125
165 182 125
169 187 141
170 188 131
164 183 118
169 187 129
165 184 114
165 184 112
168 185 125
168 186 135
170 187 131
166 184 127
163 182 114
162 179 118
167 185 125
168 185 131
164 182 112
162 180 116
165 183 123
166 184 114
164 183 112
169 187 133
168 184 139
166 183 131
165 183 116
162 179 109
161 178 121
163 179 127
164 181 119
159 173 117
154 170 109
156 173 114
148 163 105
141 156 99
138 155 101
133 148 96
127 144 108
126 142 89
109 128 103
106 124 92
105 123 85
87 107 101
82 104 81
69 94 104
62 86 86
57 81 83
51 80 116
46 74 92
48 77 101
48 76 104
46 73 89
47 74 101
43 68 88
41 67 94
43 70 93
43 68 77
41 66 79
39 63 81
40 64 80
40 64 78
36 58 77
33 54 60
33 54 68
33 54 53
26 44 54
30 48 60
47 62 57
96 109 87
123 138 114
142 157 120
168 182 174
47 76 104
52 82 117
51 81 104
53 85 110
56 88 126
53 84 107
56 89 121
56 89 120
54 86 110
57 90 119
57 89 127
56 89 127
58 92 130
59 93 132
57 89 128
57 89 124
57 90 122
58 92 122
59 93 134
58 92 126
58 92 120
57 91 118
59 92 131
58 92 124
57 91 127
58 92 123
60 94 134
59 93 128
59 92 126
58 92 125
59 94 126
59 94 133
59 93 122
58 92 117
59 93 130
57 90 110
59 94 134
57 91 119
57 90 121
59 93 129
60 95 136
59 94 133
59 93 131
59 94 128
58 92 124
58 91 124
59 94 125
59 92 129
58 91 128
60 94 139
59 93 133
58 92 125
59 93 128
59 93 133
59 93 124
58 92 123
57 90 122
59 93 126
60 95 134
60 95 140
58 92 126
58 91 118
60 94 131
58 91 121
60 94 131
58 91 124
59 92 134
59 92 130
59 93 131
59 92 133
57 91 126
61 95 139
58 91 128
59 92 129
58 91 131
58 91 121
59 92 133
59 93 137
58 91 126
58 90 123
59 92 141
57 90 121
57 91 117
57 89 125
57 90 126
56 88 117
56 88 115
57 89 120
56 87 114
55 87 122
58 89 125
58 89 124
55 85 118
53 82 99
54 84 107
55 85 108
54 83 101
50 79 100
53 81 98
51 77 92
51 78 93
43 64 75
146 152 150
91 88 42
66 66 27
54 55 22
58 59 23
45 47 17
46 49 19
34 44 27
38 45 22
53 57 32
53 56 19
50 55 26
63 68 34
69 73 38
61 67 37
75 79 29
74 77 37
88 89 49
83 86 44
110 109 58
106 107 48
102 102 53
99 100 52
94 96 43
107 108 51
105 106 55
108 108 59
110 109 56
111 110 54
125 123 64
117 116 60
125 123 64
121 119 57
133 131 63
128 125 57
135 132 64
125 123 63
129 127 61
134 131 60
135 131 71
144 140 73
145 139 68
139 136 71
138 136 60
141 138 64
148 143 78
151 147 76
152 147 70
154 149 76
150 147 75
154 149 75
155 151 74
153 148 70
162 156 77
148 145 71
162 155 76
157 151 73
155 150 76
160 154 78
165 160 84
153 149 71
160 153 79
162 155 75
163 157 81
163 156 77
162 156 77
161 155 77
157 152 68
159 153 70
163 157 84
168 161 86
163 156 77
164 158 74
166 159 81
163 158 73
160 154 65
165 159 74
169 163 83
162 156 70
162 156 76
162 156 71
166 159 81
165 158 77
167 161 84
163 157 75
168 161 82
164 158 75
169 162 84
169 162 81
164 158 76
160 154 69
163 157 75
167 160 83
168 162 78
164 158 71
168 161 82
168 160 80
162 156 75
162 155 74
167 160 80
168 162 82
164 158 73
164 157 75
164 158 79
165 158 79
161 155 77
162 156 80
166 159 76
166 160 80
166 160 80
161 155 78
165 157 81
159 152 77
161 154 78
157 152 75
167 159 80
162 156 74
160 154 73
161 154 78
159 153 68
167 159 84
146 141 59
161 154 78
157 151 76
162 156 80
164 157 78
162 155 75
158 152 75
159 152 80
159 152 78
165 159 76
161 155 73
153 147 73
162 155 80
155 148 72
160 153 75
158 152 76
159 153 78
163 156 78
158 152 74
154 148 74
157 150 73
161 155 78
158 152 72
155 149 81
156 150 72
152 146 73
153 148 70
157 151 75
173 191 148
174 192 150
176 193 161
179 195 165
174 192 153
178 194 161
177 193 156
175 192 153
174 191 148
175 192 150
177 194 163
176 193 156
174 191 151
176 193 158
176 193 155
178 194 165
177 193 155
174 191 148
175 192 153
174 191 151
174 191 150
176 192 153
175 191 151
172 189 137
172 189 142
172 190 142
173 191 144
170 189 137
175 192 150
170 188 131
169 187 131
174 191 148
171 189 141
175 192 151
174 191 148
173 190 142
171 189 137
172 190 141
174 192 153
166 185 118
175 192 153
174 191 144
169 187 137
169 187 129
173 191 148
172 190 141
173 190 141
174 191 146
173 191 144
172 189 141
174 191 151
174 191 150
171 188 133
169 188 129
171 188 135
172 190 144
173 190 142
172 189 137
172 189 139
168 185 129
168 186 123
166 184 112
172 190 139
165 183 116
169 187 129
166 184 123
165 184 114
167 185 121
170 187 129
166 184 121
167 186 118
171 187 142
171 189 135
168 186 131
166 184 112
170 188 133
168 186 116
172 189 141
166 184 114
166 184 116
167 185 121
165 182 116
167 185 116
164 183 118
167 185 121
169 187 125
167 185 125
162 180 109
163 181 107
168 186 127
166 183 125
161 179 109
157 176 79
169 186 137
163 180 116
159 177 107
165 182 116
165 183 109
163 181 118
160 178 112
162 180 121
167 185 127
160 178 116
165 182 114
159 176 94
164 181 125
159 175 109
157 173 107
154 169 117
151 166 105
143 158 94
139 155 98
138 153 112
140 156 97
128 144 93
119 135 85
113 130 77
97 114 73
101 119 87
88 105 82
82 103 72
75 96 95
75 97 94
54 80 91
48 76 95
49 77 99
47 75 95
48 75 98
46 73 99
45 72 93
45 72 86
42 68 88
44 70 86
42 68 82
41 65 72
44 69 92
42 67 91
39 62 78
35 56 59
35 56 74
36 58 64
31 51 66
32 52 55
40 56 53
65 81 64
104 119 85
131 145 121
143 159 124
201 214 219
74 95 118
53 83 113
53 85 113
53 84 115
56 89 119
55 86 113
57 90 128
57 90 133
57 90 129
56 88 115
55 88 119
57 90 120
58 91 123
57 91 117
57 90 126
58 91 122
57 90 124
58 92 127
59 93 123
56 89 115
58 91 130
58 92 127
57 90 120
59 93 129
57 91 111
57 91 127
58 91 127
60 94 134
58 92 123
59 93 125
57 90 111
59 94 125
59 93 130
59 93 128
58 91 131
59 92 123
59 93 129
59 93 125
58 92 120
58 93 122
60 94 130
59 93 125
59 93 131
59 93 121
57 90 118
61 96 143
59 92 129
59 93 133
58 92 135
60 94 132
58 92 119
58 92 124
58 92 128
57 91 122
59 94 135
60 94 124
60 95 142
58 91 122
58 91 131
58 92 121
57 91 121
59 93 133
59 93 130
60 93 125
59 93 128
58 92 124
59 92 129
59 91 129
59 93 129
58 92 126
59 92 118
60 94 129
59 93 124
58 91 121
58 91 122
60 93 135
57 89 113
56 89 114
58 90 124
58 91 117
59 92 125
57 89 115
58 91 118
57 89 124
57 88 118
56 86 114
56 88 118
56 88 112
57 88 116
56 87 116
56 88 117
57 89 122
55 85 110
54 84 109
56 86 115
53 81 104
54 84 100
52 79 96
54 83 117
50 79 97
47 71 86
82 97 110
177 186 192
71 69 22
64 64 30
64 64 19
47 50 17
35 39 15
47 48 23
38 42 22
45 50 22
48 52 27
56 61 31
46 53 28
55 58 21
71 74 37
71 74 38
62 69 44
77 80 41
91 91 43
83 85 42
100 99 45
95 96 45
89 90 46
97 98 51
95 96 55
113 113 58
101 103 55
111 111 61
113 112 56
119 118 65
113 111 53
111 111 54
115 115 58
122 120 60
130 128 64
133 129 66
127 125 62
149 144 70
131 128 65
135 131 57
134 131 64
131 129 60
141 137 72
146 142 74
143 139 64
142 138 70
148 144 75
146 142 70
146 142 71
141 138 62
155 150 72
147 143 70
148 144 67
154 149 78
155 150 72
152 146 73
154 149 73
155 150 66
158 153 75
155 150 76
158 153 67
152 148 63
149 145 65
160 155 73
154 149 69
161 155 79
163 157 84
167 161 79
160 155 77
153 149 70
161 156 74
160 155 77
155 150 69
163 157 68
158 153 71
163 157 75
168 161 80
164 159 79
170 163 82
164 158 73
167 160 86
164 158 75
166 159 82
163 157 72
165 158 73
162 157 72
165 159 78
165 158 74
162 156 74
161 156 76
162 155 69
166 158 83
161 155 72
164 159 75
167 159 76
164 160 73
165 157 76
161 156 72
168 161 80
164 157 78
163 156 72
161 155 72
157 152 70
163 156 75
164 157 75
168 161 78
160 154 74
163 156 78
165 158 75
162 155 74
167 160 80
162 156 70
169 161 80
165 158 78
158 153 71
161 154 75
163 156 80
158 151 71
162 156 80
162 155 78
162 157 77
164 158 79
161 154 75
163 156 80
159 152 75
160 154 75
157 152 74
161 156 76
160 153 75
157 151 73
155 149 75
155 149 73
158 151 72
155 148 72
162 156 76
153 147 67
149 144 72
155 149 75
152 146 71
157 151 77
161 153 79
151 146 70
150 145 67
159 153 77
150 145 72
160 153 80
158 151 75
150 145 65
147 141 65
145 140 65
173 190 146
175 192 151
176 193 156
173 191 144
171 189 137
177 193 161
177 194 160
174 191 148
174 191 144
172 190 144
171 188 131
173 191 142
175 192 155
173 190 142
175 192 146
175 192 150
174 191 146
173 190 142
170 188 131
173 189 142
173 190 144
173 191 142
176 193 153
172 190 144
171 189 137
171 188 137
174 191 146
165 184 116
170 188 131
175 191 148
175 192 151
171 188 135
169 187 125
170 188 129
171 188 129
172 190 141
169 186 127
173 190 146
171 189 133
169 186 127
169 186 129
168 186 125
172 190 141
172 189 139
167 186 112
167 185 118
170 188 131
168 186 121
175 192 150
170 188 131
166 184 116
168 186 125
170 188 137
170 187 139
163 182 112
168 186 127
167 185 109
168 186 121
168 186 123
168 185 125
168 186 125
167 185 118
168 186 125
167 185 114
167 185 121
167 186 116
165 183 107
169 187 121
163 181 104
170 188 129
163 181 112
168 187 125
168 186 123
166 185 116
168 187 125
165 183 114
165 184 114
165 183 121
167 185 121
163 182 104
162 182 99
168 186 125
161 180 97
157 176 97
166 183 121
165 183 116
165 183 107
164 182 104
167 184 123
160 179 99
162 180 112
161 180 97
166 184 114
157 175 94
157 176 88
158 176 97
158 176 85
165 183 112
158 176 91
160 178 99
155 174 82
157 175 107
158 176 107
162 179 99
153 169 99
157 175 109
153 169 97
154 171 97
148 163 88
149 166 84
140 156 87
137 154 88
138 154 86
129 145 85
122 140 89
124 142 89
102 120 88
98 118 69
96 115 72
100 119 76
92 113 84
84 104 86
63 86 78
69 91 93
49 77 82
47 75 92
47 74 95
45 71 99
47 74 96
44 71 94
43 68 83
45 71 95
43 68 84
41 66 78
40 65 78
40 64 79
39 63 72
36 59 65
34 55 64
34 56 64
33 53 62
31 50 50
31 50 55
51 65 40
78 93 60
106 121 82
125 140 107
158 174 146
207 220 233
115 132 151
50 80 97
50 80 110
53 83 107
53 83 119
56 89 133
56 88 126
56 89 124
57 89 121
56 89 117
56 89 116
56 89 117
57 90 127
58 91 116
57 90 126
58 92 121
57 90 123
57 90 131
57 90 132
56 89 113
57 90 124
57 90 121
58 91 127
58 92 123
57 90 122
57 91 118
57 91 126
59 92 129
59 93 127
59 93 126
57 91 124
60 95 136
58 91 128
58 91 121
58 92 122
59 93 125
60 94 131
60 94 133
60 94 136
58 92 120
57 90 118
59 93 129
58 91 120
59 93 129
59 92 128
59 93 131
59 93 126
59 93 135
60 94 135
58 92 118
59 94 136
59 93 124
59 93 136
59 94 130
59 93 129
60 94 135
60 95 143
59 92 129
58 92 124
58 92 118
59 92 130
59 93 130
58 91 121
58 91 135
59 93 125
60 94 134
59 93 126
59 93 129
58 91 124
58 91 127
56 89 120
57 89 125
58 91 126
59 93 124
59 92 126
58 91 124
57 90 115
58 92 128
58 92 127
57 91 123
55 86 111
59 93 130
56 88 116
58 91 125
56 89 114
56 88 117
54 85 110
58 91 120
55 86 116
57 89 115
57 88 122
56 86 113
56 87 113
54 84 109
55 86 113
54 84 110
52 80 99
52 81 97
51 78 99
50 76 93
46 70 79
115 129 140
198 208 219
97 94 44
62 63 17
72 70 31
38 42 13
53 54 16
40 45 22
45 49 16
53 56 18
51 55 18
54 58 19
49 57 27
55 59 31
64 68 33
54 61 35
79 81 38
79 82 48
74 77 38
79 81 39
93 94 40
91 92 40
95 96 49
95 95 51
106 106 49
95 95 44
101 101 47
123 122 58
106 105 51
117 117 55
119 118 55
118 117 60
115 114 51
124 121 54
120 118 52
122 119 56
128 126 66
123 121 56
137 134 59
124 122 63
139 136 66
139 135 66
141 137 68
145 141 70
140 137 62
144 140 67
142 139 64
151 147 73
146 142 68
147 143 67
149 144 74
148 144 63
145 139 67
151 146 73
152 147 68
150 146 65
149 144 73
155 150 71
150 146 66
155 150 66
150 145 68
158 152 79
157 151 65
154 148 69
161 155 71
162 157 75
163 157 74
162 155 78
161 156 72
157 152 66
163 158 75
155 149 67
161 156 75
165 158 76
165 159 77
160 154 67
165 158 75
162 157 75
166 159 73
161 155 75
171 163 82
163 157 74
164 158 77
167 160 81
160 154 75
167 159 75
157 151 71
165 159 74
164 158 71
160 154 72
163 157 72
167 161 80
159 153 68
164 158 76
164 157 75
163 157 76
165 159 77
163 157 74
167 159 77
165 159 79
162 156 75
166 159 80
167 161 75
164 158 75
158 152 70
163 156 76
161 155 73
161 154 71
169 162 81
165 158 80
158 152 65
161 155 73
157 151 67
157 151 74
165 158 80
165 158 78
156 150 72
167 160 82
157 151 65
158 151 78
166 158 78
159 153 77
163 157 79
151 146 72
160 154 78
157 151 69
160 154 75
159 153 74
161 154 71
155 149 67
162 155 80
158 153 69
159 154 72
159 153 73
162 156 75
156 149 75
152 145 71
153 147 68
160 154 76
155 149 75
156 149 76
161 154 79
153 147 75
155 149 74
157 152 75
150 145 62
149 143 70
161 155 82
149 143 68
163 156 78
170 188 137
173 191 146
172 190 141
176 193 153
176 192 155
171 189 135
169 187 125
170 188 129
170 188 135
172 189 137
172 189 137
173 190 144
175 191 148
171 189 141
173 190 139
172 190 139
174 191 141
172 190 141
170 188 133
172 190 141
173 191 144
172 190 135
170 188 133
174 190 142
169 187 133
169 186 118
172 190 141
168 186 129
170 187 127
169 187 118
175 192 153
173 190 137
169 187 135
173 190 139
171 188 129
171 188 137
171 188 133
171 189 133
165 183 109
172 190 141
167 185 109
170 187 123
166 184 109
168 185 121
165 184 107
170 188 131
167 185 121
166 185 112
164 183 114
168 186 118
166 185 116
165 183 102
168 186 127
167 184 127
167 186 116
170 187 129
167 185 118
168 186 116
163 183 102
167 186 116
171 188 131
166 184 109
167 185 118
163 182 102
164 183 104
167 186 121
165 184 114
166 183 118
166 185 114
166 185 112
167 184 116
166 184 114
161 179 97
160 179 85
160 179 88
160 180 88
163 181 107
163 182 104
163 181 109
160 178 107
162 181 104
161 180 82
164 183 107
162 181 104
160 179 94
162 181 88
162 181 97
160 178 99
156 175 75
160 178 99
161 181 85
152 171 79
155 174 68
159 178 91
158 176 91
161 179 94
154 172 72
153 170 88
156 174 91
158 176 99
153 173 68
156 173 94
149 168 64
149 167 64
151 169 75
154 171 79
153 170 97
152 169 88
150 166 94
142 159 45
144 159 65
135 150 73
131 148 60
120 138 78
116 134 69
114 132 78
107 125 84
107 125 66
88 109 87
90 108 72
82 101 62
78 100 86
64 87 81
64 86 77
56 81 89
51 77 88
46 73 88
46 73 87
44 70 86
46 73 90
45 71 99
43 69 80
39 62 67
45 71 82
39 63 77
39 63 78
38 61 69
37 60 73
37 59 64
39 62 82
33 54 54
29 48 52
43 61 44
58 74 50
86 101 58
113 130 85
137 153 115
143 158 121
220 232 250
158 172 187
49 79 97
53 83 119
53 83 107
56 88 124
52 83 106
55 87 120
56 89 121
56 88 122
57 90 124
56 89 123
57 89 116
58 92 125
58 91 121
56 89 117
58 91 121
59 92 128
57 90 121
57 90 116
59 93 126
59 93 134
60 94 132
57 90 120
58 92 121
59 93 126
58 92 125
56 89 123
57 90 118
57 90 122
58 92 126
57 90 115
58 91 125
59 94 129
60 94 131
58 92 129
58 92 119
60 94 139
58 91 125
58 91 124
58 92 126
59 93 130
59 93 129
58 92 117
59 93 134
60 94 129
59 93 130
59 94 130
57 90 118
59 93 131
58 91 121
59 93 126
60 95 136
58 91 124
58 91 122
60 94 136
58 91 125
59 94 128
59 93 124
58 92 128
58 92 120
58 92 124
59 92 122
58 91 122
56 89 114
58 93 125
58 91 121
59 93 122
60 94 126
58 91 124
59 92 126
58 91 124
57 89 128
57 90 123
58 91 114
58 91 125
58 91 125
57 89 112
58 92 121
55 87 114
55 87 111
58 91 124
55 87 103
57 90 117
56 87 110
55 86 112
57 89 120
58 91 117
58 90 122
56 87 108
55 86 122
56 88 113
56 87 114
54 84 112
55 85 107
53 83 109
54 85 109
53 82 113
54 84 113
53 81 108
50 78 103
47 72 84
140 153 165
216 228 244
95 92 43
78 77 32
72 71 29
65 65 18
43 47 15
44 46 16
53 55 15
52 56 15
52 57 26
55 59 22
57 62 24
55 61 27
62 67 32
78 78 39
77 80 35
63 67 31
82 84 43
77 79 42
86 88 42
98 98 42
85 89 43
104 104 43
108 107 55
115 114 50
107 107 52
98 98 43
111 109 51
112 111 54
123 121 59
116 117 56
111 111 58
122 121 61
128 126 57
134 131 67
137 135 62
125 124 60
135 132 59
137 135 64
133 131 66
138 135 65
134 130 59
141 139 64
140 136 68
145 141 68
139 136 59
142 137 60
140 136 67
149 143 71
151 147 67
151 147 67
145 140 58
145 141 64
156 150 67
152 149 64
157 151 73
150 145 73
155 150 73
152 149 68
155 150 76
159 153 73
161 156 70
162 155 74
157 152 70
158 152 79
154 148 68
157 151 71
155 150 65
156 151 70
161 155 77
158 152 69
164 157 78
162 155 72
159 153 71
158 153 71
160 154 79
160 153 70
163 156 73
163 157 79
163 156 71
163 157 68
162 156 71
160 155 72
160 154 72
162 156 75
170 163 79
167 160 81
163 157 74
166 160 76
164 157 79
164 158 69
159 154 68
158 151 72
163 157 71
166 160 77
161 155 75
168 161 81
167 161 78
164 158 71
162 156 74
161 154 73
163 157 73
161 154 67
166 159 79
153 148 63
167 160 79
162 155 72
163 157 75
165 157 80
162 156 73
162 156 77
164 158 78
153 147 62
162 155 74
164 157 75
156 149 68
162 156 75
158 151 73
156 151 66
159 153 69
160 153 72
156 150 71
164 157 77
157 151 71
157 151 73
158 153 75
157 152 73
162 156 75
160 152 73
157 151 75
159 153 71
158 151 69
162 155 80
156 150 67
157 151 72
161 154 76
153 147 75
159 152 75
155 149 74
151 145 63
153 147 65
154 147 69
156 150 68
151 145 71
160 153 76
150 144 72
153 147 71
150 144 66
150 143 68
173 190 142
173 190 142
176 193 155
171 189 141
175 192 151
176 192 156
172 189 142
177 193 156
173 190 142
171 189 137
171 188 131
171 188 133
173 190 142
166 185 109
169 187 127
171 189 141
169 187 129
170 187 129
170 188 133
166 185 116
168 186 123
168 186 123
168 187 127
169 187 129
168 186 125
169 187 127
168 187 127
171 189 131
167 185 114
169 187 123
172 190 139
168 186 118
165 184 109
171 188 131
170 188 129
172 189 139
167 185 116
165 183 109
170 187 129
165 184 112
167 185 116
168 186 121
164 183 99
164 183 104
169 187 129
164 183 109
167 185 118
161 180 107
162 181 99
165 183 104
165 183 104
162 182 94
160 180 91
169 187 127
166 184 109
163 181 104
166 184 107
167 185 121
166 184 114
167 185 112
165 183 109
163 182 99
167 184 112
162 181 97
165 183 104
161 180 91
163 182 104
165 183 107
162 181 97
168 186 118
162 181 91
160 179 91
161 181 94
160 180 88
161 181 94
164 182 102
163 182 94
161 180 97
157 175 94
157 176 85
160 179 88
156 176 64
159 178 94
161 180 91
158 177 91
157 176 82
160 180 79
154 173 68
158 177 79
157 176 85
158 177 75
159 178 85
158 178 88
153 172 75
156 176 82
156 176 75
158 177 82
152 172 56
152 172 68
154 171 60
154 172 72
149 168 51
150 169 72
154 172 82
145 163 56
149 168 68
148 166 60
146 165 56
146 163 56
142 159 64
135 151 69
139 156 54
132 150 66
122 140 62
121 138 39
105 124 63
102 120 57
97 114 61
96 115 68
82 102 69
83 102 73
80 102 88
74 94 68
64 87 89
58 81 77
47 71 68
46 72 80
45 72 91
46 73 95
45 72 92
45 71 75
40 64 73
42 67 76
44 70 76
42 68 77
39 63 71
33 54 53
35 57 65
36 57 58
36 58 62
33 54 58
36 56 63
54 72 47
75 90 36
101 117 75
130 146 109
151 167 123
162 176 155
217 231 233
169 183 182
51 81 102
50 80 95
52 84 101
53 84 110
54 85 109
55 87 115
55 88 120
54 86 118
53 84 109
58 91 122
55 87 108
57 90 123
56 89 121
58 91 117
55 88 109
58 91 120
58 91 119
58 92 123
57 91 115
58 91 127
59 93 127
57 90 119
60 94 136
58 92 130
56 89 126
59 93 131
59 93 131
58 91 119
57 90 117
58 91 127
59 93 129
58 93 126
58 92 123
57 91 118
58 91 122
57 91 121
58 92 130
58 92 127
59 93 125
59 93 130
60 94 131
60 94 130
58 92 120
59 93 125
60 94 133
60 95 140
59 93 127
58 91 117
57 90 118
58 92 134
57 91 120
58 91 123
59 93 136
59 93 126
58 92 126
58 92 121
59 92 122
58 92 125
59 93 129
58 92 130
60 94 134
57 91 117
61 95 144
59 93 133
60 94 130
60 94 133
56 89 121
56 89 123
57 91 116
58 91 123
59 92 128
59 93 127
56 89 107
58 91 128
56 89 111
56 88 120
56 89 112
57 90 124
57 89 117
57 89 121
59 92 119
58 91 123
57 90 116
56 87 118
56 88 123
58 89 113
56 88 113
55 86 117
56 87 106
56 87 109
56 87 118
53 82 101
55 84 112
53 83 104
55 86 114
53 81 107
53 81 104
49 76 84
49 75 100
46 69 81
166 180 178
217 231 234
139 143 113
83 80 38
60 59 14
67 67 13
50 54 20
65 66 14
55 58 23
52 55 18
48 52 19
58 61 22
59 63 22
54 60 20
66 70 28
67 70 29
70 74 36
82 84 36
72 76 24
70 72 29
88 90 42
79 82 37
91 94 40
109 107 46
100 100 49
96 97 40
107 108 58
99 101 36
115 113 53
109 107 51
120 119 58
121 120 54
116 115 52
127 124 61
127 125 56
120 118 57
135 131 64
128 126 58
132 130 58
131 129 54
136 132 65
138 135 60
139 136 63
134 131 59
129 128 59
145 141 72
138 135 65
141 137 69
137 134 61
145 141 65
144 140 61
146 142 64
144 141 65
145 141 69
146 142 60
149 145 67
150 146 70
143 140 56
156 150 71
153 148 74
160 153 75
149 146 61
161 155 68
162 155 71
156 151 73
153 148 71
153 148 64
163 157 74
155 149 73
159 155 70
157 151 68
159 153 66
160 154 71
158 153 64
162 157 65
156 151 73
158 153 65
161 154 68
164 157 74
163 158 77
163 157 68
167 160 77
158 151 65
161 156 66
168 162 79
166 159 82
154 149 61
165 159 73
160 154 67
162 156 75
158 152 64
161 156 74
164 158 74
165 158 77
162 156 72
163 157 72
161 154 73
165 158 71
161 154 73
161 156 70
163 157 74
162 156 72
161 155 73
160 154 72
160 154 68
164 157 76
163 156 76
163 156 73
164 157 78
167 160 84
163 157 76
157 151 67
165 158 78
166 159 72
164 157 77
158 152 72
162 156 74
166 158 80
159 153 70
159 153 66
161 155 79
160 154 74
159 152 75
164 157 80
151 146 67
155 150 67
162 156 75
156 149 71
165 158 80
158 151 75
158 151 77
162 155 75
163 156 75
153 147 73
164 156 77
153 147 71
156 150 73
156 150 72
150 144 70
159 152 76
154 149 70
151 144 67
149 144 68
152 146 74
155 149 75
155 148 71
162 155 71
149 143 71
150 142 66
158 152 77
168 186 125
171 189 135
171 188 131
166 185 116
171 189 139
168 186 125
170 188 129
170 188 131
174 191 150
167 186 123
173 191 142
170 187 131
169 187 133
172 189 133
173 190 141
168 186 116
166 185 116
170 187 127
167 185 114
168 186 118
174 191 141
171 189 137
170 188 129
164 183 104
168 186 125
165 184 112
168 186 127
165 184 107
164 183 97
169 187 121
164 183 102
163 181 112
167 185 114
168 187 125
167 185 116
161 180 102
168 186 121
167 185 118
163 181 102
166 184 109
162 181 97
167 185 112
166 185 112
166 185 107
165 184 99
165 183 109
160 179 82
163 182 97
165 183 109
166 185 114
158 178 75
164 183 99
164 182 102
164 182 109
167 185 116
163 182 99
163 181 99
159 179 72
165 183 104
160 179 97
158 177 82
159 178 64
161 181 85
166 184 112
165 184 99
161 180 85
162 181 88
158 177 75
161 179 91
157 176 88
160 180 79
160 179 85
156 175 72
156 175 68
157 177 68
154 173 51
160 180 82
159 179 79
155 174 72
157 176 82
156 176 72
154 174 45
152 172 39
158 178 68
158 178 64
158 177 79
154 174 39
156 175 51
154 175 51
154 174 68
154 173 60
152 171 56
153 174 60
155 174 56
154 172 68
153 172 60
147 167 45
149 169 39
146 164 39
149 169 51
146 165 32
145 164 32
146 165 0
146 165 22
148 166 39
141 160 0
142 160 32
143 161 22
141 159 45
133 150 40
133 152 52
121 138 33
123 141 42
119 136 52
118 136 42
118 137 60
108 125 43
111 129 61
96 116 67
86 106 65
90 107 72
77 96 64
78 97 70
73 93 73
62 83 70
47 72 69
43 69 78
45 71 84
42 68 71
43 68 69
42 67 78
41 65 76
44 69 85
43 68 85
39 61 79
37 60 59
40 64 66
36 58 58
36 58 61
34 55 35
38 59 57
50 68 57
79 95 30
92 109 59
107 123 80
138 154 96
149 164 125
164 183 82
173 197 0
164 187 29
47 75 93
49 79 104
54 85 114
53 84 104
53 85 110
56 88 119
54 85 118
55 87 118
57 90 118
57 90 115
55 88 111
57 90 129
57 90 124
57 90 117
57 90 124
57 90 126
57 90 123
59 93 129
56 89 111
57 90 118
56 89 115
58 92 126
57 90 116
57 91 113
58 91 123
60 94 131
57 91 112
60 94 136
58 92 122
59 93 123
59 93 133
58 91 119
58 92 126
57 91 129
59 93 123
59 92 134
59 93 128
58 91 125
59 92 129
58 91 122
59 92 136
59 93 135
57 90 121
59 93 125
59 93 124
57 90 114
59 93 127
59 93 124
58 91 122
60 94 122
57 90 115
58 92 121
58 91 117
62 96 144
60 94 131
59 93 134
58 91 127
56 90 110
58 92 122
59 93 131
60 94 128
59 93 121
58 91 127
59 93 132
59 93 130
58 91 117
59 93 124
57 90 115
59 92 128
58 92 128
56 89 111
57 90 121
58 92 120
58 91 124
58 91 121
59 92 123
59 92 124
58 90 119
55 87 114
57 89 126
54 85 107
57 89 117
58 91 126
55 85 116
55 86 105
58 90 126
55 86 115
54 84 115
55 86 117
57 88 122
54 84 103
54 83 109
57 88 118
54 82 106
54 83 106
52 81 99
54 83 111
52 79 103
47 73 81
46 69 74
162 185 36
175 198 0
134 148 24
89 88 33
71 71 23
78 76 30
46 49 19
60 60 14
55 56 13
56 58 15
48 51 17
63 65 15
53 56 22
52 57 27
67 70 26
58 61 20
71 76 36
69 73 34
71 74 32
78 80 40
94 94 43
84 85 42
89 90 42
95 96 41
90 91 39
105 104 46
99 100 42
90 93 47
113 112 48
115 114 49
125 122 53
108 108 44
126 124 59
126 124 53
120 117 55
130 126 58
126 124 58
126 123 63
134 131 56
128 125 55
140 136 54
130 127 56
135 130 54
144 140 65
135 132 56
146 141 66
139 135 55
147 141 71
142 138 68
144 139 68
149 144 66
152 148 72
150 145 65
154 148 68
147 143 58
150 146 68
149 144 66
156 150 67
154 148 67
161 155 75
153 147 69
152 147 65
150 145 68
153 147 66
162 156 74
158 151 72
160 153 74
152 147 64
158 152 77
147 142 61
153 148 63
160 154 73
160 153 70
156 151 72
157 151 65
158 153 64
158 152 67
165 159 75
164 157 75
158 152 76
161 155 69
164 158 77
160 154 72
160 153 69
162 156 73
163 156 76
158 151 73
165 158 66
160 154 75
162 156 74
161 155 72
167 159 75
163 155 73
163 155 73
159 152 73
166 159 71
152 148 60
158 152 68
161 154 72
162 154 75
159 154 74
163 158 75
159 152 73
155 149 70
164 156 72
157 150 65
160 155 67
156 150 67
165 158 76
163 157 72
172 164 86
159 153 75
156 151 73
160 154 69
164 157 69
165 158 80
162 154 73
160 154 69
160 155 68
157 151 65
161 155 74
156 150 75
165 159 74
162 155 75
161 154 74
161 155 75
158 152 72
158 151 75
161 155 74
165 157 75
159 151 71
164 157 77
155 149 67
156 150 74
159 153 75
147 141 62
157 151 76
156 149 79
156 149 70
152 146 65
154 149 71
150 143 72
147 141 68
147 142 65
154 148 72
153 146 69
155 149 71
152 146 67
156 149 71
153 147 75
169 187 123
167 185 125
171 189 137
169 187 123
172 189 139
175 191 144
169 187 121
167 185 118
172 189 133
167 186 114
167 185 114
167 185 118
169 187 125
170 188 133
169 187 123
168 186 118
166 184 107
169 187 123
166 185 116
171 189 131
165 184 112
165 184 109
169 186 123
168 186 116
169 187 114
165 184 107
164 183 104
164 183 107
164 183 99
165 184 112
165 184 114
167 185 114
164 183 107
168 186 118
162 182 99
161 180 94
164 183 94
164 183 97
163 182 91
159 178 88
165 184 97
164 182 107
165 182 99
163 182 94
162 181 97
161 180 88
162 181 88
161 181 82
162 181 94
163 182 97
161 180 85
161 180 85
164 183 102
162 181 94
156 176 72
161 180 88
162 181 97
159 179 72
163 182 91
158 178 64
159 178 64
159 178 82
160 180 75
157 177 64
159 179 72
155 175 56
158 177 64
156 176 56
159 178 68
157 177 51
158 178 64
156 177 56
161 181 82
152 173 51
157 177 75
152 173 45
157 177 60
156 176 51
151 172 39
149 169 32
151 172 0
156 177 60
156 175 56
151 172 0
152 172 39
151 172 39
149 169 39
146 166 39
150 171 0
151 172 32
146 165 22
147 167 32
146 167 0
151 170 0
147 166 0
147 166 0
150 170 22
148 167 22
150 170 0
145 165 22
141 160 0
147 167 0
141 160 0
145 164 0
148 166 0
141 159 0
140 159 0
138 158 0
141 157 0
132 148 0
125 143 32
126 142 25
129 148 42
119 135 39
123 139 33
113 131 38
102 119 53
104 121 48
93 111 62
85 104 66
93 112 62
86 105 67
82 102 70
58 80 72
64 86 77
45 70 72
53 76 73
50 73 56
42 67 65
43 69 77
42 67 72
43 70 74
39 63 66
38 60 68
36 58 63
43 67 78
39 61 67
34 56 49
34 55 45
40 62 59
49 67 37
73 90 35
76 93 39
101 118 46
129 146 81
141 158 102
144 160 99
165 187 22
174 198 0
174 198 0
89 112 89
50 80 106
50 80 93
54 85 113
54 85 112
55 87 114
54 86 110
56 88 121
58 92 123
57 90 118
58 91 123
57 90 126
56 89 123
58 91 123
57 90 106
56 89 122
57 90 119
58 91 128
56 90 118
57 90 120
58 92 123
57 90 124
57 90 118
58 91 118
59 94 137
57 90 117
56 88 123
59 93 136
60 94 126
59 94 129
57 90 118
59 93 129
57 90 121
58 92 126
58 92 115
56 89 117
58 91 114
60 94 134
59 93 121
58 92 126
58 92 124
58 92 126
59 93 128
58 92 121
60 94 134
59 93 130
59 93 118
58 92 129
59 92 124
59 92 135
57 90 115
57 91 120
59 93 131
60 95 133
60 94 132
58 91 122
59 93 129
58 92 129
58 92 121
58 91 121
61 95 137
58 91 119
58 92 124
57 90 115
57 90 113
57 90 124
57 90 114
58 91 124
59 92 130
58 92 117
57 91 124
58 91 125
58 91 124
56 87 115
58 91 124
58 91 128
58 91 127
56 89 121
58 91 123
58 90 120
55 87 108
56 89 119
55 86 101
58 91 119
54 85 113
57 89 119
55 87 111
55 85 110
54 85 109
55 85 102
55 86 115
55 85 107
53 81 96
53 82 117
54 84 101
53 82 109
53 81 97
50 77 86
45 69 79
75 93 58
174 197 0
174 197 0
159 179 11
87 84 38
80 79 25
68 66 22
58 59 18
56 59 24
58 60 19
50 54 17
57 59 15
60 63 20
58 63 23
57 62 24
62 64 24
64 68 26
77 79 25
85 86 29
77 78 33
73 77 28
88 90 32
90 90 42
87 89 36
95 95 42
97 97 39
96 94 40
103 101 42
103 103 43
97 99 41
114 112 46
115 113 51
110 108 59
123 122 56
117 115 47
126 123 56
129 126 63
118 117 46
124 122 50
135 131 58
140 136 64
126 123 59
141 138 60
131 127 56
123 122 51
139 134 62
144 138 62
135 132 60
140 138 62
139 136 60
147 143 65
142 138 57
142 138 56
147 142 60
148 142 66
156 150 75
149 145 71
153 147 63
143 139 55
155 150 68
150 145 64
149 145 61
154 149 67
156 150 76
156 152 71
156 150 69
157 151 66
159 154 68
160 153 74
153 148 70
157 152 68
151 146 64
158 152 70
158 153 71
153 148 58
160 154 66
159 153 69
155 149 66
158 153 66
156 151 66
160 155 67
163 157 76
162 157 73
154 149 60
161 155 70
163 157 70
162 155 73
162 156 71
161 153 74
157 153 60
161 154 67
162 155 70
158 152 66
158 153 70
167 160 75
165 158 73
165 158 75
158 152 65
168 161 72
155 149 65
162 155 74
162 155 68
165 158 73
161 154 71
159 152 64
162 155 74
158 151 62
161 154 75
160 154 70
160 154 71
159 154 67
151 146 64
164 158 69
161 155 75
163 156 71
160 153 67
167 160 81
160 154 74
159 153 72
159 153 72
161 154 69
154 148 65
158 151 65
163 156 75
163 156 71
155 148 70
159 152 68
161 154 70
163 156 75
157 151 61
154 148 66
153 148 70
152 147 66
158 152 69
153 148 68
151 145 68
159 153 72
163 156 73
163 155 76
160 153 75
154 148 69
154 148 74
150 144 63
149 143 59
151 146 69
154 148 71
153 146 72
154 147 68
155 148 68
148 142 70
156 150 68
167 185 116
167 185 114
173 191 142
168 187 125
168 186 118
168 186 116
169 187 121
169 187 125
169 187 123
168 186 114
167 186 123
171 188 133
166 184 107
169 187 123
164 183 107
168 186 118
168 186 116
165 183 107
166 184 107
166 184 107
169 186 123
166 184 109
168 186 121
164 183 102
165 183 102
163 183 97
165 184 102
162 181 91
165 183 102
165 183 112
162 181 94
164 183 94
162 181 94
164 182 109
164 183 99
163 182 97
163 182 99
161 180 85
161 181 91
162 182 94
163 182 97
163 182 99
164 183 107
162 181 94
163 182 94
159 179 79
158 179 68
159 178 75
158 178 64
158 178 79
157 177 60
161 181 79
157 177 64
155 176 56
158 179 56
157 176 72
157 176 64
157 177 60
156 177 45
159 179 64
159 179 68
160 180 75
156 176 51
152 173 39
154 174 51
156 177 56
157 177 64
156 176 51
153 173 45
155 175 51
153 173 45
155 176 45
153 174 32
152 173 22
154 174 39
151 171 22
150 171 0
149 169 22
151 172 0
151 172 0
151 171 0
149 169 0
149 171 22
148 169 0
149 170 0
152 173 0
147 168 0
148 167 0
146 167 0
147 168 0
146 166 0
145 164 0
149 169 0
144 164 0
146 167 0
146 166 0
147 168 0
151 171 0
143 164 0
141 161 0
144 162 0
145 164 0
142 161 0
143 163 0
141 160 0
136 155 0
137 155 0
136 155 0
137 157 0
136 152 0
136 153 0
129 145 22
125 140 27
124 141 42
115 134 48
104 121 53
104 121 45
101 119 45
90 109 47
98 115 59
78 98 66
81 100 50
77 96 43
72 93 70
59 81 78
56 78 69
64 84 67
41 66 65
47 70 64
45 69 70
40 64 65
41 66 70
40 64 67
35 57 54
41 64 67
40 64 64
37 59 46
37 58 38
46 66 45
52 69 37
61 78 43
74 93 35
93 112 42
125 141 84
134 151 77
153 169 116
152 169 104
173 196 0
175 198 0
175 198 0
117 139 81
50 79 102
50 79 100
52 83 107
53 85 110
52 83 108
54 86 115
55 88 113
57 90 121
56 89 120
56 88 116
56 89 115
57 90 118
57 91 123
57 90 122
59 93 131
57 91 118
56 88 117
57 90 112
57 90 123
58 91 121
57 90 122
58 92 121
56 89 117
58 91 121
57 90 115
58 91 122
58 91 122
57 90 120
58 91 115
58 91 120
57 90 123
57 90 131
58 91 122
59 94 129
56 90 113
59 92 123
58 92 118
60 94 128
57 90 109
58 92 122
57 91 114
58 91 117
58 91 125
60 95 137
58 91 122
58 92 125
59 93 117
58 92 120
60 94 124
59 93 133
58 91 107
58 92 124
58 92 128
56 89 104
57 90 122
60 94 128
57 91 122
57 90 120
58 92 128
58 91 116
56 89 108
59 92 126
59 94 125
59 93 125
58 92 122
57 90 120
59 93 117
58 90 123
58 91 118
59 93 133
58 92 125
56 89 112
59 91 121
57 89 112
58 92 126
57 90 119
57 90 114
57 90 113
56 88 120
55 87 112
55 87 106
57 89 120
57 89 120
56 89 113
56 87 120
56 88 113
56 88 105
55 86 104
53 83 109
53 81 109
53 83 103
52 81 98
54 83 103
53 82 109
54 83 109
51 79 96
50 77 90
44 68 70
112 131 54
174 197 0
173 197 0
173 196 0
113 117 34
88 86 36
61 61 23
64 63 21
75 74 24
61 62 17
62 61 13
67 69 20
55 59 20
63 66 21
63 67 22
67 68 24
70 72 23
70 72 28
74 77 30
70 73 20
76 77 33
87 88 42
82 83 28
99 99 38
97 97 42
104 103 43
110 109 44
104 103 50
107 106 51
105 104 50
112 110 50
113 113 41
119 117 56
118 116 53
118 117 55
124 122 55
125 122 56
117 114 55
125 122 44
128 125 56
125 122 56
124 121 52
130 127 56
132 129 53
141 137 62
139 134 63
140 137 57
139 134 57
144 139 60
144 140 57
145 140 60
146 141 67
149 144 64
148 143 66
141 137 55
146 142 59
148 143 70
140 136 54
152 147 67
148 144 61
153 148 64
153 147 65
149 144 60
155 150 67
153 148 65
151 145 62
157 151 71
156 151 63
159 153 66
162 157 75
159 154 67
158 153 67
159 153 72
162 156 70
158 153 65
160 154 73
161 155 74
157 152 69
159 154 70
165 158 75
155 151 62
160 154 71
161 155 69
157 152 64
158 151 68
155 149 68
168 162 71
162 155 71
160 154 64
161 154 68
162 157 68
159 153 63
160 154 70
167 160 72
164 158 70
155 149 62
165 158 73
164 157 75
161 155 69
160 153 67
159 153 69
160 154 73
162 156 73
165 157 75
167 159 82
163 158 72
156 150 64
160 153 81
160 154 65
163 156 75
158 151 65
160 154 70
159 152 66
166 158 79
164 158 75
166 159 77
153 147 68
159 153 63
152 146 61
155 149 69
151 145 61
160 153 70
159 152 70
157 151 72
165 157 80
159 152 74
152 147 65
157 151 74
155 148 72
158 151 72
156 149 62
163 156 71
160 153 72
155 149 69
152 146 60
153 147 75
158 152 70
154 148 63
151 146 65
151 145 67
155 149 65
150 144 68
157 151 64
155 148 67
155 148 72
150 144 68
161 154 73
156 150 69
156 151 67
143 137 60
152 145 75
171 189 135
165 184 107
166 185 114
170 188 121
165 184 104
164 183 102
161 181 91
167 185 114
164 183 97
169 187 125
163 182 97
166 185 112
168 186 129
165 184 104
162 180 97
167 185 109
167 185 112
169 187 121
164 183 104
164 183 94
162 181 94
164 183 97
164 182 94
162 181 91
163 182 97
164 183 94
165 183 114
164 183 99
164 183 94
162 181 88
161 181 82
164 183 97
161 180 99
161 180 88
160 179 82
159 179 79
162 181 88
161 180 85
157 177 72
162 181 94
158 179 60
158 178 56
159 179 79
156 176 56
160 180 68
160 180 72
155 176 39
153 174 39
157 177 56
152 173 51
157 177 72
158 178 75
156 176 60
151 172 56
154 174 45
158 178 51
158 178 68
157 177 56
153 173 51
151 171 39
155 175 32
157 177 56
153 173 0
155 175 32
151 172 22
150 171 22
151 172 32
149 169 22
152 173 22
148 169 0
151 172 0
150 171 0
153 175 0
153 174 0
148 169 0
149 170 0
150 171 0
152 173 0
151 171 0
149 168 0
150 172 0
148 169 0
150 171 0
143 164 0
150 170 0
150 171 0
150 171 0
146 166 0
146 166 0
149 170 0
151 171 0
147 166 0
140 160 0
147 168 0
144 164 0
149 168 0
145 164 0
141 162 0
138 158 0
146 165 0
147 167 0
135 156 0
138 158 0
140 159 0
140 159 0
136 154 0
142 161 0
136 155 0
135 154 0
131 148 0
123 141 0
128 146 0
125 142 0
119 137 45
122 139 28
115 131 44
110 126 44
97 113 45
100 117 52
90 108 53
88 107 60
81 99 68
72 91 69
70 90 57
60 81 62
61 82 66
62 82 69
59 80 73
45 69 72
52 73 67
44 67 56
41 63 38
41 66 65
40 64 59
41 63 57
40 63 53
51 70 56
55 75 55
62 81 43
77 95 45
73 91 40
89 106 42
104 121 48
119 137 58
137 155 72
138 155 72
160 179 85
174 197 0
173 196 0
173 197 0
147 170 53
47 76 90
47 74 87
50 79 99
54 85 108
55 87 123
53 84 110
55 87 116
54 86 113
54 85 111
57 90 115
57 90 110
55 87 107
57 90 123
55 87 118
57 90 117
55 87 106
57 90 123
56 89 117
56 89 118
58 91 128
58 92 118
58 91 123
58 91 118
58 92 127
58 91 118
59 93 133
58 91 118
56 89 106
58 92 132
57 90 122
59 93 130
59 93 125
59 94 134
59 93 130
58 92 116
60 95 133
59 93 126
58 91 121
58 92 119
57 90 113
58 91 121
57 90 118
59 94 134
58 92 121
59 92 134
57 90 126
58 91 114
60 94 133
59 93 129
58 91 117
58 91 121
57 90 123
57 90 113
58 92 126
56 88 114
59 92 121
57 90 123
57 90 115
58 92 121
59 92 131
59 92 125
58 90 123
59 93 122
58 91 125
59 92 120
58 92 126
60 93 127
57 90 120
58 91 120
59 93 125
57 90 113
56 88 103
56 89 110
58 90 125
57 90 119
58 90 117
56 89 119
57 89 116
58 91 122
58 90 120
57 89 116
54 85 107
55 87 115
58 90 123
55 85 104
54 85 112
57 89 116
54 85 109
56 87 117
55 85 106
54 84 105
52 80 101
54 84 109
52 81 103
52 80 109
51 78 95
48 74 78
49 74 89
143 165 41
174 197 0
174 198 0
174 198 0
140 154 25
86 84 37
79 78 20
55 57 6
62 62 12
54 57 15
56 59 16
45 47 14
59 61 12
74 76 19
67 68 22
68 71 16
73 75 18
73 75 27
84 83 27
76 78 20
101 99 40
72 73 21
89 88 38
93 93 36
94 94 32
98 98 46
89 90 40
100 100 39
101 101 42
116 114 50
119 117 46
119 116 45
103 103 44
121 119 57
119 117 38
121 119 40
117 115 43
128 124 53
128 124 58
129 126 50
127 126 53
125 121 50
137 133 53
138 134 47
132 129 55
133 131 59
139 135 63
135 132 55
134 130 56
137 134 59
150 145 62
141 136 66
145 140 59
143 140 60
148 144 64
140 135 59
144 140 58
149 144 57
155 149 72
148 142 64
150 145 67
162 156 71
141 136 59
146 143 55
155 149 68
148 143 60
151 146 61
157 152 65
161 154 68
152 146 57
153 147 68
161 156 67
153 148 69
153 148 68
159 152 69
163 156 73
163 157 70
161 154 69
154 149 68
156 150 59
163 157 71
152 147 64
156 151 67
151 145 66
157 152 61
164 157 73
155 150 62
158 153 68
161 154 73
156 150 64
168 160 75
161 155 64
160 153 68
158 152 60
163 156 75
156 151 65
162 156 71
161 154 73
164 156 75
160 154 67
165 159 73
157 151 68
160 155 66
161 155 68
165 157 76
160 155 66
157 151 65
155 150 65
166 158 76
164 157 72
158 152 77
161 154 70
157 151 66
161 154 71
159 154 69
159 153 69
160 153 68
153 146 65
158 152 62
153 147 58
160 153 76
159 153 65
152 147 63
156 150 65
156 150 64
153 149 60
166 159 76
159 152 72
158 152 77
155 148 71
152 146 65
159 154 73
165 157 81
161 153 71
156 150 66
149 142 60
153 147 65
154 148 72
153 146 67
147 141 68
154 148 76
152 146 70
159 152 67
156 150 70
156 150 62
153 148 70
154 148 67
152 146 73
155 148 72
147 141 67
144 139 62
169 187 118
167 185 112
167 185 104
166 184 114
163 182 99
167 186 116
167 186 118
162 181 88
167 186 118
165 184 104
169 186 121
162 181 82
164 183 102
161 180 88
162 182 97
164 184 99
157 177 75
160 180 85
157 176 72
163 182 85
163 182 94
161 181 85
163 182 99
161 181 79
161 181 79
163 182 88
161 180 85
158 178 64
161 180 82
158 178 75
160 179 72
162 182 88
157 177 60
156 176 51
158 178 64
155 175 64
155 175 60
160 180 82
155 176 32
157 177 56
159 179 79
156 176 51
156 176 45
159 178 68
156 176 56
156 177 39
157 177 60
157 177 51
155 176 0
154 174 51
157 177 51
153 173 32
153 174 39
152 173 22
153 175 22
155 175 32
154 176 0
151 171 0
153 174 0
152 173 0
152 173 0
153 174 0
152 173 0
152 172 0
150 170 0
153 172 0
152 173 0
148 169 0
145 166 0
150 171 0
151 171 0
153 172 0
155 175 0
150 171 0
152 173 0
148 169 0
151 172 0
150 171 0
151 172 0
149 170 0
146 167 0
150 171 0
150 171 0
152 173 0
150 170 0
151 171 0
149 171 0
151 172 0
147 167 0
148 168 0
144 163 0
143 163 0
145 166 0
145 166 0
147 168 0
139 158 0
146 164 0
141 161 0
141 160 0
145 164 0
144 164 0
136 156 0
138 158 0
139 159 0
137 156 0
138 155 0
138 157 0
134 151 0
137 155 0
137 155 0
128 146 0
121 139 22
128 147 16
122 140 31
112 129 31
110 128 41
111 128 36
110 128 39
89 108 50
87 106 53
82 100 58
77 97 48
78 96 46
76 94 56
65 85 52
67 84 58
58 78 59
49 72 65
52 75 70
43 64 62
53 72 51
37 60 53
45 68 46
47 69 48
44 64 52
48 67 45
53 73 54
48 66 40
56 75 46
79 97 40
98 116 33
109 128 36
125 143 57
137 154 84
150 168 99
143 159 97
167 189 45
172 196 0
174 198 0
175 198 0
170 193 25
64 89 87
50 80 107
53 84 111
51 82 113
57 89 125
55 87 116
52 84 94
53 84 98
52 83 100
56 88 110
54 86 98
57 89 118
55 87 107
58 91 125
57 90 117
55 88 108
57 90 114
55 87 103
56 88 108
58 91 121
56 89 113
57 91 123
57 90 116
59 92 131
57 90 117
57 91 110
59 92 129
57 90 113
58 92 123
59 92 127
57 90 120
58 92 117
57 90 120
57 91 118
59 93 117
59 93 134
59 93 125
57 91 117
59 92 122
59 93 125
59 92 126
56 90 117
57 91 123
58 92 118
57 90 118
59 93 122
58 92 114
56 89 111
58 92 122
59 93 124
59 93 131
58 91 116
59 92 128
58 92 122
57 90 110
57 89 121
57 90 118
58 91 117
58 91 121
57 90 120
59 93 129
56 88 110
58 92 117
57 90 114
59 92 126
57 89 116
58 91 124
57 90 120
56 89 121
59 92 115
55 88 111
59 92 128
55 86 107
56 88 109
58 91 117
58 91 124
57 89 122
56 87 120
56 89 113
56 89 112
56 87 111
55 86 110
57 89 120
52 82 102
57 89 120
57 89 106
54 85 110
54 85 95
54 83 102
52 82 97
54 84 113
52 82 107
54 82 107
50 78 94
50 77 72
50 76 89
44 69 69
51 75 75
167 191 18
173 197 0
174 198 0
173 197 0
165 186 19
99 95 35
71 71 26
78 78 25
74 73 12
66 65 20
81 79 23
64 65 17
65 67 17
63 64 19
69 71 9
73 76 20
82 81 17
80 82 28
71 73 25
73 76 16
85 87 38
83 84 38
78 80 32
86 88 32
86 89 28
96 96 34
104 103 37
99 100 35
96 96 33
114 111 48
112 111 46
101 102 32
113 111 50
115 114 48
123 120 50
126 123 49
118 116 55
116 114 49
125 122 49
129 126 54
131 128 55
132 128 52
120 118 47
126 123 50
129 127 55
133 130 55
138 134 58
139 135 60
136 132 47
141 137 60
136 132 53
146 141 64
141 138 58
146 141 59
137 133 58
145 141 60
150 144 62
145 141 56
149 143 58
149 144 54
146 142 61
157 151 66
152 147 63
153 147 63
157 151 68
161 155 71
155 149 65
154 149 55
156 150 67
160 154 66
158 151 69
160 154 61
159 153 68
151 147 64
151 146 63
157 152 68
160 153 64
163 156 68
160 154 64
159 153 66
151 146 49
160 153 62
156 151 62
158 152 65
158 152 70
159 153 65
160 154 61
158 152 67
163 157 69
157 151 63
159 153 68
159 153 64
161 154 72
156 149 65
158 152 65
164 158 71
156 150 64
156 150 68
160 154 67
159 154 69
162 154 72
154 149 61
151 145 59
160 154 68
159 153 66
161 155 67
162 155 71
158 152 72
160 153 70
157 151 68
160 154 66
157 151 61
156 150 59
157 150 67
163 156 72
158 152 70
160 154 66
164 157 76
162 155 70
157 151 70
159 153 68
159 153 66
149 144 59
159 153 66
156 149 70
153 146 62
163 156 76
160 153 71
150 144 69
147 142 62
159 153 71
159 153 70
155 149 70
155 149 66
149 143 61
154 148 66
154 148 68
148 142 62
150 144 58
155 148 68
159 152 76
154 148 68
154 149 63
159 153 71
156 151 69
153 146 66
152 147 62
151 145 68
152 145 73
151 144 70
159 152 80
167 185 107
167 185 107
168 186 118
168 186 116
163 183 99
168 186 123
161 181 82
167 185 112
160 179 75
162 181 88
162 181 91
161 179 94
164 183 112
163 182 94
162 181 82
163 182 94
163 182 94
165 183 99
160 179 79
162 182 94
162 181 85
163 181 97
158 178 68
160 180 75
158 178 68
157 177 60
158 178 64
158 178 56
157 177 64
160 179 85
157 178 56
158 178 68
157 177 64
156 177 45
153 174 39
155 175 56
154 174 45
160 179 68
158 178 82
159 179 51
157 177 45
151 172 0
154 175 39
155 175 39
152 173 22
153 175 22
154 175 0
155 176 22
154 175 0
151 173 0
152 173 0
152 174 0
155 175 0
152 172 0
150 171 0
152 172 0
153 174 0
155 176 0
154 175 0
152 172 0
150 170 0
151 171 0
151 172 0
149 170 0
151 172 0
152 173 0
150 170 0
147 168 0
149 170 0
151 172 0
153 174 0
152 173 0
150 171 0
149 169 0
149 170 0
151 172 0
144 164 0
149 170 0
149 169 0
151 172 0
149 170 0
148 169 0
148 168 0
150 169 0
147 168 0
148 167 0
144 165 0
144 164 0
151 171 0
146 166 0
144 162 0
143 164 0
145 166 0
148 169 0
149 170 0
145 166 0
146 167 0
142 160 0
146 165 0
144 164 0
138 158 0
144 165 0
132 152 0
139 158 0
139 159 0
131 150 0
133 151 0
131 149 0
134 151 0
124 142 0
123 140 0
119 135 0
125 141 16
123 140 0
117 134 22
119 136 32
116 133 28
96 112 38
92 108 48
87 105 42
88 106 40
82 101 66
73 90 35
78 95 38
74 93 66
54 77 69
63 82 53
60 81 65
45 66 70
47 69 57
53 72 47
61 79 58
51 71 45
52 72 61
57 75 56
56 76 49
61 77 34
65 82 35
74 92 47
88 106 40
76 93 37
106 125 36
124 143 50
145 164 83
152 171 85
150 167 85
176 198 0
173 197 0
171 195 0
172 196 0
173 197 0
104 126 68
49 78 93
49 78 97
51 80 100
52 83 107
55 86 106
55 87 117
54 85 111
54 86 104
52 83 97
54 86 112
55 87 113
59 93 126
56 88 106
57 90 110
56 89 119
56 88 112
57 90 118
58 91 124
58 91 124
58 92 122
58 91 121
57 91 115
58 92 122
58 91 117
57 90 111
59 93 130
57 90 108
57 90 119
55 88 108
57 89 108
56 89 109
57 90 122
57 89 109
58 92 118
58 92 119
58 91 118
56 89 115
56 88 114
57 90 113
58 93 121
57 89 113
59 93 124
58 91 117
59 92 117
58 92 125
58 92 121
58 91 123
58 92 126
56 88 108
55 88 109
58 91 128
57 90 122
57 91 118
57 91 121
57 90 115
59 92 128
58 91 120
57 90 122
55 87 110
57 89 111
56 89 120
58 92 129
58 92 125
55 88 101
59 93 124
56 89 107
60 93 124
56 88 120
57 89 117
56 88 100
57 89 110
56 89 117
56 88 102
56 88 112
55 86 111
56 87 108
57 90 115
56 87 107
58 90 120
56 87 101
56 87 120
58 91 120
56 87 116
55 87 98
53 84 106
55 86 107
54 85 103
56 87 111
53 82 97
54 83 107
52 80 107
53 82 97
54 84 101
52 79 100
50 76 94
46 70 77
103 123 65
174 197 0
173 197 0
174 198 0
174 197 0
173 196 0
111 118 25
81 80 26
73 71 16
68 69 14
56 59 18
69 69 20
76 76 15
69 69 16
72 72 16
61 64 20
60 65 20
72 74 23
76 78 19
73 75 26
77 77 20
71 71 20
98 98 31
84 84 26
83 84 19
107 106 38
93 95 33
102 102 30
106 105 36
101 99 32
98 100 36
102 101 44
102 101 43
114 111 45
127 125 48
119 116 42
124 121 48
123 120 48
128 126 51
122 119 44
119 118 48
129 127 52
139 134 55
134 130 56
131 127 51
138 133 61
126 123 46
138 134 53
138 133 57
134 131 51
139 135 60
142 138 54
138 134 54
143 138 56
137 133 51
138 135 51
149 144 63
148 142 60
147 142 57
150 144 59
150 146 62
154 149 65
143 138 52
149 145 60
151 145 60
148 143 57
157 151 68
150 145 54
154 148 66
150 146 62
160 153 66
150 146 60
155 149 63
156 151 65
149 144 65
154 148 63
156 152 60
159 153 71
161 155 60
157 152 66
155 149 64
154 147 60
151 145 61
160 154 68
160 154 65
162 155 66
161 154 69
164 158 69
158 153 66
163 155 68
158 151 70
163 156 68
161 155 64
150 144 56
161 155 66
163 157 69
160 154 69
158 152 63
161 155 68
164 156 71
160 153 65
157 151 62
166 158 74
158 151 69
162 156 70
157 151 64
162 155 63
158 152 60
158 152 69
155 150 65
159 152 69
155 150 66
155 149 68
154 149 60
163 157 75
153 147 63
157 150 71
156 150 63
156 151 67
160 154 70
158 152 70
165 156 75
148 143 60
160 153 67
155 148 68
147 142 58
157 152 64
157 150 70
159 153 72
159 152 69
156 149 71
159 153 70
149 143 57
157 151 65
154 148 67
148 143 59
157 151 69
153 148 63
150 144 64
151 145 68
152 147 62
155 148 66
147 140 63
155 149 64
158 152 70
154 148 65
153 147 68
152 146 69
155 148 68
156 150 72
149 143 75
145 139 60
165 183 97
162 182 85
165 184 99
167 185 109
169 187 121
162 181 88
161 181 75
159 179 75
159 179 64
161 180 88
164 183 91
161 180 85
160 179 75
160 180 72
160 180 75
160 180 68
159 178 75
161 181 75
158 178 68
161 180 79
161 180 75
160 179 72
158 178 75
159 179 60
159 179 60
159 178 72
154 175 51
158 177 51
159 178 64
157 177 64
155 176 45
158 177 60
157 177 51
155 175 45
155 175 45
154 175 22
154 175 32
156 177 32
154 173 0
154 176 0
153 174 0
154 174 0
153 175 0
151 172 0
152 173 0
154 174 0
153 175 0
152 174 0
152 174 0
153 174 0
153 172 0
153 173 0
150 171 0
148 169 0
154 174 0
152 173 0
148 168 0
153 174 0
153 173 0
150 171 0
151 172 0
149 170 0
153 173 0
151 172 0
153 173 0
151 172 0
150 171 0
149 169 0
150 170 0
151 172 0
150 171 0
151 171 0
149 170 0
146 167 0
150 171 0
151 171 0
145 166 0
149 170 0
150 171 0
150 170 0
149 170 0
150 171 0
149 170 0
147 168 0
148 169 0
145 166 0
141 162 0
145 165 0
149 170 0
143 163 0
144 164 0
144 165 0
140 160 0
143 162 0
144 164 0
139 159 0
138 157 0
137 157 0
134 153 0
140 159 0
141 161 0
136 156 0
138 158 0
131 150 0
133 153 0
134 153 0
126 144 0
138 156 0
136 156 0
127 145 0
131 149 0
121 139 0
123 141 0
124 141 0
118 136 28
117 135 22
114 129 28
105 121 31
103 121 35
81 100 50
97 114 42
78 95 48
85 103 48
80 97 48
67 84 52
67 86 52
70 88 44
50 70 60
52 72 49
62 80 38
66 83 42
47 66 49
62 80 52
65 84 46
64 80 38
68 85 43
70 87 44
73 89 32
84 103 28
94 112 31
105 123 27
119 138 20
132 151 53
152 170 85
150 167 94
161 181 32
175 197 0
173 197 0
174 197 0
177 199 0
172 196 0
138 160 45
46 74 87
51 81 96
51 81 94
54 85 116
55 87 110
53 85 102
55 87 116
54 85 107
54 86 99
55 87 114
56 88 108
55 88 104
57 90 123
57 90 118
55 88 102
57 90 124
55 87 103
57 90 121
57 91 116
58 91 127
56 89 110
54 86 104
58 91 125
57 89 113
58 90 118
59 92 119
59 93 125
58 91 122
58 92 126
58 91 126
57 90 112
58 91 123
58 92 128
60 94 132
58 91 120
57 90 114
58 91 114
57 91 122
56 89 114
58 92 117
57 90 114
59 92 126
58 91 126
59 93 123
57 90 113
59 93 121
57 91 120
59 93 126
57 91 118
57 90 109
59 93 126
58 92 114
60 94 134
58 90 123
60 95 131
56 89 107
58 92 121
58 91 124
58 90 121
58 92 121
57 90 124
58 90 116
58 91 121
58 91 122
55 87 108
58 92 122
57 90 111
56 88 107
55 86 112
58 91 121
56 88 109
56 87 106
59 92 123
57 90 116
60 93 131
55 86 118
58 91 131
57 89 108
56 88 120
56 89 109
54 85 109
54 85 96
56 88 125
56 86 99
52 81 97
56 88 117
55 86 113
55 84 107
56 86 115
55 85 113
52 79 94
53 81 97
52 80 112
50 77 85
48 73 87
47 73 89
144 166 52
172 196 0
175 198 0
172 196 0
174 196 0
173 197 0
155 173 16
87 84 33
82 82 37
74 72 20
74 74 14
40 45 22
74 74 11
62 61 17
66 68 10
75 77 14
76 76 19
70 73 19
72 72 27
78 78 27
75 77 19
78 78 25
80 81 23
90 91 35
89 91 32
80 81 21
92 94 37
97 96 34
99 100 41
108 108 39
113 112 51
95 96 37
100 100 44
108 107 45
117 114 41
116 114 47
124 121 50
119 117 52
118 117 48
129 126 57
122 118 45
122 118 41
130 126 48
134 130 53
131 128 49
124 122 48
135 132 59
135 131 52
137 133 54
150 144 60
144 138 54
144 139 58
138 133 56
146 141 63
138 133 52
143 138 58
140 136 53
148 143 59
150 144 58
147 143 53
140 137 55
145 141 57
139 135 46
148 143 62
147 141 60
154 149 60
149 145 57
154 148 64
150 145 55
150 146 57
150 144 54
147 141 54
146 141 56
155 149 64
158 152 68
158 152 67
148 143 51
155 150 65
159 153 62
156 150 64
148 143 47
159 153 60
156 150 65
159 152 64
152 147 66
156 149 58
158 152 62
159 152 61
158 152 62
161 155 65
152 146 57
154 149 60
150 145 56
160 154 67
157 151 61
155 149 64
163 156 70
164 157 68
160 153 64
162 155 71
159 153 68
157 151 56
158 151 67
152 146 62
158 152 68
157 150 68
152 147 61
156 151 64
155 148 66
158 153 65
158 151 65
157 151 69
152 147 57
153 147 60
161 155 69
163 156 70
164 156 71
159 152 64
161 154 70
157 150 70
157 151 66
158 151 72
153 146 68
160 153 69
158 151 71
157 150 68
151 145 65
158 151 69
158 152 66
160 153 79
159 151 74
154 148 65
159 153 74
156 149 68
153 146 66
158 151 71
152 146 67
152 146 65
155 149 68
150 144 59
146 140 63
156 150 69
158 151 71
152 145 65
155 147 67
153 146 62
149 144 60
149 144 68
156 148 73
146 140 60
151 145 65
145 140 64
162 181 88
161 180 79
162 182 85
162 182 82
162 181 72
159 179 68
163 181 91
162 180 91
159 179 75
159 178 75
160 179 82
163 183 97
164 183 97
161 180 94
158 178 64
157 178 56
160 179 68
158 178 60
157 177 51
157 177 60
157 177 68
157 177 45
158 177 68
157 178 45
156 176 45
154 175 32
158 178 45
153 174 45
155 176 32
158 178 45
155 175 39
152 173 0
156 176 0
154 175 22
154 175 22
151 171 0
152 173 0
155 176 0
154 174 0
153 173 0
153 174 0
153 173 0
155 176 0
154 175 0
151 173 0
152 173 0
148 169 0
152 173 0
156 176 0
152 173 0
152 173 0
152 173 0
152 172 0
149 169 0
151 171 0
153 174 0
153 174 0
150 171 0
147 167 0
152 173 0
153 173 0
150 170 0
153 174 0
150 171 0
149 170 0
151 172 0
150 171 0
149 170 0
147 167 0
152 173 0
153 174 0
150 171 0
150 170 0
148 169 0
149 169 0
148 167 0
147 168 0
147 168 0
146 167 0
146 166 0
148 169 0
151 172 0
145 166 0
147 168 0
146 167 0
143 165 0
144 164 0
146 166 0
141 160 0
149 169 0
147 167 0
150 170 0
141 162 0
142 162 0
142 161 0
145 166 0
138 158 0
139 159 0
138 158 0
138 157 0
136 155 0
134 153 0
144 163 0
133 151 0
136 155 0
122 140 0
134 154 0
133 152 0
135 151 0
125 143 0
124 142 0
122 140 0
114 130 0
117 133 0
110 128 22
110 127 22
102 119 28
108 124 22
96 113 32
92 110 32
91 108 41
80 97 50
73 91 47
73 89 32
72 89 42
68 85 47
62 81 38
72 89 40
59 78 51
57 75 40
74 91 55
58 76 45
61 81 55
67 83 24
60 78 46
73 90 35
80 95 32
93 110 31
83 100 29
113 132 30
116 134 22
131 152 27
139 158 56
140 157 79
136 152 88
174 197 0
172 196 0
174 198 0
172 195 0
174 197 0
173 196 0
169 192 16
55 81 87
49 78 88
51 80 99
51 82 103
54 86 98
51 80 95
52 83 100
55 87 108
53 84 95
55 88 103
56 89 112
56 88 106
57 89 112
56 88 113
55 88 111
56 89 115
56 88 104
56 89 110
55 87 106
58 92 121
59 93 124
55 88 115
56 89 117
59 92 123
57 89 117
56 89 117
57 90 121
57 89 113
57 89 124
56 89 115
57 90 119
57 90 117
59 93 125
58 92 117
58 91 120
59 92 122
57 90 122
57 90 119
59 92 117
59 93 125
58 91 117
57 90 124
57 90 108
57 90 112
57 90 112
56 90 110
58 91 118
56 88 114
57 90 120
59 93 124
56 89 107
59 93 126
56 89 99
59 93 134
58 92 121
57 90 124
56 89 110
56 89 114
59 92 121
56 89 116
59 92 125
56 89 114
58 91 130
57 89 114
57 90 125
56 89 105
56 88 108
56 88 121
56 89 108
56 88 107
55 86 105
57 89 112
54 85 97
57 90 108
55 87 109
56 88 109
58 90 128
57 89 114
56 88 118
56 87 103
54 84 108
56 87 116
54 84 104
56 88 118
54 84 91
54 85 115
53 82 103
53 83 97
53 82 91
55 85 111
51 79 102
53 83 102
51 79 90
51 79 87
47 73 78
59 82 73
170 192 0
175 198 0
174 197 0
170 194 0
172 196 0
174 197 0
171 194 0
108 108 33
87 85 24
80 77 29
71 71 11
69 68 16
73 73 14
62 62 8
58 62 16
66 68 20
77 77 27
79 80 18
68 69 17
67 68 21
76 78 22
84 84 30
72 74 23
81 82 20
86 87 27
105 103 38
101 99 35
99 98 29
95 96 27
102 101 38
104 103 37
108 107 44
102 102 45
114 113 40
111 109 31
115 112 44
111 108 31
115 113 44
121 120 60
129 126 52
118 116 45
126 122 50
128 123 57
126 123 50
130 127 46
133 130 47
136 131 52
140 136 56
134 130 45
136 133 47
133 129 48
140 134 57
131 127 50
144 140 56
134 130 53
138 134 56
139 136 56
149 143 52
148 143 59
160 153 67
149 144 57
153 147 56
143 138 56
148 143 59
151 146 57
146 143 60
151 145 62
144 138 53
148 142 54
148 143 52
157 151 64
154 148 65
158 152 64
146 141 55
155 148 59
156 151 60
153 149 59
160 154 66
152 146 58
151 146 57
148 144 52
157 151 57
159 152 69
154 148 63
155 148 66
155 150 65
157 152 60
154 148 58
160 153 68
162 155 70
155 149 63
157 150 67
159 152 65
156 150 67
166 158 79
164 157 70
150 144 58
153 147 56
158 152 64
161 154 70
161 154 70
152 147 61
155 148 64
152 146 60
160 154 72
161 155 64
156 150 62
157 151 61
152 146 63
148 143 58
153 148 61
151 145 66
153 147 59
155 148 67
153 148 62
154 149 67
156 150 71
152 146 54
157 150 65
155 148 70
155 148 69
155 148 71
157 152 66
164 158 70
155 149 63
160 153 70
159 152 72
152 145 66
156 149 60
157 150 66
155 148 69
151 144 65
151 145 64
152 146 66
157 151 69
159 152 64
149 143 64
151 146 61
151 144 64
159 153 68
150 144 66
151 145 61
143 137 58
154 148 66
148 142 64
154 147 65
150 144 64
152 145 74
148 141 63
147 141 61
154 149 65
142 136 61
162 181 91
163 182 94
162 181 88
160 179 85
157 177 72
161 181 75
156 177 51
159 179 72
157 177 64
159 179 72
158 178 60
157 176 56
159 178 75
156 177 32
159 178 56
157 177 51
157 177 45
155 176 39
158 178 56
157 177 45
155 177 39
157 177 51
155 176 51
157 177 39
154 174 32
154 175 22
153 174 32
151 171 0
154 175 0
155 176 0
152 173 0
153 174 0
153 174 0
152 173 0
152 173 0
153 173 0
153 174 0
153 174 0
153 174 0
153 174 0
152 173 0
152 172 0
151 172 0
153 174 0
152 172 0
151 172 0
151 172 0
155 175 0
153 174 0
152 172 0
152 172 0
149 169 0
153 174 0
151 172 0
155 176 0
148 169 0
151 171 0
151 172 0
154 174 0
148 169 0
151 172 0
149 170 0
150 171 0
151 172 0
147 168 0
150 171 0
149 169 0
148 168 0
148 170 0
146 166 0
148 169 0
152 172 0
153 173 0
147 168 0
150 170 0
147 167 0
151 172 0
147 167 0
144 165 0
149 170 0
145 166 0
146 167 0
149 170 0
147 169 0
147 168 0
140 161 0
146 167 0
141 162 0
146 166 0
145 165 0
145 166 0
138 157 0
138 159 0
139 160 0
145 164 0
140 160 0
133 151 0
140 160 0
139 158 0
136 155 0
134 153 0
138 157 0
134 153 0
132 151 0
129 146 0
136 155 0
129 148 0
126 145 0
130 149 0
129 148 0
120 138 0
116 134 0
126 143 0
119 137 0
118 135 28
111 128 32
118 136 28
105 123 36
97 112 16
97 115 45
90 108 42
86 102 39
81 98 28
85 102 43
67 84 42
75 91 34
71 87 30
70 88 40
68 84 30
61 78 42
65 83 55
61 76 36
61 78 30
62 77 35
78 94 26
76 94 48
87 104 32
81 98 36
112 129 21
109 127 30
127 146 0
140 160 28
138 157 39
136 152 64
159 178 45
173 197 0
172 196 0
173 196 0
171 195 0
176 198 0
173 197 0
173 196 0
122 145 49
48 76 91
49 77 98
50 80 101
52 83 96
52 83 98
55 87 105
54 86 108
56 88 107
56 89 112
54 86 95
53 85 95
56 89 114
55 88 102
56 88 117
56 88 117
58 91 119
57 90 119
56 89 110
55 87 104
56 89 112
57 91 117
56 89 115
56 89 115
57 90 120
56 88 105
56 89 110
55 88 108
56 89 121
57 89 116
56 89 114
57 90 114
56 88 121
56 89 111
57 90 114
57 89 113
57 90 118
58 92 122
58 91 128
59 93 130
57 90 121
58 92 120
57 90 128
59 93 125
58 91 114
58 91 125
58 92 120
57 90 120
59 92 125
56 88 107
58 91 122
56 89 117
57 91 115
57 89 112
57 90 111
56 89 105
59 93 124
58 91 120
57 89 120
57 89 120
57 89 117
56 88 115
54 86 103
56 88 110
57 90 126
57 90 114
57 90 113
57 89 112
57 89 113
58 91 117
57 90 114
56 88 114
55 87 107
53 84 104
56 87 116
54 84 110
56 88 113
56 87 113
52 82 90
54 85 113
54 84 99
53 82 103
53 83 101
53 84 104
54 85 100
55 86 108
53 83 102
55 86 115
51 80 107
53 83 109
51 77 98
52 80 94
51 78 91
46 69 67
48 73 67
125 145 49
173 197 0
173 196 0
174 197 0
173 197 0
172 195 0
171 194 0
173 196 0
141 153 28
93 91 37
86 84 28
70 71 11
82 80 27
71 71 21
65 66 8
63 66 9
80 79 16
74 74 15
63 66 16
70 71 20
72 71 19
81 83 24
77 78 24
82 82 30
74 75 14
88 88 28
79 78 19
95 95 30
100 100 29
104 103 37
79 82 27
101 99 24
110 108 26
105 105 30
98 98 33
120 116 49
117 114 42
125 122 44
123 120 46
113 111 45
124 120 47
127 125 50
122 120 47
127 123 47
121 118 43
130 128 49
136 131 46
130 126 45
133 129 41
135 131 50
129 126 41
139 135 53
134 131 47
142 137 55
142 138 48
141 137 63
147 143 53
148 142 59
143 138 54
144 139 60
144 139 57
151 145 59
146 141 56
149 143 55
154 147 62
150 145 57
145 141 47
147 141 57
149 144 58
145 141 45
161 154 70
155 149 51
150 145 54
153 148 54
151 146 59
154 149 58
161 155 61
156 150 65
150 145 49
155 149 57
150 145 58
149 144 55
149 143 56
158 152 66
155 150 60
152 147 55
158 152 64
160 153 68
156 149 57
153 147 63
158 153 63
161 153 71
153 148 61
151 144 56
164 157 69
156 150 61
149 143 60
159 153 59
153 148 51
152 147 62
157 151 63
154 148 61
154 148 56
161 155 70
152 145 59
164 157 70
159 152 68
153 147 60
157 151 63
153 147 59
159 152 72
154 149 63
162 155 69
151 145 60
151 146 59
153 147 63
160 153 69
157 151 68
155 149 64
155 149 59
150 144 60
158 152 65
153 147 62
152 146 62
163 157 66
155 149 62
152 146 60
159 153 64
147 141 64
158 152 64
150 144 61
156 150 74
156 150 62
150 145 59
153 148 66
156 149 73
154 149 68
150 144 63
149 143 68
164 155 77
157 151 65
147 140 58
145 139 59
148 142 60
156 149 71
150 144 61
148 142 64
144 138 63
154 148 67
142 136 57
144 139 60
158 151 68
152 146 71
161 181 91
160 180 72
159 179 82
156 176 51
160 180 64
160 180 64
160 179 75
159 179 75
154 176 32
158 179 64
158 179 56
158 178 56
156 177 22
158 179 60
155 176 39
158 178 60
154 175 22
155 176 39
153 174 22
153 173 0
152 172 39
153 173 0
153 174 0
154 175 0
154 174 0
152 173 0
151 172 0
149 169 0
154 175 0
150 171 0
152 173 0
151 172 0
151 172 0
153 175 0
152 172 0
152 173 0
151 172 0
149 170 0
151 171 0
150 171 0
153 174 0
153 174 0
151 172 0
149 171 0
153 174 0
147 168 0
152 173 0
151 172 0
150 171 0
149 170 0
153 174 0
150 171 0
150 170 0
149 169 0
152 173 0
152 173 0
152 173 0
151 171 0
148 169 0
150 171 0
149 169 0
147 168 0
148 169 0
153 174 0
147 167 0
149 170 0
152 172 0
149 170 0
150 170 0
151 171 0
145 165 0
149 169 0
144 164 0
148 168 0
145 166 0
147 168 0
145 166 0
146 166 0
148 169 0
147 168 0
148 168 0
146 166 0
144 164 0
145 165 0
146 165 0
144 164 0
148 168 0
138 159 0
145 166 0
144 164 0
142 162 0
141 161 0
139 158 0
144 163 0
136 156 0
143 163 0
135 156 0
137 156 0
141 161 0
138 158 0
136 155 0
140 160 0
139 159 0
135 155 0
131 150 0
124 143 0
128 146 0
131 149 0
130 147 0
119 136 0
122 141 0
123 141 0
120 138 0
115 132 0
121 137 0
111 125 0
110 126 16
105 122 22
103 120 28
103 119 22
94 110 32
83 100 38
76 92 32
84 100 22
80 97 38
70 87 42
72 88 32
66 82 42
71 88 35
67 83 26
74 90 44
72 88 21
81 97 33
84 101 34
84 100 33
91 107 26
92 108 36
100 117 22
108 125 19
125 144 22
132 151 0
140 160 0
134 153 45
134 151 68
171 195 0
172 196 0
171 194 0
171 194 0
172 195 0
174 197 0
173 196 0
174 197 0
163 186 26
50 77 84
51 81 91
48 77 85
51 80 92
52 82 106
54 86 109
54 86 102
53 85 105
56 88 117
54 86 97
55 86 103
56 88 110
56 88 115
56 88 119
56 89 113
56 89 107
55 88 108
56 88 110
57 90 113
55 87 115
56 88 115
56 88 109
57 91 113
56 89 116
57 90 110
57 90 118
58 91 112
57 89 118
57 90 107
57 91 115
56 88 109
59 94 122
58 91 106
58 91 113
60 95 140
57 91 114
57 91 115
59 92 122
56 89 115
56 89 108
58 92 124
57 90 113
57 90 114
57 90 121
58 92 115
57 90 114
56 88 108
59 92 120
58 91 125
56 88 108
58 91 123
57 91 120
58 90 120
59 92 126
58 92 113
55 88 105
57 91 120
58 91 117
57 90 114
58 92 125
59 92 120
57 90 107
58 91 120
57 90 122
56 88 108
57 89 121
58 91 121
56 88 111
56 87 120
57 89 99
56 88 104
56 87 110
56 89 113
56 88 113
56 88 114
54 85 89
56 87 106
55 86 101
54 84 106
54 85 104
55 86 103
52 83 100
54 84 102
53 83 98
54 84 98
50 77 82
53 83 93
54 83 110
53 81 94
49 75 89
50 76 76
49 75 93
49 76 94
46 69 65
160 183 32
172 196 0
174 197 0
172 195 0
174 197 0
172 195 0
175 197 0
173 197 0
172 196 0
106 111 25
83 82 28
72 70 24
82 79 22
84 83 22
80 79 23
65 68 12
71 70 17
71 71 15
74 75 23
71 71 18
73 75 10
76 74 11
78 77 19
83 84 26
79 79 23
79 81 22
97 96 32
84 84 23
83 85 35
94 93 29
97 95 28
108 105 31
104 103 36
115 113 32
114 113 38
106 105 34
112 110 26
113 110 45
123 121 47
127 125 47
123 121 34
119 116 39
127 125 42
127 124 50
127 124 44
127 123 50
132 129 45
128 125 42
131 127 49
130 126 52
126 123 40
135 129 35
135 130 50
132 128 50
133 128 47
147 142 56
140 135 51
134 130 51
142 138 55
151 145 63
148 142 58
140 136 53
137 133 54
148 142 56
147 142 51
143 140 49
145 140 52
142 139 49
146 142 52
151 146 60
150 145 59
149 144 51
152 146 59
144 139 52
154 148 59
158 151 59
157 150 62
157 152 57
152 146 60
160 153 68
159 153 62
154 149 57
152 147 52
153 146 56
161 154 66
157 151 58
157 150 61
158 151 60
154 148 58
153 146 57
158 152 65
152 146 53
158 150 67
155 149 63
153 148 57
154 149 53
156 150 64
160 153 63
155 149 62
159 153 65
154 148 60
156 150 59
159 153 67
151 146 52
154 148 63
148 142 56
155 149 66
159 152 65
163 156 64
155 147 65
155 148 69
158 152 63
159 151 64
161 155 64
155 149 61
155 149 57
152 146 61
152 146 56
158 149 75
145 140 52
154 147 67
155 149 57
153 147 65
158 151 62
152 147 63
154 148 65
150 144 62
158 150 70
156 150 72
158 152 64
156 150 61
157 151 61
151 146 64
152 145 64
157 151 67
150 144 67
153 146 62
154 147 70
155 148 67
152 145 70
152 147 64
159 152 70
148 141 67
154 148 62
155 148 69
150 143 61
156 149 64
143 138 57
153 147 71
150 144 60
148 142 60
148 143 66
148 142 61
159 179 68
155 176 39
158 178 60
158 178 75
155 176 39
159 179 51
157 176 60
157 177 64
154 175 32
158 178 60
157 176 45
156 177 45
155 176 39
154 175 32
156 176 32
154 175 22
154 175 0
154 175 0
154 174 0
154 176 0
152 173 0
153 173 0
152 174 0
153 174 0
153 173 0
153 173 0
153 173 0
153 174 0
153 175 0
151 172 0
153 174 0
153 174 0
151 173 0
153 174 0
154 175 0
153 174 0
152 172 0
152 173 0
152 173 0
153 174 0
152 173 0
152 173 0
152 173 0
151 172 0
154 175 0
151 171 0
152 173 0
151 171 0
150 171 0
149 170 0
153 173 0
148 168 0
154 174 0
149 169 0
153 174 0
151 173 0
151 172 0
150 172 0
151 172 0
148 168 0
149 171 0
151 171 0
149 169 0
154 174 0
149 169 0
150 170 0
151 173 0
147 167 0
152 173 0
149 170 0
147 167 0
147 169 0
150 171 0
146 166 0
144 165 0
144 165 0
146 167 0
147 169 0
147 168 0
146 166 0
146 166 0
146 166 0
145 165 0
145 165 0
144 165 0
141 162 0
146 165 0
144 165 0
141 161 0
144 164 0
140 161 0
141 161 0
142 162 0
137 157 0
141 162 0
141 160 0
140 161 0
133 153 0
129 149 0
135 154 0
131 150 0
133 153 0
133 151 0
132 150 0
128 147 0
134 154 0
122 141 0
133 153 0
126 144 0
129 148 0
122 139 0
120 139 0
119 138 0
121 139 0
117 134 0
119 137 0
110 128 16
107 125 22
110 126 16
101 117 0
81 96 27
86 102 22
96 112 16
82 98 35
84 100 36
87 104 38
83 100 36
64 81 38
79 96 27
65 80 31
74 90 31
68 84 27
75 93 30
81 99 36
97 112 5
99 115 28
105 123 22
108 125 27
116 134 21
129 147 0
132 151 0
132 150 22
131 147 72
158 180 45
173 196 0
171 195 0
172 195 0
171 194 0
167 191 0
171 194 0
172 196 0
171 196 0
173 197 0
106 127 50
47 74 73
49 78 82
50 80 100
53 85 104
52 83 95
51 81 88
53 85 104
56 88 105
55 87 110
55 87 109
56 88 106
55 87 108
56 88 114
58 92 121
55 87 103
58 91 125
55 88 105
57 90 116
57 89 118
58 91 124
57 90 125
58 92 121
57 90 109
55 88 105
58 91 116
55 87 112
56 88 105
57 89 115
58 91 126
56 89 113
56 88 108
55 87 115
56 88 108
58 90 115
58 91 118
56 88 103
55 88 103
57 90 117
58 91 117
56 88 110
58 91 120
55 87 103
55 88 108
59 93 124
57 90 118
58 91 124
58 91 117
54 86 109
58 92 114
58 91 117
56 89 120
55 87 102
56 89 105
56 89 105
58 91 122
56 88 108
56 89 105
57 91 114
57 89 120
56 88 108
58 91 111
57 89 115
56 88 106
57 89 115
56 88 103
58 91 124
56 89 111
56 88 114
55 87 114
55 87 111
59 91 124
56 89 108
54 85 95
55 86 96
56 89 108
55 85 102
54 85 102
55 85 110
53 84 111
55 86 109
56 87 112
54 84 105
54 84 106
52 81 98
52 80 103
52 80 87
52 81 95
52 81 103
53 82 102
47 72 91
46 72 66
48 75 80
109 128 31
171 194 0
172 194 0
174 196 0
173 196 0
170 194 0
168 192 0
172 195 0
173 196 0
172 195 0
150 167 19
91 89 33
82 81 21
96 93 29
74 72 12
91 89 27
78 76 18
79 77 21
76 75 20
72 71 13
82 82 19
69 72 17
76 77 12
86 85 22
84 82 28
75 76 27
92 92 32
81 80 27
91 91 34
98 97 26
94 93 27
99 98 22
101 100 27
114 112 32
105 103 43
109 107 34
105 103 36
109 106 40
107 105 33
128 125 36
118 115 48
120 117 44
112 110 32
124 120 44
127 124 43
128 123 44
130 126 46
132 127 49
133 129 51
136 132 45
130 126 45
136 132 47
135 131 48
129 125 44
130 125 49
132 128 50
132 129 43
139 134 60
132 129 43
143 138 53
135 131 51
147 141 54
145 140 56
141 135 50
139 135 54
145 140 49
146 141 56
150 144 59
144 139 53
149 144 58
143 139 46
155 150 58
150 144 57
145 140 52
150 145 53
155 149 54
146 141 49
158 151 62
146 140 46
155 149 58
155 150 65
152 146 56
155 149 60
154 147 58
154 148 59
148 143 51
156 150 53
160 154 54
154 148 55
153 147 56
151 146 56
156 150 58
149 144 49
152 146 58
158 150 60
155 149 63
155 149 65
154 149 54
156 150 65
155 149 59
154 148 65
161 154 62
154 147 61
155 149 64
159 151 66
158 150 63
155 148 64
154 148 61
155 149 56
157 151 65
155 149 62
150 145 58
156 150 62
152 147 63
157 151 62
153 147 59
156 149 60
156 149 63
151 145 63
154 148 66
160 153 63
152 146 66
158 151 64
156 150 63
152 145 67
154 147 66
153 147 59
151 145 64
157 150 70
155 149 59
153 146 67
152 147 59
149 143 59
156 150 64
149 144 57
152 147 65
152 146 65
147 141 61
152 146 60
152 146 64
150 144 63
149 143 65
150 143 60
149 143 59
150 145 63
153 147 68
148 143 61
149 142 57
155 149 69
148 142 66
153 146 65
148 143 67
151 143 64
155 149 71
158 178 64
157 177 56
158 178 39
157 177 32
157 178 51
154 175 45
157 177 45
156 176 32
155 176 39
154 175 22
155 176 0
154 174 32
154 175 0
153 173 0
153 173 0
153 174 0
154 175 0
152 173 0
153 174 0
151 173 0
154 175 0
154 173 0
153 174 0
154 175 0
149 170 0
153 174 0
154 175 0
152 173 0
152 173 0
154 175 0
152 173 0
151 172 0
153 174 0
149 170 0
151 172 0
153 173 0
152 173 0
148 168 0
152 171 0
154 175 0
152 172 0
153 173 0
154 175 0
152 173 0
151 171 0
152 172 0
153 174 0
150 171 0
150 170 0
151 173 0
149 169 0
149 170 0
150 171 0
150 172 0
150 171 0
148 168 0
152 173 0
145 166 0
149 168 0
150 171 0
151 171 0
150 171 0
144 165 0
145 166 0
145 166 0
147 168 0
144 164 0
149 170 0
142 163 0
146 167 0
150 170 0
151 171 0
151 172 0
147 167 0
146 166 0
151 171 0
147 167 0
148 168 0
143 163 0
147 167 0
145 165 0
144 165 0
141 160 0
142 163 0
149 169 0
144 165 0
143 163 0
143 163 0
143 164 0
143 162 0
137 156 0
139 159 0
144 164 0
146 165 0
141 160 0
141 160 0
137 156 0
141 161 0
135 155 0
133 153 0
135 154 0
131 151 0
133 153 0
127 146 0
132 152 0
133 153 0
125 144 0
115 133 0
125 144 0
123 141 0
122 140 0
123 141 0
115 132 0
109 126 0
107 124 0
118 135 0
119 136 0
105 121 0
106 122 0
89 104 0
93 108 0
94 111 35
86 101 27
87 102 35
80 96 32
83 98 16
77 92 14
87 102 30
80 96 22
81 97 30
78 93 15
73 88 37
88 102 16
94 112 22
99 116 16
92 107 22
108 125 16
116 134 0
121 140 0
131 151 0
137 156 0
130 148 51
135 153 60
173 197 0
173 196 0
171 195 0
171 195 0
172 196 0
168 192 0
169 193 0
171 195 0
170 193 0
172 196 0
160 183 31
47 75 80
52 82 99
51 81 98
50 80 89
54 85 109
52 83 82
54 86 98
54 86 109
56 88 105
53 84 91
55 87 112
55 87 109
56 88 108
56 88 108
57 91 121
57 90 115
54 86 109
54 87 103
57 90 120
57 90 118
56 89 114
56 89 114
55 86 113
55 87 108
55 87 106
55 88 105
58 92 118
57 90 111
56 88 112
58 91 112
57 89 118
57 90 121
57 89 117
58 91 133
58 92 121
59 92 124
55 87 108
56 88 118
58 91 114
57 90 111
56 89 107
58 91 121
58 92 122
58 91 118
56 89 113
59 92 122
58 91 129
57 89 120
57 90 111
57 90 116
57 90 115
58 91 120
57 89 118
57 90 114
55 87 107
58 92 118
55 87 113
58 90 123
55 88 110
57 90 105
57 89 110
53 83 97
57 89 111
55 87 107
56 87 108
58 91 120
57 90 110
56 88 107
57 89 121
56 89 111
55 86 109
56 87 123
57 89 111
54 85 106
55 87 112
53 84 99
58 90 116
55 86 110
53 84 104
52 81 91
54 85 100
54 84 102
51 79 90
53 82 93
53 82 93
54 84 94
52 80 89
50 78 89
52 80 95
52 79 88
51 79 86
52 75 76
160 183 25
170 192 0
169 193 0
168 192 0
171 195 0
173 195 0
170 193 0
171 194 0
172 195 0
171 193 0
168 191 0
125 131 31
97 94 39
86 84 29
77 74 20
82 83 16
78 76 12
70 70 16
75 74 16
88 86 18
76 75 13
66 67 12
87 84 14
82 82 23
88 88 20
84 83 16
85 86 27
83 84 24
87 86 22
81 82 25
95 93 42
98 97 25
109 107 35
101 98 35
108 105 36
104 103 29
114 112 35
111 109 35
112 109 36
115 113 30
120 117 38
118 115 29
112 111 32
127 124 38
127 124 47
124 119 40
123 119 45
120 117 39
130 126 42
124 121 44
127 123 40
127 124 39
133 129 45
142 136 50
131 128 47
137 135 48
139 134 52
129 125 39
137 132 38
136 133 39
144 137 46
151 145 58
136 131 45
141 136 54
143 138 56
143 137 52
150 143 60
144 138 49
149 145 57
143 138 52
144 138 54
142 137 50
146 141 56
152 146 59
154 148 54
149 142 54
154 148 57
156 150 57
150 146 55
152 146 51
151 146 54
150 144 52
156 150 60
153 147 51
158 151 63
146 140 46
154 149 60
147 143 49
142 138 41
156 149 59
155 148 61
155 150 53
153 147 59
156 149 57
158 151 64
157 150 64
157 151 62
155 149 58
156 149 65
155 149 52
153 146 61
155 149 54
151 144 54
153 146 60
153 147 62
157 150 63
156 149 63
159 153 65
155 149 63
151 146 58
153 146 59
157 150 61
158 151 68
154 147 59
166 159 71
150 145 57
150 144 59
152 146 63
153 148 60
161 155 64
158 152 61
147 142 54
157 151 64
159 152 62
150 144 60
154 147 68
149 144 58
153 146 60
152 146 59
149 142 58
156 150 68
153 147 62
153 147 62
155 150 65
153 147 60
141 136 47
153 148 61
151 145 61
149 143 58
149 142 60
147 142 54
150 145 60
150 143 63
154 148 69
156 149 61
148 142 61
144 138 60
152 146 62
149 143 59
145 139 61
149 142 59
142 136 54
152 146 68
143 137 52
158 178 60
156 176 39
155 176 39
153 174 51
155 175 0
154 175 22
154 175 22
154 174 0
152 173 0
154 175 0
154 175 0
154 174 0
155 175 0
154 175 0
153 173 0
151 172 0
154 175 0
153 175 0
150 171 0
153 174 0
151 171 0
154 175 0
153 174 0
153 174 0
150 171 0
150 171 0
150 171 0
152 173 0
151 172 0
153 173 0
150 171 0
151 172 0
152 173 0
153 175 0
149 170 0
152 173 0
152 172 0
151 172 0
147 168 0
151 173 0
150 171 0
150 171 0
152 173 0
149 170 0
150 171 0
151 172 0
150 171 0
148 169 0
152 172 0
151 171 0
149 170 0
152 173 0
151 171 0
151 172 0
150 170 0
151 172 0
149 169 0
149 169 0
147 167 0
149 169 0
146 167 0
144 165 0
151 171 0
150 170 0
149 169 0
148 170 0
146 167 0
149 169 0
146 165 0
145 164 0
152 172 0
148 168 0
150 170 0
147 167 0
145 166 0
144 164 0
146 166 0
148 168 0
149 170 0
148 168 0
148 168 0
141 160 0
148 169 0
145 166 0
144 164 0
138 158 0
142 162 0
142 163 0
139 160 0
140 160 0
143 163 0
139 159 0
140 158 0
143 163 0
136 156 0
138 159 0
136 156 0
133 152 0
136 155 0
129 148 0
134 155 0
131 150 0
136 154 0
126 145 0
136 156 0
139 158 0
126 143 0
126 145 0
124 143 0
126 144 0
125 144 0
126 145 0
117 134 0
111 127 0
105 123 0
106 123 0
110 127 0
111 128 0
108 125 0
103 119 22
94 110 16
92 108 0
95 111 28
91 108 27
91 107 14
81 96 26
89 105 38
85 99 0
77 91 27
71 87 0
78 93 33
93 109 33
87 101 0
102 119 26
96 113 22
105 121 0
110 128 0
123 142 0
132 151 0
128 146 0
131 150 0
127 144 32
163 184 22
172 196 0
172 195 0
172 196 0
173 196 0
173 197 0
168 192 0
171 195 0
171 195 0
168 191 0
170 193 0
171 195 0
109 131 62
49 79 68
51 80 89
51 82 90
55 86 114
54 85 104
53 84 95
53 83 99
53 84 94
52 82 97
55 87 107
54 86 110
54 86 104
55 87 104
55 87 93
58 92 130
57 90 111
56 88 112
56 88 115
55 87 109
57 90 118
55 87 115
57 91 114
55 87 103
56 88 115
54 85 103
57 91 112
55 87 106
54 85 108
56 89 114
57 90 119
57 90 110
58 92 117
57 90 125
57 90 114
58 91 117
57 90 105
57 90 115
57 90 111
58 92 117
56 88 107
56 89 115
56 88 108
58 91 113
59 93 130
53 85 95
57 90 111
55 87 108
58 91 110
58 91 122
56 88 102
56 89 107
58 91 115
55 87 99
56 89 113
56 88 113
56 89 111
57 89 116
54 87 99
55 88 113
56 89 107
56 89 113
54 86 107
58 91 114
57 90 116
57 90 117
56 87 106
58 91 121
57 89 112
54 84 107
54 84 102
57 89 112
55 87 101
57 90 115
57 89 117
54 84 94
56 88 116
57 89 113
55 86 109
55 85 105
56 87 107
52 81 93
50 79 87
53 82 95
52 80 106
54 83 91
52 81 98
47 73 81
50 78 82
47 74 73
44 67 66
104 123 46
170 193 0
169 192 0
170 194 0
166 188 0
173 195 0
168 191 0
170 192 0
168 191 0
170 194 0
172 194 0
169 192 0
157 176 11
99 95 32
89 86 32
85 81 22
70 70 20
89 85 13
81 80 23
75 75 18
81 80 18
74 74 13
73 73 15
81 79 19
73 72 12
81 80 23
79 78 21
90 90 21
87 87 16
83 84 14
103 101 25
96 95 27
107 105 38
99 97 32
109 107 29
115 112 43
109 107 37
103 102 26
106 104 37
102 100 39
103 103 34
110 108 34
127 122 46
116 113 38
117 115 45
118 114 39
122 119 33
114 112 35
125 121 48
133 130 45
134 130 41
124 120 33
139 134 48
134 130 52
128 124 34
137 133 44
138 134 48
135 130 45
129 127 38
139 135 50
140 135 44
144 138 42
146 139 46
145 140 49
135 130 51
143 139 51
138 134 45
148 142 56
142 137 47
148 142 54
143 138 47
147 141 48
150 144 58
151 145 52
152 145 60
143 138 42
136 131 45
147 141 45
144 138 52
153 146 62
155 150 61
149 143 49
157 150 59
157 149 65
152 145 59
152 146 58
152 145 57
151 144 54
150 144 58
149 144 54
149 143 52
155 149 61
148 143 39
147 141 47
154 148 61
151 145 57
156 150 62
157 149 63
162 156 64
153 147 60
154 147 59
155 149 53
156 151 53
156 150 61
152 146 56
156 149 63
157 150 62
148 143 53
151 144 64
156 150 58
154 147 58
161 154 68
155 148 61
155 148 57
146 140 45
151 147 58
145 139 60
160 153 66
150 146 63
154 147 67
148 142 54
144 138 58
154 148 56
154 148 54
156 150 65
154 148 57
146 141 59
161 154 65
159 153 69
149 144 57
146 141 62
150 144 57
145 140 51
143 138 53
146 141 59
151 144 62
152 146 60
151 145 63
152 145 61
143 136 61
141 135 57
150 143 60
157 151 64
143 137 59
151 144 69
147 141 54
149 144 61
148 142 56
144 138 58
151 145 57
146 139 58
148 141 68
142 137 54
147 140 60
147 141 58
156 177 51
154 175 22
154 175 22
155 175 32
154 175 0
155 176 22
147 168 0
155 175 0
153 174 0
154 175 0
153 174 0
154 175 0
154 174 0
152 174 0
153 173 0
150 171 0
151 172 0
152 173 0
152 173 0
151 172 0
151 173 0
152 173 0
154 175 0
153 174 0
155 175 0
151 172 0
153 173 0
151 171 0
151 172 0
152 172 0
152 172 0
151 172 0
153 173 0
154 175 0
151 172 0
149 170 0
152 172 0
148 168 0
153 174 0
152 172 0
150 171 0
154 174 0
151 172 0
152 172 0
152 172 0
151 172 0
149 169 0
151 171 0
152 172 0
150 171 0
149 170 0
153 173 0
150 170 0
149 171 0
147 167 0
146 167 0
152 173 0
149 169 0
150 170 0
152 172 0
148 169 0
150 170 0
147 168 0
149 170 0
150 170 0
146 167 0
146 166 0
149 170 0
146 167 0
149 168 0
144 163 0
149 170 0
146 166 0
148 168 0
146 167 0
145 165 0
146 166 0
143 163 0
145 165 0
148 168 0
141 161 0
150 171 0
144 165 0
147 166 0
144 165 0
140 160 0
139 159 0
144 163 0
140 161 0
142 163 0
140 160 0
136 155 0
140 160 0
134 154 0
137 156 0
137 157 0
138 158 0
137 156 0
133 153 0
135 155 0
133 152 0
130 149 0
131 149 0
132 150 0
128 146 0
124 142 0
124 143 0
134 153 0
115 133 0
127 146 0
124 142 0
111 129 0
115 133 0
120 137 0
117 134 0
117 134 0
110 128 0
109 125 0
96 112 0
100 117 0
106 122 16
98 113 0
97 111 14
93 108 0
98 114 21
99 114 28
88 103 0
78 94 16
90 105 0
93 109 14
80 94 0
89 104 16
101 117 0
91 106 24
101 118 16
113 131 16
119 137 0
125 144 0
134 151 0
121 139 0
128 146 0
143 162 39
169 193 0
170 194 0
171 194 0
173 197 0
172 194 0
172 195 0
166 189 0
169 193 0
171 195 0
170 193 0
171 195 0
171 194 0
158 180 19
53 81 78
49 78 85
51 82 82
52 83 72
51 81 97
52 83 96
55 87 107
50 80 91
51 82 95
55 86 105
51 81 102
54 86 106
53 85 88
54 86 108
56 88 99
55 88 116
55 87 100
57 89 114
55 87 113
55 87 103
55 88 109
58 92 115
55 87 102
56 88 106
56 88 103
53 84 100
55 87 111
57 90 117
55 87 106
55 87 102
55 87 106
57 90 111
56 89 107
55 88 105
55 87 102
57 90 114
56 88 107
56 88 115
55 88 111
58 91 118
55 87 107
57 90 109
57 90 108
57 90 111
58 91 118
58 90 117
57 90 113
56 89 108
57 90 115
58 91 111
57 90 110
58 90 122
56 88 114
57 89 114
55 86 108
56 88 102
56 89 113
55 87 108
55 87 99
57 90 118
58 91 114
58 91 118
55 86 104
57 89 120
55 87 105
55 88 105
57 90 113
55 87 110
55 86 110
55 87 108
55 87 106
56 87 107
55 86 94
55 87 107
55 86 94
53 83 94
54 85 98
53 83 104
55 85 108
51 80 90
55 86 102
51 80 87
55 84 110
53 82 106
52 80 98
51 78 86
51 79 92
47 72 67
44 69 69
61 83 76
154 177 25
171 193 0
167 190 0
171 193 0
170 192 0
170 192 0
169 191 0
172 195 0
170 192 0
171 193 0
167 190 0
171 193 0
167 190 0
129 140 21
83 81 28
86 82 17
82 80 14
70 70 8
83 82 22
74 71 14
80 80 19
82 82 12
66 67 9
77 78 13
85 82 12
80 80 19
85 84 15
83 80 16
94 93 25
93 92 8
96 93 29
95 93 23
98 97 30
98 97 23
107 106 26
102 101 23
101 99 24
109 108 32
114 110 34
114 111 30
103 103 37
107 105 29
115 110 33
114 111 38
118 115 37
127 123 40
114 112 29
118 114 40
121 118 37
129 126 45
126 123 34
136 131 42
127 123 34
138 134 47
133 129 47
131 127 43
132 130 47
130 126 38
127 124 38
144 140 53
135 131 44
139 136 42
137 132 41
134 130 47
140 135 48
135 131 47
140 134 39
144 139 48
141 137 52
146 141 51
147 141 51
143 138 46
151 145 58
151 144 52
150 144 56
150 144 53
149 143 40
144 139 52
147 142 45
153 147 53
151 145 53
146 141 48
156 149 57
151 146 56
148 143 42
149 143 51
153 148 59
154 148 58
154 148 58
153 147 57
152 146 54
150 143 56
150 143 56
150 144 47
156 150 57
154 147 58
152 147 59
158 152 62
158 151 65
157 151 61
155 149 54
149 142 60
155 148 57
150 144 60
154 147 48
150 144 53
147 141 53
155 150 59
152 145 61
148 143 53
148 142 57
160 154 62
154 147 56
159 151 66
154 149 51
155 149 65
153 148 58
151 145 60
149 143 56
152 145 58
154 148 57
155 150 59
156 149 66
154 148 64
151 143 64
145 139 57
148 144 51
154 147 62
152 145 66
154 147 68
147 141 59
143 138 58
154 147 62
157 151 61
148 142 57
148 143 58
154 148 58
148 141 58
144 138 54
150 142 60
156 148 64
147 142 56
153 148 58
145 140 59
150 143 63
145 138 53
152 146 62
142 138 53
152 146 62
137 131 53
143 137 58
147 141 60
152 146 63
143 138 57
141 135 53
155 176 32
153 174 22
153 174 0
153 174 0
155 176 0
153 174 0
152 173 0
155 175 0
154 175 0
155 176 0
154 175 0
153 174 0
152 173 0
152 174 0
154 175 0
152 173 0
153 174 0
154 173 0
150 171 0
154 175 0
149 170 0
153 174 0
155 175 0
149 170 0
153 174 0
155 175 0
154 175 0
153 174 0
152 172 0
150 171 0
152 172 0
150 171 0
151 172 0
152 173 0
155 176 0
152 173 0
152 173 0
151 172 0
154 174 0
150 171 0
150 171 0
148 168 0
152 172 0
150 170 0
150 171 0
152 173 0
149 169 0
152 173 0
152 173 0
151 171 0
150 170 0
150 170 0
152 172 0
150 170 0
147 167 0
152 173 0
150 170 0
150 170 0
148 169 0
148 168 0
147 167 0
145 165 0
146 166 0
145 165 0
149 170 0
146 166 0
148 168 0
149 169 0
146 166 0
144 164 0
149 169 0
148 167 0
143 163 0
147 167 0
147 166 0
145 165 0
147 168 0
146 166 0
147 166 0
140 161 0
144 164 0
141 162 0
141 161 0
144 164 0
144 163 0
143 162 0
140 159 0
144 164 0
140 160 0
141 161 0
141 160 0
137 157 0
130 150 0
136 155 0
135 155 0
133 152 0
134 154 0
130 149 0
129 148 0
134 153 0
135 154 0
122 140 0
128 148 0
121 140 0
129 148 0
126 143 0
124 143 0
126 144 0
123 141 0
121 139 0
129 148 0
117 135 0
121 139 0
110 127 0
117 134 0
111 129 0
106 122 0
112 130 0
101 118 0
108 123 0
94 110 0
105 121 0
91 107 0
95 109 16
93 107 0
96 111 0
92 107 0
86 102 22
87 102 28
95 110 0
95 110 16
94 108 0
99 115 0
107 124 0
109 125 0
114 132 0
119 137 0
130 148 0
125 143 0
131 149 0
122 138 51
171 194 22
172 195 0
171 194 0
169 192 0
172 195 0
170 194 0
170 194 0
172 195 0
167 191 0
168 192 0
168 192 0
171 194 0
168 192 0
167 191 0
125 147 56
47 75 73
49 79 71
51 81 93
52 83 96
51 81 85
54 86 98
55 87 105
55 87 107
54 86 107
54 86 98
55 87 110
54 86 100
55 87 106
54 86 106
57 89 119
54 86 110
56 89 108
54 86 106
55 87 107
56 89 116
57 89 112
56 88 108
57 90 112
56 88 112
56 89 110
56 88 114
56 89 113
56 88 113
54 86 105
56 88 117
56 89 107
56 88 107
58 91 112
58 92 121
57 91 113
57 91 118
54 86 98
55 87 105
57 90 108
57 90 114
59 92 127
57 90 118
56 88 103
56 87 111
55 87 100
56 89 121
56 89 113
56 89 110
59 92 121
56 89 111
57 90 111
55 87 110
55 87 99
56 89 111
57 91 115
57 90 120
55 87 113
55 86 103
55 86 103
56 88 104
56 89 110
56 88 110
57 90 121
56 89 107
56 89 110
56 88 113
55 86 110
55 87 113
56 88 109
56 88 111
56 88 116
55 87 110
56 87 103
53 85 96
56 87 110
52 81 85
51 80 87
54 85 102
53 82 102
50 77 85
53 83 91
53 82 91
50 78 80
53 82 87
50 78 83
49 77 88
45 69 65
50 77 80
122 143 56
169 192 0
168 191 0
169 193 0
167 189 0
166 190 0
169 193 0
170 192 0
169 191 0
169 191 0
169 192 0
170 194 0
166 189 0
167 189 0
166 187 19
116 118 35
89 86 29
88 83 28
85 82 28
81 79 16
72 71 14
80 79 9
77 76 0
83 81 12
72 71 5
80 78 8
78 78 14
80 80 16
90 88 21
89 89 20
82 83 27
88 88 28
90 90 24
96 95 25
98 96 20
91 89 24
95 95 30
105 103 28
117 114 30
106 104 37
111 108 34
116 111 31
115 113 31
105 102 30
125 121 37
125 123 30
119 115 31
118 116 26
129 125 38
123 117 44
132 127 46
116 113 37
126 121 37
133 129 42
127 123 32
134 129 47
131 127 41
124 121 37
138 133 42
137 134 45
133 129 38
137 132 48
133 129 35
139 134 52
141 136 50
136 131 39
146 140 49
144 140 49
147 141 51
145 139 51
139 134 44
149 143 54
144 140 42
144 138 47
143 138 51
146 139 50
145 140 47
148 143 49
142 137 52
146 140 52
144 138 55
151 144 53
151 146 54
146 140 56
149 144 53
152 146 54
146 141 51
149 143 51
153 147 51
148 143 52
153 147 58
152 145 57
140 135 41
149 144 52
150 144 49
153 146 57
153 148 56
151 144 57
153 146 60
151 146 53
157 151 61
148 143 52
149 144 56
158 151 65
151 145 52
150 144 58
156 149 65
145 139 52
152 146 51
155 149 48
147 140 58
158 150 60
157 151 65
158 151 68
150 145 52
150 143 54
148 142 53
148 143 57
154 148 54
152 146 60
149 144 58
148 141 60
154 148 59
155 149 59
146 139 59
158 152 67
155 147 66
143 139 57
146 142 57
156 150 63
143 138 56
148 142 49
145 140 56
149 142 63
152 145 59
148 142 60
159 152 63
153 146 59
147 140 56
159 152 66
144 138 56
144 138 54
154 149 57
151 145 56
152 146 63
145 139 56
149 143 60
144 138 60
148 141 61
137 132 57
150 144 56
143 136 62
149 144 59
153 146 60
145 139 49
146 140 58
154 174 0
153 174 0
154 175 0
155 175 0
153 173 0
152 174 0
152 173 0
151 173 0
154 175 0
155 176 0
152 172 0
151 172 0
154 175 0
155 175 0
153 174 0
155 176 0
150 170 0
154 175 0
153 173 0
154 174 0
150 171 0
153 174 0
153 173 0
151 171 0
153 173 0
153 173 0
152 173 0
150 170 0
151 173 0
151 172 0
152 172 0
151 172 0
155 174 0
151 171 0
149 169 0
152 172 0
145 165 0
148 168 0
149 170 0
153 174 0
152 173 0
150 170 0
150 171 0
150 171 0
151 172 0
152 173 0
146 168 0
154 174 0
148 169 0
151 172 0
149 169 0
147 168 0
149 169 0
149 170 0
149 169 0
149 169 0
145 165 0
147 166 0
147 168 0
149 169 0
145 165 0
149 169 0
148 168 0
145 165 0
141 161 0
146 167 0
149 169 0
145 165 0
142 162 0
144 164 0
146 166 0
138 159 0
146 166 0
149 168 0
147 168 0
147 167 0
147 166 0
142 162 0
139 159 0
145 165 0
140 160 0
144 165 0
144 164 0
141 161 0
140 160 0
137 157 0
146 165 0
146 165 0
139 159 0
139 159 0
142 161 0
144 165 0
134 154 0
137 156 0
136 156 0
137 156 0
138 158 0
135 155 0
134 152 0
128 147 0
128 147 0
130 149 0
126 145 0
120 138 0
123 143 0
123 141 0
130 149 0
127 145 0
119 137 0
121 139 0
121 140 0
116 134 0
121 139 0
116 135 0
117 135 0
124 140 0
112 128 0
100 116 0
100 116 0
101 116 0
104 119 0
105 120 0
96 111 0
92 107 0
83 97 0
97 112 0
84 99 0
96 112 0
85 99 0
101 115 0
101 116 0
101 116 0
92 108 0
105 122 0
104 120 0
118 135 0
114 132 0
125 143 0
122 139 0
121 139 32
152 173 0
167 191 0
171 194 0
171 194 0
172 194 0
168 191 0
171 194 0
171 194 0
172 195 0
165 188 0
162 186 0
167 190 0
170 194 0
172 195 0
165 189 0
168 190 18
81 104 77
49 77 82
49 78 87
51 80 90
51 81 94
53 85 87
51 81 80
53 85 101
53 85 90
54 86 110
52 82 97
55 86 102
54 86 115
54 86 106
55 88 102
55 87 108
54 86 98
55 87 106
54 86 98
54 86 108
56 89 110
54 86 101
54 87 97
58 91 118
58 90 115
56 89 109
54 86 91
55 86 103
56 89 111
56 89 118
56 88 108
56 89 106
57 90 115
56 88 100
54 86 108
57 90 120
54 86 94
55 88 106
56 89 115
54 85 98
55 88 107
56 89 122
58 92 115
56 89 110
54 84 97
56 88 103
55 87 105
58 91 124
56 88 107
55 88 107
55 87 111
56 89 113
56 89 110
56 88 108
53 84 100
54 86 107
55 86 103
56 89 107
55 87 113
56 89 115
55 86 97
57 89 108
57 90 111
54 85 103
54 86 92
54 85 107
54 85 98
55 87 104
55 87 109
55 86 98
54 84 91
54 85 91
52 83 90
55 85 104
56 88 110
54 84 91
52 82 95
53 82 84
52 80 100
54 84 97
50 77 98
52 81 86
51 80 87
48 74 75
51 78 81
49 76 77
48 74 78
77 99 82
163 185 0
162 184 0
169 191 0
171 193 0
170 192 0
169 191 0
164 185 0
168 191 0
171 193 0
170 191 0
170 192 0
168 190 0
167 189 0
165 187 0
169 191 0
154 172 11
91 87 36
88 86 26
87 84 26
90 85 25
87 85 18
77 74 24
74 74 18
81 80 14
69 69 22
83 81 22
89 87 8
77 76 15
80 81 11
89 88 20
80 78 16
92 88 18
92 91 21
98 98 19
96 95 20
100 97 19
101 99 18
103 102 23
106 105 28
107 106 30
98 95 21
113 109 23
118 115 24
112 110 24
113 111 26
121 118 34
115 112 26
113 111 37
120 116 31
116 112 32
122 118 34
121 117 36
113 111 26
122 118 34
127 124 34
121 119 27
129 124 34
130 126 36
133 129 44
133 129 34
134 130 36
135 130 34
134 131 39
129 125 41
139 134 44
140 136 40
139 134 40
142 138 37
139 133 57
142 136 45
141 136 42
142 137 50
137 132 37
133 130 32
142 136 42
141 136 34
141 136 41
144 138 46
142 137 47
148 142 46
143 138 39
145 139 44
134 130 39
150 145 45
151 146 48
147 142 56
140 135 45
151 145 49
152 146 59
154 148 56
146 141 53
154 148 54
146 141 49
152 147 56
144 138 54
139 135 41
152 145 56
145 139 45
151 144 58
151 146 52
153 147 54
155 149 59
143 139 45
147 141 52
151 144 54
157 150 60
155 149 49
157 151 61
150 143 56
157 151 54
149 142 61
149 143 57
149 143 52
157 150 62
150 144 53
151 145 51
155 148 64
151 145 53
155 149 63
148 142 57
159 152 69
150 144 57
158 152 61
145 140 53
143 137 52
149 144 52
155 150 58
150 143 62
151 146 56
156 149 68
156 150 61
152 147 54
152 145 62
152 146 61
147 141 57
146 139 56
140 135 49
142 137 57
146 141 51
152 146 59
155 148 60
142 137 51
155 148 62
154 148 59
140 135 48
152 146 62
149 142 56
141 136 51
149 143 59
148 142 54
141 134 60
148 143 61
147 142 62
135 128 54
145 140 56
145 139 53
153 174 0
154 175 0
153 174 0
153 174 0
154 175 0
153 173 0
152 173 0
152 172 0
153 173 0
152 173 0
153 174 0
155 175 0
153 175 0
153 174 0
154 174 0
154 175 0
154 175 0
153 174 0
152 173 0
155 176 0
155 175 0
151 173 0
152 173 0
152 172 0
151 171 0
152 173 0
155 176 0
152 174 0
152 172 0
148 169 0
149 169 0
152 172 0
152 173 0
154 174 0
150 171 0
151 171 0
152 172 0
151 172 0
149 170 0
149 170 0
151 171 0
152 173 0
148 169 0
149 170 0
151 171 0
148 168 0
151 171 0
151 171 0
148 168 0
151 172 0
151 172 0
146 167 0
148 168 0
151 171 0
149 169 0
147 168 0
148 168 0
148 169 0
146 166 0
146 167 0
147 166 0
150 170 0
147 167 0
146 167 0
148 169 0
145 165 0
146 166 0
146 166 0
144 164 0
144 165 0
149 170 0
147 168 0
145 164 0
144 164 0
145 165 0
147 167 0
144 163 0
143 161 0
141 160 0
143 164 0
137 158 0
146 166 0
144 163 0
140 159 0
143 164 0
141 161 0
140 159 0
139 161 0
135 155 0
138 158 0
137 157 0
133 152 0
141 159 0
141 161 0
135 156 0
132 151 0
123 143 0
129 148 0
132 151 0
131 151 0
134 153 0
134 153 0
121 139 0
132 151 0
129 147 0
123 141 0
126 146 0
128 146 0
116 135 0
121 139 0
121 138 0
122 140 0
127 145 0
125 141 0
116 132 0
115 133 0
116 133 0
108 125 0
102 119 0
116 133 0
114 130 0
101 118 0
99 113 0
89 102 0
102 117 0
93 107 0
94 109 0
96 111 0
101 116 0
106 122 0
98 114 0
102 118 0
105 120 0
122 139 0
113 131 0
122 141 0
124 142 0
121 138 0
117 134 0
146 165 32
167 190 0
171 195 0
168 192 0
171 193 0
169 192 0
167 190 0
171 194 0
167 191 0
161 184 0
166 189 0
165 188 0
169 192 0
167 190 0
167 190 0
169 192 0
162 186 0
136 158 34
49 78 85
47 75 71
47 75 75
51 82 78
52 83 84
49 78 80
54 85 103
53 84 101
53 83 104
55 87 104
55 87 105
54 85 103
55 87 105
54 85 100
54 86 106
53 84 95
51 81 100
57 90 118
52 83 93
55 87 102
56 88 110
55 87 109
54 86 103
54 86 102
55 88 110
55 88 102
55 87 112
56 88 111
53 84 103
55 87 111
56 88 108
57 90 117
57 90 105
54 86 95
56 88 108
56 89 117
56 88 115
56 89 117
57 90 114
56 88 110
55 87 100
55 87 97
55 87 105
55 87 111
58 92 117
56 89 113
56 88 105
55 87 108
54 87 97
56 88 97
55 87 107
56 89 110
56 88 107
55 87 108
56 89 118
54 85 97
56 89 108
55 87 94
56 88 105
55 87 101
56 88 107
57 89 113
56 88 113
52 83 92
55 86 100
53 83 90
54 85 99
55 87 105
55 87 92
52 82 99
54 85 94
56 87 112
53 83 96
52 82 102
54 85 110
55 87 114
53 83 91
53 84 94
54 83 103
53 82 96
52 81 103
51 79 84
49 77 87
49 75 91
48 74 77
44 67 61
140 160 22
167 189 0
163 185 0
167 190 0
161 184 0
163 184 0
169 190 0
168 190 0
169 191 0
167 189 0
165 188 0
166 188 0
169 191 0
170 191 0
165 188 0
168 191 0
172 193 0
137 151 8
96 93 31
91 86 28
76 75 20
81 79 19
91 87 24
75 76 9
84 83 22
84 83 8
70 69 14
88 87 23
79 80 9
91 89 11
79 79 16
79 79 24
92 90 18
93 92 16
96 94 25
90 88 14
101 101 20
91 90 25
100 98 22
105 103 26
102 100 28
107 105 25
114 111 25
117 114 33
110 109 25
110 107 34
109 106 33
118 114 33
117 114 29
120 117 33
121 117 31
126 121 42
110 109 31
125 121 38
120 117 19
116 114 28
129 125 37
130 127 42
127 122 28
129 124 34
132 129 37
130 125 41
131 126 36
132 127 46
125 123 25
138 133 34
148 141 45
136 132 37
140 134 34
137 132 46
140 134 43
139 134 39
146 141 50
142 136 47
144 139 50
145 140 51
142 136 49
151 145 51
143 137 45
138 132 42
133 128 39
148 144 47
147 141 37
142 136 47
146 141 51
154 148 48
147 140 47
152 147 51
149 145 51
149 143 49
145 139 54
145 140 48
151 145 52
148 143 50
145 139 48
143 136 44
147 141 48
144 137 51
151 145 58
148 141 51
150 144 49
146 140 44
154 147 60
148 142 57
140 134 45
147 140 48
153 147 51
154 147 58
149 143 56
156 148 57
147 141 49
154 147 57
153 146 45
150 143 54
161 153 67
154 146 56
153 147 56
151 145 53
149 144 47
151 145 49
147 142 47
148 142 56
152 146 48
151 145 53
149 142 61
151 146 57
147 140 53
145 139 49
148 142 60
146 141 52
154 146 62
150 144 53
157 150 63
151 145 61
142 137 51
144 139 54
145 140 54
146 140 52
154 148 63
150 145 61
149 144 56
136 131 51
148 142 53
143 137 51
148 141 63
143 137 51
147 140 56
149 142 59
143 137 59
146 139 60
145 139 54
141 135 47
146 140 61
139 133 58
144 139 53
152 145 62
135 130 44
155 175 0
152 173 0
152 174 0
155 176 0
153 174 0
155 176 0
152 173 0
153 174 0
151 171 0
152 172 0
153 175 0
154 174 0
155 175 0
149 170 0
153 174 0
153 174 0
151 172 0
152 172 0
152 172 0
154 174 0
155 175 0
153 173 0
154 174 0
150 171 0
156 176 0
153 173 0
153 174 0
148 168 0
154 174 0
149 170 0
148 169 0
152 172 0
150 170 0
150 171 0
152 172 0
149 170 0
151 172 0
151 170 0
150 171 0
150 170 0
152 173 0
151 171 0
149 169 0
148 168 0
150 171 0
149 170 0
145 166 0
148 169 0
145 165 0
149 170 0
149 169 0
145 166 0
150 171 0
150 170 0
149 169 0
149 169 0
149 169 0
145 165 0
145 165 0
152 173 0
146 167 0
149 169 0
148 168 0
148 169 0
146 167 0
145 166 0
144 164 0
143 163 0
143 163 0
146 165 0
148 168 0
147 167 0
143 164 0
143 161 0
145 164 0
146 166 0
139 159 0
141 161 0
145 166 0
141 161 0
145 165 0
145 165 0
141 161 0
140 159 0
140 159 0
146 166 0
141 161 0
135 155 0
132 152 0
137 156 0
133 153 0
134 153 0
137 157 0
133 151 0
131 151 0
134 153 0
135 153 0
131 150 0
129 148 0
131 149 0
130 148 0
132 151 0
129 147 0
129 148 0
131 149 0
124 142 0
121 139 0
128 146 0
123 141 0
120 139 0
121 138 0
115 132 0
116 134 0
123 141 0
118 136 0
114 131 0
119 136 0
110 126 0
115 132 0
105 121 0
109 125 0
99 114 0
114 130 0
105 121 0
107 123 0
105 121 0
98 112 0
100 116 0
99 115 0
102 118 0
105 121 0
106 122 0
108 124 0
114 131 0
101 117 0
119 137 0
125 142 0
124 141 0
123 140 0
163 187 0
168 191 0
168 191 0
166 189 0
164 187 0
167 191 0
171 193 0
169 192 0
168 191 0
170 193 0
165 188 0
166 190 0
165 188 0
161 184 0
164 187 0
165 188 0
160 183 0
166 190 0
93 114 48
47 75 75
50 79 96
54 85 87
52 82 93
51 81 90
50 80 87
52 83 94
54 85 96
54 85 109
55 87 108
54 85 89
53 84 102
52 83 87
54 85 101
53 84 104
56 88 108
55 86 97
54 85 106
55 87 108
53 85 100
55 88 100
55 86 111
56 88 110
56 89 114
58 90 123
57 89 117
55 87 107
56 88 108
56 88 103
56 89 122
56 89 105
56 89 115
54 86 90
54 85 82
55 87 107
56 89 118
56 88 110
56 88 125
53 85 86
58 91 113
56 89 105
54 85 108
60 93 122
57 90 117
55 88 105
57 90 108
55 87 107
55 88 114
58 92 121
55 88 113
56 89 110
56 88 110
58 92 120
56 89 110
56 89 110
55 87 103
54 86 100
57 90 108
54 85 105
53 84 111
56 88 110
55 86 99
54 86 100
56 88 108
54 86 99
54 84 102
56 88 120
55 86 114
55 86 101
53 84 97
51 80 88
56 88 110
55 86 109
53 83 92
53 83 93
55 86 111
52 81 89
54 84 95
51 80 87
48 74 73
52 81 96
50 77 91
46 72 75
47 73 80
114 135 53
160 183 0
160 182 0
164 186 0
155 176 0
167 189 0
166 188 0
163 185 0
157 178 0
167 188 0
170 192 0
165 188 0
168 191 0
165 188 0
164 186 0
161 183 0
165 187 0
165 187 0
161 182 0
117 123 24
83 82 23
86 83 24
89 84 23
89 85 24
87 83 14
85 83 16
78 77 25
75 73 12
93 89 18
79 79 1
86 85 16
85 82 13
87 85 8
90 88 18
84 84 16
98 94 14
87 85 20
96 93 24
90 89 20
107 103 16
114 110 26
110 107 26
110 107 30
105 103 19
106 104 27
102 99 22
102 100 19
105 102 26
106 104 25
110 108 16
109 106 24
119 116 28
117 115 34
126 123 31
125 121 31
125 121 23
128 125 36
130 127 36
135 130 34
133 127 43
122 118 34
144 139 39
131 127 42
132 129 38
131 126 39
127 123 34
140 135 40
140 135 39
137 131 41
132 129 35
136 131 42
138 133 42
143 139 47
141 136 40
133 128 41
141 135 47
148 143 48
143 137 44
144 138 45
147 141 50
143 138 47
150 144 46
147 141 46
143 138 39
144 138 39
139 135 45
152 145 53
152 146 47
148 144 42
145 140 46
144 139 42
149 144 52
154 148 54
143 138 39
143 136 52
149 142 37
152 146 47
154 147 57
144 138 47
142 136 51
147 142 41
152 145 57
155 148 59
140 136 41
144 140 45
148 143 52
142 137 47
152 147 45
144 139 44
146 140 54
152 145 58
152 148 54
149 143 53
145 140 47
157 150 65
152 147 45
140 134 51
147 142 58
155 149 61
150 144 56
151 145 53
146 140 51
152 146 56
150 144 49
147 141 45
148 143 51
143 138 48
149 143 51
147 139 54
146 140 54
148 141 56
141 135 48
156 150 58
150 144 57
148 140 59
151 144 58
156 149 61
149 143 61
149 143 56
143 138 59
140 134 52
151 145 54
151 145 57
153 147 61
145 140 53
146 140 57
148 143 58
153 146 63
145 138 59
149 141 63
140 134 57
148 142 60
143 136 57
150 143 70
140 134 52
143 138 57
144 137 59
136 130 52
150 172 0
155 175 0
155 175 0
154 175 0
152 172 0
154 175 0
152 173 0
152 172 0
154 174 0
153 174 0
153 174 0
153 174 0
153 173 0
155 175 0
152 172 0
153 174 0
148 170 0
153 173 0
153 173 0
151 172 0
151 172 0
153 174 0
148 169 0
150 171 0
152 172 0
152 172 0
154 174 0
149 170 0
149 170 0
151 172 0
153 174 0
151 171 0
150 170 0
150 171 0
150 172 0
151 171 0
150 171 0
147 167 0
152 173 0
150 171 0
149 169 0
147 167 0
147 168 0
143 164 0
147 167 0
147 167 0
147 168 0
146 167 0
144 164 0
145 164 0
151 171 0
149 168 0
146 166 0
146 166 0
147 166 0
147 167 0
145 167 0
152 172 0
147 169 0
144 165 0
147 167 0
148 168 0
142 163 0
149 170 0
145 165 0
147 166 0
145 166 0
142 161 0
145 165 0
146 167 0
148 168 0
145 165 0
145 164 0
144 164 0
148 169 0
140 160 0
146 166 0
143 163 0
144 163 0
139 158 0
144 163 0
141 161 0
140 159 0
142 163 0
137 157 0
135 156 0
140 160 0
140 160 0
142 163 0
135 155 0
127 145 0
139 158 0
137 156 0
139 158 0
132 150 0
134 153 0
132 150 0
133 152 0
134 153 0
129 148 0
130 149 0
125 142 0
133 151 0
127 146 0
124 141 0
124 142 0
123 141 0
121 139 0
120 137 0
123 142 0
128 146 0
123 141 0
118 136 0
113 131 0
119 134 0
108 125 0
115 133 0
106 123 0
103 119 0
112 128 0
111 127 0
103 118 0
109 126 0
102 118 0
104 118 0
99 115 0
107 123 0
101 116 0
99 115 0
100 115 0
99 114 0
112 129 0
109 125 0
119 136 0
123 141 0
123 140 0
123 140 0
116 131 0
162 185 0
165 187 0
167 190 0
168 191 0
164 186 0
166 189 0
158 180 0
169 192 0
166 189 0
157 181 0
166 191 0
165 188 0
167 190 0
159 183 0
169 191 0
163 186 0
162 186 0
163 186 0
163 186 0
159 182 25
76 99 75
49 78 78
52 83 87
49 79 89
53 83 95
50 80 85
50 80 82
53 84 84
53 84 94
51 81 83
53 83 100
52 83 86
53 84 95
54 85 110
55 87 105
54 85 103
54 85 112
54 87 103
53 84 99
54 86 109
54 86 94
56 89 105
55 86 100
54 85 106
56 88 106
55 88 110
56 89 114
52 84 80
55 87 105
57 90 119
54 85 102
56 89 108
56 87 111
54 86 102
54 86 93
56 88 108
55 87 100
56 88 110
55 88 102
56 89 105
55 88 99
57 89 108
55 88 99
56 88 105
57 90 121
56 89 109
56 88 107
53 84 92
57 90 117
56 88 102
56 88 118
54 86 100
55 87 110
55 87 103
55 87 99
57 90 118
54 85 102
54 86 100
55 86 104
56 88 114
54 85 105
53 84 89
54 84 101
55 85 107
55 87 102
55 86 110
53 83 94
51 82 86
54 85 105
54 85 102
51 81 83
53 82 92
53 82 95
52 80 78
51 80 83
51 79 96
54 84 105
52 80 91
50 79 81
50 78 79
46 72 71
44 68 64
47 73 71
70 91 71
160 180 0
164 186 0
161 183 0
162 185 0
161 183 0
158 180 0
159 181 0
152 174 0
168 191 0
167 188 0
163 183 0
164 184 0
163 184 0
164 186 0
164 185 0
167 189 0
166 186 0
167 188 0
165 187 0
160 178 14
96 98 11
92 88 33
90 87 26
87 83 25
76 73 13
82 80 11
72 72 2
82 78 14
87 85 0
84 83 9
97 93 8
88 87 8
86 84 13
97 93 12
95 92 21
97 94 12
90 88 16
93 91 16
102 99 14
96 93 19
108 105 22
98 98 20
108 105 25
104 102 12
102 101 32
116 113 28
109 106 31
119 115 18
127 124 24
119 114 25
115 110 28
114 112 27
119 116 28
114 109 25
128 123 36
131 126 34
127 123 29
113 110 29
120 116 33
127 125 36
127 123 35
131 126 37
128 124 29
132 127 44
134 129 42
133 128 33
126 122 30
142 136 42
130 126 38
133 128 33
126 122 38
132 126 37
137 131 31
133 128 36
144 139 48
136 130 38
136 131 30
149 143 44
139 134 40
142 136 42
145 139 45
145 140 55
143 138 42
144 140 42
145 140 47
142 136 44
146 140 47
141 137 39
150 145 44
146 139 42
148 144 42
148 142 45
144 139 49
154 147 63
153 146 53
141 136 47
143 139 39
151 145 48
144 138 44
148 143 48
144 138 44
146 141 45
152 146 56
146 140 54
142 136 42
154 147 59
143 138 47
142 135 47
154 149 52
144 138 48
151 146 56
149 144 48
151 144 53
140 135 42
156 149 61
146 141 41
145 138 49
146 141 49
150 144 52
153 148 47
153 147 56
144 139 49
152 147 47
152 145 56
150 143 56
150 144 59
140 135 49
146 141 56
146 141 48
156 150 60
150 144 58
144 138 53
151 145 56
146 141 54
146 140 49
152 145 56
152 145 57
147 141 57
150 143 53
142 136 51
153 147 56
142 136 48
144 139 52
152 146 58
150 145 49
139 133 49
154 149 58
141 135 53
151 145 53
147 140 57
146 140 53
150 143 53
141 135 56
152 146 65
143 137 57
140 135 57
150 143 60
140 135 58
151 172 0
151 172 0
153 174 0
153 174 0
151 172 0
151 172 0
150 171 0
153 173 0
152 173 0
153 174 0
154 174 0
151 172 0
153 174 0
149 170 0
150 170 0
152 172 0
153 174 0
152 173 0
153 173 0
153 173 0
153 173 0
155 176 0
149 170 0
151 172 0
151 172 0
152 173 0
147 169 0
152 173 0
152 172 0
152 173 0
151 171 0
148 168 0
152 173 0
149 168 0
148 168 0
152 172 0
150 171 0
150 171 0
148 170 0
150 170 0
150 171 0
152 171 0
148 168 0
145 166 0
149 169 0
150 172 0
150 170 0
151 172 0
152 172 0
146 166 0
149 170 0
148 168 0
145 165 0
150 171 0
149 169 0
150 170 0
149 168 0
148 170 0
150 171 0
144 164 0
143 163 0
146 166 0
148 168 0
145 165 0
144 164 0
145 165 0
145 166 0
147 167 0
145 165 0
149 170 0
142 162 0
144 164 0
142 162 0
144 164 0
143 163 0
142 161 0
141 161 0
143 164 0
144 165 0
143 163 0
142 161 0
139 158 0
143 163 0
138 156 0
144 163 0
134 154 0
140 158 0
137 155 0
137 156 0
139 159 0
132 152 0
138 158 0
133 152 0
133 152 0
137 156 0
132 152 0
131 151 0
136 155 0
135 153 0
132 151 0
123 142 0
121 139 0
127 145 0
129 147 0
118 136 0
128 146 0
127 145 0
124 142 0
123 141 0
129 148 0
123 141 0
122 139 0
126 144 0
119 137 0
109 126 0
117 133 0
115 132 0
118 134 0
101 116 0
104 120 0
106 122 0
110 127 0
97 113 0
102 117 0
105 121 0
110 126 0
99 113 0
99 115 0
105 121 0
114 131 0
117 135 0
110 125 0
120 137 0
111 128 0
121 139 0
122 139 0
119 135 0
155 178 0
168 190 0
166 189 0
165 187 0
164 186 0
162 184 0
164 187 0
163 186 0
163 186 0
164 187 0
164 187 0
164 188 0
160 184 0
164 187 0
162 184 0
160 182 0
163 185 0
155 178 0
165 188 0
160 182 0
160 184 0
143 165 31
50 77 63
47 75 77
50 79 84
50 80 86
51 82 88
52 82 90
52 82 97
51 82 89
54 85 106
52 82 99
52 82 101
54 85 112
54 86 102
53 84 99
55 88 105
55 87 102
55 87 103
53 85 97
51 82 90
54 86 105
51 82 90
57 90 118
55 87 97
57 89 114
57 89 108
56 89 110
56 89 103
54 86 99
55 87 112
58 91 126
53 84 97
54 85 100
56 88 111
56 88 103
55 88 108
57 90 98
57 89 114
55 87 103
54 86 99
54 86 93
56 88 103
55 88 113
54 86 94
56 88 97
56 88 108
54 85 102
53 84 94
56 88 105
56 88 113
56 89 110
55 87 105
53 85 97
55 87 99
55 87 104
56 88 108
53 84 100
51 82 96
52 82 97
54 86 90
54 85 92
54 84 96
53 84 101
54 85 104
56 87 110
52 82 100
53 84 99
54 84 105
53 83 89
55 86 99
54 84 99
52 81 94
55 86 97
53 82 91
50 78 87
52 81 97
54 84 103
48 76 79
53 82 91
49 76 74
49 76 82
45 70 59
51 77 70
138 159 37
167 188 0
164 185 0
161 182 0
161 182 0
164 185 0
166 188 0
162 184 0
164 186 0
160 182 0
161 183 0
163 184 0
165 186 0
166 187 0
158 179 0
161 183 0
161 182 0
157 177 0
165 185 0
166 188 0
165 186 0
151 167 11
90 88 25
85 82 25
86 83 18
71 69 3
76 74 21
79 78 14
73 71 21
98 95 12
77 75 11
84 82 11
87 85 16
93 91 18
96 94 12
93 92 16
86 84 14
83 83 8
100 98 16
92 89 11
94 93 20
108 105 16
95 92 18
105 103 24
110 106 24
101 99 28
116 112 36
116 112 23
116 112 24
112 108 24
117 115 26
122 118 30
108 104 19
116 111 26
110 106 16
128 125 37
123 118 22
122 119 30
129 125 24
129 125 37
124 119 32
132 127 38
131 127 34
134 130 24
133 128 41
132 126 37
132 127 34
130 124 33
136 129 36
134 130 26
130 125 31
137 133 42
135 131 37
140 136 42
134 130 34
147 142 48
143 138 48
142 137 42
140 134 40
148 142 41
143 137 45
143 138 40
143 139 45
136 132 36
144 137 36
140 135 42
138 132 39
151 144 41
144 138 41
145 139 44
146 140 49
145 140 44
148 142 45
142 136 39
151 145 59
147 142 47
141 137 39
146 141 44
144 137 49
145 139 44
145 140 44
146 139 47
143 136 54
147 142 56
143 137 48
146 141 48
153 146 48
141 136 39
147 142 51
145 139 51
155 149 57
151 144 57
153 146 49
149 141 57
154 146 57
141 135 49
148 141 45
145 140 49
140 135 44
151 144 51
146 142 47
151 144 49
149 142 49
141 134 48
150 144 48
147 142 48
143 138 53
146 140 56
148 140 56
142 138 48
151 144 47
149 143 60
148 143 61
143 138 57
154 147 57
145 140 45
143 138 49
142 136 54
152 145 59
145 139 53
149 141 57
147 140 52
138 133 53
144 139 58
148 141 60
144 138 51
136 131 47
148 142 54
148 142 64
138 133 47
145 139 53
143 137 57
142 135 57
146 140 56
134 130 45
141 134 49
143 137 45
144 138 57
152 144 62
154 174 0
153 174 0
153 174 0
153 174 0
153 174 0
154 174 0
153 174 0
152 173 0
153 174 0
152 173 0
154 175 0
151 172 0
153 173 0
152 172 0
150 171 0
153 173 0
152 173 0
152 173 0
151 171 0
151 171 0
150 170 0
151 172 0
150 170 0
153 173 0
150 171 0
153 173 0
152 173 0
150 170 0
147 168 0
151 172 0
148 168 0
151 171 0
151 171 0
151 171 0
149 170 0
150 170 0
150 170 0
148 169 0
151 171 0
144 166 0
150 170 0
148 168 0
151 171 0
149 169 0
150 171 0
146 166 0
149 168 0
149 169 0
149 169 0
145 165 0
149 169 0
148 168 0
146 166 0
148 167 0
147 167 0
150 170 0
151 170 0
148 169 0
149 168 0
147 167 0
145 165 0
142 162 0
145 166 0
147 167 0
145 165 0
149 169 0
147 167 0
145 165 0
141 160 0
145 165 0
143 163 0
144 165 0
145 164 0
143 163 0
144 164 0
142 162 0
142 162 0
142 161 0
141 161 0
141 161 0
140 159 0
140 159 0
138 157 0
130 148 0
136 155 0
136 155 0
136 155 0
138 158 0
137 156 0
136 157 0
137 156 0
136 155 0
136 156 0
126 145 0
130 149 0
136 155 0
135 154 0
136 155 0
126 144 0
130 148 0
127 145 0
132 151 0
132 151 0
121 138 0
126 145 0
122 142 0
125 143 0
121 139 0
127 145 0
123 141 0
123 141 0
114 133 0
121 138 0
124 142 0
116 134 0
114 132 0
112 130 0
112 128 0
106 123 0
112 127 0
110 125 0
105 121 0
117 133 0
101 116 0
106 122 0
112 127 0
109 125 0
107 122 0
99 115 0
110 127 0
112 128 0
111 127 0
115 131 0
119 135 0
118 134 0
117 133 0
149 169 0
164 187 0
168 191 0
165 187 0
159 182 0
164 186 0
157 180 0
157 178 0
166 189 0
165 188 0
162 184 0
163 185 0
159 182 0
158 181 0
161 183 0
162 185 0
161 183 0
164 187 0
158 181 0
161 183 0
160 184 0
153 174 0
158 181 0
131 153 38
46 73 65
47 75 74
49 78 71
51 80 83
51 81 95
49 78 79
51 80 84
51 82 77
51 80 94
54 85 109
54 85 98
52 83 80
54 86 103
54 86 105
54 85 98
53 85 91
55 87 108
53 84 96
56 88 106
53 84 103
54 85 103
55 87 92
54 85 90
55 87 108
50 81 82
54 86 95
57 89 113
58 91 130
54 86 100
55 87 94
54 86 102
54 85 99
56 88 100
54 85 95
58 91 111
55 87 99
55 86 111
55 87 103
52 83 88
55 86 105
54 85 101
54 86 108
54 86 100
56 88 100
54 86 97
55 86 105
54 85 94
54 86 102
54 85 86
56 88 103
56 89 108
55 88 94
53 83 87
56 89 120
56 88 99
53 83 102
54 85 102
56 88 102
56 88 107
55 87 97
54 86 97
53 85 97
53 82 89
53 84 91
51 80 84
52 82 94
54 85 101
54 83 96
53 83 94
52 82 102
50 79 94
54 84 102
52 82 94
53 84 92
51 79 84
48 75 71
49 77 75
49 75 82
46 71 71
49 74 81
114 133 40
155 175 0
160 182 0
159 179 0
154 175 0
157 176 0
163 184 0
158 179 0
163 184 0
157 177 0
159 180 0
163 183 0
160 179 0
162 183 0
158 178 0
160 179 0
160 179 0
164 184 0
162 182 0
159 180 0
158 178 0
164 186 0
166 185 0
137 150 18
99 94 28
95 92 34
92 89 26
91 87 11
85 83 16
86 83 16
87 85 14
78 77 8
92 88 14
102 99 0
88 84 19
90 88 8
101 97 0
83 79 11
99 97 12
100 95 26
89 87 19
99 97 18
91 88 14
98 96 20
97 93 14
114 111 22
99 98 16
98 96 18
116 111 19
116 112 21
118 115 28
116 111 19
103 100 17
111 108 29
103 102 23
117 112 30
112 109 26
126 122 31
126 123 31
116 112 14
111 109 30
125 121 29
120 116 32
124 121 26
128 123 24
135 130 32
137 133 32
142 136 46
132 128 33
138 133 29
133 129 25
128 124 28
138 133 39
138 133 37
140 134 40
133 128 35
144 138 42
142 136 42
134 129 39
143 138 44
134 129 30
143 136 44
142 135 43
143 138 35
139 134 37
141 136 39
145 140 45
147 142 45
144 137 47
151 144 53
141 137 32
144 138 37
147 143 42
151 145 52
138 132 41
144 138 34
145 138 48
147 141 52
142 136 44
148 143 42
146 141 39
142 137 47
145 140 45
147 141 52
146 140 48
147 142 48
145 139 49
151 144 53
147 141 57
145 138 53
144 139 48
144 140 42
147 141 45
143 137 52
146 140 45
148 143 49
145 140 45
149 144 51
142 136 42
147 141 45
142 136 47
150 141 54
145 140 44
155 147 53
147 141 58
143 137 54
148 141 51
142 136 51
150 142 54
147 140 56
152 145 59
141 135 48
146 140 51
145 140 53
153 146 60
151 144 53
142 136 51
144 137 56
148 143 53
146 139 56
146 141 53
137 132 51
144 138 47
150 143 58
140 135 51
144 138 53
149 142 56
148 141 53
149 142 56
147 140 49
146 140 60
148 142 58
143 136 54
136 130 51
144 138 53
135 129 49
138 133 45
137 132 51
140 135 49
138 132 48
152 172 0
154 174 0
151 172 0
153 173 0
152 173 0
153 173 0
154 174 0
153 174 0
150 171 0
153 174 0
151 171 0
151 172 0
150 171 0
152 172 0
153 173 0
152 173 0
153 174 0
153 172 0
151 171 0
150 170 0
147 168 0
151 171 0
152 172 0
150 170 0
147 168 0
148 168 0
150 169 0
151 172 0
152 173 0
148 168 0
148 168 0
149 169 0
148 168 0
152 171 0
150 170 0
150 171 0
146 166 0
149 169 0
149 169 0
147 167 0
147 166 0
149 170 0
147 167 0
150 170 0
143 163 0
149 169 0
151 171 0
147 167 0
147 168 0
147 168 0
145 166 0
149 169 0
147 167 0
149 169 0
146 166 0
147 167 0
148 168 0
146 166 0
146 165 0
148 168 0
145 166 0
148 167 0
141 160 0
144 164 0
145 164 0
142 162 0
144 164 0
145 165 0
145 165 0
144 164 0
144 165 0
145 165 0
143 163 0
141 161 0
138 157 0
144 162 0
143 163 0
140 160 0
145 164 0
144 163 0
138 158 0
138 156 0
139 159 0
140 159 0
131 150 0
141 160 0
137 156 0
140 159 0
136 155 0
136 155 0
130 149 0
136 156 0
134 153 0
134 153 0
137 156 0
138 158 0
126 144 0
129 146 0
130 149 0
127 145 0
133 151 0
124 142 0
128 146 0
128 146 0
125 144 0
116 135 0
132 150 0
122 140 0
124 142 0
115 133 0
113 130 0
120 137 0
111 127 0
117 134 0
121 137 0
110 127 0
113 130 0
118 134 0
109 126 0
111 127 0
100 115 0
107 123 0
106 122 0
116 131 0
109 125 0
107 124 0
98 114 0
112 128 0
103 119 0
109 124 0
108 123 0
112 128 0
114 130 0
116 132 0
111 127 0
143 163 0
160 182 0
158 180 0
163 186 0
160 182 0
166 188 0
162 185 0
158 181 0
162 184 0
151 173 0
160 182 0
161 183 0
162 185 0
158 180 0
161 183 0
156 178 0
158 181 0
157 179 0
157 179 0
158 180 0
162 184 0
160 182 0
154 176 0
162 185 0
157 180 0
105 126 42
47 75 73
48 77 62
49 78 70
51 81 93
50 79 83
53 84 93
54 85 98
53 84 92
54 85 95
56 88 92
51 82 90
55 88 101
55 87 103
54 86 103
53 84 94
53 83 101
51 81 100
51 81 85
54 85 82
52 83 86
53 84 102
55 86 100
53 84 97
55 87 97
54 86 102
53 84 102
56 89 100
56 88 106
53 84 84
55 87 99
56 89 107
54 86 99
54 85 103
54 86 92
56 88 113
56 88 105
56 88 95
54 86 95
54 86 103
54 85 105
56 89 114
55 87 105
53 85 94
52 83 90
54 85 107
54 86 102
57 90 113
56 88 113
55 87 102
55 87 100
55 87 102
56 88 111
53 84 95
54 85 97
53 84 103
53 84 100
56 87 100
53 83 97
53 83 81
52 81 95
56 88 105
54 85 103
51 81 96
54 84 104
54 85 105
53 83 92
52 82 97
53 82 99
51 80 87
51 79 76
51 80 93
47 75 66
50 77 88
50 78 77
49 76 90
47 74 69
46 72 71
47 72 68
99 118 49
154 174 0
153 172 0
161 180 0
157 175 0
156 177 0
164 185 0
153 174 0
159 180 0
160 181 0
158 176 0
156 174 0
152 172 0
151 170 0
156 173 0
158 179 0
162 182 0
155 176 0
164 183 0
164 184 0
161 180 0
160 179 0
162 181 0
162 182 0
159 179 0
127 138 14
93 88 30
85 81 25
69 67 18
90 82 22
89 86 14
82 80 8
73 71 11
97 94 3
88 85 11
91 89 0
81 80 8
86 86 8
93 91 21
83 82 11
95 94 8
99 95 14
106 103 17
105 102 11
99 93 14
94 91 15
91 89 11
94 91 20
103 101 14
105 101 14
118 114 24
110 107 18
117 113 26
120 116 21
114 112 22
113 110 26
114 111 27
116 112 16
123 118 28
130 126 31
120 117 34
123 120 21
122 117 25
122 117 29
136 130 36
125 121 32
127 123 19
128 124 37
131 125 30
134 129 42
132 125 25
133 129 40
133 129 30
133 129 35
137 131 36
137 130 32
131 126 34
135 130 38
141 136 38
130 126 28
133 130 34
143 138 42
141 136 47
136 131 34
128 122 36
147 142 47
140 133 47
131 127 34
131 126 37
138 133 36
128 122 31
147 141 42
145 139 42
143 138 44
146 140 42
138 133 42
145 138 44
145 141 45
140 135 45
144 139 45
146 140 42
147 140 49
143 137 44
142 135 49
149 144 54
144 137 51
152 146 54
142 137 41
148 142 47
145 138 48
147 142 44
142 137 41
152 144 48
143 139 47
143 136 49
148 141 49
142 137 45
145 140 44
149 143 52
146 139 51
143 139 42
146 139 45
151 144 51
142 136 52
145 138 44
139 132 47
150 144 56
147 141 53
148 143 54
147 140 56
148 141 52
147 141 57
151 145 53
151 145 56
147 141 54
146 141 49
150 144 51
146 141 47
150 144 54
153 145 62
142 136 48
147 141 47
137 130 51
141 135 42
146 141 51
144 140 52
139 133 47
144 138 59
152 146 57
146 140 54
145 140 58
143 137 44
142 136 44
147 141 58
148 141 57
147 141 52
143 137 53
143 136 49
144 138 57
142 137 52
152 145 57
154 175 0
154 175 0
153 174 0
153 174 0
153 174 0
153 174 0
152 172 0
152 172 0
154 174 0
152 173 0
152 173 0
150 170 0
153 174 0
151 171 0
151 171 0
148 169 0
148 169 0
154 175 0
153 174 0
153 173 0
153 173 0
152 172 0
152 172 0
150 170 0
148 169 0
150 171 0
153 173 0
149 170 0
151 171 0
150 169 0
151 171 0
149 169 0
149 169 0
151 172 0
151 171 0
148 168 0
148 168 0
148 167 0
151 171 0
149 169 0
150 170 0
150 169 0
149 169 0
148 169 0
149 169 0
148 168 0
149 169 0
148 169 0
147 166 0
144 165 0
144 164 0
151 172 0
143 162 0
148 168 0
145 166 0
147 168 0
148 168 0
148 168 0
148 169 0
145 165 0
144 165 0
147 168 0
144 164 0
141 161 0
142 162 0
137 157 0
144 163 0
145 165 0
143 162 0
145 165 0
144 163 0
139 159 0
139 159 0
145 165 0
142 161 0
141 160 0
136 155 0
142 161 0
143 162 0
143 163 0
140 160 0
138 157 0
134 153 0
136 155 0
135 155 0
139 159 0
138 158 0
139 157 0
138 158 0
144 164 0
131 149 0
132 150 0
133 152 0
132 151 0
136 153 0
130 149 0
123 141 0
128 146 0
136 155 0
132 151 0
130 149 0
130 147 0
125 143 0
128 146 0
125 142 0
119 137 0
114 132 0
130 149 0
124 141 0
127 144 0
114 132 0
119 136 0
120 136 0
110 127 0
119 136 0
122 139 0
109 126 0
113 129 0
113 130 0
121 137 0
114 130 0
110 125 0
116 131 0
115 131 0
107 122 0
102 117 0
105 121 0
109 124 0
110 125 0
119 135 0
114 129 0
116 132 0
115 131 0
113 129 0
139 158 0
165 187 0
162 184 0
160 181 0
152 174 0
162 184 0
159 182 0
163 184 0
163 185 0
159 181 0
162 184 0
157 179 0
161 182 0
156 179 0
157 179 0
158 181 0
153 175 0
157 179 0
156 179 0
158 180 0
155 178 0
152 175 0
153 175 0
156 178 0
157 180 0
152 173 0
153 176 0
87 109 67
50 79 91
49 78 87
48 76 75
49 78 85
51 81 90
50 79 84
51 81 82
53 84 96
51 80 97
55 86 98
52 83 86
53 84 80
49 79 76
53 83 93
53 84 92
53 84 88
53 84 102
51 82 86
52 83 99
54 86 103
54 85 97
55 87 110
54 86 105
56 88 110
55 87 111
55 87 95
54 86 100
53 84 90
54 87 102
54 85 102
54 85 94
55 87 100
55 87 98
54 86 86
56 88 110
53 85 93
54 86 95
51 81 78
58 91 111
55 87 102
55 87 110
51 81 88
51 81 94
54 86 99
54 85 95
55 87 107
53 84 107
55 86 102
54 84 108
54 86 95
54 86 99
55 87 99
52 83 94
52 83 92
53 85 85
55 86 94
54 84 97
55 87 108
53 84 106
54 85 95
54 85 85
53 83 99
55 87 105
52 81 98
51 81 92
52 82 93
54 84 93
54 85 107
51 80 82
50 78 87
51 81 92
50 79 65
50 76 86
50 78 78
46 72 66
47 73 73
83 102 47
151 171 8
149 167 0
150 168 0
149 168 0
149 170 0
162 182 0
154 174 0
153 172 0
154 174 0
156 176 0
151 171 0
160 179 0
153 170 0
153 172 0
159 177 0
154 172 0
159 177 0
161 182 0
153 172 0
156 172 0
157 175 0
158 177 0
159 178 0
164 182 0
156 175 0
160 181 0
135 147 19
83 78 19
94 87 25
77 74 16
74 73 11
90 88 12
94 89 18
93 89 14
85 82 0
89 85 14
91 86 14
89 86 0
92 87 0
96 93 11
96 94 11
97 93 12
92 90 18
102 100 14
101 96 18
91 88 16
106 102 11
93 91 14
95 92 12
108 104 16
111 105 22
113 109 28
107 103 21
110 106 24
116 112 24
112 110 16
118 113 30
118 114 28
113 109 14
121 116 30
115 112 28
117 113 28
126 121 30
129 124 28
126 119 25
129 126 31
122 118 18
125 121 37
124 121 26
131 125 30
127 123 24
128 124 30
137 132 31
137 133 32
125 122 28
136 131 36
134 129 32
135 129 38
134 130 36
135 130 33
131 127 31
141 135 36
125 120 25
139 134 37
141 136 38
139 134 45
135 130 37
142 137 37
144 137 34
134 128 30
138 132 39
140 136 32
145 140 44
141 134 44
141 137 39
134 128 25
145 138 41
132 126 39
151 144 54
146 141 48
145 140 41
141 134 44
142 137 45
143 136 41
147 141 51
138 131 47
137 133 37
138 132 37
148 142 49
148 142 45
144 137 53
146 140 49
144 138 45
145 139 47
136 131 34
144 139 49
143 136 42
149 142 49
148 142 52
147 141 45
145 140 47
141 135 44
150 143 53
149 142 47
150 142 53
142 136 53
142 137 41
148 142 52
147 141 49
139 133 48
146 140 49
146 140 48
138 134 41
140 135 48
140 135 49
140 133 49
138 134 45
141 136 49
140 134 42
149 143 57
144 139 54
147 142 56
138 132 48
146 139 54
149 142 58
142 137 48
145 138 45
143 138 52
145 139 54
149 143 59
133 128 49
140 135 52
144 138 57
143 137 51
137 130 44
147 140 60
140 134 56
140 134 49
140 135 54
139 132 54
123 119 42
151 171 0
152 172 0
154 175 0
152 173 0
153 174 0
150 171 0
154 174 0
152 173 0
153 173 0
151 172 0
152 173 0
150 171 0
153 173 0
154 175 0
151 172 0
150 171 0
152 173 0
150 171 0
149 169 0
153 173 0
153 173 0
153 173 0
149 169 0
152 173 0
147 167 0
150 170 0
152 172 0
151 171 0
150 171 0
148 168 0
151 171 0
151 172 0
151 171 0
150 171 0
150 171 0
148 169 0
150 170 0
151 170 0
147 168 0
148 168 0
151 170 0
145 166 0
149 170 0
148 169 0
148 168 0
147 167 0
149 170 0
147 166 0
150 170 0
149 169 0
143 163 0
147 167 0
148 168 0
144 164 0
147 167 0
143 162 0
147 168 0
145 165 0
144 164 0
143 162 0
147 166 0
145 165 0
143 162 0
142 161 0
146 165 0
141 161 0
140 160 0
145 165 0
140 160 0
144 163 0
142 162 0
142 161 0
141 161 0
142 161 0
137 157 0
139 159 0
140 159 0
139 159 0
136 155 0
138 157 0
137 156 0
135 155 0
138 156 0
142 161 0
134 153 0
137 156 0
142 161 0
132 152 0
136 154 0
137 155 0
133 153 0
128 147 0
133 151 0
132 150 0
135 154 0
129 147 0
127 144 0
132 150 0
139 158 0
131 150 0
121 138 0
123 140 0
128 145 0
120 138 0
124 142 0
114 131 0
124 142 0
131 149 0
118 136 0
127 145 0
121 138 0
112 129 0
108 125 0
119 136 0
113 129 0
113 130 0
124 140 0
118 134 0
111 128 0
119 135 0
116 132 0
103 119 0
100 115 0
117 133 0
118 134 0
120 136 0
113 128 0
115 130 0
110 125 0
118 134 0
104 119 0
113 128 0
108 124 0
124 140 0
163 185 0
153 175 0
159 181 0
162 185 0
160 182 0
153 175 0
155 177 0
159 181 0
156 179 0
159 181 0
156 178 0
156 178 0
153 175 0
148 170 0
153 174 0
155 177 0
151 174 0
155 177 0
156 178 0
156 177 0
149 170 0
165 187 0
150 172 0
150 171 0
153 175 0
151 173 0
158 181 0
133 155 24
77 97 56
46 73 53
50 79 89
49 79 73
50 79 75
52 82 94
50 80 84
54 85 95
52 82 80
53 83 92
53 84 103
53 85 92
52 83 90
52 83 88
55 87 102
52 83 90
51 82 80
52 83 92
52 82 97
52 83 86
53 85 92
52 83 86
53 85 95
54 85 106
54 86 108
51 82 90
54 85 97
54 86 102
55 87 103
55 87 103
54 86 103
52 82 90
54 86 95
55 87 111
54 86 90
56 89 107
52 83 90
55 87 103
55 87 107
54 86 97
56 88 110
54 86 102
55 87 107
54 85 97
56 87 113
54 86 97
52 82 92
56 88 105
54 85 97
55 86 108
54 85 105
55 86 105
52 82 90
53 84 97
53 84 101
53 83 82
54 84 104
54 85 92
51 81 84
53 83 86
54 84 92
52 82 92
52 83 96
53 82 97
54 84 106
50 79 81
51 80 90
51 81 91
48 75 79
52 81 82
50 79 85
49 77 84
50 78 81
48 75 63
44 68 79
75 94 60
146 164 18
151 170 0
145 165 0
157 176 0
150 171 0
149 169 0
152 168 0
151 169 0
147 166 0
151 170 0
153 171 0
156 175 0
156 176 0
147 166 0
150 168 0
149 167 0
155 172 0
148 167 0
152 169 0
156 174 0
161 180 0
155 172 0
148 164 0
158 175 0
153 169 0
163 181 0
156 176 0
153 171 0
135 144 32
102 99 28
89 83 26
87 83 8
88 84 19
80 76 12
98 94 19
82 79 11
88 85 0
84 83 14
92 89 11
94 91 0
88 86 16
101 96 11
89 86 8
91 88 14
100 96 14
90 90 11
97 93 8
100 97 5
103 99 11
104 100 20
108 105 16
106 102 26
105 101 14
101 98 12
112 107 14
116 112 26
112 107 24
119 115 28
113 110 22
119 114 12
117 114 22
116 112 26
118 113 22
127 122 22
113 110 25
111 108 29
126 120 32
123 119 30
123 119 19
133 128 25
134 130 28
121 117 28
126 120 28
130 125 32
133 129 29
128 123 29
135 131 34
127 123 30
130 127 21
132 127 36
137 130 40
139 134 39
135 130 32
132 127 25
137 133 30
130 126 34
125 120 30
136 131 34
137 132 28
142 136 41
148 142 48
131 126 34
142 136 39
142 137 42
140 134 39
140 134 45
138 131 49
144 139 36
144 139 45
145 140 37
145 137 49
144 139 45
142 136 42
140 134 37
142 136 39
146 140 48
143 137 41
142 137 42
144 138 45
147 140 45
145 138 45
148 143 48
138 133 44
143 136 51
141 135 42
146 139 47
152 145 54
144 138 42
150 144 42
148 141 45
139 134 37
144 138 42
148 142 44
149 142 44
143 135 53
154 148 53
145 138 52
151 144 48
143 139 44
145 139 42
142 136 42
147 140 47
133 128 42
142 136 48
142 136 51
142 137 45
137 133 41
138 132 45
148 142 54
146 139 59
147 141 49
152 145 56
148 141 53
139 133 42
144 138 52
140 135 51
144 137 53
145 139 52
135 130 45
141 135 53
148 143 52
138 132 45
149 143 53
133 128 44
149 143 60
139 133 51
139 132 54
133 127 54
148 141 60
139 134 48
137 131 56
146 139 57
152 173 0
154 174 0
150 171 0
152 173 0
150 170 0
150 170 0
150 171 0
151 172 0
149 170 0
152 173 0
154 174 0
150 170 0
154 175 0
153 173 0
154 174 0
151 170 0
149 170 0
148 167 0
149 170 0
149 169 0
148 168 0
150 170 0
150 172 0
153 173 0
150 170 0
152 172 0
150 171 0
147 168 0
150 171 0
147 167 0
152 173 0
150 171 0
152 172 0
151 172 0
150 169 0
149 169 0
148 169 0
143 163 0
143 163 0
148 168 0
146 167 0
147 167 0
147 167 0
148 168 0
148 169 0
149 170 0
147 167 0
149 169 0
147 167 0
148 169 0
147 167 0
148 169 0
142 162 0
148 168 0
145 165 0
143 163 0
142 163 0
143 162 0
143 162 0
146 165 0
143 164 0
146 166 0
149 168 0
144 165 0
144 164 0
144 164 0
147 168 0
144 163 0
146 165 0
147 166 0
143 162 0
136 155 0
138 158 0
143 163 0
138 157 0
140 159 0
137 156 0
139 159 0
140 159 0
140 159 0
139 159 0
139 158 0
137 156 0
134 153 0
140 159 0
137 156 0
138 158 0
137 156 0
135 153 0
137 156 0
134 152 0
131 149 0
128 146 0
136 154 0
134 153 0
137 156 0
130 148 0
131 150 0
132 150 0
128 147 0
127 146 0
128 146 0
130 149 0
129 147 0
124 141 0
123 140 0
125 142 0
117 133 0
127 146 0
130 147 0
124 141 0
118 135 0
113 129 0
122 137 0
120 137 0
108 124 0
111 127 0
116 132 0
112 129 0
112 127 0
108 123 0
113 129 0
116 132 0
112 127 0
106 121 0
103 117 0
105 120 0
110 125 0
111 127 0
102 117 0
105 121 0
116 131 0
123 140 0
155 176 0
157 179 0
160 182 0
159 180 0
154 177 0
157 179 0
151 172 0
161 183 0
159 181 0
154 175 0
157 178 0
157 178 0
154 177 0
158 180 0
156 177 0
157 179 0
154 175 0
147 169 0
155 177 0
150 173 0
149 170 0
152 173 0
153 174 0
150 171 0
153 175 0
148 170 0
141 161 0
155 177 0
145 167 0
136 157 0
72 95 57
49 78 75
50 80 85
53 84 97
50 79 78
51 81 84
49 79 78
49 78 82
49 78 75
54 86 91
53 84 96
51 81 80
51 81 90
52 82 80
53 85 95
54 85 100
52 84 84
55 87 99
51 82 89
53 85 88
54 86 93
52 83 86
53 84 88
55 87 114
53 84 95
55 87 95
54 85 97
54 85 100
55 88 109
52 83 90
54 86 103
54 86 103
54 85 88
55 87 103
54 85 107
54 86 100
53 84 99
55 87 95
54 85 105
56 89 102
53 84 92
53 83 94
53 84 82
53 85 90
54 84 94
54 85 102
53 84 92
54 86 94
53 84 100
53 84 94
54 85 95
51 81 87
55 86 102
52 82 94
51 81 81
50 78 80
52 82 89
51 82 84
50 79 89
53 83 90
52 82 100
51 80 83
50 79 82
50 78 83
52 81 81
49 77 79
50 79 85
48 75 63
50 79 82
49 77 87
49 76 76
49 75 82
48 73 77
69 90 57
139 158 25
141 159 0
136 154 0
145 164 0
150 169 0
148 166 0
143 163 0
152 172 0
142 159 0
139 158 0
142 161 0
147 167 0
154 173 0
148 166 0
147 164 0
147 163 0
151 169 0
154 173 0
151 169 0
146 165 0
153 169 0
154 169 0
155 174 0
153 169 0
152 170 0
156 173 0
155 173 0
153 170 0
154 172 0
157 174 0
114 121 16
99 93 30
87 83 19
91 86 16
94 90 16
96 91 19
95 91 0
83 80 14
90 88 14
96 91 8
87 85 11
90 87 8
93 91 8
100 95 8
101 98 8
99 95 3
91 86 8
98 94 8
98 94 8
102 99 21
98 94 18
112 109 24
112 108 19
107 104 21
112 108 20
113 108 19
105 101 20
116 111 22
116 113 16
120 115 14
125 120 35
124 119 25
118 114 19
121 118 21
115 112 22
114 111 25
124 120 11
128 124 28
112 108 18
119 114 21
127 121 34
115 110 0
131 124 28
125 121 16
130 125 25
122 118 26
126 121 33
124 121 28
126 122 23
131 126 30
128 123 30
139 133 35
139 133 36
137 132 32
136 130 30
141 136 39
135 129 25
141 135 39
134 130 25
134 128 32
139 135 32
141 136 30
132 127 36
138 134 32
140 135 37
141 134 37
141 135 44
142 136 36
143 138 44
148 143 44
144 137 36
140 135 39
137 132 39
137 131 41
138 133 34
138 131 37
140 134 41
143 137 36
144 138 45
142 136 39
136 130 37
143 137 44
145 139 48
143 138 44
145 138 49
143 137 37
140 135 44
146 140 42
145 139 52
150 141 54
144 137 44
141 135 32
138 134 39
145 139 45
141 135 39
142 137 45
140 134 41
136 130 45
144 137 49
144 138 41
143 137 45
137 132 47
135 128 44
147 140 51
141 135 44
141 135 47
136 131 37
135 129 44
137 131 42
143 137 51
144 139 41
147 142 44
144 138 49
136 131 53
142 136 45
146 140 53
136 130 48
138 132 47
143 137 49
146 139 57
145 138 53
133 128 42
139 133 48
142 136 51
138 133 32
145 139 56
146 140 53
134 127 48
142 135 48
145 139 56
142 135 54
141 135 44
137 131 48
151 172 0
153 173 0
153 173 0
154 174 0
154 174 0
153 173 0
154 173 0
153 173 0
152 173 0
152 172 0
151 172 0
153 173 0
149 170 0
150 171 0
151 171 0
152 172 0
147 167 0
150 170 0
151 171 0
150 171 0
151 171 0
151 171 0
151 171 0
152 172 0
153 173 0
152 173 0
152 172 0
151 171 0
148 168 0
150 171 0
151 171 0
147 167 0
151 171 0
149 168 0
149 169 0
147 166 0
144 164 0
147 167 0
153 174 0
142 162 0
147 167 0
149 169 0
149 168 0
149 168 0
144 164 0
147 167 0
146 167 0
146 167 0
145 164 0
145 165 0
142 162 0
145 165 0
146 167 0
142 162 0
146 165 0
143 163 0
147 166 0
143 164 0
144 164 0
141 160 0
144 164 0
146 165 0
142 162 0
139 158 0
140 160 0
139 159 0
138 157 0
143 163 0
140 160 0
140 160 0
141 160 0
141 161 0
140 160 0
143 162 0
140 159 0
137 155 0
137 157 0
142 162 0
142 162 0
134 152 0
138 158 0
141 160 0
136 156 0
141 160 0
130 148 0
133 151 0
132 150 0
139 156 0
132 151 0
137 155 0
136 155 0
128 146 0
126 143 0
133 152 0
137 155 0
135 154 0
124 142 0
122 139 0
123 140 0
125 142 0
125 141 0
126 144 0
130 146 0
122 138 0
127 144 0
121 138 0
122 139 0
120 138 0
118 134 0
120 137 0
127 144 0
123 141 0
124 141 0
112 128 0
116 133 0
103 119 0
113 128 0
116 132 0
115 130 0
110 125 0
101 116 0
106 120 0
113 128 0
109 125 0
117 133 0
112 127 0
114 130 0
111 127 0
103 118 0
100 115 0
105 120 0
137 154 0
154 175 0
159 180 0
159 181 0
154 174 0
154 176 0
158 179 0
149 170 0
146 167 0
155 176 0
154 175 0
154 175 0
144 164 0
158 180 0
150 171 0
148 168 0
145 167 0
147 168 0
141 163 0
152 173 0
146 167 0
141 161 0
141 162 0
144 164 0
145 165 0
142 163 0
145 167 0
139 160 0
145 166 0
140 160 0
142 164 0
140 160 0
142 163 18
60 84 62
47 76 64
46 74 64
49 78 74
48 77 80
50 80 84
50 79 70
51 81 78
51 81 86
52 82 82
50 80 86
51 81 82
54 86 94
49 79 84
50 80 76
52 82 86
51 81 80
53 84 95
53 84 84
54 85 88
50 80 94
55 87 111
50 80 82
55 87 106
53 85 97
52 82 97
51 81 82
52 83 78
53 84 97
56 87 109
53 84 102
53 83 99
52 82 88
51 81 100
53 85 80
52 83 94
54 85 94
51 82 93
54 86 92
54 86 97
52 82 90
55 87 113
56 88 108
55 87 97
52 82 84
54 85 110
52 82 97
53 84 94
53 84 100
51 81 99
52 82 92
54 85 97
53 83 94
53 84 99
54 85 99
49 77 86
51 80 82
52 83 86
52 82 99
48 77 72
52 82 100
52 82 79
51 80 90
51 79 86
50 78 87
47 75 81
50 78 90
51 79 82
51 80 91
46 72 61
44 67 68
73 92 57
134 151 25
138 158 0
127 145 0
136 153 0
148 165 0
147 165 0
141 158 0
145 162 0
148 168 0
141 158 0
145 162 0
148 166 0
147 167 0
151 169 0
145 164 0
149 167 0
146 162 0
146 163 0
147 163 0
149 166 0
146 163 0
147 162 0
150 165 0
151 168 0
154 170 0
156 173 0
145 160 0
156 173 0
158 175 0
148 164 0
151 166 0
153 168 0
121 128 24
96 90 22
95 90 19
76 71 11
91 89 16
88 84 16
83 79 14
83 80 0
83 79 8
94 89 16
83 78 11
90 86 8
97 90 11
96 92 8
85 82 16
99 94 14
96 92 0
103 96 8
101 98 11
98 96 11
110 107 21
101 98 16
112 108 16
111 106 17
106 104 12
105 101 14
111 106 18
118 113 11
116 110 18
116 110 31
117 112 16
124 119 19
121 118 22
122 117 19
117 111 16
112 110 22
122 118 31
134 129 36
124 119 28
114 110 11
124 118 28
127 121 27
131 126 29
124 118 19
126 123 19
126 120 30
124 119 16
122 117 19
127 121 25
133 127 33
129 125 16
127 121 28
139 132 41
131 125 28
138 132 39
132 127 32
137 131 39
133 129 30
129 125 30
138 132 30
139 133 34
130 125 30
138 131 32
137 132 30
142 136 32
131 127 30
136 129 41
139 133 32
141 134 39
133 127 34
133 128 30
144 137 42
141 135 44
142 136 37
142 136 45
137 130 44
134 129 37
141 135 42
133 129 25
143 138 37
137 132 37
139 136 32
143 137 42
143 136 49
146 140 47
147 139 48
139 134 36
144 137 47
145 140 47
151 145 45
145 140 41
143 137 37
136 130 34
146 140 48
139 133 30
144 137 47
141 136 41
141 136 37
142 137 45
146 140 47
138 131 49
145 140 49
143 138 39
140 135 44
143 138 39
143 136 49
136 130 49
142 137 45
139 133 44
139 132 53
138 133 45
141 135 47
147 140 52
147 142 56
139 134 49
144 138 53
135 130 44
142 136 57
138 132 42
140 133 49
138 132 41
134 129 49
135 129 51
137 132 49
138 132 49
147 142 53
144 138 51
139 133 51
144 138 53
141 135 53
133 128 45
135 130 44
153 173 0
151 171 0
149 169 0
152 173 0
151 171 0
152 172 0
151 172 0
152 173 0
150 172 0
151 171 0
151 171 0
152 172 0
151 172 0
153 173 0
153 173 0
150 170 0
150 171 0
151 172 0
153 173 0
149 169 0
148 168 0
150 171 0
150 170 0
150 170 0
149 170 0
152 172 0
148 168 0
147 167 0
150 170 0
152 172 0
148 168 0
149 168 0
147 168 0
149 170 0
149 169 0
149 169 0
151 171 0
145 164 0
144 165 0
148 169 0
147 167 0
148 168 0
146 166 0
147 166 0
145 166 0
147 167 0
148 168 0
146 166 0
148 169 0
146 166 0
145 164 0
148 168 0
145 164 0
146 165 0
144 164 0
147 167 0
147 166 0
146 167 0
149 168 0
147 166 0
146 167 0
150 171 0
145 164 0
145 165 0
139 157 0
142 161 0
146 166 0
142 162 0
144 164 0
142 161 0
144 163 0
138 157 0
135 154 0
136 154 0
142 161 0
138 157 0
139 158 0
137 156 0
135 154 0
132 151 0
136 154 0
134 152 0
141 160 0
137 156 0
134 152 0
134 153 0
129 147 0
132 150 0
129 147 0
137 155 0
136 155 0
134 152 0
136 154 0
134 152 0
135 152 0
125 143 0
130 148 0
124 142 0
131 148 0
128 145 0
127 144 0
125 142 0
118 135 0
136 153 0
122 140 0
122 140 0
121 138 0
120 136 0
118 136 0
119 136 0
115 130 0
115 132 0
115 132 0
120 137 0
109 125 0
120 136 0
119 134 0
117 133 0
101 116 0
112 127 0
109 123 0
110 126 0
115 130 0
105 119 0
107 122 0
112 127 0
114 129 0
114 127 0
114 129 0
99 112 0
129 147 0
152 173 0
151 171 0
152 172 0
153 174 0
154 175 0
150 170 0
151 173 0
147 167 0
154 174 0
143 163 0
152 173 0
154 176 0
152 173 0
154 174 0
148 169 0
147 167 0
152 174 0
140 162 0
151 172 0
156 178 0
146 166 0
149 170 0
142 162 0
146 166 0
144 164 0
138 158 0
148 169 0
144 165 0
142 163 0
139 158 0
140 160 0
131 152 0
135 155 0
142 162 18
78 98 53
46 74 67
46 74 64
49 78 80
48 77 80
50 80 78
53 84 97
49 78 80
50 81 76
52 82 90
49 78 76
52 83 90
51 82 82
54 85 92
51 81 94
52 82 90
52 82 97
54 85 100
53 84 94
54 86 102
53 84 93
52 83 92
53 83 86
54 86 92
52 82 86
53 85 92
50 80 76
54 86 97
55 86 105
52 83 95
52 83 97
52 82 90
55 87 103
53 84 101
53 83 97
52 84 90
52 82 94
53 84 97
52 82 94
56 87 103
51 82 99
53 84 94
52 82 92
51 81 92
51 81 87
53 85 95
53 84 99
51 81 92
54 86 94
51 80 86
50 79 87
54 84 100
51 82 78
49 78 97
55 86 103
53 83 102
53 84 108
50 80 86
50 79 94
50 79 82
52 81 96
51 81 87
49 77 79
50 79 86
51 79 92
50 78 84
49 76 74
47 74 79
48 75 79
74 94 62
132 148 18
135 153 0
148 167 0
130 148 0
138 155 0
139 157 0
143 161 0
140 155 0
135 153 0
132 148 0
143 161 0
134 153 0
142 159 0
148 165 0
139 156 0
143 161 0
137 152 0
135 152 0
137 154 0
145 165 0
146 162 0
146 159 0
144 159 0
150 166 0
152 167 0
149 162 0
143 159 0
152 170 0
153 168 0
146 161 0
155 170 0
157 171 0
150 167 0
144 160 0
131 138 30
93 88 30
93 87 25
82 77 14
89 86 12
90 85 19
85 81 18
85 80 8
85 81 8
86 81 11
84 81 8
94 89 8
88 83 8
87 85 0
90 90 14
89 84 8
98 94 8
97 94 11
104 102 0
95 90 14
105 101 0
99 96 11
95 93 11
112 106 19
101 98 16
100 97 11
107 103 19
114 109 16
113 108 18
113 108 8
117 113 26
114 111 13
118 113 8
124 119 25
122 116 19
117 114 8
122 116 25
119 115 22
114 109 18
116 113 16
126 121 16
127 121 22
124 119 16
130 125 22
127 121 18
122 119 21
129 123 31
125 120 16
134 128 41
138 132 29
131 127 25
132 127 19
132 127 28
126 121 25
138 133 24
131 125 29
136 129 30
135 129 30
142 136 37
136 129 30
131 126 30
135 131 19
127 122 32
142 135 41
136 130 34
140 135 37
141 135 36
139 134 37
135 129 36
137 132 42
135 129 32
135 130 28
134 129 28
135 130 39
143 136 45
135 129 39
151 144 41
144 139 34
134 129 37
137 132 37
132 127 30
144 137 42
139 134 42
136 130 30
138 133 32
137 130 42
142 136 44
144 138 45
135 128 36
146 139 47
146 141 47
134 128 39
139 135 39
134 129 44
134 129 34
147 140 53
143 137 48
141 136 41
141 135 41
134 129 36
142 136 47
135 129 44
146 138 54
134 130 45
151 143 54
139 134 39
135 129 42
146 140 57
147 141 52
144 138 47
146 140 54
139 133 48
134 126 53
141 135 48
129 125 37
143 137 47
144 139 48
142 137 49
140 133 52
143 137 57
138 132 51
143 137 53
137 132 42
142 135 54
137 131 41
146 140 51
134 129 48
126 121 37
145 139 54
141 136 49
137 130 53
154 174 0
150 170 0
151 172 0
152 173 0
150 170 0
150 171 0
153 173 0
150 171 0
151 171 0
149 169 0
150 170 0
152 173 0
153 172 0
152 172 0
150 170 0
148 169 0
151 171 0
149 169 0
152 173 0
149 169 0
147 167 0
149 169 0
149 169 0
145 164 0
151 170 0
152 172 0
149 169 0
150 170 0
147 167 0
150 170 0
149 169 0
150 169 0
144 164 0
151 171 0
145 165 0
151 172 0
149 169 0
149 169 0
148 167 0
151 171 0
145 164 0
149 170 0
147 168 0
148 167 0
147 166 0
149 168 0
144 164 0
147 166 0
145 165 0
146 167 0
144 164 0
142 161 0
148 168 0
146 165 0
144 163 0
148 167 0
147 166 0
147 167 0
147 167 0
143 163 0
138 157 0
143 162 0
139 158 0
141 161 0
142 161 0
138 157 0
136 155 0
146 165 0
139 157 0
143 162 0
143 162 0
134 153 0
140 159 0
144 163 0
141 161 0
135 155 0
134 153 0
140 159 0
135 154 0
133 152 0
137 155 0
134 153 0
136 154 0
140 160 0
128 146 0
129 147 0
132 150 0
132 151 0
136 154 0
132 150 0
131 149 0
126 144 0
128 146 0
136 155 0
130 148 0
126 145 0
127 146 0
133 151 0
130 147 0
133 150 0
125 142 0
131 148 0
125 142 0
120 137 0
128 145 0
125 141 0
118 134 0
121 138 0
118 136 0
121 138 0
117 133 0
121 138 0
112 128 0
116 131 0
109 123 0
118 134 0
113 129 0
107 122 0
113 128 0
117 133 0
105 120 0
109 124 0
107 122 0
106 121 0
116 131 0
115 130 0
104 119 0
98 112 0
118 132 0
137 156 0
150 171 0
158 179 0
151 172 0
147 167 0
154 174 0
141 161 0
156 176 0
141 161 0
150 170 0
149 169 0
144 164 0
147 168 0
152 174 0
151 170 0
138 158 0
141 161 0
153 174 0
135 156 0
141 161 0
152 174 0
142 163 0
133 153 0
136 157 0
145 165 0
138 158 0
130 149 0
137 158 0
142 162 0
138 158 0
141 161 0
135 156 0
135 155 0
135 155 0
136 156 0
122 141 0
134 154 0
86 106 60
46 73 78
46 74 61
44 70 62
48 77 70
47 75 67
48 76 78
48 76 65
50 79 88
49 79 92
50 80 86
51 81 88
49 78 72
52 82 100
51 81 93
54 85 94
53 84 88
51 81 82
52 82 78
51 81 88
54 85 110
52 83 94
52 82 97
53 84 97
53 84 90
54 86 103
54 86 102
52 83 94
53 84 92
53 84 103
49 79 82
51 81 92
51 82 86
53 84 94
54 85 94
52 82 88
51 82 95
52 82 88
53 84 90
51 82 88
53 83 88
49 78 87
52 82 82
51 81 68
52 82 90
53 84 96
53 85 100
51 81 92
51 80 89
53 84 90
49 79 75
53 84 90
52 81 83
52 82 90
49 79 74
53 83 94
49 78 90
50 78 87
51 79 79
49 76 80
50 78 89
52 81 87
50 79 88
46 73 77
46 72 68
45 70 68
46 72 65
72 91 44
131 149 0
127 145 0
131 147 0
133 151 0
141 158 0
127 142 0
143 160 0
140 157 0
135 151 0
141 158 0
141 157 0
137 154 0
139 155 0
146 164 0
134 152 0
136 153 0
144 160 0
142 158 0
142 158 0
146 162 0
140 153 0
130 143 0
149 164 0
144 159 0
146 162 0
141 155 0
149 165 0
153 166 0
147 162 0
142 156 0
147 161 0
141 155 0
145 161 0
151 165 0
148 164 0
154 169 0
128 136 11
93 90 22
86 80 19
84 79 11
84 80 14
76 73 14
91 85 16
80 76 11
87 83 14
92 88 16
85 81 0
98 92 11
91 87 0
92 89 3
99 93 8
101 95 0
94 92 12
102 99 8
99 95 11
101 96 14
110 106 8
114 108 11
104 101 8
105 101 0
105 102 14
112 108 15
114 110 16
107 103 16
112 109 8
106 101 16
109 105 16
120 116 15
119 111 16
120 114 18
116 111 16
118 114 14
126 120 24
119 115 22
124 120 19
122 118 0
129 124 16
126 121 22
130 125 28
115 111 19
120 114 25
128 123 25
132 126 30
120 116 25
128 122 22
123 117 28
139 133 28
132 127 34
131 126 22
134 128 30
126 122 22
124 118 19
137 132 25
137 131 39
133 126 34
130 124 36
133 129 22
132 127 22
137 131 37
133 128 36
141 135 36
133 128 36
135 130 34
142 135 48
137 132 41
137 131 36
131 127 22
132 127 36
138 131 37
134 128 36
138 132 41
140 134 37
136 132 28
141 136 37
136 131 37
137 133 32
134 128 37
138 133 32
138 133 41
150 143 47
146 139 41
139 134 39
145 138 41
140 135 47
134 129 28
140 134 39
140 135 44
143 136 44
143 137 44
151 143 56
144 138 48
146 140 52
141 135 44
145 139 49
144 139 41
143 134 39
136 131 41
149 143 51
136 131 48
138 134 45
137 130 42
138 133 36
146 140 51
139 132 44
140 136 39
142 136 48
133 127 42
140 135 47
135 129 47
136 131 45
138 133 44
137 131 42
144 137 48
142 137 42
140 133 49
141 134 53
140 135 47
137 131 51
141 135 47
136 130 47
137 130 44
130 124 45
143 137 52
134 127 47
132 125 47
145 138 56
153 174 0
151 171 0
154 174 0
151 171 0
151 171 0
151 171 0
150 171 0
151 171 0
151 172 0
150 170 0
149 170 0
153 174 0
151 171 0
152 172 0
148 168 0
151 172 0
153 174 0
150 170 0
149 169 0
150 170 0
150 170 0
147 168 0
149 170 0
151 172 0
153 173 0
149 170 0
150 170 0
150 170 0
148 167 0
147 167 0
151 171 0
151 170 0
142 162 0
149 169 0
149 169 0
146 166 0
149 168 0
150 170 0
149 169 0
147 167 0
147 166 0
146 166 0
148 168 0
148 168 0
147 167 0
145 165 0
148 169 0
148 168 0
141 160 0
147 166 0
147 166 0
147 166 0
142 161 0
143 161 0
144 164 0
144 163 0
146 165 0
144 164 0
143 163 0
142 162 0
144 163 0
138 157 0
139 158 0
139 158 0
145 164 0
142 160 0
138 156 0
141 160 0
145 165 0
140 159 0
143 161 0
142 160 0
139 159 0
139 157 0
134 152 0
133 152 0
133 151 0
132 152 0
136 154 0
143 162 0
140 159 0
139 157 0
140 159 0
134 152 0
131 149 0
132 149 0
132 149 0
130 147 0
134 153 0
137 156 0
131 149 0
128 146 0
129 146 0
130 147 0
128 146 0
124 142 0
129 147 0
130 148 0
121 139 0
127 144 0
123 141 0
120 137 0
125 142 0
133 150 0
127 145 0
121 138 0
124 141 0
118 132 0
122 140 0
120 136 0
111 127 0
112 129 0
117 132 0
108 123 0
116 132 0
107 122 0
114 129 0
110 125 0
106 121 0
110 125 0
108 122 0
105 120 0
106 121 0
105 120 0
110 124 0
108 121 0
111 126 0
107 120 0
141 159 0
152 172 0
154 174 0
154 174 0
149 168 0
146 165 0
137 156 0
145 164 0
147 167 0
154 174 0
147 166 0
150 169 0
140 159 0
152 172 0
140 158 0
139 160 0
145 165 0
139 159 0
146 166 0
143 162 0
150 171 0
138 158 0
148 169 0
144 163 0
137 157 0
140 160 0
147 168 0
138 158 0
133 153 0
139 159 0
141 161 0
141 160 0
140 160 0
134 154 0
130 151 0
127 147 0
126 145 0
124 143 0
131 150 0
96 117 43
45 72 65
47 76 67
47 75 70
48 77 71
47 75 76
50 80 90
49 77 81
51 82 86
52 81 91
50 79 84
50 80 90
52 83 94
49 79 71
50 80 76
50 80 86
50 80 76
53 84 84
47 76 78
50 79 88
53 84 82
53 84 84
52 83 95
51 82 90
52 84 90
51 82 90
51 81 84
50 79 88
52 83 84
53 84 95
53 84 99
51 81 92
52 82 100
48 77 72
52 82 80
51 81 88
53 84 90
51 82 92
53 84 90
55 87 97
53 83 99
52 82 94
50 80 74
51 81 87
52 82 86
52 82 99
53 84 82
51 81 86
50 80 90
52 82 94
51 80 77
48 76 74
47 74 72
51 80 83
49 78 83
49 78 90
47 75 67
49 78 79
46 72 57
50 78 74
48 75 80
48 75 65
46 72 71
45 71 57
47 73 71
98 116 40
130 145 0
134 150 0
134 153 0
124 141 0
133 150 0
125 143 0
137 154 0
132 148 0
128 145 0
120 135 0
136 152 0
130 143 0
129 146 0
133 148 0
137 152 0
132 148 0
141 157 0
125 139 0
135 149 0
145 162 0
140 155 0
138 152 0
137 150 0
137 150 0
139 151 0
140 153 0
134 147 0
141 152 0
139 152 0
133 146 0
144 157 0
145 158 0
132 144 0
147 160 0
143 156 0
148 159 0
148 157 0
143 156 0
136 144 11
93 89 30
79 73 0
82 78 0
87 82 19
93 86 11
94 91 11
94 90 16
80 76 16
97 92 8
90 85 0
82 81 11
90 84 0
101 96 11
99 96 0
89 86 0
89 86 0
107 100 0
97 94 11
94 89 14
99 95 18
111 105 11
111 106 3
101 97 8
100 98 14
108 104 11
99 95 19
103 99 0
108 103 0
110 106 16
112 109 16
119 115 23
108 104 14
122 116 16
122 117 21
113 110 11
118 114 0
116 112 0
122 120 11
120 114 22
118 112 16
129 123 32
119 115 0
129 122 28
123 118 20
126 119 32
129 124 28
130 124 28
129 123 22
128 122 15
124 120 24
128 122 34
127 121 28
132 128 22
135 129 22
130 124 30
136 131 32
139 134 41
136 130 30
135 129 39
129 124 28
129 123 25
127 123 11
128 123 22
135 128 30
135 130 37
139 133 36
142 135 32
132 127 28
134 129 28
134 129 36
139 134 37
137 131 36
133 128 36
133 129 30
141 135 32
137 131 37
134 127 37
133 128 34
132 125 30
136 130 30
131 125 34
143 137 39
134 128 32
135 130 37
140 134 37
137 131 39
138 132 42
141 135 36
138 132 41
144 138 36
142 136 42
138 133 34
137 129 41
134 129 41
141 134 41
138 133 41
140 133 37
146 140 39
135 128 41
128 121 36
141 134 45
140 134 42
134 129 49
140 133 51
140 134 41
139 132 47
141 135 45
135 128 45
142 136 36
140 133 42
143 137 49
135 130 32
131 125 37
145 139 47
139 133 47
134 128 48
139 132 47
134 129 37
140 134 52
135 130 47
142 137 45
138 131 53
131 125 36
135 129 51
137 130 45
132 125 54
134 129 41
131 123 48
152 172 0
153 173 0
152 173 0
150 171 0
151 171 0
151 171 0
151 171 0
149 170 0
152 171 0
151 171 0
148 169 0
151 171 0
153 173 0
151 171 0
151 171 0
151 170 0
149 169 0
150 170 0
151 170 0
148 167 0
150 169 0
152 173 0
148 167 0
150 171 0
147 166 0
145 164 0
150 169 0
149 169 0
149 168 0
148 168 0
149 168 0
148 167 0
150 170 0
147 166 0
148 168 0
152 172 0
147 167 0
146 166 0
148 168 0
146 166 0
148 167 0
148 169 0
145 164 0
143 162 0
145 164 0
148 168 0
150 169 0
144 162 0
140 159 0
146 165 0
143 162 0
144 164 0
147 167 0
147 167 0
144 163 0
144 163 0
142 162 0
141 160 0
141 161 0
143 162 0
146 165 0
145 164 0
138 156 0
142 161 0
140 159 0
142 161 0
144 163 0
141 160 0
140 158 0
137 156 0
144 163 0
141 160 0
137 155 0
135 153 0
143 162 0
135 153 0
136 155 0
133 151 0
134 152 0
138 156 0
134 152 0
133 152 0
133 150 0
133 151 0
134 152 0
131 149 0
133 150 0
129 147 0
129 147 0
131 149 0
128 145 0
134 152 0
129 146 0
129 147 0
131 149 0
131 149 0
126 144 0
125 141 0
116 132 0
127 144 0
125 141 0
123 139 0
116 132 0
119 135 0
121 136 0
115 131 0
123 140 0
110 126 0
115 131 0
119 135 0
116 131 0
124 139 0
116 131 0
111 126 0
104 120 0
117 132 0
114 129 0
111 126 0
111 126 0
110 124 0
115 129 0
106 120 0
111 126 0
105 119 0
106 119 0
103 116 0
109 124 0
144 163 0
143 162 0
143 161 0
155 175 0
133 151 0
140 160 0
143 162 0
142 163 0
139 159 0
147 167 0
147 168 0
141 160 0
145 164 0
143 162 0
139 157 0
146 166 0
139 158 0
134 154 0
142 163 0
132 150 0
143 162 0
140 159 0
135 155 0
144 165 0
126 145 0
138 158 0
141 162 0
138 157 0
132 150 0
130 149 0
142 162 0
130 149 0
140 160 0
125 144 0
131 151 0
129 148 0
138 157 0
131 150 0
124 143 0
128 147 0
119 138 0
106 125 18
58 80 60
48 76 71
49 77 74
49 79 90
48 77 71
48 77 76
49 78 70
52 82 90
49 78 70
48 77 69
49 79 60
51 82 82
51 82 89
51 80 88
52 82 87
50 80 84
52 83 88
52 82 80
52 82 84
50 80 76
50 80 70
55 87 105
51 81 87
53 84 90
51 80 82
54 85 99
54 85 94
51 81 86
50 80 86
53 84 94
50 79 82
54 85 100
49 79 78
54 86 97
52 83 94
52 83 84
52 83 82
52 83 92
50 80 86
52 83 80
54 85 97
51 82 86
52 82 88
52 82 81
51 80 92
50 80 70
52 81 90
51 81 99
51 81 85
50 79 57
50 79 94
51 80 78
49 77 86
49 77 86
50 78 94
51 80 82
47 74 71
47 76 63
47 75 82
47 75 65
46 73 72
46 71 61
99 116 43
122 139 0
121 136 0
132 150 0
120 137 0
122 139 0
132 149 0
122 137 0
119 135 0
126 143 0
134 149 0
123 138 0
131 145 0
128 142 0
133 149 0
136 153 0
135 149 0
134 149 0
133 150 0
135 149 0
137 152 0
139 156 0
141 157 0
134 147 0
126 137 0
140 153 0
134 146 0
142 158 0
137 152 0
134 148 0
146 162 0
136 147 0
135 146 0
138 149 0
135 146 0
144 156 0
145 158 0
153 166 0
137 149 0
143 154 0
136 142 0
130 138 11
101 95 19
86 82 14
89 81 16
89 84 18
82 78 3
93 88 0
79 73 16
90 84 16
87 82 8
93 90 0
97 91 11
96 90 8
97 91 0
94 88 0
98 92 0
104 100 3
92 88 8
105 101 8
99 95 14
113 108 16
102 97 3
96 94 0
101 99 11
103 99 0
111 107 19
111 107 0
113 109 14
120 113 19
100 95 0
112 108 0
118 113 14
116 110 11
115 110 11
119 115 18
117 113 16
118 112 14
115 111 8
119 113 25
116 112 14
130 125 19
127 122 25
124 119 21
119 113 16
127 122 19
123 118 16
137 131 19
120 116 16
131 125 22
125 120 19
129 123 28
126 120 22
132 125 25
132 127 22
131 124 36
129 124 11
128 123 30
136 130 19
129 124 28
139 132 28
132 127 22
128 121 30
128 123 28
136 130 36
135 129 36
133 127 32
143 135 36
139 132 32
142 137 41
142 137 42
142 136 36
132 126 19
144 139 42
139 133 42
139 134 32
131 126 32
141 136 32
140 134 30
144 138 44
128 122 30
143 137 45
143 137 42
146 140 45
143 137 44
132 127 34
138 133 30
134 128 34
138 132 39
136 130 30
133 127 30
136 129 42
133 128 32
136 129 44
144 138 47
134 129 37
139 133 45
140 134 47
149 142 51
143 137 41
138 131 42
133 128 37
144 137 45
133 127 42
140 135 37
133 126 34
131 124 39
138 132 41
140 134 45
134 128 47
145 138 45
131 125 39
142 136 49
139 132 37
137 131 39
142 136 48
136 130 48
134 128 41
136 130 41
133 129 49
134 129 47
134 129 47
140 135 45
142 136 49
134 129 41
140 134 47
140 133 48
133 128 47
138 131 47
150 170 0
151 171 0
153 172 0
154 174 0
151 171 0
154 174 0
151 171 0
152 173 0
150 169 0
152 172 0
152 172 0
151 170 0
150 171 0
152 171 0
150 169 0
150 171 0
148 168 0
150 171 0
153 172 0
152 172 0
152 172 0
148 168 0
145 164 0
150 171 0
148 168 0
149 169 0
146 166 0
149 168 0
148 168 0
151 170 0
148 168 0
148 168 0
150 170 0
148 168 0
148 167 0
146 165 0
148 166 0
149 170 0
150 169 0
148 166 0
147 167 0
146 166 0
144 163 0
145 163 0
148 168 0
146 165 0
148 167 0
147 166 0
140 160 0
146 166 0
146 165 0
148 167 0
145 164 0
142 160 0
143 162 0
145 164 0
144 164 0
146 166 0
141 160 0
142 162 0
142 162 0
139 157 0
141 159 0
141 160 0
137 155 0
141 159 0
139 159 0
136 155 0
141 160 0
138 157 0
139 158 0
143 161 0
136 154 0
138 156 0
134 152 0
139 158 0
143 162 0
138 156 0
138 156 0
134 151 0
137 155 0
138 157 0
132 149 0
135 152 0
137 155 0
138 156 0
135 152 0
133 151 0
127 144 0
132 149 0
137 154 0
132 149 0
133 151 0
128 144 0
130 148 0
128 145 0
127 144 0
124 141 0
126 143 0
126 143 0
122 138 0
118 134 0
118 134 0
116 130 0
119 136 0
122 138 0
115 132 0
115 132 0
126 142 0
125 141 0
109 124 0
115 131 0
106 121 0
110 125 0
113 127 0
116 130 0
109 124 0
111 125 0
103 118 0
108 122 0
108 122 0
109 123 0
104 117 0
94 106 0
95 108 0
114 128 0
144 161 0
140 158 0
143 162 0
145 163 0
140 158 0
137 155 0
141 158 0
136 154 0
146 165 0
142 160 0
142 160 0
147 165 0
134 153 0
137 155 0
145 164 0
142 161 0
132 150 0
140 159 0
140 159 0
135 155 0
131 150 0
134 153 0
141 160 0
135 154 0
146 166 0
129 148 0
130 150 0
128 148 0
140 160 0
128 147 0
133 153 0
124 142 0
124 143 0
123 144 0
133 152 0
114 132 0
134 153 0
117 136 0
125 142 0
127 147 0
118 136 0
131 150 0
115 132 0
99 116 25
61 85 56
46 73 74
48 76 65
45 73 60
50 80 80
47 75 80
50 80 86
46 74 65
52 82 94
48 77 76
51 81 80
49 78 88
50 80 76
50 79 70
48 77 67
49 79 88
51 81 80
53 84 82
51 81 71
52 83 74
52 83 88
51 80 88
51 81 88
52 82 88
50 79 74
53 84 94
51 81 76
51 82 86
48 77 70
50 81 74
53 84 90
52 82 80
53 83 102
49 78 90
51 81 86
53 83 97
52 83 88
53 83 94
50 80 76
52 82 80
52 83 88
48 76 73
48 76 72
50 79 78
50 80 78
47 75 78
49 78 80
49 77 82
46 73 70
49 78 88
49 77 74
50 78 89
49 76 83
48 76 77
44 70 67
49 77 77
44 70 63
46 72 72
44 68 71
55 75 65
110 124 0
121 138 0
108 124 0
119 135 0
123 136 0
115 130 0
122 138 0
118 130 0
120 135 0
126 142 0
131 147 0
131 147 0
126 141 0
120 135 0
127 142 0
122 135 0
121 135 0
128 140 0
130 142 0
129 143 0
137 152 0
136 148 0
133 149 0
135 151 0
124 138 0
135 146 0
144 158 0
136 148 0
136 151 0
140 152 0
135 148 0
135 147 0
138 149 0
130 142 0
134 145 0
141 152 0
131 142 0
132 141 0
141 149 0
148 159 0
137 146 0
134 142 0
140 151 0
139 149 0
110 108 22
83 77 14
86 79 16
79 73 0
88 83 18
97 94 18
92 87 11
93 88 8
94 86 11
91 88 3
91 87 0
90 86 2
103 98 0
89 86 0
92 85 8
93 89 0
96 92 0
105 100 0
89 86 8
109 103 0
111 107 0
111 105 0
103 100 11
110 104 0
103 96 0
113 108 11
107 102 0
113 106 11
110 105 16
113 110 14
119 115 8
119 115 11
117 111 11
114 109 0
113 108 11
110 104 0
119 112 11
123 118 16
125 118 11
123 117 19
122 116 16
111 108 16
123 118 19
116 111 11
125 121 25
125 120 11
119 114 16
126 120 28
127 121 28
132 126 22
132 127 25
128 122 22
128 122 25
131 125 22
128 124 22
127 122 25
135 129 28
126 119 11
132 126 37
130 125 28
138 131 39
140 134 36
123 119 22
132 126 34
140 135 36
132 126 22
136 130 32
133 127 28
138 133 28
135 129 32
144 138 30
128 122 34
144 139 25
134 129 32
130 123 22
138 133 41
135 129 36
134 128 36
136 128 32
136 129 32
141 136 41
136 131 32
130 125 34
133 128 34
127 120 22
135 129 42
145 139 44
137 130 30
137 131 32
135 128 32
140 134 41
140 133 41
143 137 47
146 140 47
128 123 36
137 129 37
125 118 32
137 130 36
140 135 39
136 131 42
132 125 41
134 129 39
135 129 47
132 126 47
143 137 48
137 130 48
134 127 47
133 125 45
139 134 39
139 133 45
138 132 44
136 130 47
140 134 39
138 132 45
136 130 44
135 129 45
143 136 48
135 130 42
126 121 37
130 125 42
133 127 37
123 118 41
131 124 39
137 131 51
138 132 48
126 121 37
152 172 0
150 170 0
151 171 0
153 173 0
152 172 0
152 173 0
150 169 0
152 171 0
151 170 0
151 171 0
152 171 0
148 168 0
149 169 0
150 169 0
151 170 0
150 171 0
150 170 0
147 168 0
149 169 0
148 167 0
148 168 0
151 170 0
148 168 0
150 170 0
147 166 0
145 165 0
149 169 0
147 167 0
148 167 0
149 168 0
146 165 0
148 168 0
148 166 0
146 165 0
150 169 0
144 163 0
146 165 0
147 168 0
148 168 0
148 168 0
147 166 0
144 164 0
148 167 0
148 168 0
149 169 0
143 162 0
143 161 0
147 165 0
144 163 0
146 165 0
142 161 0
147 166 0
146 165 0
145 164 0
144 164 0
143 162 0
149 168 0
147 166 0
145 165 0
143 162 0
146 165 0
142 161 0
144 162 0
143 162 0
141 159 0
137 155 0
139 156 0
136 154 0
139 157 0
138 156 0
136 154 0
140 158 0
130 148 0
140 159 0
138 156 0
136 154 0
131 149 0
128 146 0
138 157 0
138 155 0
139 157 0
133 151 0
133 151 0
135 152 0
135 154 0
134 151 0
132 149 0
129 147 0
129 147 0
131 149 0
131 148 0
129 147 0
129 145 0
125 142 0
131 148 0
132 149 0
122 138 0
127 142 0
126 143 0
126 143 0
125 141 0
125 141 0
120 135 0
120 136 0
122 138 0
115 131 0
106 121 0
119 135 0
114 130 0
107 122 0
110 125 0
119 134 0
118 133 0
105 119 0
113 128 0
111 125 0
106 120 0
112 126 0
108 122 0
105 119 0
114 128 0
106 120 0
102 114 0
95 107 0
134 151 0
141 157 0
139 156 0
141 158 0
138 155 0
139 157 0
135 154 0
145 163 0
138 157 0
147 166 0
131 148 0
144 162 0
125 142 0
137 155 0
137 155 0
136 155 0
135 154 0
128 146 0
140 157 0
130 148 0
143 161 0
130 148 0
135 153 0
122 139 0
134 153 0
128 147 0
133 151 0
136 156 0
129 148 0
138 158 0
135 154 0
132 151 0
128 146 0
134 154 0
134 154 0
121 141 0
133 151 0
128 147 0
124 142 0
125 143 0
123 141 0
124 142 0
122 141 0
122 140 0
110 128 0
112 128 0
112 131 0
80 99 40
47 73 50
44 70 61
45 72 57
43 69 69
47 75 56
48 78 72
44 71 54
45 74 56
47 75 65
48 76 90
48 77 70
45 73 78
48 77 74
50 80 99
48 77 74
50 80 76
49 78 86
51 81 86
53 85 90
51 81 80
50 79 84
47 76 78
51 81 105
52 83 84
51 81 80
50 79 78
51 82 95
49 78 67
51 81 84
49 78 80
53 83 92
50 80 78
50 79 82
51 80 94
51 81 90
51 81 74
47 76 72
48 76 81
51 81 82
51 81 88
52 82 87
52 83 103
48 77 74
50 79 90
49 78 85
49 77 82
46 73 62
46 74 74
46 73 72
47 75 72
48 76 81
46 72 56
48 75 84
47 74 60
46 73 76
46 69 60
79 96 44
108 122 0
115 129 0
118 132 0
111 125 0
112 127 0
122 138 0
118 132 0
123 138 0
122 139 0
124 140 0
124 137 0
117 132 0
131 146 0
126 138 0
127 142 0
110 123 0
127 139 0
112 127 0
130 144 0
121 135 0
126 141 0
129 143 0
134 147 0
130 145 0
127 140 0
126 140 0
130 144 0
131 142 0
128 139 0
131 144 0
123 134 0
129 137 0
135 147 0
138 151 0
126 134 0
134 142 0
128 139 0
130 141 0
146 158 0
128 138 0
138 149 0
137 147 0
134 142 0
134 142 0
133 141 0
132 140 0
109 111 19
92 87 19
86 81 28
90 83 16
84 79 8
82 77 19
88 83 0
84 78 0
86 79 11
91 85 11
80 76 8
97 93 0
91 87 8
98 93 0
88 84 0
98 93 0
95 89 0
93 87 11
100 93 0
110 105 0
119 112 11
104 98 0
109 102 0
99 94 0
110 105 0
103 98 0
109 104 0
105 100 11
111 106 3
109 104 0
117 112 0
114 109 0
123 118 16
108 102 0
120 113 11
118 113 11
107 102 0
123 119 0
122 116 22
124 120 16
126 120 22
120 117 11
129 123 22
127 123 19
123 117 19
122 117 16
123 118 26
129 124 19
138 132 19
130 124 16
121 115 16
133 127 19
130 125 28
130 125 30
130 126 22
135 129 28
126 119 19
128 122 32
129 123 28
129 123 16
129 124 30
125 121 16
133 126 30
132 127 30
133 128 19
133 127 28
129 124 25
132 125 37
137 131 36
134 128 30
130 125 28
137 132 36
132 126 39
134 129 34
140 134 39
141 135 34
130 124 25
136 130 34
126 120 36
139 133 30
128 122 34
133 128 28
132 127 41
138 131 39
145 138 53
130 122 36
135 128 39
132 125 41
142 136 52
127 121 34
137 129 41
137 131 37
139 133 36
135 130 32
143 136 42
133 128 39
140 136 34
141 134 47
144 136 47
141 136 36
136 129 44
137 131 41
139 133 41
139 131 49
142 135 44
132 127 41
135 127 39
135 129 44
143 137 47
135 130 39
137 131 45
130 124 44
135 127 48
137 131 39
123 117 37
138 132 45
130 126 41
133 128 39
130 124 39
132 126 44
139 132 49
126 123 32
132 126 41
139 132 54
124 118 39
147 167 0
149 169 0
152 173 0
152 173 0
153 172 0
150 171 0
153 172 0
152 172 0
150 170 0
152 172 0
149 170 0
151 171 0
151 171 0
149 170 0
148 168 0
149 169 0
149 169 0
148 168 0
147 167 0
149 168 0
149 168 0
151 171 0
148 167 0
147 167 0
148 167 0
142 162 0
151 171 0
151 171 0
148 168 0
144 164 0
148 168 0
148 167 0
149 168 0
142 161 0
144 163 0
146 166 0
148 168 0
146 166 0
147 166 0
146 164 0
141 161 0
145 164 0
144 164 0
144 163 0
144 164 0
143 162 0
145 164 0
147 166 0
145 164 0
145 163 0
144 163 0
142 160 0
148 167 0
140 159 0
141 160 0
142 160 0
145 164 0
143 161 0
142 160 0
139 158 0
140 157 0
144 164 0
141 160 0
141 159 0
142 161 0
142 160 0
144 163 0
143 162 0
138 157 0
137 155 0
134 151 0
134 152 0
136 154 0
136 154 0
137 156 0
138 156 0
131 150 0
133 150 0
136 154 0
138 156 0
139 158 0
136 154 0
132 148 0
128 145 0
138 155 0
132 148 0
138 156 0
134 151 0
127 144 0
127 144 0
132 150 0
126 143 0
124 140 0
124 140 0
122 139 0
129 145 0
130 147 0
120 137 0
125 141 0
121 137 0
125 140 0
116 133 0
116 132 0
125 142 0
115 130 0
120 135 0
122 138 0
119 134 0
114 130 0
110 126 0
111 126 0
118 133 0
110 124 0
117 132 0
109 124 0
99 113 0
114 129 0
102 117 0
104 118 0
108 122 0
101 112 0
99 111 0
104 117 0
135 152 0
140 157 0
133 149 0
134 151 0
143 160 0
140 157 0
137 153 0
140 156 0
140 158 0
142 161 0
131 147 0
132 149 0
131 148 0
134 151 0
133 151 0
141 159 0
129 147 0
138 157 0
134 153 0
134 153 0
137 155 0
130 149 0
128 146 0
125 144 0
125 142 0
132 151 0
126 145 0
128 146 0
126 145 0
133 152 0
131 150 0
126 144 0
124 143 0
129 148 0
121 139 0
120 138 0
122 141 0
126 144 0
113 132 0
125 143 0
114 132 0
112 128 0
119 136 0
118 136 0
115 132 0
113 131 0
95 111 0
115 132 0
109 126 0
98 116 0
55 75 47
48 76 69
43 69 67
45 73 65
49 78 76
49 78 72
49 78 80
47 74 74
50 79 84
49 78 82
49 77 80
50 80 80
47 76 82
49 79 88
47 76 74
49 79 76
49 78 72
50 79 88
49 78 76
50 79 76
52 82 88
48 77 74
48 77 72
50 80 82
46 73 72
52 83 86
49 78 78
49 78 90
49 78 74
47 74 76
49 77 76
52 82 88
50 79 76
53 83 95
51 81 78
47 74 80
49 77 72
49 77 80
47 74 67
49 78 76
48 76 82
48 76 74
48 77 76
52 81 90
47 75 70
50 78 95
45 72 68
47 75 76
48 75 78
48 75 77
47 74 72
44 69 65
45 71 65
53 73 36
92 107 18
95 109 0
109 122 0
107 121 0
108 119 0
117 132 0
119 134 0
114 127 0
127 143 0
121 137 0
121 136 0
113 129 0
126 140 0
116 130 0
114 127 0
122 136 0
120 134 0
125 140 0
132 147 0
113 127 0
133 146 0
126 141 0
121 134 0
126 141 0
127 139 0
137 150 0
126 139 0
127 140 0
113 124 0
136 150 0
125 134 0
129 142 0
116 130 0
120 133 0
123 135 0
127 138 0
130 141 0
129 138 0
132 139 0
127 137 0
127 135 0
129 137 0
122 130 0
123 129 0
129 136 0
126 133 0
131 139 0
123 128 0
128 134 0
129 133 0
96 95 22
87 80 0
90 85 16
90 84 0
86 78 11
87 81 11
86 81 0
86 81 0
80 76 11
85 80 11
91 87 0
92 85 0
92 87 8
97 92 0
103 98 0
101 96 11
99 93 0
98 93 0
106 102 0
97 91 0
108 103 0
111 104 0
105 100 0
112 107 11
118 113 11
104 98 11
107 104 0
121 114 0
122 116 0
101 95 3
100 96 0
115 109 11
110 106 11
114 108 0
115 109 11
117 112 16
122 116 0
119 115 22
114 110 19
124 117 11
128 123 11
119 114 19
132 126 16
121 115 11
122 117 16
124 118 0
126 121 19
128 122 22
123 119 19
128 122 16
115 110 16
134 126 28
123 117 19
127 123 22
131 127 19
131 126 28
128 124 25
129 122 34
118 113 19
123 120 22
131 125 19
130 126 30
128 123 19
126 119 34
133 127 28
129 124 28
134 128 30
134 128 28
140 134 32
131 124 30
127 122 22
132 125 22
130 124 22
134 130 34
135 129 39
137 131 42
136 129 34
135 128 36
130 124 37
136 130 25
133 127 32
129 122 42
131 125 36
127 122 36
140 134 42
127 120 39
131 125 37
130 124 37
137 131 42
137 130 36
135 130 37
141 135 42
135 128 42
133 128 32
132 127 32
139 133 37
141 133 41
129 123 32
136 130 32
145 137 54
140 133 48
134 128 47
139 134 47
133 128 41
132 128 36
138 132 51
143 138 44
124 117 36
139 134 45
129 124 36
142 136 56
128 122 47
136 130 45
142 134 52
132 127 36
143 138 45
133 126 48
140 134 47
133 127 47
134 129 44
139 132 51
131 126 41
128 123 47
151 170 0
150 169 0
150 171 0
151 171 0
151 171 0
151 171 0
151 171 0
152 172 0
150 170 0
148 168 0
150 171 0
151 170 0
153 172 0
148 167 0
150 170 0
152 171 0
151 171 0
147 166 0
149 169 0
146 165 0
144 164 0
150 170 0
145 165 0
149 168 0
151 170 0
147 166 0
147 165 0
148 167 0
150 169 0
148 169 0
147 166 0
148 167 0
147 166 0
150 169 0
147 167 0
147 166 0
143 162 0
148 167 0
144 164 0
144 163 0
147 166 0
143 162 0
147 165 0
144 163 0
143 162 0
146 165 0
147 166 0
146 166 0
143 160 0
145 164 0
142 161 0
141 160 0
147 166 0
138 157 0
142 161 0
138 157 0
144 163 0
143 160 0
141 158 0
141 159 0
143 161 0
139 158 0
140 159 0
138 156 0
137 155 0
139 157 0
140 158 0
140 157 0
140 158 0
137 156 0
137 154 0
139 158 0
139 156 0
137 155 0
138 156 0
137 155 0
139 157 0
134 152 0
135 152 0
138 156 0
141 158 0
132 149 0
131 148 0
132 150 0
127 143 0
127 144 0
129 147 0
129 145 0
125 141 0
127 144 0
131 148 0
127 143 0
133 149 0
121 137 0
120 137 0
129 147 0
124 140 0
123 139 0
123 139 0
126 142 0
128 144 0
116 132 0
117 132 0
116 131 0
120 135 0
110 125 0
113 128 0
115 131 0
110 124 0
112 127 0
115 130 0
118 133 0
113 127 0
110 124 0
105 118 0
109 123 0
101 114 0
110 123 0
101 113 0
101 113 0
93 104 0
118 132 0
131 147 0
136 152 0
129 144 0
141 158 0
126 141 0
136 152 0
136 153 0
125 141 0
142 160 0
138 155 0
126 141 0
134 152 0
134 152 0
130 147 0
137 155 0
130 148 0
123 140 0
131 148 0
120 137 0
139 157 0
135 153 0
131 149 0
132 150 0
119 137 0
128 146 0
130 148 0
129 147 0
126 145 0
123 141 0
128 146 0
122 141 0
133 150 0
120 138 0
118 138 0
128 146 0
122 140 0
131 150 0
124 143 0
131 149 0
116 133 0
115 132 0
112 129 0
125 142 0
103 121 0
120 138 0
122 138 0
107 124 0
110 126 0
106 122 0
103 120 0
103 120 0
90 104 0
88 104 36
56 78 60
46 73 71
48 76 71
47 74 97
44 71 67
48 76 62
50 79 76
48 76 82
51 81 88
48 77 92
46 74 76
51 80 82
47 76 67
50 80 80
52 82 97
50 80 74
52 82 84
49 79 78
51 80 86
47 74 84
48 77 80
51 82 86
51 80 82
51 80 78
48 77 74
49 78 88
46 74 54
50 79 76
50 79 92
52 82 92
45 72 70
48 76 76
45 72 70
51 80 84
46 73 76
51 81 72
50 78 82
48 76 76
44 70 70
51 79 72
46 74 67
49 77 72
49 77 68
48 75 82
49 77 78
45 71 67
44 69 65
44 69 62
45 71 57
51 73 45
83 95 25
99 113 0
104 118 0
95 108 0
104 117 0
111 125 0
113 124 0
110 121 0
112 126 0
105 118 0
118 131 0
106 119 0
109 121 0
118 130 0
109 123 0
129 142 0
122 135 0
128 142 0
125 140 0
124 138 0
118 131 0
120 134 0
124 137 0
125 139 0
128 143 0
125 137 0
123 135 0
124 137 0
134 148 0
124 136 0
122 135 0
126 137 0
126 136 0
121 133 0
118 127 0
126 137 0
129 141 0
126 137 0
129 137 0
129 136 0
134 142 0
122 128 0
126 133 0
127 138 0
129 137 0
131 139 0
111 117 0
135 143 0
136 143 0
131 139 0
117 123 0
126 130 0
123 129 0
106 108 11
88 82 28
74 69 0
87 82 0
87 81 11
75 68 8
80 76 11
87 82 0
91 86 11
86 81 0
94 89 0
93 88 0
88 83 0
98 92 0
97 90 11
85 82 8
97 91 3
101 96 0
97 91 0
107 102 8
108 102 0
90 86 11
93 88 3
116 109 0
101 96 0
116 110 0
118 111 0
118 114 0
112 107 3
111 106 0
111 106 16
109 103 0
112 106 0
109 104 11
121 116 0
118 111 0
122 116 14
126 122 19
117 112 19
119 113 11
125 120 19
117 111 11
122 116 25
125 120 19
121 113 16
130 124 19
126 119 16
129 124 28
128 124 22
124 120 16
121 116 16
128 123 25
128 123 16
125 118 25
130 124 11
126 121 19
126 120 30
124 118 19
138 131 32
132 128 16
132 127 28
131 124 22
123 118 11
128 122 30
128 122 25
127 124 22
134 129 25
134 128 30
133 126 32
127 122 22
134 130 30
123 117 25
138 131 36
138 130 41
137 131 36
136 130 45
126 121 25
143 136 39
142 134 39
135 130 36
132 128 34
132 124 37
130 123 30
134 127 41
133 127 39
136 130 36
138 132 28
139 131 41
142 137 36
136 131 39
129 124 34
132 126 39
138 131 36
139 134 36
139 133 45
134 128 37
134 127 30
127 121 37
132 127 28
145 139 44
141 135 41
125 118 34
134 127 47
134 129 44
131 125 42
128 121 37
143 137 51
142 136 47
126 121 39
135 130 39
125 119 34
130 124 42
140 134 42
136 131 44
137 130 47
130 125 36
136 130 49
134 129 44
136 128 48
138 131 52
134 128 44
133 128 42
150 170 0
149 169 0
150 170 0
151 172 0
151 171 0
149 169 0
150 170 0
151 171 0
147 167 0
151 172 0
150 170 0
151 172 0
150 170 0
155 174 0
151 171 0
147 166 0
151 171 0
149 168 0
149 168 0
147 167 0
147 167 0
149 168 0
151 170 0
150 170 0
147 166 0
146 165 0
145 164 0
146 166 0
144 163 0
150 169 0
148 167 0
148 167 0
147 167 0
146 166 0
144 164 0
148 167 0
145 164 0
144 163 0
143 163 0
147 166 0
145 164 0
148 167 0
147 165 0
147 167 0
145 164 0
144 163 0
140 158 0
146 164 0
144 163 0
144 162 0
143 161 0
140 158 0
140 158 0
141 160 0
142 161 0
139 156 0
141 159 0
142 161 0
144 162 0
139 156 0
141 159 0
141 160 0
139 158 0
136 153 0
141 160 0
139 158 0
143 162 0
136 154 0
134 151 0
137 155 0
138 156 0
134 151 0
135 152 0
134 152 0
140 158 0
134 151 0
137 154 0
135 153 0
132 149 0
130 147 0
130 147 0
130 147 0
133 150 0
133 150 0
129 146 0
133 150 0
134 151 0
134 151 0
130 147 0
128 145 0
131 148 0
123 139 0
124 140 0
121 137 0
128 144 0
116 131 0
123 138 0
124 139 0
121 137 0
122 137 0
127 143 0
121 136 0
120 135 0
123 139 0
123 138 0
118 133 0
116 130 0
118 133 0
113 127 0
112 126 0
111 125 0
113 126 0
106 119 0
104 118 0
111 124 0
102 115 0
91 104 0
86 98 0
82 94 0
99 110 0
112 125 0
128 143 0
122 137 0
129 143 0
139 154 0
122 138 0
141 159 0
125 141 0
126 142 0
136 153 0
132 149 0
132 148 0
124 140 0
127 144 0
126 142 0
123 140 0
124 141 0
131 148 0
134 152 0
125 142 0
128 146 0
121 138 0
120 136 0
128 145 0
130 148 0
132 150 0
128 146 0
124 142 0
133 152 0
122 141 0
130 148 0
131 148 0
121 139 0
126 144 0
128 147 0
121 140 0
111 129 0
126 144 0
129 145 0
124 140 0
105 123 0
110 127 0
121 138 0
120 137 0
100 118 0
116 132 0
105 122 0
108 125 0
109 125 0
98 114 0
94 110 0
101 117 0
105 121 0
104 119 0
91 105 0
84 98 0
64 80 36
50 72 47
42 67 47
43 69 47
49 78 76
45 72 67
48 77 65
45 73 72
49 77 67
47 75 54
44 71 54
46 74 67
43 69 57
50 79 76
49 78 70
48 77 70
46 75 72
50 79 90
48 77 70
50 79 90
46 73 72
49 77 72
49 79 57
51 81 95
50 80 82
46 73 72
47 75 70
48 77 78
47 76 65
47 75 70
47 74 62
50 79 84
47 75 74
46 75 60
48 76 74
43 69 54
48 75 80
48 76 87
47 74 60
44 71 60
45 72 54
47 73 78
45 72 60
50 79 80
46 72 62
40 63 57
56 78 62
86 102 49
79 91 0
96 108 0
89 102 0
101 113 0
104 116 0
106 117 0
116 129 0
104 115 0
104 117 0
102 115 0
97 110 0
104 117 0
108 122 0
117 131 0
108 120 0
112 125 0
111 125 0
124 138 0
109 123 0
116 130 0
114 125 0
118 130 0
122 136 0
117 130 0
125 138 0
120 129 0
125 139 0
120 131 0
134 145 0
131 144 0
126 139 0
125 136 0
125 137 0
131 142 0
124 136 0
125 139 0
118 126 0
134 143 0
126 135 0
116 125 0
114 122 0
129 140 0
128 135 0
129 138 0
117 126 0
122 127 0
126 133 0
122 129 0
119 124 0
118 124 0
118 121 0
121 127 0
123 128 0
123 127 0
123 128 0
112 113 0
93 88 19
83 78 12
91 85 16
85 79 11
97 89 25
82 76 11
85 79 0
98 90 11
88 80 0
89 83 0
98 91 0
91 86 0
94 88 0
89 85 0
89 83 0
107 101 0
93 88 0
100 95 0
98 94 0
96 90 0
105 98 0
108 102 0
108 101 0
98 93 0
107 99 0
106 100 0
106 100 11
108 102 0
109 104 0
114 108 0
108 104 0
114 108 0
118 112 11
117 112 0
114 109 11
119 113 11
117 113 18
125 119 16
124 119 19
117 112 0
131 123 16
120 113 16
123 115 11
119 112 19
126 120 25
120 114 16
127 122 19
122 115 25
131 125 25
126 120 16
126 118 22
126 119 22
125 119 19
130 123 22
124 119 16
141 133 32
132 126 22
128 121 16
119 114 16
130 124 22
129 123 28
129 124 28
130 122 32
129 124 30
124 119 30
134 127 28
133 127 19
131 126 16
130 125 32
135 129 34
137 132 25
127 123 28
132 127 25
135 128 39
134 127 37
135 129 36
135 129 36
125 120 22
128 123 39
133 126 34
135 127 42
128 123 28
133 127 32
139 132 37
130 126 28
135 129 37
136 128 37
137 131 42
133 126 45
130 122 34
129 122 28
127 120 36
132 126 30
132 125 34
128 121 41
137 130 39
127 121 30
137 131 37
141 134 42
132 127 41
123 117 34
123 117 34
125 119 30
135 130 32
125 120 30
137 130 49
136 131 42
130 122 37
130 124 36
122 117 32
128 122 37
126 122 32
128 121 34
126 121 32
131 125 44
135 129 42
137 130 45
136 130 45
132 126 44
125 119 45
154 174 0
154 173 0
151 170 0
152 172 0
151 170 0
149 169 0
152 172 0
149 169 0
153 172 0
151 170 0
146 166 0
154 173 0
150 170 0
149 169 0
149 168 0
149 168 0
148 168 0
145 164 0
150 169 0
150 169 0
149 168 0
142 161 0
148 168 0
149 169 0
148 168 0
149 168 0
150 169 0
150 170 0
145 165 0
144 163 0
149 168 0
143 163 0
146 165 0
147 166 0
148 167 0
143 162 0
147 167 0
145 165 0
146 165 0
141 159 0
145 164 0
145 163 0
145 164 0
144 162 0
146 164 0
145 164 0
144 163 0
149 167 0
146 166 0
141 160 0
141 158 0
143 161 0
143 161 0
143 162 0
147 166 0
143 162 0
143 161 0
145 164 0
137 155 0
142 160 0
140 159 0
144 163 0
141 161 0
136 153 0
136 154 0
137 155 0
134 152 0
138 156 0
135 152 0
138 155 0
135 151 0
136 153 0
136 153 0
132 150 0
138 155 0
134 151 0
135 153 0
134 150 0
131 148 0
132 149 0
132 149 0
121 136 0
132 148 0
131 149 0
132 148 0
128 145 0
123 138 0
129 145 0
123 140 0
129 147 0
119 134 0
128 143 0
129 145 0
129 144 0
124 139 0
125 142 0
120 135 0
123 139 0
121 136 0
121 137 0
121 137 0
120 135 0
117 133 0
122 137 0
113 127 0
118 133 0
109 124 0
112 126 0
104 118 0
112 125 0
109 123 0
92 106 0
108 122 0
107 121 0
96 109 0
94 106 0
92 104 0
94 105 0
100 111 0
122 137 0
137 153 0
122 136 0
129 144 0
122 138 0
118 133 0
129 144 0
128 144 0
126 142 0
130 146 0
127 143 0
128 145 0
118 134 0
121 138 0
137 153 0
128 144 0
126 143 0
133 151 0
122 139 0
126 143 0
111 127 0
131 148 0
132 149 0
126 143 0
129 146 0
129 147 0
117 136 0
127 145 0
125 143 0
114 131 0
116 132 0
130 148 0
114 132 0
125 143 0
123 141 0
131 149 0
111 128 0
125 143 0
125 144 0
120 137 0
115 133 0
121 139 0
120 137 0
108 124 0
108 125 0
124 140 0
119 136 0
116 132 0
108 124 0
102 117 0
99 115 0
100 116 0
100 116 0
109 124 0
89 105 0
81 96 0
91 107 0
91 106 0
72 85 0
75 91 35
50 71 36
40 64 60
46 74 80
43 69 62
46 73 76
44 70 76
44 72 53
45 71 50
48 77 69
45 72 62
46 74 72
47 74 74
47 76 67
47 75 70
45 72 76
48 77 70
48 77 80
48 76 70
46 73 62
46 74 74
48 78 82
46 74 76
47 76 76
43 68 68
49 78 78
47 75 78
47 75 57
47 75 72
48 76 79
48 76 82
46 74 76
47 74 72
47 74 60
44 71 57
44 71 51
44 71 60
44 70 57
42 66 63
44 70 68
41 66 65
43 68 65
42 60 36
69 83 40
82 92 0
93 103 0
82 94 0
94 107 0
95 107 0
77 90 0
94 106 0
87 99 0
95 109 0
96 108 0
98 112 0
107 119 0
114 128 0
113 127 0
111 123 0
105 118 0
113 126 0
119 134 0
112 124 0
111 125 0
107 120 0
114 128 0
103 115 0
117 128 0
109 123 0
123 136 0
123 137 0
121 135 0
120 132 0
120 131 0
128 142 0
119 131 0
121 133 0
127 135 0
111 122 0
130 140 0
125 134 0
117 126 0
122 131 0
118 131 0
124 134 0
124 132 0
122 131 0
117 127 0
123 132 0
119 124 0
121 128 0
124 130 0
122 127 0
113 118 0
118 125 0
125 130 0
127 129 0
112 121 0
123 128 0
118 121 0
109 113 0
118 117 0
122 123 0
101 101 16
78 73 22
78 70 11
92 86 16
86 80 11
80 73 0
89 83 12
91 84 0
100 90 0
84 79 0
95 89 11
86 80 0
91 86 0
93 87 0
95 89 0
102 96 0
102 94 0
110 104 3
116 110 0
91 86 8
103 96 0
110 104 8
104 99 0
113 107 0
103 96 0
117 108 0
99 94 0
110 104 0
115 110 0
108 103 0
110 106 0
115 110 11
108 101 0
111 107 0
111 104 0
122 117 0
119 111 0
115 110 18
118 111 0
116 111 16
122 119 0
128 122 11
120 115 11
115 109 0
124 119 0
124 119 0
125 119 11
120 114 19
123 117 19
118 114 0
123 117 22
124 118 19
128 123 19
129 123 25
127 121 22
120 116 22
119 111 22
125 118 11
126 120 22
135 130 16
121 116 22
134 130 25
126 118 28
133 126 34
131 125 34
128 123 19
132 125 30
122 116 28
127 120 28
133 127 25
133 126 28
127 120 28
134 128 30
128 122 16
127 120 34
125 119 34
132 126 28
138 133 34
141 133 41
125 121 25
131 125 28
135 127 47
129 123 34
134 128 36
130 125 36
124 118 32
136 130 37
126 120 36
133 127 34
134 129 34
131 124 37
128 121 36
138 131 39
134 129 37
136 129 39
133 127 34
135 129 44
130 124 34
132 126 34
123 116 32
129 123 36
138 131 49
140 133 48
124 117 44
129 122 45
136 130 37
131 125 44
126 120 39
136 131 36
135 129 41
133 125 49
133 126 44
123 118 34
133 126 41
123 118 39
129 122 36
133 126 45
121 116 34
129 123 45
151 170 0
149 169 0
153 172 0
152 172 0
150 170 0
151 171 0
152 172 0
148 167 0
150 170 0
153 172 0
151 170 0
150 169 0
152 172 0
148 167 0
150 169 0
146 165 0
144 163 0
150 169 0
146 166 0
149 168 0
148 168 0
144 162 0
150 169 0
147 166 0
150 169 0
149 169 0
146 165 0
150 168 0
148 167 0
145 163 0
146 164 0
148 167 0
148 167 0
144 163 0
143 163 0
148 167 0
146 165 0
144 163 0
149 168 0
146 164 0
145 163 0
146 165 0
145 164 0
140 158 0
142 160 0
144 161 0
137 154 0
143 162 0
141 159 0
142 160 0
142 161 0
142 161 0
140 159 0
139 156 0
141 160 0
143 161 0
137 154 0
141 159 0
140 158 0
139 158 0
140 158 0
141 159 0
136 153 0
140 157 0
142 159 0
138 156 0
140 156 0
136 153 0
137 155 0
137 155 0
134 152 0
130 147 0
138 156 0
134 151 0
135 153 0
138 155 0
133 151 0
127 144 0
132 149 0
137 154 0
126 142 0
135 152 0
130 147 0
129 145 0
131 148 0
123 140 0
129 144 0
132 148 0
123 139 0
134 151 0
133 150 0
128 144 0
121 137 0
120 134 0
121 137 0
124 140 0
114 129 0
114 128 0
119 134 0
122 137 0
105 119 0
110 123 0
124 139 0
116 130 0
116 130 0
118 133 0
115 129 0
103 116 0
107 120 0
106 120 0
112 126 0
113 126 0
103 116 0
101 114 0
96 107 0
86 96 0
100 112 0
121 134 0
120 134 0
125 140 0
128 143 0
131 146 0
120 135 0
127 142 0
120 136 0
125 140 0
115 130 0
118 133 0
125 141 0
120 136 0
124 140 0
123 139 0
129 144 0
130 147 0
119 135 0
120 136 0
127 143 0
124 140 0
123 139 0
135 153 0
124 141 0
122 140 0
116 134 0
121 138 0
120 137 0
122 139 0
123 140 0
131 149 0
126 144 0
129 146 0
129 146 0
112 130 0
136 155 0
113 131 0
116 134 0
121 139 0
122 140 0
110 127 0
117 134 0
125 142 0
120 136 0
105 122 0
94 111 0
102 119 0
96 113 0
98 116 0
97 113 0
103 118 0
111 128 0
100 114 0
107 122 0
90 105 0
89 105 0
93 107 0
80 94 0
100 115 0
82 95 0
79 92 0
92 105 0
79 92 0
72 86 31
56 74 44
49 70 51
42 69 40
47 74 67
42 68 57
44 70 65
42 68 62
43 69 57
44 70 76
47 74 65
43 69 60
47 75 74
44 71 70
46 74 70
45 72 62
47 76 78
45 72 60
47 75 80
49 79 72
46 73 62
47 74 65
47 74 76
46 74 60
48 76 65
47 75 65
46 75 70
46 73 74
43 69 67
43 69 74
45 71 72
46 73 72
46 72 54
45 71 60
46 72 78
40 64 60
40 63 44
39 62 47
55 71 45
68 78 18
81 91 0
87 97 0
79 90 0
86 98 0
89 98 0
85 97 0
97 108 0
90 103 0
101 112 0
104 114 0
110 123 0
100 112 0
99 113 0
103 118 0
104 117 0
110 121 0
108 122 0
100 115 0
112 124 0
119 132 0
120 133 0
120 133 0
97 108 0
121 134 0
113 127 0
122 136 0
104 117 0
116 129 0
113 123 0
118 130 0
119 131 0
119 131 0
125 139 0
117 128 0
131 141 0
113 123 0
124 134 0
123 136 0
119 130 0
120 131 0
128 138 0
129 141 0
107 115 0
128 138 0
123 133 0
114 122 0
124 134 0
131 137 0
116 124 0
116 123 0
126 132 0
112 118 0
116 121 0
118 121 0
120 121 0
121 125 0
114 118 0
114 115 0
109 111 0
112 116 0
107 108 0
121 124 0
112 114 0
88 84 11
80 72 11
85 78 19
75 66 16
79 75 0
79 74 0
98 91 0
89 84 0
75 69 0
84 77 0
91 83 3
101 95 0
96 92 0
108 100 0
107 99 0
98 89 0
102 93 0
104 96 0
96 90 0
108 101 0
114 107 0
100 94 0
106 100 0
109 106 0
103 95 0
116 112 0
109 105 0
110 103 0
107 100 0
115 109 0
116 111 0
118 113 0
113 107 0
120 113 11
125 119 0
107 101 11
116 111 0
122 115 11
115 110 0
116 109 11
123 117 16
113 107 11
125 118 16
119 114 11
122 117 11
113 107 11
121 115 11
124 119 11
116 111 16
125 119 19
130 125 19
120 114 11
118 113 11
113 108 19
127 121 16
127 120 11
122 114 22
129 123 19
123 116 22
129 123 36
128 121 32
131 124 25
130 124 22
123 117 22
135 129 25
134 128 36
126 120 16
129 123 34
127 122 22
124 119 28
133 127 37
130 124 19
128 121 34
126 122 34
127 122 25
139 133 36
134 127 34
127 122 32
130 125 30
131 123 28
133 127 34
134 129 37
138 131 39
129 123 32
128 121 25
130 124 32
135 127 41
123 117 36
139 133 41
133 127 32
136 129 39
127 123 34
125 119 37
121 116 25
136 130 41
130 125 32
131 125 39
136 130 48
132 126 32
131 125 32
133 127 39
133 127 39
132 125 44
125 120 39
136 127 48
123 116 32
138 131 44
129 123 45
133 125 37
130 124 42
130 125 44
126 120 34
130 124 48
128 121 36
122 116 32
132 125 45
122 117 34
150 170 0
150 169 0
153 173 0
151 171 0
153 173 0
154 174 0
149 167 0
150 169 0
149 169 0
151 170 0
150 169 0
148 167 0
152 171 0
150 169 0
147 166 0
148 167 0
153 172 0
150 170 0
149 168 0
148 168 0
148 167 0
147 166 0
149 167 0
147 166 0
147 165 0
147 166 0
149 168 0
149 167 0
148 167 0
143 162 0
144 163 0
148 167 0
148 167 0
144 162 0
147 166 0
148 167 0
145 164 0
145 164 0
146 165 0
146 164 0
147 166 0
144 162 0
144 163 0
141 159 0
141 160 0
143 162 0
142 161 0
146 164 0
144 163 0
142 161 0
144 163 0
139 157 0
146 163 0
140 157 0
141 159 0
145 163 0
140 159 0
138 155 0
137 154 0
138 156 0
136 153 0
141 158 0
139 156 0
139 157 0
137 154 0
138 155 0
135 153 0
134 151 0
141 158 0
140 157 0
136 153 0
136 154 0
138 154 0
131 147 0
133 150 0
132 148 0
129 145 0
130 147 0
136 152 0
126 142 0
127 144 0
132 149 0
119 135 0
129 145 0
126 142 0
125 140 0
136 153 0
132 149 0
124 140 0
126 142 0
123 139 0
131 147 0
127 143 0
123 138 0
122 139 0
121 136 0
118 134 0
122 136 0
122 137 0
114 129 0
120 136 0
118 132 0
108 122 0
123 137 0
103 116 0
105 119 0
100 114 0
112 125 0
108 122 0
108 121 0
101 114 0
92 103 0
99 110 0
80 90 0
90 101 0
117 130 0
115 129 0
112 126 0
115 128 0
124 139 0
115 129 0
117 132 0
120 134 0
120 134 0
122 137 0
121 137 0
134 149 0
110 124 0
124 139 0
132 147 0
120 136 0
119 135 0
128 144 0
123 140 0
116 132 0
121 139 0
117 134 0
125 141 0
124 140 0
130 148 0
128 145 0
117 135 0
130 147 0
128 146 0
122 139 0
129 146 0
113 129 0
122 139 0
129 146 0
122 139 0
114 131 0
123 140 0
125 142 0
119 136 0
120 139 0
111 128 0
125 142 0
109 127 0
111 128 0
115 132 0
119 137 0
115 133 0
115 131 0
103 121 0
107 124 0
107 123 0
107 124 0
105 120 0
99 115 0
118 134 0
101 117 0
93 109 0
108 123 0
93 107 0
86 100 0
96 111 0
98 111 0
71 85 0
90 103 0
81 93 0
62 75 0
78 90 0
68 80 0
57 72 25
54 73 51
42 64 47
36 59 54
40 65 54
43 69 67
47 74 76
41 66 60
43 69 72
46 73 70
45 72 67
43 69 62
46 74 70
46 74 47
45 73 51
46 73 76
46 73 76
43 69 72
41 65 64
40 64 31
47 75 78
45 73 65
40 66 60
44 70 67
45 72 76
43 69 67
47 74 80
43 69 60
42 68 57
39 63 60
41 66 54
40 63 57
53 71 47
77 87 18
67 75 0
73 83 0
62 73 0
87 97 0
89 100 0
76 83 0
77 86 0
90 102 0
82 92 0
88 101 0
94 105 0
86 99 0
94 104 0
95 106 0
110 122 0
103 115 0
92 104 0
117 130 0
98 109 0
106 118 0
96 111 0
110 123 0
104 113 0
111 124 0
113 127 0
121 132 0
120 134 0
122 131 0
117 130 0
116 128 0
113 127 0
122 134 0
115 127 0
123 136 0
109 119 0
115 125 0
124 133 0
121 133 0
121 131 0
120 130 0
117 127 0
121 131 0
108 117 0
111 121 0
113 122 0
106 113 0
115 124 0
112 119 0
119 128 0
112 121 0
116 121 0
120 128 0
108 114 0
111 117 0
115 124 0
119 124 0
129 136 0
116 123 0
109 113 0
113 117 0
115 118 0
119 123 0
115 119 0
113 116 0
107 109 0
108 107 0
114 114 0
96 94 0
82 74 0
83 75 0
70 64 11
81 74 0
76 70 0
77 70 12
98 90 16
80 76 0
97 89 0
94 87 0
98 92 0
88 81 0
103 96 0
96 89 0
93 88 8
95 89 0
111 104 8
93 89 0
97 90 0
91 87 0
105 97 0
104 97 0
101 94 0
111 105 0
105 99 0
106 99 0
113 105 0
106 100 0
103 97 0
116 109 0
106 100 8
107 100 0
120 115 0
113 108 0
121 115 0
122 114 0
119 113 0
118 112 16
117 111 11
120 113 0
113 109 0
119 113 22
121 114 11
124 120 0
118 114 0
123 115 0
114 109 11
124 118 0
123 117 16
123 118 22
118 110 19
131 126 19
123 116 11
130 122 22
121 114 25
129 123 25
126 121 28
130 124 28
120 113 22
117 112 19
125 118 0
137 131 32
128 121 32
121 115 16
127 122 34
132 124 28
124 118 30
130 123 30
133 127 28
126 119 30
124 117 22
131 124 32
133 126 34
128 121 28
125 118 25
131 127 32
132 126 34
125 118 36
134 127 30
132 126 36
135 129 36
135 129 39
128 122 19
121 114 34
128 123 36
129 123 32
136 130 41
128 120 25
133 128 34
122 116 41
126 120 37
112 107 37
133 126 28
130 123 37
139 130 45
128 123 42
123 118 25
134 128 32
133 127 39
132 126 45
132 125 36
128 122 34
124 117 34
118 113 30
123 117 28
124 117 37
121 116 39
130 124 39
122 117 39
122 117 34
122 115 36
121 114 36
129 123 52
125 119 39
125 118 44
150 170 0
151 171 0
150 169 0
149 169 0
150 170 0
150 170 0
149 169 0
150 169 0
149 169 0
146 164 0
147 166 0
150 169 0
151 170 0
150 169 0
151 170 0
145 164 0
147 165 0
146 165 0
147 167 0
142 162 0
148 166 0
147 166 0
150 168 0
143 162 0
143 161 0
151 169 0
145 163 0
149 167 0
149 168 0
147 166 0
150 169 0
149 167 0
146 165 0
148 167 0
145 163 0
143 162 0
145 164 0
140 158 0
147 165 0
147 165 0
146 166 0
148 165 0
145 163 0
146 165 0
145 163 0
140 158 0
144 163 0
142 160 0
148 166 0
142 161 0
141 159 0
140 158 0
142 160 0
146 163 0
138 155 0
139 157 0
142 159 0
137 154 0
140 158 0
137 155 0
136 153 0
133 151 0
136 154 0
132 149 0
140 157 0
139 157 0
137 154 0
130 147 0
143 161 0
135 153 0
138 155 0
136 152 0
132 149 0
132 149 0
127 144 0
139 157 0
131 146 0
135 152 0
125 142 0
132 148 0
125 142 0
128 144 0
131 147 0
127 143 0
131 148 0
126 143 0
131 147 0
124 139 0
125 141 0
123 138 0
117 130 0
130 145 0
119 135 0
127 142 0
118 132 0
118 132 0
108 122 0
118 131 0
116 131 0
112 125 0
116 130 0
107 120 0
111 124 0
118 132 0
111 124 0
112 125 0
113 126 0
109 122 0
102 114 0
104 115 0
97 107 0
84 94 0
86 96 0
99 110 0
108 120 0
109 122 0
125 138 0
119 133 0
107 121 0
119 133 0
113 127 0
119 134 0
118 132 0
130 145 0
115 128 0
117 132 0
121 136 0
124 140 0
115 130 0
123 139 0
130 147 0
125 140 0
118 134 0
126 143 0
114 130 0
124 140 0
120 137 0
125 142 0
120 138 0
127 144 0
118 134 0
114 131 0
122 140 0
127 144 0
125 142 0
123 140 0
117 135 0
111 129 0
124 140 0
118 135 0
126 143 0
125 143 0
124 141 0
125 141 0
109 125 0
117 134 0
118 135 0
115 133 0
108 125 0
116 133 0
107 123 0
119 136 0
106 123 0
107 124 0
106 123 0
101 116 0
106 121 0
93 108 0
93 108 0
103 118 0
93 108 0
101 116 0
91 105 0
92 106 0
85 99 0
86 100 0
87 100 0
75 91 0
81 95 0
70 83 0
68 79 0
73 85 0
75 89 0
58 70 0
69 81 0
61 71 18
64 76 36
50 63 40
43 65 44
39 62 51
40 64 47
41 65 57
40 64 51
43 69 62
42 68 57
44 71 47
43 69 62
44 70 65
43 69 65
43 68 57
44 71 51
47 74 70
44 71 70
43 69 62
44 70 70
43 69 78
42 66 62
40 64 54
40 63 44
38 60 60
42 63 54
43 63 44
48 62 40
56 68 26
44 52 0
72 80 0
78 87 0
67 75 0
67 74 0
88 98 0
79 89 0
72 84 0
79 92 0
84 95 0
93 106 0
81 93 0
88 101 0
99 111 0
85 98 0
99 113 0
108 122 0
91 103 0
98 110 0
106 119 0
94 107 0
104 114 0
105 118 0
111 123 0
109 121 0
106 118 0
114 129 0
115 126 0
115 127 0
116 125 0
115 128 0
109 121 0
116 129 0
107 118 0
118 129 0
112 124 0
126 139 0
125 137 0
115 126 0
132 146 0
112 123 0
122 132 0
125 137 0
118 127 0
126 136 0
110 122 0
117 128 0
121 130 0
122 131 0
119 126 0
115 123 0
122 129 0
106 113 0
119 126 0
116 123 0
123 130 0
113 120 0
115 119 0
116 121 0
120 124 0
97 100 0
118 121 0
119 126 0
111 113 0
113 115 0
112 117 0
105 106 0
106 106 0
117 121 0
99 96 0
105 106 0
117 117 0
102 102 0
79 72 28
82 73 0
86 81 0
79 70 0
84 79 0
90 82 0
86 77 0
84 77 0
88 80 0
93 87 11
99 94 0
92 85 0
103 96 0
101 97 0
93 86 0
101 94 0
99 91 0
100 93 0
110 104 0
103 97 0
101 93 0
116 108 0
113 107 0
102 95 0
105 100 0
105 100 0
105 98 0
115 108 0
116 106 0
115 109 0
94 87 0
124 117 11
106 101 11
112 105 11
115 107 11
129 121 11
118 113 0
111 104 0
120 111 11
118 112 11
114 108 0
123 117 16
122 116 16
108 101 16
116 111 11
128 121 16
123 115 22
122 118 11
122 116 0
122 117 11
128 124 11
126 117 25
130 121 32
121 114 22
117 111 19
125 118 25
130 124 28
117 111 11
127 121 19
127 121 25
120 114 11
117 110 16
132 126 30
128 123 25
121 115 28
130 123 34
129 123 25
124 118 28
124 117 19
133 126 30
125 120 28
133 126 30
125 118 32
116 110 25
130 124 34
127 120 28
132 125 41
121 116 22
130 124 22
120 114 28
131 124 47
130 123 32
133 127 32
126 121 25
121 115 25
133 127 34
120 113 37
131 125 32
126 121 36
133 126 32
127 120 37
126 119 36
136 129 41
131 124 34
117 112 30
127 121 37
126 121 41
131 125 42
128 121 44
130 123 44
126 120 34
123 118 28
133 126 39
127 120 32
113 108 25
127 122 36
127 122 37
125 118 34
124 118 30
121 115 41
118 111 32
122 116 34
111 106 34
149 169 0
146 165 0
150 170 0
151 170 0
149 170 0
150 170 0
149 167 0
150 170 0
149 168 0
151 170 0
148 167 0
150 170 0
149 170 0
149 169 0
147 166 0
150 169 0
148 167 0
148 168 0
148 168 0
147 166 0
146 165 0
146 165 0
152 171 0
148 167 0
145 163 0
147 167 0
146 164 0
146 164 0
147 166 0
145 164 0
145 163 0
151 169 0
147 166 0
146 164 0
144 162 0
144 162 0
147 165 0
145 164 0
139 157 0
141 159 0
144 162 0
144 162 0
143 161 0
143 160 0
146 165 0
141 159 0
143 160 0
141 157 0
138 156 0
137 154 0
144 162 0
141 160 0
142 160 0
142 160 0
141 159 0
137 155 0
143 161 0
140 156 0
139 157 0
141 159 0
134 151 0
142 159 0
139 157 0
133 151 0
139 156 0
134 151 0
135 152 0
138 154 0
134 152 0
138 154 0
133 149 0
133 149 0
133 149 0
134 151 0
138 155 0
137 153 0
133 150 0
132 149 0
131 147 0
134 150 0
129 145 0
130 146 0
133 149 0
126 142 0
127 142 0
121 136 0
132 148 0
121 137 0
130 144 0
124 139 0
120 136 0
121 136 0
121 136 0
120 136 0
120 134 0
118 132 0
113 127 0
112 125 0
106 119 0
114 127 0
114 127 0
107 121 0
120 134 0
105 118 0
103 115 0
97 109 0
99 111 0
103 114 0
91 103 0
101 113 0
93 102 0
101 112 0
100 112 0
109 120 0
114 127 0
111 123 0
113 126 0
114 127 0
110 123 0
112 125 0
123 137 0
119 134 0
111 126 0
112 126 0
129 143 0
122 137 0
117 131 0
111 126 0
127 143 0
114 130 0
121 136 0
117 134 0
124 139 0
122 137 0
125 142 0
114 130 0
130 146 0
120 136 0
131 149 0
127 145 0
117 134 0
115 132 0
126 143 0
127 144 0
127 144 0
130 148 0
109 126 0
113 131 0
118 135 0
121 138 0
118 135 0
118 136 0
118 135 0
121 137 0
117 134 0
116 133 0
120 136 0
110 128 0
102 118 0
101 119 0
104 121 0
116 132 0
123 140 0
114 131 0
112 128 0
93 108 0
91 107 0
94 112 0
102 118 0
102 118 0
101 117 0
89 104 0
90 105 0
98 113 0
100 114 0
83 97 0
87 102 0
91 105 0
93 106 0
95 108 0
87 101 0
73 86 0
76 89 0
72 84 0
72 84 0
79 89 0
44 55 0
65 76 0
59 71 0
85 96 0
39 49 0
40 55 25
45 62 31
44 60 25
41 58 44
49 69 51
35 52 18
38 62 40
41 66 54
37 59 54
39 63 36
41 65 62
38 61 62
38 62 31
34 55 40
42 60 31
37 55 40
50 67 31
54 66 18
56 65 8
66 74 0
61 68 0
68 76 0
58 68 0
57 65 0
69 78 0
68 79 0
71 79 0
90 100 0
92 103 0
91 103 0
69 78 0
74 85 0
84 96 0
88 100 0
90 101 0
98 110 0
89 101 0
102 114 0
108 122 0
87 98 0
91 101 0
103 115 0
92 104 0
104 115 0
107 118 0
112 126 0
107 121 0
110 119 0
114 127 0
102 113 0
104 116 0
113 128 0
105 118 0
124 138 0
113 125 0
112 124 0
122 134 0
115 126 0
116 129 0
125 137 0
112 123 0
114 128 0
113 125 0
118 127 0
116 127 0
122 132 0
115 124 0
117 129 0
120 132 0
113 123 0
122 133 0
122 132 0
120 128 0
115 122 0
122 130 0
108 115 0
118 127 0
122 131 0
114 119 0
120 125 0
109 118 0
105 111 0
111 117 0
118 122 0
106 109 0
102 103 0
111 114 0
116 120 0
109 113 0
105 104 0
98 100 0
105 105 0
122 125 0
95 96 0
103 101 0
105 101 0
104 104 0
93 90 16
75 68 18
79 72 0
80 73 0
82 76 0
75 67 0
79 71 0
84 77 11
93 87 0
90 81 0
90 84 0
100 91 0
90 84 0
87 80 0
102 98 0
102 96 0
96 89 0
105 99 0
99 93 0
103 97 0
110 103 0
112 104 0
106 96 0
102 97 0
112 106 0
114 105 0
104 98 0
109 100 0
104 99 0
102 95 0
105 98 11
99 92 0
124 118 0
109 103 11
96 88 0
120 113 0
110 105 11
113 107 11
118 112 16
125 118 16
124 118 16
115 106 0
114 107 16
121 116 16
111 104 11
119 112 19
122 116 11
118 112 0
119 112 11
112 106 19
129 122 19
116 111 11
120 112 19
121 115 16
127 123 16
124 117 22
127 120 22
125 118 25
123 117 19
124 117 19
120 113 25
110 105 11
125 118 28
132 125 30
126 120 25
124 118 25
120 114 19
133 126 30
130 124 30
134 128 32
124 119 36
115 109 22
136 131 32
117 110 22
127 121 32
124 119 25
129 123 30
129 122 36
127 121 34
116 110 16
117 112 36
132 127 32
123 117 36
128 121 37
114 108 22
132 126 36
125 119 36
131 125 30
123 117 34
120 115 25
120 113 30
127 122 34
132 126 36
125 120 28
131 125 41
132 125 32
134 128 39
123 116 34
114 108 30
133 127 41
130 124 36
121 115 34
126 120 30
126 119 32
119 114 28
134 127 48
132 125 47
123 118 41
132 126 44
122 117 34
127 121 39
116 110 36
147 166 0
146 164 0
143 161 0
146 165 0
149 168 0
150 170 0
148 167 0
150 168 0
149 168 0
150 170 0
147 166 0
147 166 0
146 165 0
148 168 0
148 167 0
147 165 0
148 167 0
144 162 0
148 166 0
143 162 0
146 164 0
145 164 0
147 165 0
147 166 0
146 165 0
149 167 0
144 163 0
145 163 0
147 165 0
143 163 0
149 168 0
148 167 0
144 162 0
144 163 0
148 166 0
145 163 0
144 162 0
143 161 0
144 162 0
147 165 0
145 164 0
143 161 0
141 159 0
139 157 0
143 162 0
141 160 0
143 160 0
143 160 0
141 159 0
140 158 0
139 156 0
133 151 0
141 158 0
134 152 0
139 156 0
142 158 0
134 150 0
141 159 0
140 157 0
131 147 0
140 157 0
141 159 0
138 155 0
133 149 0
138 155 0
137 154 0
136 152 0
140 157 0
129 145 0
131 148 0
133 150 0
128 145 0
131 148 0
130 145 0
136 152 0
132 149 0
128 144 0
126 142 0
134 151 0
129 145 0
128 144 0
128 144 0
124 140 0
128 143 0
128 144 0
123 138 0
124 140 0
118 132 0
124 139 0
124 139 0
114 127 0
117 131 0
125 139 0
120 135 0
110 123 0
110 124 0
117 131 0
120 134 0
112 126 0
97 109 0
106 118 0
111 123 0
107 120 0
112 126 0
100 113 0
98 110 0
84 94 0
95 106 0
81 90 0
100 111 0
101 112 0
105 117 0
111 124 0
107 120 0
103 114 0
115 127 0
124 136 0
107 120 0
116 130 0
118 133 0
111 125 0
106 119 0
118 133 0
123 138 0
122 137 0
119 134 0
116 129 0
115 130 0
114 130 0
105 119 0
120 136 0
117 131 0
128 145 0
129 145 0
124 141 0
120 136 0
117 133 0
110 125 0
124 140 0
127 145 0
134 152 0
125 142 0
122 139 0
127 144 0
122 138 0
138 156 0
122 140 0
123 140 0
122 140 0
124 141 0
123 140 0
108 124 0
125 143 0
122 140 0
122 140 0
128 144 0
115 132 0
120 138 0
119 136 0
113 130 0
105 121 0
103 121 0
110 127 0
104 120 0
107 123 0
113 129 0
103 120 0
114 130 0
110 126 0
98 115 0
105 120 0
99 115 0
88 105 0
112 128 0
94 109 0
78 93 0
91 106 0
88 103 0
88 101 0
87 101 0
84 98 0
81 94 0
71 84 0
81 93 0
83 95 0
90 101 0
67 80 0
71 82 0
78 89 0
56 67 0
60 71 0
74 84 0
58 67 0
49 59 0
42 54 0
65 75 0
39 47 0
47 54 0
63 72 18
59 68 0
42 50 18
24 32 0
50 60 0
56 64 0
66 74 0
60 69 0
46 54 0
58 66 0
80 89 0
47 56 0
62 70 0
47 58 0
67 77 0
60 69 0
79 89 0
74 85 0
63 74 0
70 80 0
69 81 0
81 91 0
72 84 0
73 84 0
88 98 0
87 97 0
77 90 0
87 99 0
95 105 0
96 108 0
93 106 0
93 105 0
99 111 0
96 109 0
95 108 0
100 111 0
98 110 0
96 107 0
98 111 0
105 117 0
97 109 0
122 135 0
104 118 0
116 127 0
95 107 0
114 125 0
115 129 0
123 138 0
121 136 0
119 133 0
111 123 0
114 126 0
115 124 0
116 129 0
121 133 0
111 122 0
115 128 0
123 136 0
106 115 0
122 135 0
118 128 0
106 117 0
119 131 0
109 119 0
109 118 0
115 124 0
122 129 0
118 126 0
111 122 0
115 123 0
110 118 0
114 119 0
110 116 0
108 115 0
123 130 0
116 123 0
102 108 0
126 131 0
103 107 0
114 117 0
106 110 0
113 113 0
114 114 0
111 113 0
116 118 0
102 104 0
100 99 0
100 101 0
96 93 0
93 91 0
111 109 0
91 91 0
81 75 0
76 65 11
75 68 16
82 75 0
82 75 0
86 80 0
82 75 0
79 73 0
87 79 16
84 75 0
93 84 0
96 87 0
95 87 0
91 86 0
105 99 0
102 94 0
95 87 0
94 89 0
102 94 0
108 101 0
101 95 0
98 91 0
112 105 11
106 98 0
108 101 0
103 96 0
115 107 0
117 110 0
109 103 0
107 101 0
113 106 11
114 107 11
108 100 11
119 112 11
110 104 0
102 96 0
113 107 0
115 108 11
118 110 0
114 107 0
119 112 11
118 112 16
118 113 11
112 104 11
121 114 28
110 104 11
112 105 16
126 118 28
114 107 0
129 123 11
113 108 16
123 117 22
120 113 0
125 117 19
122 115 16
123 115 11
128 121 19
121 113 19
118 111 11
119 114 11
114 109 11
119 112 25
123 115 11
124 117 30
126 119 25
122 116 16
122 117 19
116 112 16
125 117 32
113 106 19
125 119 19
126 119 19
127 121 34
128 121 30
124 116 28
126 119 34
127 121 37
132 124 30
127 121 25
132 127 30
137 130 37
121 115 28
131 124 32
122 117 22
127 120 30
130 122 25
118 113 22
126 118 41
123 117 30
110 105 25
121 114 34
131 124 37
113 107 30
122 116 34
129 122 36
114 108 28
121 116 34
119 112 41
118 112 32
121 115 34
132 125 41
120 115 30
120 113 36
129 122 37
123 117 28
118 112 36
126 121 37
121 116 41
117 111 34
132 126 37
144 161 0
143 162 0
144 163 0
142 161 0
143 161 0
150 168 0
145 165 0
146 165 0
149 168 0
146 164 0
146 165 0
145 163 0
148 168 0
147 165 0
149 167 0
150 169 0
151 169 0
148 166 0
147 165 0
146 165 0
151 170 0
147 165 0
145 164 0
145 164 0
150 167 0
145 163 0
145 163 0
147 164 0
146 163 0
141 159 0
145 163 0
147 165 0
148 166 0
142 160 0
141 159 0
143 161 0
144 162 0
142 160 0
141 159 0
143 160 0
147 165 0
143 161 0
140 157 0
143 160 0
142 159 0
142 160 0
145 163 0
142 160 0
142 159 0
139 157 0
140 158 0
138 155 0
141 158 0
141 159 0
138 155 0
140 158 0
143 160 0
138 155 0
139 156 0
139 157 0
140 157 0
141 158 0
143 161 0
136 153 0
136 153 0
129 146 0
137 153 0
137 154 0
127 142 0
135 151 0
136 153 0
132 149 0
136 152 0
137 152 0
127 143 0
130 146 0
127 143 0
133 148 0
133 149 0
127 143 0
129 144 0
128 143 0
126 141 0
128 144 0
120 136 0
128 142 0
117 132 0
130 145 0
119 133 0
117 132 0
125 140 0
115 128 0
119 132 0
116 129 0
124 138 0
122 136 0
109 122 0
116 129 0
113 125 0
112 125 0
106 118 0
109 122 0
95 106 0
97 107 0
98 109 0
92 102 0
82 91 0
103 115 0
96 107 0
93 104 0
107 118 0
104 117 0
105 117 0
106 118 0
111 123 0
110 122 0
103 116 0
107 121 0
123 138 0
108 121 0
117 131 0
121 135 0
111 126 0
119 134 0
125 141 0
108 122 0
125 141 0
116 132 0
123 139 0
109 125 0
124 140 0
124 142 0
120 137 0
115 131 0
118 134 0
127 144 0
115 131 0
113 129 0
122 140 0
119 136 0
116 134 0
125 142 0
124 142 0
118 135 0
122 138 0
117 135 0
131 147 0
121 140 0
115 132 0
119 137 0
127 145 0
120 137 0
121 139 0
112 129 0
112 131 0
119 136 0
102 120 0
106 123 0
115 133 0
102 118 0
105 122 0
107 124 0
101 117 0
120 137 0
99 114 0
101 117 0
113 129 0
109 125 0
103 118 0
105 122 0
102 117 0
109 124 0
101 117 0
99 114 0
85 100 0
94 108 0
93 109 0
99 114 0
87 101 0
89 103 0
86 99 0
81 93 0
96 109 0
91 106 0
70 84 0
78 90 0
81 94 0
69 83 0
71 82 0
49 60 0
68 78 0
74 86 0
62 73 0
68 78 0
67 78 0
52 59 0
77 89 0
46 53 0
58 67 0
46 56 0
61 69 0
67 76 0
50 59 0
62 70 0
52 62 0
56 66 0
65 76 0
77 88 0
55 64 0
61 70 0
53 65 0
77 86 0
88 100 0
69 78 0
84 95 0
73 82 0
74 84 0
83 92 0
84 94 0
82 94 0
84 94 0
88 98 0
86 96 0
82 94 0
89 102 0
108 122 0
80 94 0
86 99 0
91 103 0
94 107 0
99 113 0
102 114 0
104 117 0
101 115 0
112 125 0
104 117 0
106 119 0
103 115 0
103 116 0
117 132 0
109 123 0
114 126 0
116 129 0
108 121 0
107 119 0
118 131 0
110 123 0
115 128 0
112 125 0
125 138 0
121 134 0
109 120 0
113 124 0
116 129 0
114 125 0
106 114 0
116 128 0
112 120 0
120 130 0
123 134 0
112 122 0
117 125 0
109 122 0
106 115 0
119 129 0
121 130 0
112 122 0
116 123 0
108 116 0
127 136 0
104 113 0
115 122 0
115 121 0
113 114 0
97 102 0
102 109 0
112 118 0
105 108 0
115 119 0
108 109 0
101 103 0
96 99 0
113 118 0
105 108 0
105 106 0
108 108 0
107 107 0
108 106 0
98 100 0
101 98 0
105 98 0
88 83 0
87 81 11
72 67 0
80 73 0
89 79 0
81 74 0
85 79 0
92 83 0
97 87 0
92 81 0
92 85 0
88 82 0
104 95 0
92 84 0
87 82 0
83 77 0
90 84 0
89 83 0
104 96 0
103 94 0
99 94 0
102 97 0
100 93 0
103 96 0
104 98 0
108 102 0
107 97 0
103 95 0
115 106 0
115 109 0
103 94 0
103 97 0
110 102 0
118 111 11
114 107 11
123 117 16
113 107 0
112 103 0
106 99 0
123 115 16
120 114 19
114 107 0
111 104 11
120 113 22
115 107 11
115 108 11
120 111 11
110 102 16
126 116 19
120 113 11
119 111 11
123 116 28
128 120 22
125 116 25
116 111 19
124 117 28
120 114 11
120 114 19
120 114 22
129 122 19
120 112 22
125 119 16
124 117 22
129 121 34
122 116 28
116 110 16
123 118 25
130 122 32
124 117 28
120 115 25
124 119 19
122 118 30
126 120 25
120 113 22
126 118 34
124 118 28
127 122 22
119 111 16
130 122 34
125 119 28
124 120 22
136 129 30
132 127 30
131 124 37
123 115 37
127 120 34
120 113 30
128 122 32
131 124 41
120 114 30
132 126 36
136 128 49
120 116 30
137 130 32
136 129 45
127 121 34
114 106 32
113 107 28
115 110 32
120 113 37
131 126 28
117 111 37
120 113 37
130 124 47
119 112 32
117 111 41
122 116 34
133 126 39
121 116 36
136 154 0
128 146 0
139 158 0
144 162 0
141 159 0
144 162 0
146 165 0
144 163 0
147 165 0
147 167 0
148 167 0
147 165 0
148 167 0
151 169 0
150 169 0
146 165 0
148 166 0
144 163 0
149 167 0
147 165 0
144 162 0
144 163 0
146 165 0
145 164 0
144 162 0
145 163 0
146 164 0
146 164 0
145 162 0
144 161 0
142 160 0
148 165 0
141 160 0
152 170 0
143 161 0
143 160 0
145 163 0
144 162 0
146 164 0
141 160 0
143 160 0
144 162 0
141 158 0
140 158 0
142 159 0
141 159 0
139 157 0
138 155 0
144 162 0
141 159 0
136 153 0
143 160 0
137 154 0
136 152 0
137 154 0
143 161 0
135 152 0
139 155 0
133 150 0
138 153 0
137 153 0
141 158 0
137 153 0
135 150 0
129 146 0
136 153 0
133 149 0
135 151 0
131 147 0
135 150 0
131 147 0
130 146 0
130 145 0
130 145 0
129 145 0
130 145 0
131 146 0
130 146 0
132 148 0
125 140 0
126 141 0
124 139 0
124 138 0
130 145 0
125 139 0
126 140 0
119 133 0
123 138 0
120 135 0
124 139 0
117 131 0
116 131 0
118 131 0
116 129 0
110 123 0
107 119 0
113 126 0
110 123 0
108 120 0
100 111 0
99 110 0
101 113 0
83 92 0
74 83 0
83 91 0
89 98 0
98 108 0
101 112 0
98 109 0
111 123 0
103 114 0
101 114 0
104 117 0
100 112 0
113 127 0
116 130 0
112 126 0
117 131 0
108 122 0
122 137 0
111 125 0
121 137 0
125 140 0
122 137 0
116 131 0
121 136 0
117 132 0
128 143 0
114 129 0
118 134 0
123 139 0
114 129 0
123 140 0
120 135 0
119 136 0
132 149 0
122 138 0
125 142 0
122 139 0
127 144 0
117 133 0
119 136 0
128 146 0
127 144 0
129 147 0
124 141 0
117 133 0
121 138 0
112 129 0
125 143 0
118 135 0
119 136 0
113 131 0
117 134 0
123 142 0
118 134 0
123 140 0
116 135 0
116 133 0
105 122 0
120 137 0
106 123 0
117 134 0
117 134 0
113 128 0
85 101 0
109 125 0
99 114 0
106 123 0
102 117 0
97 112 0
92 109 0
91 106 0
93 107 0
97 113 0
96 111 0
97 111 0
97 111 0
89 104 0
93 107 0
86 100 0
99 114 0
78 91 0
94 108 0
93 106 0
88 102 0
73 87 0
78 90 0
64 77 0
66 79 0
74 87 0
72 83 0
63 74 0
66 78 0
63 76 0
64 74 0
64 74 0
60 72 0
55 67 0
59 66 0
74 86 0
65 75 0
59 69 0
68 78 0
42 53 0
86 97 0
67 79 0
84 95 0
61 74 0
61 72 0
78 89 0
65 76 0
83 94 0
73 83 0
78 90 0
76 85 0
89 102 0
85 96 0
84 96 0
88 101 0
89 101 0
89 102 0
100 112 0
89 97 0
98 109 0
97 110 0
97 108 0
98 110 0
102 116 0
104 118 0
94 104 0
107 119 0
100 111 0
105 121 0
104 115 0
97 110 0
96 108 0
103 115 0
126 140 0
113 126 0
114 125 0
106 119 0
106 118 0
111 125 0
121 136 0
122 135 0
115 129 0
124 134 0
113 125 0
112 125 0
122 132 0
119 132 0
113 122 0
116 127 0
124 136 0
112 125 0
120 132 0
118 128 0
118 129 0
116 127 0
116 124 0
119 128 0
114 124 0
112 122 0
116 124 0
116 129 0
115 124 0
113 120 0
118 126 0
116 127 0
112 115 0
116 126 0
108 112 0
113 120 0
113 120 0
108 114 0
118 122 0
111 117 0
110 114 0
105 108 0
89 90 0
103 109 0
100 100 0
102 102 0
100 101 0
97 98 0
104 103 0
98 101 0
86 83 0
93 91 0
83 80 0
91 85 0
88 82 0
90 86 0
82 75 11
71 64 0
80 70 0
78 70 11
86 78 0
87 78 0
87 76 0
87 80 0
80 74 0
95 83 0
99 89 0
96 88 0
100 92 0
98 89 0
93 85 0
93 85 0
97 90 0
95 85 0
110 102 0
100 93 0
106 97 11
114 106 0
102 95 0
105 97 0
106 100 11
114 107 0
112 106 0
107 97 0
115 106 11
108 101 0
92 84 0
112 104 0
111 105 0
109 100 11
122 115 16
106 100 0
107 100 11
119 113 0
110 103 11
111 104 11
113 106 11
104 99 11
113 106 0
124 117 16
116 109 11
113 103 0
119 112 22
123 116 22
121 115 19
117 110 16
117 112 22
118 111 16
124 117 16
118 113 19
120 112 19
126 118 16
122 115 25
124 117 19
127 119 25
121 115 22
122 115 25
125 118 19
121 116 30
123 115 22
119 113 16
130 121 28
122 115 22
123 115 22
130 124 28
128 122 19
126 120 30
118 112 22
118 112 30
120 113 25
126 118 36
127 119 28
128 120 22
126 121 34
126 120 32
131 125 32
129 122 30
111 106 19
121 115 16
124 117 25
124 118 25
121 112 28
122 117 28
127 120 34
123 118 32
117 112 34
121 114 32
114 108 30
126 120 36
121 115 36
130 122 37
131 125 39
120 113 36
125 119 36
125 118 30
122 115 37
119 113 28
120 114 37
123 116 37
120 111 34
138 130 48
112 106 34
127 143 0
134 151 0
135 153 0
130 146 0
138 156 0
134 152 0
144 161 0
142 159 0
145 164 0
141 159 0
139 157 0
148 167 0
150 169 0
142 160 0
147 166 0
150 169 0
150 169 0
148 167 0
146 164 0
146 165 0
147 165 0
149 167 0
148 166 0
144 163 0
145 163 0
144 163 0
146 164 0
146 163 0
145 163 0
147 164 0
143 161 0
145 163 0
144 162 0
146 164 0
146 165 0
146 164 0
144 162 0
144 161 0
144 161 0
141 158 0
136 153 0
141 159 0
143 160 0
136 154 0
137 154 0
142 159 0
139 156 0
142 159 0
143 161 0
137 154 0
139 156 0
137 154 0
140 157 0
138 155 0
137 155 0
139 156 0
133 150 0
135 152 0
135 152 0
138 155 0
144 159 0
136 152 0
137 154 0
136 153 0
126 141 0
135 151 0
131 147 0
132 149 0
134 150 0
132 148 0
129 145 0
127 142 0
126 141 0
130 146 0
127 143 0
123 138 0
128 142 0
132 147 0
127 142 0
130 145 0
120 134 0
125 139 0
119 133 0
124 138 0
119 133 0
119 133 0
121 135 0
121 135 0
118 131 0
121 135 0
111 124 0
114 127 0
106 120 0
104 116 0
108 121 0
107 120 0
99 111 0
98 109 0
89 100 0
89 99 0
95 105 0
86 95 0
85 94 0
91 100 0
95 105 0
104 115 0
96 106 0
102 113 0
111 124 0
102 114 0
99 111 0
108 121 0
105 116 0
108 121 0
103 116 0
99 112 0
115 128 0
105 119 0
114 128 0
105 119 0
115 129 0
102 116 0
111 125 0
123 138 0
121 135 0
123 138 0
125 141 0
117 132 0
130 147 0
119 134 0
124 141 0
114 130 0
127 144 0
127 143 0
128 145 0
112 129 0
131 148 0
114 131 0
121 138 0
122 139 0
123 139 0
125 142 0
127 144 0
122 139 0
117 134 0
120 138 0
130 148 0
120 137 0
125 143 0
112 129 0
118 136 0
110 127 0
127 143 0
116 134 0
120 137 0
126 143 0
113 130 0
115 132 0
108 125 0
110 128 0
112 129 0
109 127 0
115 133 0
108 124 0
111 128 0
112 129 0
121 137 0
111 129 0
109 125 0
91 108 0
97 112 0
104 120 0
108 124 0
98 114 0
97 112 0
91 107 0
97 112 0
97 113 0
84 99 0
90 104 0
94 108 0
91 104 0
82 96 0
86 101 0
81 94 0
82 96 0
92 104 0
89 102 0
82 96 0
73 86 0
80 94 0
83 96 0
76 89 0
77 89 0
79 92 0
72 85 0
75 87 0
84 97 0
79 92 0
84 96 0
69 81 0
74 85 0
80 92 0
81 92 0
71 82 0
85 97 0
65 76 0
88 101 0
68 80 0
77 89 0
76 89 0
87 98 0
86 96 0
61 72 0
74 87 0
83 95 0
91 104 0
91 103 0
86 99 0
93 106 0
104 118 0
82 94 0
95 107 0
90 103 0
100 114 0
106 119 0
86 99 0
95 107 0
95 108 0
82 96 0
92 106 0
99 113 0
96 110 0
108 120 0
96 108 0
104 117 0
99 112 0
120 132 0
116 130 0
104 116 0
112 125 0
109 124 0
118 133 0
116 130 0
114 126 0
113 126 0
118 132 0
125 139 0
125 137 0
117 130 0
123 136 0
115 127 0
123 135 0
125 140 0
118 132 0
111 122 0
125 138 0
111 122 0
116 128 0
123 134 0
116 125 0
111 121 0
110 119 0
114 124 0
122 131 0
110 118 0
117 126 0
120 127 0
120 130 0
119 126 0
126 134 0
115 125 0
116 124 0
106 114 0
120 125 0
118 127 0
118 124 0
107 114 0
111 118 0
95 99 0
120 123 0
99 101 0
107 110 0
116 118 0
98 101 0
103 104 0
102 103 0
91 91 0
101 102 0
99 100 0
98 94 0
96 92 0
89 83 0
102 99 0
92 89 0
89 84 0
81 73 0
75 66 0
74 64 0
78 66 0
73 62 0
73 63 0
76 69 0
85 78 0
87 80 0
79 71 0
92 85 0
90 82 0
94 85 0
102 94 0
99 91 0
97 86 0
100 93 0
100 92 0
99 92 0
97 89 0
100 95 0
95 88 0
98 92 0
98 91 0
114 105 0
103 95 0
111 105 0
108 100 11
107 98 0
109 101 0
105 99 0
105 98 11
114 107 11
96 87 0
108 100 0
112 107 0
110 103 0
113 106 11
121 113 11
119 111 11
107 101 0
116 110 19
122 113 16
118 111 16
117 109 16
114 107 0
126 118 19
122 114 22
119 111 16
122 113 25
116 109 19
120 115 11
118 111 11
127 120 28
122 116 19
115 108 0
117 109 16
114 108 22
118 113 28
116 110 22
121 114 16
126 119 28
124 117 22
114 108 25
114 107 19
121 115 25
114 109 11
118 111 16
123 116 22
117 111 28
119 113 30
103 94 19
127 119 30
119 112 34
119 112 34
128 121 28
119 113 25
121 114 34
115 108 22
127 121 30
123 117 30
123 116 34
111 104 30
115 108 25
113 107 30
116 109 25
116 109 34
126 120 39
116 110 30
108 101 22
122 117 34
122 114 36
112 105 34
124 118 36
124 117 39
125 119 36
111 105 19
112 107 39
120 112 41
112 106 34
120 113 37
126 119 42
125 117 41
131 124 47
137 154 32
120 135 0
117 132 0
121 137 0
133 150 0
127 144 0
130 146 0
138 156 0
141 159 0
138 157 0
142 161 0
136 154 0
144 163 0
145 164 0
145 163 0
142 161 0
147 165 0
145 163 0
148 167 0
146 165 0
144 163 0
146 163 0
147 164 0
145 163 0
144 163 0
151 170 0
147 164 0
146 164 0
144 162 0
149 167 0
139 157 0
140 156 0
147 165 0
146 164 0
140 158 0
145 162 0
140 157 0
145 163 0
141 159 0
141 158 0
143 161 0
141 157 0
140 157 0
141 157 0
142 160 0
142 158 0
143 160 0
138 156 0
139 156 0
140 155 0
138 154 0
139 155 0
140 157 0
139 155 0
140 157 0
137 153 0
137 152 0
138 153 0
140 156 0
138 154 0
137 153 0
128 143 0
136 152 0
129 145 0
136 151 0
134 150 0
136 153 0
133 148 0
129 144 0
127 142 0
132 147 0
130 145 0
131 146 0
133 148 0
126 141 0
125 139 0
121 135 0
128 143 0
129 143 0
125 140 0
123 137 0
125 140 0
115 129 0
122 135 0
110 123 0
116 130 0
119 132 0
120 133 0
118 132 0
104 116 0
108 121 0
110 123 0
99 111 0
107 120 0
102 114 0
104 116 0
98 108 0
101 112 0
84 93 0
88 96 0
86 94 0
95 103 0
97 107 0
90 99 0
95 105 0
89 99 0
104 115 0
101 113 0
109 121 0
107 119 0
109 122 0
103 115 0
116 129 0
108 122 0
110 123 0
117 131 0
112 125 0
115 129 0
107 120 0
116 131 0
110 124 0
123 139 0
120 136 0
121 136 0
114 130 0
119 134 0
116 132 0
121 138 0
125 142 0
133 149 0
126 143 0
122 138 0
128 145 0
117 133 0
121 137 0
114 130 0
124 141 0
123 139 0
116 133 0
117 134 0
113 130 0
126 143 0
122 139 0
126 144 0
126 144 0
121 138 0
115 132 0
129 147 0
124 142 0
120 138 0
124 142 0
129 148 0
121 139 0
126 142 0
120 138 0
124 141 0
122 141 0
106 123 0
117 133 0
121 139 0
112 129 0
113 130 0
119 137 0
108 126 0
111 128 0
101 117 0
116 133 0
108 124 0
107 124 0
101 118 0
108 125 0
101 116 0
92 107 0
108 124 0
103 118 0
100 116 0
104 121 0
98 113 0
90 106 0
96 111 0
93 108 0
89 105 0
81 96 0
91 108 0
82 96 0
79 94 0
79 94 0
80 94 0
78 93 0
83 96 0
64 78 0
87 101 0
87 100 0
90 103 0
69 82 0
82 94 0
80 92 0
78 89 0
73 85 0
81 93 0
82 93 0
72 85 0
72 85 0
72 84 0
86 100 0
74 84 0
86 99 0
74 88 0
72 84 0
88 100 0
92 104 0
82 93 0
95 108 0
86 100 0
84 96 0
83 94 0
77 90 0
89 101 0
85 100 0
88 102 0
82 95 0
91 104 0
93 106 0
97 111 0
94 108 0
99 111 0
101 112 0
107 121 0
91 104 0
100 113 0
109 121 0
113 125 0
97 110 0
105 117 0
102 117 0
106 120 0
120 135 0
102 115 0
97 110 0
111 125 0
120 134 0
113 127 0
125 138 0
117 131 0
116 130 0
115 129 0
117 132 0
117 129 0
102 115 0
105 117 0
99 111 0
117 128 0
132 143 0
124 137 0
125 139 0
126 139 0
124 135 0
115 125 0
106 117 0
123 135 0
120 131 0
123 135 0
106 112 0
127 139 0
113 122 0
119 130 0
126 136 0
106 116 0
129 139 0
125 134 0
110 117 0
125 135 0
118 127 0
112 119 0
116 121 0
106 114 0
112 119 0
124 131 0
107 112 0
119 124 0
105 109 0
109 113 0
109 113 0
97 102 0
96 97 0
96 98 0
108 110 0
106 106 0
101 100 0
96 97 0
108 108 0
96 96 0
102 100 0
89 89 0
98 95 0
94 92 0
77 74 0
77 70 0
81 76 0
74 67 0
90 82 11
81 72 0
71 61 0
80 70 0
93 81 0
81 71 0
85 78 0
88 79 0
87 77 0
98 88 0
95 88 0
87 78 0
102 93 0
98 89 0
97 87 0
98 90 0
95 87 0
101 94 0
101 93 11
111 103 0
104 96 0
95 86 0
108 98 0
109 101 0
101 95 0
104 95 16
112 104 0
113 105 0
105 97 11
117 109 0
101 93 0
112 102 0
115 106 0
104 95 0
113 106 11
118 108 11
117 110 16
119 110 16
114 106 11
113 106 11
112 105 11
115 109 16
117 109 16
118 111 11
116 109 11
118 111 28
130 124 22
124 114 16
111 104 22
121 113 0
112 104 22
113 107 11
117 109 19
115 110 0
121 114 25
124 116 22
124 117 16
122 116 11
114 106 22
115 109 22
116 110 11
123 115 22
124 118 25
123 117 25
115 107 25
120 114 30
111 103 28
105 99 22
116 110 25
121 115 25
121 114 37
121 115 34
130 123 36
125 116 28
123 118 28
119 112 22
122 116 34
113 103 30
111 104 22
117 111 28
112 107 32
123 116 36
121 115 36
124 119 30
108 102 34
126 119 39
117 112 30
122 113 37
119 111 34
116 111 39
112 105 19
109 104 30
121 115 34
121 115 36
120 113 42
113 107 34
117 111 32
105 101 36
105 99 25
128 130 28
170 192 0
165 187 0
141 159 22
129 146 0
118 134 0
125 141 0
127 144 0
133 150 0
127 143 0
133 150 0
137 154 0
129 144 0
133 150 0
141 159 0
141 159 0
137 154 0
142 161 0
144 160 0
141 159 0
143 161 0
144 162 0
141 158 0
147 165 0
148 165 0
144 161 0
149 166 0
148 165 0
144 162 0
145 163 0
147 165 0
144 161 0
143 160 0
142 159 0
143 161 0
146 163 0
139 156 0
140 157 0
143 160 0
142 160 0
143 161 0
134 150 0
145 162 0
143 160 0
141 157 0
144 162 0
141 158 0
142 159 0
140 157 0
142 158 0
142 159 0
134 149 0
134 151 0
135 151 0
144 161 0
133 149 0
138 154 0
138 154 0
134 150 0
137 153 0
134 150 0
131 146 0
140 155 0
134 150 0
127 142 0
129 144 0
126 141 0
133 148 0
131 145 0
128 143 0
133 148 0
128 143 0
132 147 0
122 135 0
123 138 0
128 143 0
124 138 0
124 138 0
132 146 0
110 124 0
118 132 0
119 133 0
123 136 0
112 125 0
120 134 0
116 130 0
114 127 0
112 125 0
108 120 0
105 117 0
110 121 0
102 114 0
99 110 0
96 107 0
91 102 0
92 102 0
88 97 0
77 86 0
78 87 0
79 88 0
88 97 0
88 98 0
94 105 0
92 102 0
107 117 0
113 125 0
99 110 0
110 123 0
109 121 0
106 118 0
112 125 0
108 121 0
117 130 0
109 122 0
105 119 0
108 121 0
111 124 0
114 129 0
118 133 0
118 132 0
114 130 0
126 140 0
123 139 0
125 140 0
117 132 0
121 137 0
130 147 0
132 149 0
107 123 0
126 142 0
128 144 0
121 138 0
111 128 0
121 138 0
127 144 0
116 132 0
134 152 0
135 152 0
129 145 0
132 150 0
127 145 0
116 134 0
124 141 0
118 135 0
124 142 0
127 144 0
119 137 0
111 128 0
115 132 0
119 136 0
115 132 0
126 143 0
126 144 0
118 137 0
123 140 0
115 132 0
115 133 0
111 130 0
126 144 0
114 132 0
112 130 0
120 138 0
118 135 0
100 117 0
114 131 0
110 127 0
114 131 0
116 134 0
120 138 0
103 119 0
97 115 0
109 126 0
101 117 0
111 127 0
108 125 0
100 116 0
100 117 0
93 109 0
99 113 0
79 94 0
93 109 0
90 106 0
96 111 0
100 114 0
72 88 0
91 106 0
86 100 0
88 102 0
90 104 0
90 104 0
92 107 0
85 99 0
75 89 0
93 107 0
94 107 0
87 102 0
88 102 0
78 90 0
90 103 0
78 93 0
80 94 0
79 90 0
96 110 0
79 92 0
86 98 0
87 101 0
85 97 0
78 93 0
92 105 0
72 85 0
81 95 0
90 104 0
86 99 0
97 110 0
90 104 0
81 95 0
83 96 0
90 102 0
95 105 0
90 103 0
94 109 0
94 109 0
109 122 0
97 112 0
90 104 0
92 105 0
104 116 0
95 107 0
105 118 0
98 113 0
105 119 0
108 120 0
101 114 0
95 110 0
117 132 0
100 111 0
119 132 0
109 123 0
110 124 0
107 121 0
116 129 0
112 124 0
112 127 0
115 130 0
114 129 0
117 132 0
122 134 0
114 125 0
131 145 0
125 139 0
121 133 0
111 123 0
128 142 0
123 136 0
123 136 0
114 125 0
123 136 0
111 123 0
115 126 0
127 140 0
111 122 0
118 127 0
112 124 0
131 142 0
122 134 0
121 130 0
109 119 0
122 133 0
118 126 0
122 132 0
126 134 0
118 129 0
115 126 0
117 129 0
115 122 0
108 115 0
112 119 0
123 130 0
108 114 0
118 121 0
121 128 0
113 116 0
110 117 0
112 115 0
112 115 0
100 102 0
102 104 0
99 98 0
99 102 0
116 116 0
103 103 0
102 102 0
98 97 0
101 100 0
88 88 0
101 99 0
103 102 0
95 93 0
88 83 0
90 84 0
70 64 0
83 79 0
74 66 0
75 66 0
86 76 0
71 65 0
81 70 0
84 75 0
89 78 0
90 80 0
93 84 0
91 82 0
99 90 0
98 89 0
87 79 0
100 91 0
106 97 0
104 95 0
95 84 0
101 93 0
96 87 0
102 94 0
101 92 11
98 90 0
110 104 0
94 85 0
114 104 0
108 98 11
116 109 11
104 95 0
105 97 0
106 97 0
109 100 0
105 98 11
101 92 0
108 101 0
117 109 0
98 91 16
111 104 11
106 99 0
106 100 0
109 103 16
110 101 16
113 105 16
108 100 19
113 105 0
116 109 22
117 109 19
116 108 16
126 117 0
124 117 16
117 108 32
110 103 22
130 121 25
112 106 16
115 109 22
117 112 19
123 114 25
110 102 22
106 99 16
115 108 25
119 112 22
118 111 22
119 112 22
116 108 16
117 110 25
129 121 34
121 115 32
120 112 19
115 108 19
110 104 16
119 110 34
118 114 22
121 113 32
133 124 34
121 114 30
105 99 28
108 103 19
116 108 19
123 117 22
113 107 19
126 118 39
121 115 30
117 111 36
104 96 22
125 118 30
113 106 34
118 110 28
118 111 28
120 113 42
127 121 45
112 107 32
109 102 30
115 108 30
120 114 36
117 111 37
113 107 25
132 130 36
148 158 25
160 178 11
171 191 0
168 191 0
170 193 0
169 192 0
171 194 0
161 181 0
134 152 0
125 141 0
125 142 0
127 142 0
134 151 0
127 143 0
129 144 0
132 148 0
139 156 0
141 158 0
138 155 0
134 150 0
135 151 0
137 154 0
134 150 0
141 158 0
137 154 0
144 161 0
145 162 0
145 162 0
146 164 0
143 161 0
143 161 0
145 163 0
144 160 0
144 161 0
145 163 0
145 163 0
143 160 0
145 162 0
138 155 0
138 155 0
143 160 0
142 159 0
141 157 0
141 158 0
140 157 0
134 150 0
139 154 0
139 156 0
141 158 0
138 155 0
137 154 0
138 154 0
134 151 0
136 151 0
140 156 0
129 144 0
134 149 0
139 155 0
135 150 0
138 154 0
134 150 0
136 152 0
130 145 0
140 157 0
135 150 0
132 147 0
128 143 0
131 146 0
129 144 0
126 139 0
130 145 0
127 141 0
122 137 0
121 135 0
130 144 0
126 140 0
125 140 0
120 133 0
123 137 0
120 133 0
117 130 0
116 129 0
121 134 0
118 132 0
118 131 0
116 129 0
122 136 0
118 131 0
108 120 0
105 117 0
110 121 0
106 118 0
103 114 0
94 104 0
88 98 0
84 92 0
83 91 0
79 86 0
72 80 0
78 86 0
82 91 0
87 96 0
100 110 0
95 105 0
102 113 0
105 117 0
107 118 0
96 107 0
108 120 0
110 123 0
118 131 0
117 130 0
113 127 0
116 130 0
111 124 0
121 135 0
124 138 0
110 125 0
118 133 0
120 134 0
115 129 0
118 133 0
124 140 0
115 129 0
108 122 0
128 143 0
117 133 0
125 141 0
129 145 0
128 145 0
122 139 0
125 142 0
126 142 0
119 135 0
126 144 0
122 139 0
128 145 0
124 142 0
129 146 0
119 137 0
113 130 0
137 154 0
121 138 0
128 145 0
125 143 0
122 140 0
119 137 0
118 136 0
116 135 0
120 138 0
120 139 0
128 146 0
114 132 0
119 138 0
117 135 0
119 137 0
117 136 0
131 150 0
110 128 0
120 138 0
126 144 0
102 120 0
114 132 0
115 133 0
114 133 0
110 127 0
113 130 0
109 126 0
127 146 0
114 130 0
120 139 0
104 121 0
102 119 0
112 129 0
98 114 0
117 135 0
117 133 0
99 114 0
106 123 0
103 120 0
100 116 0
98 113 0
105 122 0
95 112 0
90 105 0
101 118 0
96 111 0
91 106 0
92 108 0
85 101 0
108 123 0
97 111 0
84 99 0
89 105 0
83 96 0
86 102 0
84 99 0
97 112 0
82 96 0
86 100 0
89 104 0
97 112 0
88 102 0
84 98 0
94 107 0
82 97 0
92 105 0
82 95 0
91 106 0
94 107 0
89 101 0
90 104 0
101 116 0
94 107 0
84 98 0
97 112 0
95 110 0
100 111 0
94 108 0
99 113 0
97 111 0
97 113 0
105 120 0
111 127 0
100 114 0
110 123 0
112 125 0
93 107 0
98 111 0
99 111 0
106 120 0
108 123 0
103 117 0
98 112 0
112 125 0
93 107 0
116 130 0
114 128 0
105 120 0
115 130 0
114 127 0
114 130 0
104 118 0
110 126 0
108 120 0
116 129 0
109 122 0
114 127 0
119 133 0
127 141 0
123 139 0
113 127 0
114 128 0
114 126 0
130 145 0
120 133 0
122 134 0
115 126 0
126 139 0
123 136 0
131 144 0
120 132 0
130 141 0
112 125 0
117 127 0
122 134 0
115 125 0
116 128 0
115 126 0
114 124 0
114 125 0
120 130 0
107 114 0
111 122 0
109 118 0
119 127 0
115 124 0
118 127 0
110 115 0
104 110 0
115 124 0
114 123 0
123 128 0
121 128 0
113 118 0
114 120 0
110 113 0
103 108 0
114 116 0
106 109 0
109 112 0
102 102 0
94 97 0
100 102 0
112 113 0
102 102 0
112 113 0
108 106 0
100 97 0
98 97 0
99 95 0
96 94 0
93 88 0
80 77 0
83 80 0
72 66 0
77 70 0
60 58 0
75 68 0
76 63 0
71 61 0
77 70 0
74 64 0
84 72 0
87 75 0
89 78 0
91 81 0
86 77 0
86 77 0
84 76 0
91 81 0
96 88 0
94 86 0
98 88 0
103 95 0
98 89 11
110 102 0
105 97 0
96 88 0
105 97 0
99 90 0
101 92 11
100 91 11
108 100 11
104 96 0
110 102 0
102 97 0
107 99 0
105 98 0
102 94 11
107 98 22
108 101 11
117 108 16
112 106 11
109 102 16
106 97 11
117 108 22
125 117 19
115 107 16
109 103 16
115 108 22
109 101 11
108 99 19
121 112 16
109 101 11
104 95 16
116 110 11
120 113 25
116 110 19
112 105 22
113 107 19
112 105 19
117 111 28
128 119 22
123 118 19
121 113 28
118 111 22
110 102 28
115 108 25
116 109 22
116 108 30
117 110 25
120 113 32
116 108 28
121 114 30
122 114 28
115 108 22
123 115 22
113 105 22
125 118 32
112 106 32
125 117 32
119 111 30
122 113 34
110 103 22
106 101 30
118 111 25
125 117 34
120 113 36
118 112 30
115 108 34
111 105 22
115 108 25
112 106 32
104 99 25
116 109 42
119 118 28
145 152 34
152 169 11
168 186 0
170 190 0
170 189 0
167 186 0
171 194 0
168 191 0
172 195 0
169 191 0
170 191 0
168 190 0
172 194 0
154 174 0
145 164 0
128 145 0
117 131 0
116 130 0
126 141 0
127 143 0
126 141 0
133 149 0
130 146 0
128 143 0
137 154 0
138 155 0
134 150 0
142 159 0
136 153 0
138 155 0
139 155 0
141 158 0
139 155 0
144 161 0
142 159 0
140 155 0
142 159 0
145 161 0
143 160 0
142 159 0
146 162 0
143 159 0
143 160 0
139 155 0
142 160 0
143 160 0
142 158 0
139 155 0
139 155 0
136 151 0
144 162 0
138 155 0
139 155 0
134 149 0
140 155 0
140 156 0
138 154 0
134 150 0
139 156 0
134 149 0
139 155 0
133 148 0
136 152 0
137 152 0
136 151 0
137 153 0
136 152 0
132 147 0
126 140 0
127 141 0
126 140 0
126 141 0
130 144 0
136 151 0
128 142 0
122 136 0
128 142 0
128 142 0
120 134 0
124 138 0
118 131 0
121 134 0
116 129 0
115 127 0
126 140 0
118 130 0
115 128 0
115 128 0
106 118 0
110 122 0
99 110 0
114 127 0
92 102 0
92 102 0
102 113 0
84 92 0
84 93 0
85 94 0
87 95 0
78 86 0
88 97 0
95 104 0
92 101 0
88 98 0
108 119 0
101 112 0
101 113 0
106 118 0
101 112 0
106 119 0
108 119 0
110 122 0
131 145 0
113 126 0
113 126 0
110 124 0
121 135 0
118 133 0
114 128 0
126 141 0
126 141 0
127 141 0
118 132 0
116 131 0
121 136 0
113 128 0
113 129 0
134 150 0
126 142 0
127 142 0
133 152 0
119 135 0
123 140 0
128 144 0
123 139 0
124 141 0
127 144 0
127 143 0
121 138 0
129 146 0
136 153 0
124 141 0
120 137 0
126 143 0
115 133 0
124 142 0
132 151 0
127 145 0
115 133 0
132 151 0
134 152 0
133 151 0
116 134 0
124 142 0
128 147 0
123 141 0
116 134 0
113 132 0
131 149 0
109 126 0
128 145 0
123 140 0
125 143 0
118 135 0
113 131 0
130 148 0
114 133 0
118 135 0
102 119 0
109 127 0
116 135 0
124 142 0
117 134 0
109 126 0
115 134 0
99 116 0
122 139 0
109 126 0
99 114 0
107 124 0
108 124 0
106 122 0
103 118 0
89 105 0
106 122 0
103 121 0
104 121 0
98 114 0
107 124 0
115 131 0
106 122 0
107 124 0
98 115 0
100 116 0
100 117 0
95 111 0
94 108 0
108 125 0
91 108 0
101 117 0
95 110 0
84 98 0
95 108 0
68 83 0
92 108 0
95 110 0
88 103 0
98 110 0
100 114 0
103 119 0
82 97 0
98 113 0
91 107 0
91 103 0
79 94 0
91 107 0
90 105 0
97 114 0
109 124 0
100 114 0
95 110 0
93 106 0
89 103 0
97 112 0
98 112 0
111 127 0
94 109 0
115 129 0
99 113 0
106 121 0
107 122 0
109 124 0
104 117 0
113 126 0
111 127 0
104 118 0
116 129 0
104 119 0
113 128 0
118 132 0
101 116 0
116 131 0
113 126 0
113 128 0
115 128 0
115 131 0
117 132 0
112 125 0
113 129 0
114 126 0
114 124 0
118 132 0
113 126 0
117 132 0
116 130 0
121 134 0
109 123 0
128 143 0
121 132 0
120 132 0
128 141 0
119 133 0
110 121 0
119 134 0
126 137 0
111 121 0
116 129 0
123 136 0
123 134 0
128 139 0
118 129 0
116 127 0
116 126 0
115 124 0
122 132 0
120 128 0
118 127 0
120 132 0
121 130 0
113 122 0
117 127 0
123 131 0
114 122 0
118 126 0
104 110 0
123 131 0
113 120 0
118 124 0
120 123 0
102 107 0
111 114 0
116 120 0
105 109 0
120 124 0
106 111 0
110 111 0
100 101 0
97 98 0
107 111 0
107 107 0
102 100 0
101 102 0
109 107 0
95 93 0
99 96 0
85 80 0
96 96 0
93 89 0
91 87 0
87 81 0
83 82 0
87 82 0
73 69 0
72 60 0
71 61 0
73 65 0
70 58 0
79 70 0
86 76 0
87 76 0
82 73 0
82 73 0
87 77 0
85 77 0
89 82 0
93 83 0
93 84 0
97 88 0
95 89 0
95 88 11
95 86 0
103 94 0
91 84 11
102 91 0
100 92 11
99 91 0
102 92 11
105 96 0
110 102 16
105 95 0
106 96 11
101 90 0
105 95 0
101 92 0
114 107 16
104 96 16
102 94 11
116 108 19
104 96 0
107 97 11
105 96 16
110 102 19
104 96 0
109 100 16
112 106 16
103 94 0
107 100 0
104 97 11
125 117 16
114 106 19
123 115 19
114 106 22
117 109 19
120 113 19
115 109 19
109 101 19
112 106 16
116 109 25
107 100 22
112 105 25
114 107 36
119 112 25
121 114 22
115 107 19
112 103 16
123 116 36
112 105 19
116 110 22
112 105 28
125 119 34
117 109 28
119 112 19
117 110 30
118 112 19
112 106 30
110 104 25
124 116 36
112 106 22
119 111 36
116 108 30
120 112 36
114 108 32
120 112 37
114 108 22
120 112 30
113 105 32
121 122 25
139 148 30
159 178 16
166 183 0
168 187 0
166 184 0
168 186 0
170 191 0
167 187 0
169 189 0
170 192 0
171 193 0
165 187 0
170 192 0
171 194 0
170 192 0
170 191 0
170 192 0
170 192 0
169 192 0
165 186 0
151 170 0
136 152 0
124 139 0
117 132 0
122 138 0
129 144 0
122 138 0
126 142 0
132 147 0
121 136 0
133 149 0
131 147 0
134 150 0
132 148 0
134 150 0
135 151 0
136 153 0
137 153 0
142 158 0
137 153 0
135 151 0
136 152 0
142 159 0
138 154 0
137 153 0
141 157 0
137 153 0
136 152 0
142 159 0
142 158 0
139 155 0
138 154 0
141 157 0
136 152 0
140 156 0
131 147 0
135 151 0
134 150 0
133 148 0
145 161 0
131 145 0
134 149 0
127 143 0
133 147 0
132 147 0
135 149 0
131 147 0
128 144 0
133 148 0
134 149 0
135 150 0
121 135 0
127 141 0
125 140 0
123 136 0
130 144 0
124 138 0
130 144 0
121 134 0
127 141 0
124 138 0
116 128 0
116 129 0
116 128 0
119 132 0
113 126 0
113 125 0
112 125 0
111 123 0
108 120 0
93 104 0
88 98 0
88 98 0
102 113 0
83 92 0
85 93 0
91 99 0
77 84 0
93 102 0
96 105 0
98 108 0
88 97 0
97 106 0
98 108 0
113 125 0
106 116 0
107 118 0
101 112 0
97 108 0
102 113 0
110 122 0
114 127 0
111 124 0
111 124 0
113 126 0
120 133 0
122 136 0
113 127 0
115 129 0
113 127 0
119 133 0
125 140 0
123 138 0
116 132 0
116 131 0
125 141 0
132 148 0
118 134 0
126 142 0
123 137 0
122 138 0
116 132 0
121 137 0
122 139 0
125 143 0
120 137 0
113 130 0
121 136 0
127 144 0
120 138 0
127 145 0
121 138 0
132 149 0
127 145 0
124 141 0
134 153 0
129 148 0
130 149 0
138 156 0
133 151 0
118 135 0
118 136 0
132 151 0
130 148 0
122 140 0
119 138 0
118 135 0
127 144 0
116 134 0
128 146 0
120 139 0
123 141 0
123 142 0
121 139 0
111 129 0
122 141 0
128 147 0
124 140 0
117 135 0
123 141 0
113 130 0
121 139 0
105 123 0
115 133 0
118 136 0
111 128 0
117 135 0
107 125 0
112 129 0
110 128 0
112 129 0
106 124 0
118 136 0
105 121 0
114 132 0
106 124 0
94 112 0
101 119 0
93 110 0
105 122 0
112 129 0
111 127 0
104 121 0
106 122 0
104 120 0
108 124 0
92 110 0
106 122 0
96 113 0
91 108 0
104 121 0
91 107 0
100 118 0
99 115 0
103 118 0
86 101 0
100 116 0
100 116 0
103 118 0
98 113 0
100 115 0
91 106 0
101 117 0
107 121 0
95 110 0
95 108 0
98 114 0
94 108 0
99 114 0
98 113 0
94 110 0
98 114 0
97 112 0
102 118 0
105 121 0
94 110 0
103 118 0
103 118 0
102 117 0
105 121 0
102 117 0
100 114 0
98 113 0
101 117 0
110 124 0
111 126 0
113 129 0
116 132 0
105 119 0
122 137 0
109 126 0
108 123 0
117 131 0
114 130 0
119 132 0
108 121 0
115 130 0
117 133 0
116 130 0
120 134 0
119 134 0
120 134 0
108 123 0
120 134 0
107 120 0
116 130 0
119 133 0
124 137 0
116 130 0
112 124 0
116 127 0
121 133 0
110 122 0
118 131 0
122 136 0
127 141 0
123 136 0
117 132 0
125 135 0
111 125 0
123 135 0
134 147 0
117 127 0
124 138 0
133 143 0
124 137 0
127 138 0
108 119 0
112 123 0
116 126 0
124 132 0
118 126 0
117 123 0
117 126 0
116 125 0
117 124 0
132 140 0
122 130 0
126 135 0
111 118 0
109 115 0
127 133 0
117 124 0
112 114 0
113 117 0
108 110 0
113 114 0
108 111 0
109 110 0
119 122 0
110 113 0
111 115 0
103 102 0
112 113 0
105 103 0
104 103 0
116 114 0
104 103 0
93 94 0
91 89 0
95 92 0
94 93 0
86 84 0
101 96 0
92 88 0
92 85 0
83 78 0
86 80 0
85 79 0
80 78 0
74 67 0
64 55 0
68 59 0
79 65 0
82 71 0
74 65 0
89 81 0
94 87 0
83 74 0
84 72 0
96 85 0
93 85 0
97 88 11
93 84 0
101 92 0
102 94 0
100 92 11
92 84 11
97 88 11
93 83 0
107 98 0
103 96 0
92 83 11
102 94 0
101 92 11
100 91 11
109 99 0
99 89 16
114 107 11
107 101 11
110 102 16
113 107 0
104 96 0
109 103 19
108 101 19
106 99 19
105 97 0
109 100 22
105 98 16
103 96 0
107 99 16
106 98 16
106 99 19
106 100 16
110 103 19
115 104 22
116 108 16
113 106 25
116 110 11
115 106 0
113 104 25
115 106 19
114 107 19
111 104 19
111 102 28
112 105 19
114 107 37
114 107 28
111 103 32
118 112 30
112 104 30
124 118 32
117 109 37
114 108 25
117 109 34
113 107 16
117 111 25
116 109 32
106 98 25
117 111 32
109 101 19
117 109 32
103 97 37
111 104 25
109 101 28
108 106 28
137 141 30
145 156 11
164 181 0
166 184 0
169 186 0
167 186 0
165 183 0
165 183 0
166 185 0
168 185 0
167 188 0
170 190 0
166 186 0
170 193 0
168 191 0
171 193 0
170 192 0
170 191 0
171 193 0
170 193 0
169 192 0
168 190 0
170 192 0
165 187 0
169 190 0
172 194 0
165 188 0
160 180 0
152 171 0
135 153 0
115 129 0
117 131 0
122 138 0
123 139 0
131 147 0
123 138 0
126 142 0
133 149 0
129 144 0
131 147 0
120 134 0
130 146 0
136 151 0
132 147 0
134 149 0
125 140 0
131 146 0
135 151 0
128 143 0
135 151 0
143 159 0
136 152 0
141 156 0
135 150 0
132 148 0
136 152 0
137 151 0
139 155 0
137 153 0
134 150 0
134 150 0
132 147 0
131 147 0
134 149 0
134 150 0
136 151 0
127 141 0
130 144 0
130 145 0
128 142 0
131 144 0
123 137 0
127 141 0
129 142 0
124 138 0
130 144 0
128 142 0
125 140 0
123 136 0
125 138 0
120 133 0
119 132 0
118 131 0
113 125 0
115 127 0
116 129 0
114 126 0
109 120 0
110 121 0
105 117 0
89 100 0
99 109 0
103 114 0
91 101 0
89 98 0
84 93 0
87 95 0
100 110 0
87 95 0
91 100 0
89 97 0
98 108 0
104 114 0
94 103 0
114 125 0
100 110 0
103 114 0
95 106 0
110 122 0
109 121 0
109 121 0
118 130 0
123 136 0
109 121 0
111 124 0
113 127 0
124 138 0
116 129 0
121 135 0
108 121 0
121 135 0
119 133 0
127 143 0
115 130 0
112 127 0
120 136 0
132 148 0
131 147 0
120 135 0
129 145 0
122 138 0
118 133 0
122 138 0
127 144 0
128 144 0
125 140 0
124 141 0
133 149 0
125 141 0
134 152 0
133 151 0
133 151 0
118 136 0
127 143 0
119 136 0
131 148 0
123 140 0
132 150 0
132 150 0
133 151 0
130 148 0
129 148 0
124 143 0
124 142 0
129 146 0
126 144 0
133 152 0
130 148 0
132 151 0
131 149 0
134 151 0
132 151 0
121 140 0
131 150 0
126 144 0
122 140 0
128 146 0
131 150 0
126 145 0
117 135 0
118 136 0
122 141 0
120 138 0
119 136 0
121 139 0
116 133 0
106 123 0
113 130 0
118 136 0
108 126 0
116 135 0
116 135 0
115 132 0
110 127 0
133 151 0
106 124 0
114 131 0
107 126 0
106 123 0
114 132 0
94 109 0
113 130 0
111 128 0
111 128 0
105 121 0
97 112 0
110 128 0
97 114 0
102 118 0
104 121 0
112 130 0
114 131 0
93 109 0
98 115 0
94 110 0
98 113 0
103 119 0
111 127 0
97 112 0
112 128 0
101 116 0
73 91 0
94 110 0
113 128 0
104 118 0
105 121 0
92 109 0
110 126 0
102 117 0
89 102 0
108 125 0
113 129 0
98 116 0
96 111 0
93 110 0
100 116 0
94 110 0
100 115 0
102 115 0
106 122 0
106 122 0
110 126 0
109 123 0
106 119 0
119 135 0
107 123 0
109 123 0
101 116 0
107 123 0
111 127 0
100 115 0
108 122 0
108 124 0
117 132 0
110 125 0
109 123 0
125 142 0
116 130 0
122 137 0
106 122 0
126 142 0
112 125 0
117 134 0
108 124 0
117 131 0
119 134 0
123 137 0
112 124 0
114 129 0
122 136 0
123 138 0
118 134 0
123 138 0
113 126 0
118 133 0
121 136 0
122 134 0
124 138 0
114 127 0
125 139 0
125 140 0
128 141 0
107 118 0
132 146 0
115 125 0
129 142 0
117 130 0
133 147 0
131 144 0
119 131 0
123 134 0
118 129 0
129 141 0
133 143 0
128 137 0
126 134 0
117 126 0
122 132 0
121 134 0
117 127 0
124 132 0
122 134 0
115 122 0
124 130 0
121 128 0
120 128 0
103 108 0
108 113 0
113 117 0
113 115 0
117 121 0
112 115 0
113 118 0
116 120 0
113 114 0
116 120 0
102 103 0
107 109 0
113 113 0
107 108 0
106 106 0
115 114 0
108 106 0
93 89 0
103 100 0
107 104 0
97 93 0
101 100 0
94 90 0
99 92 0
87 80 0
98 93 0
83 79 0
77 73 0
95 91 0
91 87 0
78 70 0
84 76 0
78 66 0
78 68 0
78 68 0
80 70 0
80 73 0
83 73 0
87 80 11
90 80 0
91 81 0
90 82 0
90 81 0
104 92 0
91 82 0
95 84 11
95 86 11
99 90 0
96 88 0
97 88 0
102 93 0
97 87 11
104 95 11
103 95 11
102 92 19
98 89 0
101 92 16
118 108 19
103 96 16
102 92 0
111 102 16
103 93 16
105 98 11
101 91 22
110 102 16
109 99 16
105 98 16
103 93 16
107 98 0
108 99 16
119 110 25
109 100 16
113 105 0
111 103 16
106 98 19
113 105 25
105 98 28
113 104 16
110 101 11
103 96 16
109 102 16
114 107 25
103 95 19
96 91 16
109 102 25
109 103 19
116 108 22
103 96 25
104 96 25
122 111 25
114 107 28
120 113 32
108 101 25
102 93 28
117 109 25
114 107 28
111 104 25
109 102 36
103 94 30
117 115 30
140 147 28
148 155 16
159 173 16
167 186 0
162 178 0
170 188 0
165 182 0
163 180 0
164 184 0
161 178 0
165 183 0
170 189 0
168 187 0
162 179 0
168 186 0
170 186 0
166 183 0
170 192 0
172 194 0
170 192 0
168 190 0
168 191 0
166 188 0
167 190 0
168 190 0
167 189 0
169 191 0
168 189 0
170 191 0
170 192 0
167 189 0
167 189 0
164 185 0
166 187 0
166 188 0
160 180 0
149 167 0
135 152 0
135 151 0
122 137 0
123 138 0
112 125 0
130 145 0
118 131 0
121 135 0
126 140 0
126 141 0
123 138 0
124 138 0
125 141 0
132 147 0
132 146 0
126 141 0
126 141 0
132 147 0
128 143 0
131 146 0
140 155 0
129 145 0
132 147 0
123 138 0
131 146 0
131 146 0
128 142 0
129 143 0
131 146 0
125 139 0
121 135 0
123 136 0
128 143 0
124 138 0
123 138 0
127 140 0
128 142 0
125 139 0
125 139 0
113 125 0
123 136 0
122 135 0
119 130 0
118 130 0
121 135 0
112 123 0
115 128 0
114 126 0
111 123 0
119 131 0
105 116 0
101 112 0
112 123 0
96 105 0
86 95 0
90 100 0
93 103 0
84 93 0
86 94 0
89 98 0
72 79 0
90 98 0
85 93 0
97 107 0
99 108 0
92 101 0
102 112 0
98 108 0
101 110 0
101 111 0
113 124 0
117 129 0
113 126 0
117 129 0
107 118 0
109 121 0
114 127 0
118 131 0
121 134 0
122 135 0
120 134 0
130 144 0
124 138 0
127 141 0
121 136 0
126 140 0
110 124 0
121 136 0
123 138 0
119 133 0
122 137 0
124 138 0
117 132 0
121 136 0
132 148 0
125 142 0
127 143 0
127 144 0
123 139 0
129 145 0
124 141 0
124 141 0
116 132 0
137 155 0
121 138 0
132 149 0
134 150 0
134 151 0
127 144 0
136 154 0
138 155 0
133 152 0
125 141 0
130 148 0
129 147 0
128 146 0
133 151 0
120 139 0
134 153 0
135 154 0
135 154 0
130 148 0
127 146 0
131 149 0
122 141 0
121 138 0
129 147 0
128 148 0
125 144 0
135 154 0
122 141 0
122 140 0
127 147 0
131 151 0
125 144 0
124 142 0
121 140 0
130 149 0
112 128 0
130 149 0
110 128 0
122 141 0
116 133 0
118 136 0
121 138 0
122 140 0
124 142 0
119 138 0
106 125 0
118 136 0
110 128 0
120 140 0
112 130 0
110 127 0
121 139 0
119 138 0
122 141 0
120 138 0
115 132 0
99 116 0
112 129 0
108 126 0
106 122 0
102 121 0
104 120 0
92 109 0
110 129 0
102 118 0
101 119 0
103 120 0
104 122 0
95 112 0
108 125 0
105 121 0
99 114 0
103 120 0
108 125 0
107 124 0
103 119 0
114 130 0
109 125 0
126 143 0
101 117 0
106 122 0
90 108 0
105 120 0
88 104 0
107 123 0
96 112 0
96 111 0
95 111 0
105 119 0
113 129 0
112 128 0
105 121 0
103 118 0
103 119 0
99 113 0
105 121 0
107 122 0
108 123 0
122 139 0
117 133 0
116 132 0
106 123 0
120 136 0
107 121 0
112 126 0
120 134 0
118 133 0
121 136 0
115 130 0
125 141 0
126 140 0
112 126 0
118 133 0
117 133 0
119 134 0
116 130 0
116 131 0
118 133 0
112 127 0
118 134 0
132 149 0
118 134 0
120 135 0
122 137 0
116 132 0
119 132 0
121 134 0
133 147 0
116 130 0
113 124 0
130 144 0
121 135 0
124 136 0
120 132 0
129 140 0
117 130 0
125 139 0
110 122 0
121 136 0
122 134 0
133 144 0
124 136 0
113 126 0
125 137 0
120 132 0
128 142 0
117 129 0
132 143 0
124 134 0
132 145 0
124 137 0
117 126 0
119 128 0
131 140 0
128 139 0
120 129 0
121 126 0
118 127 0
121 129 0
110 115 0
117 125 0
122 127 0
110 116 0
118 122 0
124 130 0
112 115 0
115 121 0
124 131 0
117 120 0
106 108 0
108 109 0
114 118 0
102 101 0
100 100 0
114 114 0
116 118 0
112 114 0
118 116 0
112 111 0
102 100 0
108 108 0
104 102 0
110 108 0
96 89 0
99 95 0
102 97 0
91 88 0
103 99 0
86 83 0
94 86 0
94 88 0
93 86 0
86 82 0
88 81 0
86 79 0
80 73 0
75 65 0
87 78 0
72 62 0
73 62 0
70 60 11
87 77 0
86 74 0
90 79 0
96 84 0
97 88 0
89 79 11
95 85 11
95 87 0
95 86 11
92 82 11
90 82 11
97 88 0
89 80 0
102 92 11
98 88 16
107 99 16
95 85 0
101 93 16
97 90 11
100 94 16
106 96 16
96 85 16
106 98 11
106 97 16
103 95 16
106 97 0
102 93 11
111 103 19
108 101 11
118 110 16
108 99 11
118 109 0
103 95 28
102 95 19
107 100 19
106 97 22
99 92 11
107 100 25
114 106 22
109 102 28
103 95 0
108 101 28
114 107 19
114 105 22
100 93 19
106 100 19
113 105 11
104 96 22
111 102 19
109 102 34
114 107 28
108 103 25
110 103 28
116 111 22
132 134 19
138 144 30
144 154 16
156 169 0
166 182 0
164 180 0
160 174 0
165 181 0
167 182 0
169 186 0
163 180 0
165 183 0
164 181 0
170 188 0
166 182 0
165 181 0
168 187 0
167 185 0
168 184 0
163 182 0
170 187 0
170 188 0
171 193 0
170 191 0
170 191 0
168 190 0
170 191 0
167 189 0
168 189 0
167 189 0
169 190 0
168 189 0
169 190 0
167 187 0
171 191 0
167 188 0
168 189 0
164 185 0
164 185 0
168 189 0
167 187 0
164 185 0
164 184 0
167 188 0
163 183 0
156 175 0
147 165 0
140 157 0
147 164 0
130 146 0
116 130 0
123 136 0
117 131 0
111 124 0
125 140 0
115 129 0
120 134 0
118 131 0
121 134 0
128 142 0
130 144 0
124 138 0
121 134 0
121 134 0
124 138 0
124 138 0
123 137 0
122 136 0
123 136 0
128 142 0
121 135 0
121 134 0
117 130 0
123 137 0
120 134 0
114 126 0
105 117 0
113 126 0
116 128 0
116 129 0
114 125 0
108 120 0
111 123 0
106 117 0
104 115 0
106 118 0
111 123 0
114 126 0
105 116 0
98 107 0
101 112 0
101 111 0
96 106 0
101 111 0
98 108 0
95 104 0
90 99 0
103 113 0
90 97 0
92 100 0
94 104 0
105 114 0
104 113 0
98 107 0
102 112 0
106 116 0
112 124 0
90 100 0
109 121 0
113 124 0
102 113 0
117 130 0
108 120 0
115 128 0
119 132 0
114 126 0
117 130 0
106 120 0
106 119 0
116 129 0
126 140 0
124 137 0
119 133 0
114 128 0
131 146 0
135 151 0
131 146 0
132 147 0
128 143 0
130 145 0
134 150 0
125 141 0
125 140 0
137 153 0
132 148 0
132 148 0
128 145 0
128 144 0
136 153 0
139 155 0
134 151 0
137 154 0
118 135 0
122 139 0
127 145 0
133 150 0
126 143 0
129 146 0
131 149 0
127 144 0
130 146 0
123 140 0
132 150 0
138 157 0
138 157 0
128 147 0
133 152 0
126 145 0
125 142 0
124 142 0
133 151 0
124 142 0
127 145 0
136 156 0
125 143 0
119 137 0
135 154 0
134 154 0
131 149 0
126 144 0
126 145 0
126 145 0
134 153 0
128 147 0
128 147 0
114 133 0
125 144 0
112 131 0
128 146 0
117 136 0
131 151 0
124 143 0
120 139 0
117 135 0
126 144 0
133 152 0
125 144 0
111 130 0
123 141 0
113 131 0
119 137 0
109 126 0
112 130 0
118 136 0
112 129 0
109 127 0
109 127 0
120 139 0
116 134 0
120 136 0
124 141 0
116 133 0
109 127 0
116 134 0
109 127 0
109 126 0
119 136 0
116 134 0
105 122 0
115 133 0
109 127 0
102 118 0
114 132 0
107 125 0
118 135 0
113 130 0
94 111 0
111 126 0
103 119 0
90 105 0
107 124 0
100 116 0
105 121 0
107 123 0
92 108 0
112 129 0
98 115 0
95 112 0
115 130 0
97 114 0
113 130 0
103 119 0
115 131 0
112 129 0
107 124 0
106 123 0
111 128 0
110 126 0
112 128 0
106 122 0
106 121 0
120 136 0
117 133 0
107 124 0
123 140 0
112 127 0
97 110 0
114 131 0
111 127 0
119 137 0
116 134 0
123 140 0
121 137 0
112 128 0
122 138 0
121 136 0
104 119 0
114 129 0
118 133 0
135 152 0
117 130 0
125 140 0
125 141 0
106 123 0
123 140 0
123 138 0
125 141 0
128 143 0
125 139 0
127 144 0
119 133 0
118 131 0
121 137 0
119 134 0
126 142 0
119 134 0
122 138 0
125 140 0
125 137 0
129 145 0
121 133 0
121 133 0
124 138 0
121 135 0
121 135 0
136 150 0
123 134 0
123 136 0
129 142 0
118 127 0
125 137 0
116 127 0
128 142 0
126 135 0
129 139 0
124 137 0
126 139 0
107 114 0
119 131 0
128 139 0
133 144 0
124 133 0
130 142 0
129 136 0
109 117 0
129 140 0
120 129 0
129 136 0
115 122 0
130 137 0
123 127 0
118 125 0
108 110 0
116 121 0
116 118 0
116 122 0
118 123 0
113 118 0
125 130 0
118 119 0
111 114 0
115 116 0
115 116 0
110 111 0
112 111 0
119 122 0
105 103 0
110 108 0
107 106 0
99 96 0
114 112 0
100 94 0
95 91 0
98 95 0
111 108 0
90 81 0
97 91 0
97 93 0
86 79 0
102 97 0
85 78 0
106 99 0
82 73 0
97 92 0
81 74 0
80 72 0
87 80 0
82 70 0
79 68 0
91 83 16
85 74 0
84 75 11
86 76 11
92 81 0
92 82 0
85 75 11
92 83 0
91 80 0
98 88 11
106 97 11
93 84 0
93 85 11
102 93 16
93 85 11
104 96 0
103 94 16
100 90 0
99 91 11
104 95 0
92 84 16
110 101 19
100 91 0
101 92 11
97 88 11
101 93 19
102 93 11
98 89 11
99 87 11
96 89 16
105 97 16
106 98 22
101 94 11
106 99 16
120 109 30
91 83 11
113 106 28
105 96 25
116 107 30
107 99 28
99 90 22
103 95 28
108 99 25
100 92 28
122 115 30
113 111 25
137 140 25
140 148 19
147 158 11
151 160 0
165 178 0
158 170 0
158 171 0
162 178 0
160 175 0
161 175 0
157 170 0
163 179 0
163 177 0
163 179 0
161 177 0
163 178 0
161 175 0
163 181 0
162 178 0
162 178 0
164 181 0
165 183 0
165 182 0
164 182 0
161 178 0
165 183 0
168 186 0
167 189 0
167 190 0
166 188 0
169 191 0
169 189 0
167 189 0
168 190 0
167 188 0
165 185 0
165 186 0
169 189 0
167 189 0
168 188 0
166 187 0
164 184 0
167 187 0
166 187 0
167 188 0
165 185 0
166 185 0
165 185 0
163 183 0
163 183 0
166 186 0
162 181 0
163 183 0
166 184 0
160 179 0
158 176 0
160 179 0
153 171 0
141 158 0
144 160 0
134 150 0
130 144 0
121 135 0
115 129 0
119 133 0
101 112 0
110 123 0
109 121 0
111 123 0
114 127 0
112 125 0
110 122 0
116 128 0
112 125 0
115 128 0
111 123 0
110 122 0
122 135 0
110 122 0
118 131 0
108 119 0
114 125 0
105 116 0
108 119 0
111 122 0
101 112 0
106 117 0
100 110 0
102 113 0
102 112 0
107 117 0
97 107 0
100 110 0
111 122 0
109 120 0
110 120 0
103 114 0
103 112 0
109 119 0
107 117 0
118 129 0
112 122 0
112 122 0
104 114 0
115 125 0
109 119 0
108 118 0
97 107 0
102 112 0
107 118 0
112 124 0
110 121 0
114 125 0
120 132 0
112 124 0
105 116 0
120 132 0
123 136 0
110 123 0
123 136 0
119 132 0
115 128 0
127 140 0
127 141 0
132 146 0
112 127 0
115 129 0
126 139 0
121 135 0
124 139 0
129 145 0
134 150 0
118 134 0
125 140 0
127 143 0
123 139 0
125 140 0
129 146 0
127 144 0
131 147 0
130 146 0
128 144 0
135 152 0
119 135 0
134 152 0
141 159 0
125 142 0
136 154 0
129 146 0
130 148 0
124 141 0
132 150 0
128 146 0
140 158 0
129 148 0
121 139 0
138 157 0
123 142 0
127 144 0
130 148 0
135 155 0
138 158 0
121 139 0
132 150 0
136 155 0
131 150 0
131 151 0
133 153 0
126 145 0
126 145 0
125 144 0
122 140 0
127 145 0
130 149 0
126 145 0
133 151 0
136 155 0
130 147 0
121 140 0
127 146 0
133 152 0
125 143 0
122 140 0
129 149 0
121 140 0
124 144 0
124 144 0
127 146 0
124 142 0
117 134 0
118 136 0
124 142 0
122 141 0
127 146 0
127 145 0
116 133 0
126 145 0
117 134 0
115 133 0
137 156 0
127 145 0
123 141 0
119 138 0
113 132 0
111 129 0
114 133 0
122 140 0
114 132 0
120 137 0
113 131 0
109 128 0
111 129 0
115 132 0
103 120 0
111 129 0
105 123 0
116 134 0
117 134 0
114 131 0
118 137 0
122 140 0
107 123 0
95 113 0
113 131 0
118 135 0
104 121 0
116 134 0
103 121 0
107 124 0
110 128 0
127 145 0
123 140 0
115 132 0
106 121 0
108 125 0
103 119 0
108 124 0
106 122 0
107 124 0
108 125 0
117 133 0
121 137 0
112 128 0
125 142 0
107 124 0
103 119 0
110 127 0
127 143 0
118 134 0
110 126 0
118 133 0
109 125 0
114 131 0
111 127 0
124 140 0
112 127 0
118 133 0
117 135 0
115 132 0
126 144 0
112 128 0
122 138 0
121 135 0
110 125 0
121 138 0
112 128 0
125 142 0
123 138 0
130 146 0
119 135 0
119 134 0
128 144 0
120 137 0
122 138 0
124 140 0
124 138 0
112 124 0
121 137 0
119 134 0
119 134 0
125 139 0
124 139 0
136 150 0
132 146 0
125 138 0
131 146 0
122 136 0
127 138 0
121 136 0
136 152 0
130 144 0
137 151 0
123 136 0
114 125 0
131 145 0
132 145 0
130 142 0
127 140 0
120 131 0
130 142 0
131 145 0
126 135 0
131 145 0
115 127 0
127 137 0
124 135 0
125 132 0
126 136 0
123 134 0
132 145 0
130 139 0
117 127 0
129 137 0
124 131 0
117 125 0
113 120 0
131 137 0
130 136 0
116 123 0
121 128 0
121 125 0
119 122 0
119 119 0
117 122 0
121 125 0
115 117 0
115 119 0
121 125 0
113 118 0
107 107 0
114 113 0
115 112 0
104 105 0
102 101 0
113 111 0
108 107 0
120 119 0
99 96 0
110 107 0
98 95 0
106 104 0
104 99 0
96 93 0
94 87 0
104 103 0
95 88 0
89 82 0
95 89 0
97 97 0
86 80 0
104 97 0
75 72 0
88 80 0
102 96 0
99 95 0
91 86 0
93 86 0
97 94 0
90 82 0
90 83 0
90 82 0
90 83 0
100 91 0
98 90 11
98 87 11
98 87 11
104 94 22
88 80 0
99 89 16
100 89 0
104 92 19
99 90 16
89 80 11
84 73 11
96 87 16
102 94 22
107 96 22
95 88 19
102 93 16
102 94 11
102 94 11
96 87 22
102 93 16
110 102 30
100 91 22
104 94 19
101 92 28
102 93 28
110 100 32
117 108 25
106 97 16
113 110 22
131 131 19
127 128 11
127 132 0
145 153 11
152 161 0
149 158 11
149 157 0
158 168 0
152 163 0
155 165 0
153 164 0
156 168 0
154 166 0
158 171 0
155 167 0
161 172 0
159 173 0
157 170 0
160 173 0
160 173 0
164 179 0
154 168 0
160 175 0
158 172 0
167 181 0
161 178 0
162 178 0
160 175 0
162 177 0
169 184 0
164 180 0
166 183 0
164 181 0
167 185 0
168 186 0
169 190 0
167 189 0
167 190 0
169 190 0
168 190 0
165 186 0
169 190 0
170 191 0
164 185 0
166 187 0
167 187 0
166 186 0
164 185 0
170 190 0
162 182 0
165 186 0
162 183 0
166 186 0
166 187 0
167 186 0
163 183 0
165 185 0
165 184 0
166 185 0
163 183 0
161 180 0
157 175 0
164 183 0
158 178 0
158 177 0
158 176 0
163 183 0
158 176 0
158 176 0
160 178 0
155 172 0
158 175 0
158 175 0
156 173 0
148 164 0
149 165 0
152 168 0
143 159 0
136 151 0
137 152 0
132 146 0
127 141 0
133 147 0
132 146 0
130 144 0
125 139 0
131 144 0
124 136 0
125 137 0
119 131 0
114 126 0
115 126 0
127 139 0
118 130 0
124 137 0
117 129 0
130 142 0
122 134 0
128 140 0
109 120 0
113 124 0
119 130 0
118 129 0
117 127 0
113 123 0
115 125 0
114 126 0
123 135 0
106 116 0
108 119 0
110 121 0
112 123 0
115 125 0
115 126 0
128 139 0
118 129 0
116 128 0
109 121 0
119 131 0
108 119 0
113 125 0
125 139 0
121 133 0
111 124 0
125 138 0
120 133 0
111 123 0
119 132 0
114 128 0
118 132 0
125 140 0
123 137 0
123 137 0
134 148 0
126 141 0
117 132 0
124 139 0
119 134 0
123 139 0
130 144 0
125 142 0
133 148 0
121 136 0
131 147 0
131 149 0
134 151 0
132 148 0
135 152 0
137 153 0
134 150 0
131 148 0
130 148 0
137 155 0
124 142 0
131 149 0
135 153 0
131 148 0
133 150 0
135 153 0
133 150 0
137 155 0
134 153 0
131 149 0
134 152 0
126 143 0
130 147 0
130 148 0
128 147 0
130 149 0
138 156 0
121 138 0
115 134 0
132 151 0
133 152 0
136 154 0
126 145 0
120 138 0
122 141 0
127 147 0
125 145 0
130 151 0
123 141 0
130 150 0
131 151 0
123 143 0
133 153 0
121 141 0
116 136 0
132 151 0
128 147 0
129 148 0
136 155 0
111 130 0
123 141 0
121 140 0
127 146 0
125 144 0
118 137 0
125 145 0
120 137 0
126 144 0
121 139 0
121 141 0
126 146 0
120 138 0
123 142 0
118 137 0
122 141 0
114 132 0
104 123 0
108 127 0
108 126 0
117 135 0
113 131 0
117 136 0
115 133 0
117 137 0
116 134 0
113 132 0
112 130 0
113 130 0
115 132 0
102 119 0
115 132 0
109 128 0
111 128 0
112 132 0
110 128 0
114 132 0
130 147 0
112 129 0
101 118 0
125 143 0
117 135 0
114 131 0
122 140 0
100 116 0
120 138 0
119 137 0
109 126 0
114 132 0
123 139 0
118 134 0
119 137 0
115 133 0
115 133 0
103 118 0
104 118 0
108 126 0
117 134 0
115 132 0
115 131 0
105 121 0
111 128 0
116 133 0
118 133 0
110 126 0
128 145 0
118 134 0
123 138 0
116 131 0
119 136 0
121 138 0
122 141 0
124 142 0
112 128 0
124 141 0
124 139 0
121 137 0
124 140 0
124 137 0
109 124 0
115 131 0
130 145 0
112 130 0
121 137 0
119 137 0
116 133 0
118 133 0
115 129 0
124 140 0
123 139 0
131 147 0
114 128 0
127 145 0
128 143 0
142 160 0
128 141 0
135 153 0
125 139 0
123 139 0
127 142 0
135 151 0
120 135 0
129 143 0
129 143 0
122 135 0
130 145 0
134 148 0
130 143 0
121 135 0
122 132 0
129 143 0
123 135 0
131 143 0
122 134 0
130 145 0
125 137 0
130 141 0
132 146 0
131 144 0
115 123 0
118 130 0
126 135 0
131 140 0
132 141 0
127 137 0
116 125 0
124 134 0
127 135 0
123 132 0
121 127 0
113 120 0
119 127 0
124 130 0
116 125 0
124 132 0
115 121 0
129 137 0
114 118 0
124 131 0
130 135 0
114 119 0
119 125 0
115 118 0
130 134 0
119 120 0
121 124 0
123 128 0
117 119 0
114 115 0
121 121 0
112 112 0
107 106 0
119 117 0
103 102 0
109 107 0
114 114 0
111 110 0
107 106 0
98 96 0
108 106 0
107 105 0
102 99 0
102 99 0
99 96 0
112 106 0
108 103 0
106 100 0
105 101 0
95 90 0
109 101 0
103 98 0
102 95 0
114 111 0
104 96 0
99 96 0
117 114 0
106 101 0
111 104 0
103 98 0
112 108 0
100 97 0
117 116 0
113 109 0
112 109 11
113 108 0
122 117 11
104 98 11
117 115 0
114 110 0
114 109 11
107 106 11
121 119 0
127 127 0
116 113 0
110 104 0
118 118 0
114 113 0
121 120 11
131 129 11
134 137 0
135 135 22
142 148 11
141 143 0
140 144 0
139 145 0
143 148 0
149 157 0
148 152 0
146 153 0
149 154 0
157 167 0
148 152 0
151 156 0
154 163 0
150 160 0
153 163 0
161 173 0
150 159 0
153 164 0
159 171 0
161 174 0
158 168 0
157 169 0
159 172 0
165 178 0
160 174 0
158 171 0
158 173 0
158 171 0
163 180 0
159 171 0
163 178 0
165 179 0
163 177 0
164 178 0
160 176 0
160 174 0
162 177 0
168 185 0
163 178 0
165 181 0
167 183 0
160 179 0
172 193 0
170 192 0
168 190 0
168 189 0
168 190 0
169 190 0
165 187 0
171 192 0
168 189 0
167 187 0
164 185 0
159 179 0
164 184 0
167 187 0
165 185 0
161 182 0
165 185 0
167 187 0
166 186 0
166 186 0
168 187 0
160 179 0
157 176 0
160 178 0
162 181 0
159 177 0
158 177 0
163 181 0
160 179 0
157 175 0
161 180 0
157 175 0
161 179 0
157 174 0
159 177 0
154 171 0
159 175 0
151 167 0
157 174 0
154 172 0
149 166 0
150 165 0
150 166 0
144 159 0
149 165 0
147 162 0
145 161 0
142 156 0
139 154 0
139 153 0
145 160 0
145 159 0
131 145 0
134 147 0
129 142 0
137 150 0
126 139 0
131 144 0
127 139 0
126 139 0
128 140 0
118 130 0
130 142 0
127 138 0
123 135 0
121 133 0
123 135 0
122 133 0
126 137 0
120 132 0
120 132 0
117 129 0
116 127 0
117 129 0
122 133 0
114 125 0
121 132 0
116 128 0
124 136 0
110 122 0
118 131 0
118 130 0
109 121 0
119 132 0
124 138 0
119 132 0
122 135 0
130 143 0
129 143 0
115 128 0
123 137 0
118 131 0
120 134 0
126 140 0
125 139 0
124 139 0
116 130 0
124 139 0
128 144 0
119 135 0
126 141 0
131 146 0
127 142 0
125 141 0
142 159 0
128 143 0
128 144 0
134 152 0
124 140 0
119 135 0
131 147 0
140 157 0
135 152 0
133 150 0
124 140 0
127 144 0
131 147 0
122 139 0
129 147 0
133 150 0
133 152 0
129 148 0
142 161 0
135 152 0
138 156 0
136 154 0
139 157 0
134 152 0
128 145 0
139 158 0
132 150 0
132 152 0
128 147 0
132 150 0
137 156 0
130 148 0
137 157 0
126 145 0
138 157 0
133 151 0
127 146 0
139 158 0
127 147 0
131 151 0
133 153 0
126 145 0
131 151 0
131 151 0
127 147 0
135 155 0
127 145 0
130 149 0
121 140 0
131 151 0
134 154 0
136 155 0
128 147 0
119 138 0
126 145 0
133 152 0
140 160 0
122 142 0
123 142 0
133 153 0
123 142 0
136 157 0
134 153 0
125 144 0
122 141 0
122 141 0
122 139 0
127 146 0
121 138 0
134 154 0
120 138 0
137 155 0
120 139 0
114 132 0
116 135 0
125 144 0
115 133 0
122 141 0
122 141 0
120 137 0
123 141 0
99 117 0
106 123 0
103 122 0
106 125 0
123 142 0
123 142 0
122 140 0
112 130 0
114 132 0
120 138 0
101 120 0
104 121 0
104 122 0
120 138 0
115 133 0
111 128 0
103 121 0
109 126 0
110 126 0
112 129 0
111 128 0
122 141 0
109 128 0
119 137 0
108 125 0
107 124 0
119 136 0
115 131 0
113 130 0
115 133 0
114 131 0
114 130 0
115 132 0
104 121 0
105 121 0
120 135 0
116 133 0
118 134 0
121 138 0
119 135 0
120 136 0
123 141 0
121 137 0
109 125 0
125 142 0
128 146 0
121 137 0
115 133 0
132 148 0
122 136 0
122 139 0
119 136 0
128 144 0
129 146 0
127 141 0
125 143 0
124 140 0
132 148 0
122 139 0
127 144 0
125 141 0
130 145 0
116 131 0
121 135 0
122 137 0
121 136 0
124 139 0
125 140 0
133 147 0
127 144 0
125 138 0
123 139 0
141 157 0
135 149 0
122 136 0
139 155 0
127 141 0
133 147 0
129 141 0
126 138 0
130 143 0
122 135 0
131 145 0
124 136 0
130 144 0
125 137 0
127 140 0
132 145 0
128 139 0
134 146 0
126 137 0
130 141 0
127 136 0
134 146 0
117 127 0
128 139 0
130 140 0
123 133 0
130 143 0
132 146 0
118 126 0
126 135 0
124 133 0
119 126 0
134 143 0
122 133 0
129 138 0
117 121 0
121 126 0
116 120 0
117 122 0
129 136 0
122 128 0
114 117 0
125 130 0
109 111 0
111 111 0
120 122 0
118 121 0
112 112 0
118 119 0
127 129 0
118 120 0
128 131 0
107 108 0
123 123 0
117 117 0
105 107 0
115 116 0
111 107 0
119 117 0
110 111 0
110 108 0
114 115 0
103 103 0
105 103 0
102 101 0
109 103 0
118 114 0
104 100 0
117 114 0
102 96 0
100 93 0
107 101 0
121 117 0
114 112 0
100 95 0
106 101 0
113 108 0
115 112 0
117 112 0
115 113 0
121 117 0
115 113 0
114 107 0
109 104 0
114 108 0
121 116 0
118 113 0
128 127 0
124 124 0
123 122 0
124 125 0
128 127 0
129 127 0
132 131 0
133 135 0
135 136 0
137 138 0
127 128 0
133 136 0
138 141 0
150 155 0
138 138 0
135 141 0
140 143 0
146 150 0
148 152 0
140 144 0
148 154 0
152 163 0
141 146 0
149 154 0
154 161 0
155 160 0
144 153 0
146 154 0
151 160 0
154 165 0
154 165 0
158 169 0
156 167 0
158 167 0
156 167 0
155 167 0
151 160 0
161 173 0
160 172 0
160 172 0
157 170 0
158 171 0
159 174 0
155 169 0
161 174 0
164 178 0
158 172 0
158 172 0
160 176 0
162 176 0
163 178 0
167 183 0
164 178 0
157 170 0
161 179 0
165 183 0
168 189 0
167 188 0
168 189 0
165 186 0
168 188 0
166 188 0
166 187 0
163 183 0
166 188 0
168 189 0
166 187 0
164 184 0
168 188 0
162 182 0
165 186 0
168 188 0
165 184 0
164 183 0
164 183 0
163 183 0
159 178 0
160 179 0
162 181 0
165 184 0
162 182 0
159 177 0
159 178 0
161 179 0
157 175 0
155 173 0
160 179 0
158 176 0
157 174 0
158 175 0
157 174 0
154 171 0
155 171 0
153 170 0
155 172 0
147 163 0
155 172 0
148 163 0
145 160 0
143 159 0
149 165 0
142 156 0
148 162 0
141 155 0
140 155 0
141 155 0
139 153 0
132 145 0
142 156 0
142 156 0
130 144 0
139 153 0
139 152 0
128 141 0
127 140 0
128 140 0
136 149 0
120 131 0
123 135 0
129 142 0
126 139 0
130 142 0
130 143 0
122 133 0
115 126 0
114 126 0
114 126 0
117 128 0
112 123 0
125 138 0
120 133 0
112 124 0
124 137 0
124 137 0
117 128 0
121 134 0
130 143 0
123 135 0
130 143 0
117 130 0
130 144 0
123 137 0
125 138 0
128 142 0
123 137 0
125 139 0
125 140 0
138 153 0
130 144 0
131 146 0
127 143 0
124 139 0
126 142 0
132 146 0
131 146 0
130 147 0
131 147 0
135 151 0
126 142 0
131 146 0
123 140 0
126 142 0
130 147 0
133 151 0
132 149 0
131 148 0
128 145 0
128 144 0
132 150 0
140 158 0
135 152 0
129 146 0
138 156 0
140 158 0
132 149 0
130 148 0
134 152 0
135 154 0
132 150 0
137 155 0
140 160 0
129 146 0
132 150 0
143 162 0
123 141 0
128 145 0
129 147 0
131 148 0
133 151 0
137 157 0
119 138 0
130 150 0
136 154 0
120 139 0
135 154 0
132 151 0
129 148 0
126 145 0
136 156 0
118 137 0
121 139 0
129 148 0
130 150 0
133 152 0
134 154 0
131 150 0
129 148 0
130 147 0
128 148 0
127 145 0
125 145 0
131 151 0
124 142 0
114 132 0
121 140 0
125 144 0
133 152 0
128 146 0
128 147 0
128 148 0
132 151 0
121 139 0
120 140 0
135 156 0
131 151 0
117 136 0
124 143 0
116 136 0
113 131 0
113 133 0
126 143 0
123 143 0
122 141 0
108 127 0
117 135 0
124 143 0
117 136 0
122 141 0
128 146 0
125 143 0
124 144 0
116 135 0
123 142 0
112 129 0
127 146 0
114 132 0
117 136 0
114 131 0
119 138 0
117 136 0
104 121 0
112 130 0
123 141 0
123 141 0
114 131 0
113 130 0
123 140 0
113 130 0
128 147 0
116 133 0
107 125 0
116 133 0
116 133 0
117 134 0
110 127 0
119 135 0
114 130 0
122 137 0
109 125 0
112 128 0
126 145 0
120 138 0
118 134 0
115 132 0
119 135 0
106 123 0
117 135 0
101 117 0
115 132 0
118 136 0
121 138 0
113 130 0
118 136 0
128 146 0
129 147 0
130 147 0
131 150 0
121 138 0
123 139 0
120 137 0
132 149 0
124 141 0
121 136 0
130 146 0
124 140 0
115 132 0
125 140 0
130 147 0
126 144 0
128 145 0
128 143 0
114 128 0
137 154 0
121 138 0
133 148 0
122 139 0
122 138 0
124 139 0
138 155 0
141 159 0
132 148 0
128 144 0
132 147 0
133 146 0
136 152 0
124 139 0
127 141 0
134 147 0
138 155 0
128 144 0
139 153 0
129 144 0
136 150 0
130 143 0
124 139 0
134 146 0
133 148 0
132 146 0
133 146 0
133 148 0
130 144 0
137 148 0
130 142 0
125 133 0
131 142 0
132 145 0
126 137 0
130 139 0
125 135 0
129 138 0
132 142 0
133 139 0
136 146 0
120 128 0
131 139 0
127 137 0
124 134 0
125 133 0
126 131 0
129 139 0
130 135 0
123 128 0
113 118 0
133 140 0
133 140 0
125 132 0
134 140 0
131 135 0
124 128 0
121 125 0
118 120 0
120 121 0
108 108 0
115 120 0
106 105 0
118 117 0
112 112 0
119 122 0
117 117 0
122 125 0
118 117 0
115 114 0
115 116 0
109 110 0
119 118 0
107 107 0
115 113 0
122 121 0
113 109 0
120 117 0
99 96 0
109 104 0
104 100 0
113 110 0
109 106 0
106 100 0
115 114 0
110 105 0
116 112 0
113 109 0
122 122 0
113 109 0
109 104 0
121 119 0
116 111 0
115 110 0
112 107 0
118 114 0
130 128 0
118 114 0
115 112 0
131 132 0
124 121 0
122 119 0
128 125 0
125 121 0
130 127 0
129 127 0
137 140 0
135 138 0
144 144 0
132 135 0
134 136 0
139 142 0
142 146 0
142 146 0
144 148 0
142 147 0
149 153 0
145 146 0
133 136 0
147 154 0
143 149 0
143 150 0
145 153 0
150 157 0
150 157 0
152 159 0
146 155 0
150 158 0
154 163 0
153 163 0
158 170 0
156 167 0
156 167 0
154 163 0
151 160 0
152 161 0
159 173 0
157 169 0
162 176 0
156 170 0
157 169 0
164 177 0
163 177 0
160 176 0
164 178 0
161 175 0
172 188 0
166 180 0
166 181 0
165 183 0
166 180 0
165 182 0
159 173 0
166 184 0
168 190 0
167 189 0
167 188 0
165 186 0
164 186 0
167 188 0
168 189 0
169 189 0
168 189 0
166 186 0
161 180 0
163 183 0
163 183 0
166 186 0
166 186 0
163 183 0
160 179 0
166 186 0
160 180 0
163 182 0
163 183 0
162 181 0
162 181 0
158 177 0
158 177 0
155 173 0
160 178 0
156 174 0
158 176 0
157 175 0
151 169 0
160 177 0
156 174 0
155 172 0
156 173 0
151 167 0
158 175 0
154 171 0
153 170 0
154 170 0
149 165 0
151 167 0
148 163 0
149 165 0
148 163 0
145 160 0
143 157 0
152 168 0
143 158 0
144 158 0
136 149 0
140 154 0
142 157 0
138 151 0
126 139 0
127 139 0
132 145 0
131 144 0
138 152 0
126 138 0
114 126 0
130 142 0
126 139 0
124 136 0
130 143 0
128 141 0
128 140 0
125 138 0
127 140 0
119 131 0
125 138 0
125 138 0
124 137 0
126 139 0
127 140 0
130 143 0
130 143 0
126 139 0
125 138 0
126 140 0
123 137 0
131 145 0
122 135 0
126 139 0
124 138 0
135 149 0
127 141 0
122 136 0
132 148 0
127 141 0
136 151 0
131 146 0
130 146 0
123 139 0
137 154 0
134 150 0
136 153 0
138 155 0
138 154 0
128 144 0
132 149 0
133 149 0
135 153 0
124 141 0
121 137 0
132 149 0
140 157 0
136 153 0
139 157 0
133 150 0
129 146 0
144 162 0
126 144 0
138 156 0
135 152 0
130 148 0
130 148 0
136 153 0
129 146 0
132 149 0
146 165 0
138 157 0
139 157 0
128 146 0
134 153 0
132 152 0
134 153 0
153 173 0
139 158 0
131 150 0
132 152 0
130 149 0
129 148 0
140 160 0
138 157 0
138 159 0
139 159 0
134 153 0
133 153 0
138 159 0
137 157 0
137 156 0
132 151 0
136 156 0
139 159 0
133 152 0
140 159 0
134 154 0
129 148 0
124 144 0
137 157 0
129 148 0
133 153 0
135 155 0
127 146 0
135 155 0
136 156 0
118 136 0
138 158 0
128 147 0
128 148 0
126 144 0
125 143 0
132 153 0
120 139 0
124 145 0
133 152 0
121 141 0
123 143 0
128 147 0
130 149 0
110 129 0
118 137 0
134 153 0
120 138 0
119 137 0
117 136 0
116 134 0
126 145 0
113 130 0
123 144 0
118 136 0
129 148 0
122 140 0
109 126 0
115 134 0
126 146 0
124 144 0
124 143 0
116 133 0
123 141 0
120 138 0
116 133 0
117 135 0
118 136 0
122 140 0
125 144 0
119 138 0
113 130 0
117 134 0
123 142 0
120 138 0
119 137 0
122 140 0
115 133 0
119 135 0
105 123 0
123 141 0
118 136 0
112 129 0
122 139 0
116 132 0
112 130 0
121 138 0
121 138 0
117 135 0
128 146 0
113 132 0
116 134 0
121 137 0
108 125 0
115 132 0
127 146 0
113 130 0
118 136 0
127 143 0
131 149 0
117 133 0
131 149 0
126 142 0
130 146 0
137 154 0
128 145 0
111 127 0
122 137 0
130 146 0
126 141 0
119 136 0
122 139 0
120 138 0
123 139 0
129 145 0
126 142 0
119 138 0
116 132 0
125 141 0
111 126 0
127 143 0
132 151 0
121 136 0
119 135 0
139 154 0
134 149 0
136 152 0
131 147 0
136 153 0
131 148 0
119 134 0
132 147 0
119 131 0
130 145 0
124 136 0
133 148 0
127 142 0
128 142 0
131 146 0
137 150 0
124 138 0
128 142 0
133 148 0
143 158 0
130 143 0
129 142 0
136 149 0
129 140 0
130 143 0
126 138 0
129 139 0
131 146 0
132 142 0
123 133 0
134 148 0
127 139 0
133 146 0
124 136 0
129 141 0
125 133 0
128 138 0
133 143 0
134 145 0
125 134 0
125 133 0
129 138 0
133 143 0
132 140 0
119 127 0
127 131 0
130 139 0
129 139 0
129 136 0
127 133 0
118 122 0
120 125 0
133 140 0
117 122 0
125 128 0
115 120 0
117 116 0
129 133 0
127 132 0
128 132 0
118 122 0
118 119 0
115 113 0
123 124 0
115 115 0
123 127 0
124 123 0
120 121 0
112 113 0
129 129 0
118 118 0
114 113 0
120 119 0
125 124 0
121 121 0
118 116 0
109 103 0
102 101 0
114 112 0
116 112 0
119 114 0
114 110 0
127 128 0
106 106 0
119 116 0
112 107 0
118 117 0
119 116 0
111 107 0
117 115 0
128 126 0
126 124 0
129 128 0
119 116 0
126 126 0
133 131 0
117 118 0
120 118 0
130 130 0
129 128 0
129 131 0
130 128 0
139 140 0
122 120 0
135 137 0
132 136 0
136 140 0
134 136 0
142 144 0
138 138 0
135 139 0
148 155 0
150 158 0
148 155 0
150 159 0
142 145 0
147 153 0
151 158 0
149 155 0
150 156 0
156 165 0
153 161 0
156 166 0
149 155 0
145 153 0
156 164 0
160 170 0
149 158 0
159 168 0
165 174 0
156 167 0
161 172 0
153 161 0
158 167 0
150 160 0
152 162 0
160 173 0
164 176 0
162 178 0
161 177 0
164 179 0
162 177 0
159 169 0
160 173 0
164 179 0
162 176 0
164 178 0
161 178 0
162 175 0
168 189 0
166 187 0
165 186 0
166 187 0
169 189 0
167 188 0
163 183 0
166 186 0
165 186 0
164 184 0
164 185 0
167 187 0
163 184 0
164 183 0
162 181 0
161 179 0
163 183 0
162 182 0
157 176 0
168 187 0
158 177 0
157 176 0
156 175 0
158 177 0
161 179 0
159 177 0
159 178 0
155 173 0
160 178 0
156 174 0
153 170 0
155 173 0
154 171 0
155 172 0
157 173 0
150 166 0
151 167 0
153 169 0
149 165 0
146 162 0
144 159 0
149 164 0
140 155 0
139 154 0
141 157 0
142 156 0
143 158 0
143 158 0
142 156 0
134 147 0
143 157 0
141 156 0
141 156 0
138 151 0
131 145 0
134 148 0
137 151 0
136 150 0
124 136 0
127 140 0
134 147 0
126 139 0
133 146 0
135 150 0
129 142 0
125 137 0
127 140 0
131 145 0
135 148 0
134 147 0
133 147 0
124 137 0
125 138 0
134 148 0
123 136 0
129 143 0
130 144 0
133 147 0
128 141 0
129 143 0
136 150 0
130 144 0
135 150 0
134 149 0
135 151 0
136 151 0
129 144 0
130 144 0
137 152 0
135 150 0
129 144 0
134 150 0
135 152 0
133 150 0
143 161 0
135 152 0
137 155 0
139 155 0
135 151 0
138 154 0
130 145 0
133 150 0
137 154 0
141 157 0
128 144 0
133 151 0
128 144 0
134 151 0
140 157 0
131 148 0
128 146 0
131 149 0
132 150 0
124 142 0
139 157 0
135 154 0
129 147 0
134 153 0
137 155 0
135 155 0
148 166 0
140 159 0
137 156 0
128 146 0
124 143 0
136 155 0
137 157 0
126 143 0
131 150 0
130 149 0
133 152 0
137 155 0
130 149 0
131 150 0
143 162 0
137 157 0
130 150 0
127 147 0
137 156 0
139 159 0
137 156 0
131 149 0
138 158 0
136 155 0
137 155 0
134 154 0
125 144 0
141 161 0
134 153 0
136 157 0
133 153 0
128 147 0
129 148 0
138 157 0
131 151 0
139 159 0
129 148 0
127 148 0
119 140 0
139 159 0
131 150 0
136 157 0
120 139 0
126 145 0
132 151 0
136 156 0
117 137 0
136 155 0
132 152 0
129 148 0
119 138 0
124 143 0
130 148 0
134 153 0
123 142 0
114 133 0
127 147 0
123 143 0
123 142 0
126 145 0
128 146 0
117 135 0
135 155 0
116 135 0
120 138 0
122 140 0
125 144 0
132 152 0
123 143 0
124 143 0
119 139 0
127 145 0
127 146 0
100 118 0
117 136 0
113 133 0
135 154 0
109 127 0
122 141 0
125 144 0
126 146 0
122 141 0
120 138 0
119 136 0
123 142 0
122 140 0
122 140 0
123 142 0
127 146 0
123 142 0
128 147 0
117 135 0
121 138 0
123 141 0
122 142 0
118 134 0
122 141 0
119 137 0
125 141 0
124 141 0
122 139 0
118 136 0
119 135 0
123 141 0
126 145 0
123 141 0
129 148 0
124 141 0
133 152 0
113 131 0
125 143 0
126 142 0
130 145 0
126 142 0
129 146 0
125 142 0
126 141 0
131 147 0
131 148 0
124 142 0
121 138 0
131 148 0
121 139 0
129 147 0
133 148 0
124 140 0
121 138 0
132 149 0
132 149 0
128 143 0
132 148 0
128 144 0
129 144 0
127 143 0
132 145 0
133 147 0
126 143 0
130 144 0
133 149 0
129 144 0
135 151 0
141 157 0
132 147 0
117 130 0
132 148 0
134 151 0
129 145 0
132 147 0
123 136 0
135 149 0
129 143 0
134 148 0
139 155 0
126 141 0
134 147 0
129 142 0
133 147 0
134 147 0
131 144 0
132 146 0
133 144 0
138 150 0
133 144 0
135 146 0
130 141 0
140 155 0
129 139 0
129 140 0
131 142 0
124 132 0
129 138 0
132 141 0
138 150 0
126 136 0
135 145 0
143 153 0
120 128 0
125 133 0
134 142 0
127 130 0
123 132 0
123 127 0
129 136 0
130 139 0
125 131 0
113 118 0
120 127 0
124 126 0
128 133 0
118 122 0
111 115 0
118 123 0
132 132 0
116 120 0
124 127 0
126 129 0
129 131 0
123 124 0
116 119 0
121 123 0
109 111 0
118 114 0
115 114 0
123 123 0
105 103 0
120 120 0
117 115 0
114 114 0
117 113 0
116 114 0
121 121 0
118 115 0
114 111 0
112 110 0
117 115 0
133 132 0
126 123 0
120 116 0
130 129 0
121 118 0
122 117 0
132 131 0
126 122 0
124 123 0
125 122 0
126 126 0
130 127 0
129 127 0
135 137 0
126 127 0
129 129 0
131 133 0
134 132 0
139 139 0
137 138 0
141 144 0
126 124 0
130 129 0
145 149 0
134 137 0
134 132 0
136 138 0
140 144 0
141 146 0
140 145 0
142 147 0
142 146 0
145 149 0
150 157 0
144 148 0
144 146 0
150 157 0
152 160 0
145 153 0
157 164 0
145 153 0
149 157 0
156 167 0
155 164 0
155 164 0
160 170 0
148 157 0
154 162 0
156 164 0
162 174 0
152 161 0
156 167 0
162 179 0
163 176 0
159 173 0
158 170 0
159 171 0
159 171 0
158 171 0
159 174 0
164 179 0
160 173 0
166 182 0
160 174 0
158 171 0
168 189 0
165 187 0
165 187 0
168 188 0
168 188 0
163 184 0
163 183 0
165 185 0
165 185 0
165 186 0
164 185 0
165 185 0
165 185 0
160 180 0
159 179 0
162 181 0
161 180 0
160 179 0
160 178 0
158 178 0
154 172 0
158 176 0
160 177 0
159 178 0
152 169 0
154 171 0
151 168 0
156 174 0
157 175 0
148 165 0
152 169 0
150 167 0
150 167 0
151 167 0
151 168 0
155 172 0
151 167 0
155 172 0
146 162 0
150 166 0
150 166 0
143 158 0
145 160 0
147 163 0
148 165 0
146 162 0
138 153 0
147 162 0
139 153 0
129 142 0
147 161 0
141 154 0
139 153 0
141 155 0
146 160 0
135 148 0
135 149 0
132 146 0
138 151 0
137 151 0
124 136 0
130 143 0
130 143 0
133 147 0
134 147 0
124 136 0
141 155 0
124 137 0
131 144 0
126 139 0
132 146 0
132 147 0
122 136 0
136 150 0
136 151 0
142 158 0
125 140 0
136 151 0
124 137 0
141 156 0
132 146 0
139 155 0
132 148 0
129 145 0
141 157 0
134 149 0
132 147 0
134 148 0
139 156 0
136 153 0
138 155 0
137 153 0
128 144 0
133 149 0
135 152 0
129 145 0
133 149 0
140 157 0
116 132 0
134 152 0
138 157 0
132 150 0
130 147 0
142 160 0
141 158 0
138 156 0
140 159 0
133 153 0
133 151 0
134 153 0
136 153 0
139 156 0
139 159 0
140 159 0
136 155 0
146 165 0
131 149 0
138 158 0
140 159 0
142 161 0
141 160 0
147 167 0
141 160 0
128 146 0
125 144 0
137 156 0
139 158 0
135 154 0
139 158 0
136 157 0
139 158 0
139 159 0
133 153 0
137 157 0
133 152 0
135 155 0
133 153 0
135 155 0
125 144 0
137 157 0
132 152 0
129 148 0
131 151 0
131 150 0
140 161 0
137 156 0
133 153 0
131 152 0
128 147 0
137 158 0
133 153 0
133 153 0
129 150 0
131 150 0
132 151 0
130 149 0
127 149 0
130 149 0
129 149 0
125 144 0
129 148 0
127 146 0
130 150 0
122 142 0
134 154 0
129 148 0
128 148 0
123 143 0
126 145 0
138 158 0
139 159 0
119 138 0
115 133 0
124 145 0
133 153 0
127 146 0
135 153 0
107 126 0
125 145 0
126 147 0
122 141 0
128 147 0
129 148 0
123 143 0
123 141 0
127 146 0
130 149 0
131 150 0
125 144 0
135 155 0
134 152 0
130 150 0
135 154 0
124 143 0
115 133 0
125 143 0
126 145 0
132 151 0
128 145 0
126 145 0
128 148 0
123 143 0
117 135 0
114 132 0
130 148 0
121 138 0
131 150 0
109 128 0
130 150 0
128 147 0
127 145 0
132 150 0
111 127 0
138 157 0
118 138 0
121 141 0
123 141 0
119 138 0
128 147 0
118 134 0
122 140 0
123 139 0
124 142 0
122 139 0
132 150 0
128 146 0
113 132 0
128 146 0
127 146 0
131 151 0
110 129 0
129 147 0
118 136 0
119 135 0
128 146 0
135 151 0
136 154 0
136 153 0
127 144 0
119 135 0
135 152 0
123 140 0
131 148 0
124 139 0
131 145 0
131 149 0
131 148 0
130 145 0
125 140 0
139 156 0
130 146 0
126 142 0
140 157 0
135 151 0
124 140 0
122 139 0
125 143 0
136 153 0
132 147 0
130 149 0
128 142 0
137 155 0
135 151 0
132 149 0
132 146 0
127 145 0
133 149 0
128 144 0
132 146 0
135 149 0
129 143 0
132 147 0
135 147 0
137 152 0
132 147 0
125 136 0
126 141 0
124 137 0
128 141 0
136 150 0
133 146 0
126 138 0
130 141 0
125 136 0
129 142 0
131 141 0
133 147 0
138 150 0
135 145 0
128 136 0
116 125 0
129 139 0
132 143 0
133 144 0
126 136 0
121 130 0
116 125 0
134 143 0
127 134 0
125 131 0
129 136 0
117 122 0
132 138 0
134 139 0
136 142 0
130 137 0
125 132 0
123 128 0
129 134 0
129 136 0
125 128 0
124 128 0
120 125 0
126 130 0
123 125 0
132 136 0
124 126 0
119 120 0
123 126 0
125 128 0
118 115 0
129 130 0
127 128 0
128 128 0
120 122 0
125 122 0
127 127 0
134 136 0
125 125 0
115 115 0
125 127 0
128 128 0
130 130 0
122 124 0
128 128 0
123 121 0
121 118 0
113 111 0
116 114 0
128 128 0
121 121 0
122 118 0
129 131 0
123 121 0
135 135 0
127 126 0
126 128 0
127 127 0
121 119 0
121 117 0
137 139 0
130 131 0
133 133 0
131 132 0
124 124 0
134 134 0
131 130 0
132 135 0
136 140 0
142 146 0
136 136 0
138 142 0
142 144 0
138 141 0
144 149 0
140 145 0
145 152 0
149 152 0
140 143 0
150 157 0
136 138 0
143 150 0
148 155 0
145 151 0
152 159 0
147 154 0
147 154 0
154 163 0
150 157 0
156 163 0
154 163 0
152 159 0
159 172 0
155 167 0
155 165 0
159 169 0
157 170 0
155 165 0
150 160 0
161 173 0
160 173 0
158 169 0
164 178 0
163 176 0
156 168 0
158 170 0
164 179 0
165 179 0
163 177 0
163 175 0
167 187 0
160 181 0
164 185 0
164 184 0
169 189 0
159 179 0
163 183 0
161 181 0
163 183 0
163 182 0
164 184 0
159 178 0
159 178 0
161 180 0
161 180 0
161 179 0
157 176 0
158 176 0
160 180 0
159 177 0
163 182 0
157 176 0
159 178 0
160 179 0
158 176 0
156 174 0
158 176 0
151 168 0
152 169 0
157 174 0
154 170 0
153 170 0
151 168 0
156 172 0
145 161 0
153 170 0
149 165 0
149 166 0
144 160 0
146 162 0
150 166 0
150 166 0
146 161 0
143 159 0
145 160 0
142 157 0
135 149 0
136 150 0
145 159 0
143 158 0
145 160 0
136 150 0
144 159 0
132 146 0
141 156 0
141 155 0
141 156 0
133 147 0
140 154 0
135 150 0
128 142 0
140 154 0
128 142 0
145 160 0
136 150 0
127 140 0
134 148 0
137 152 0
144 160 0
133 148 0
137 151 0
125 139 0
133 148 0
129 142 0
134 149 0
138 153 0
128 143 0
134 148 0
137 153 0
135 150 0
138 154 0
134 149 0
137 153 0
137 154 0
141 158 0
138 154 0
132 148 0
134 150 0
141 157 0
131 147 0
136 152 0
137 153 0
138 155 0
135 150 0
137 154 0
142 161 0
142 159 0
134 150 0
133 149 0
135 153 0
137 155 0
140 158 0
134 152 0
139 158 0
147 165 0
136 154 0
129 146 0
138 156 0
137 156 0
134 154 0
139 158 0
140 159 0
135 153 0
131 149 0
131 148 0
142 161 0
141 159 0
134 152 0
137 156 0
128 146 0
133 152 0
126 145 0
142 161 0
128 148 0
138 156 0
139 157 0
142 162 0
141 161 0
138 158 0
136 155 0
136 155 0
145 165 0
135 154 0
141 162 0
134 153 0
130 150 0
137 157 0
143 162 0
137 156 0
143 163 0
129 148 0
134 154 0
128 148 0
136 156 0
133 153 0
135 155 0
132 152 0
136 156 0
141 161 0
134 155 0
141 161 0
126 146 0
137 158 0
131 152 0
134 154 0
129 148 0
125 143 0
136 155 0
127 146 0
135 155 0
129 149 0
130 150 0
131 152 0
116 136 0
126 145 0
130 150 0
130 151 0
143 164 0
130 149 0
128 148 0
122 140 0
128 147 0
128 148 0
133 152 0
131 150 0
122 141 0
115 135 0
122 141 0
116 136 0
132 151 0
128 148 0
126 147 0
122 143 0
128 147 0
118 137 0
121 141 0
124 143 0
118 137 0
112 133 0
127 145 0
118 137 0
124 143 0
130 149 0
123 143 0
127 145 0
122 141 0
126 147 0
130 150 0
130 148 0
114 133 0
118 136 0
121 137 0
133 152 0
126 143 0
119 138 0
134 154 0
132 150 0
121 138 0
123 142 0
136 155 0
119 138 0
128 147 0
132 151 0
122 141 0
113 132 0
128 145 0
113 130 0
133 153 0
120 139 0
133 151 0
126 142 0
129 148 0
125 146 0
118 136 0
132 151 0
133 150 0
119 138 0
121 138 0
118 136 0
126 144 0
130 148 0
131 148 0
129 146 0
128 144 0
127 145 0
125 141 0
125 143 0
123 139 0
130 146 0
131 149 0
136 154 0
125 142 0
127 144 0
142 159 0
129 144 0
127 144 0
133 149 0
133 152 0
134 153 0
133 150 0
127 144 0
130 149 0
124 140 0
133 150 0
135 152 0
129 145 0
128 142 0
136 153 0
134 148 0
127 142 0
132 149 0
136 154 0
127 141 0
138 154 0
133 147 0
128 142 0
135 152 0
127 143 0
132 146 0
138 153 0
131 145 0
138 155 0
133 148 0
127 141 0
124 138 0
126 138 0
132 145 0
135 150 0
137 152 0
137 148 0
136 149 0
137 150 0
131 145 0
126 137 0
123 135 0
131 144 0
127 136 0
131 142 0
134 146 0
130 142 0
131 142 0
134 145 0
128 140 0
137 148 0
121 131 0
132 140 0
124 133 0
132 141 0
130 136 0
125 136 0
123 132 0
125 131 0
118 126 0
132 143 0
127 133 0
135 143 0
129 137 0
136 144 0
130 136 0
132 141 0
131 135 0
125 129 0
127 131 0
124 131 0
123 124 0
128 132 0
121 124 0
134 137 0
117 122 0
129 134 0
129 135 0
127 132 0
123 127 0
127 129 0
134 137 0
123 124 0
113 112 0
128 129 0
123 123 0
115 113 0
123 123 0
128 128 0
116 115 0
122 121 0
132 129 0
128 127 0
117 115 0
119 120 0
123 124 0
126 123 0
119 118 0
126 125 0
124 123 0
120 120 0
122 122 0
130 131 0
132 132 0
132 131 0
135 136 0
131 133 0
129 128 0
130 127 0
130 130 0
133 132 0
138 139 0
132 134 0
134 135 0
139 141 0
138 140 0
143 148 0
134 136 0
140 142 0
139 141 0
139 141 0
142 148 0
137 141 0
145 150 0
147 153 0
143 142 0
147 152 0
144 150 0
148 154 0
150 156 0
146 150 0
145 151 0
147 155 0
147 154 0
150 158 0
152 161 0
156 164 0
155 164 0
156 165 0
156 165 0
152 163 0
152 160 0
155 165 0
160 170 0
152 164 0
161 174 0
153 164 0
154 162 0
153 166 0
160 172 0
149 160 0
161 172 0
156 168 0
160 174 0
160 173 0
161 176 0
157 169 0
165 186 0
164 184 0
161 181 0
161 182 0
163 184 0
162 182 0
166 186 0
165 185 0
164 183 0
159 178 0
165 185 0
166 185 0
161 180 0
161 180 0
162 180 0
163 181 0
162 181 0
164 183 0
160 179 0
159 178 0
156 174 0
158 176 0
160 178 0
157 174 0
162 180 0
158 176 0
155 172 0
153 171 0
155 171 0
150 166 0
152 169 0
156 173 0
153 170 0
152 168 0
157 174 0
153 169 0
148 163 0
153 169 0
146 162 0
144 160 0
150 167 0
142 157 0
144 160 0
146 162 0
142 157 0
142 156 0
140 155 0
148 164 0
134 148 0
137 151 0
137 151 0
142 156 0
139 154 0
143 158 0
131 145 0
131 145 0
130 144 0
142 156 0
132 146 0
128 142 0
137 152 0
132 146 0
137 152 0
137 151 0
133 147 0
132 146 0
136 152 0
140 154 0
134 149 0
128 142 0
135 150 0
137 152 0
136 151 0
141 156 0
142 157 0
127 141 0
134 150 0
141 156 0
138 153 0
134 150 0
143 158 0
138 154 0
125 140 0
139 155 0
144 160 0
136 152 0
132 148 0
133 150 0
136 152 0
139 155 0
138 154 0
142 159 0
139 155 0
132 149 0
133 151 0
141 159 0
134 151 0
138 155 0
139 156 0
128 145 0
127 144 0
140 159 0
144 161 0
136 153 0
137 155 0
141 160 0
135 152 0
141 160 0
141 160 0
140 159 0
138 157 0
133 151 0
133 150 0
143 162 0
137 156 0
145 165 0
135 154 0
138 157 0
141 159 0
134 154 0
143 161 0
141 161 0
130 149 0
141 161 0
141 160 0
132 151 0
142 162 0
144 163 0
128 146 0
143 164 0
141 160 0
140 160 0
134 154 0
134 154 0
136 157 0
140 160 0
132 151 0
142 161 0
138 159 0
137 156 0
143 162 0
140 161 0
141 161 0
132 151 0
137 157 0
137 157 0
131 151 0
136 157 0
144 164 0
138 158 0
134 153 0
129 148 0
135 155 0
126 145 0
131 151 0
134 153 0
141 161 0
141 160 0
133 153 0
126 146 0
128 148 0
129 148 0
131 150 0
134 154 0
137 157 0
132 153 0
120 141 0
132 151 0
138 158 0
129 148 0
134 154 0
129 148 0
126 146 0
128 147 0
124 144 0
142 163 0
129 148 0
136 155 0
127 147 0
124 143 0
124 143 0
130 150 0
129 149 0
128 147 0
134 153 0
122 142 0
129 148 0
128 148 0
114 134 0
126 145 0
128 147 0
116 136 0
131 150 0
123 143 0
127 146 0
129 149 0
130 151 0
130 148 0
132 152 0
128 147 0
113 131 0
128 148 0
116 135 0
119 137 0
129 148 0
116 135 0
131 150 0
124 143 0
123 143 0
118 135 0
122 140 0
120 140 0
134 153 0
121 140 0
124 143 0
122 141 0
130 147 0
117 135 0
129 147 0
124 144 0
128 147 0
133 151 0
125 143 0
130 148 0
133 152 0
123 140 0
119 136 0
123 141 0
146 164 0
133 152 0
123 140 0
132 150 0
135 151 0
122 139 0
122 138 0
130 149 0
128 148 0
130 147 0
129 145 0
135 151 0
129 145 0
133 151 0
130 148 0
123 142 0
126 142 0
133 152 0
128 143 0
127 145 0
130 148 0
137 154 0
142 161 0
136 154 0
138 155 0
127 144 0
126 142 0
140 157 0
140 158 0
132 149 0
125 141 0
131 148 0
131 147 0
138 156 0
132 149 0
134 151 0
133 149 0
140 157 0
132 149 0
136 152 0
144 160 0
138 155 0
133 146 0
136 151 0
134 148 0
131 144 0
133 147 0
130 145 0
131 147 0
135 149 0
125 136 0
139 150 0
132 143 0
130 142 0
131 143 0
139 153 0
132 145 0
131 142 0
139 153 0
131 142 0
134 146 0
123 133 0
129 140 0
136 150 0
129 139 0
131 144 0
131 142 0
134 145 0
135 144 0
146 156 0
133 140 0
137 145 0
123 133 0
130 139 0
125 134 0
122 130 0
136 142 0
132 140 0
127 131 0
119 124 0
125 129 0
125 135 0
137 144 0
132 139 0
125 131 0
125 133 0
132 137 0
136 139 0
123 129 0
131 136 0
130 134 0
133 136 0
136 144 0
122 127 0
136 139 0
122 122 0
137 140 0
127 129 0
126 129 0
126 129 0
119 119 0
132 133 0
128 129 0
130 134 0
129 130 0
126 127 0
124 124 0
124 121 0
131 131 0
132 133 0
129 130 0
131 131 0
129 131 0
131 132 0
122 122 0
132 133 0
122 122 0
125 125 0
123 122 0
125 127 0
127 124 0
132 134 0
137 139 0
135 139 0
127 126 0
132 134 0
133 132 0
140 141 0
137 134 0
136 135 0
140 144 0
141 144 0
140 142 0
138 141 0
145 152 0
146 150 0
143 146 0
140 141 0
146 151 0
143 149 0
138 141 0
143 146 0
146 153 0
154 161 0
144 149 0
156 164 0
145 151 0
148 155 0
145 151 0
155 166 0
148 156 0
149 157 0
155 162 0
158 168 0
153 164 0
144 154 0
151 159 0
146 154 0
156 167 0
156 165 0
162 173 0
158 170 0
158 168 0
153 165 0
157 167 0
160 172 0
161 172 0
164 179 0
160 172 0
161 175 0
161 175 0
161 172 0
166 187 0
164 184 0
162 182 0
163 182 0
163 183 0
166 186 0
165 184 0
161 181 0
159 178 0
156 175 0
161 181 0
159 177 0
155 174 0
162 181 0
162 180 0
160 178 0
154 172 0
163 182 0
160 179 0
164 182 0
156 174 0
157 175 0
152 171 0
153 170 0
161 178 0
160 177 0
155 172 0
150 168 0
152 169 0
155 172 0
155 171 0
153 169 0
157 173 0
147 163 0
153 169 0
146 162 0
148 164 0
152 167 0
137 152 0
145 160 0
152 168 0
145 160 0
143 159 0
146 161 0
135 149 0
142 156 0
139 154 0
141 156 0
139 154 0
142 157 0
135 149 0
140 154 0
143 158 0
131 145 0
134 148 0
141 157 0
130 144 0
140 155 0
140 156 0
144 160 0
133 148 0
143 159 0
138 153 0
142 156 0
138 153 0
141 157 0
145 160 0
135 151 0
126 140 0
139 153 0
135 151 0
137 152 0
130 145 0
135 150 0
133 148 0
140 155 0
139 156 0
138 154 0
143 159 0
139 155 0
132 148 0
130 146 0
133 150 0
134 150 0
138 154 0
147 164 0
137 153 0
137 153 0
146 162 0
136 154 0
130 147 0
139 156 0
138 156 0
139 156 0
148 166 0
140 157 0
145 164 0
135 151 0
137 154 0
137 154 0
136 154 0
139 156 0
142 161 0
144 162 0
142 161 0
141 159 0
138 157 0
137 156 0
136 155 0
138 157 0
137 154 0
135 155 0
144 163 0
138 157 0
143 162 0
134 152 0
126 144 0
137 157 0
137 156 0
140 160 0
140 160 0
137 155 0
140 160 0
134 153 0
140 159 0
138 158 0
136 155 0
143 163 0
140 160 0
132 151 0
133 153 0
134 154 0
132 150 0
144 165 0
138 158 0
143 163 0
149 169 0
138 157 0
124 143 0
145 165 0
135 154 0
137 158 0
141 160 0
130 150 0
139 159 0
129 148 0
134 154 0
131 150 0
131 150 0
137 157 0
132 153 0
137 157 0
130 151 0
126 145 0
142 163 0
139 159 0
134 153 0
131 151 0
131 150 0
134 153 0
134 155 0
128 148 0
131 152 0
137 158 0
129 151 0
129 150 0
129 149 0
142 163 0
131 150 0
132 152 0
133 153 0
134 155 0
132 151 0
126 144 0
126 147 0
133 152 0
122 141 0
128 149 0
127 147 0
129 148 0
133 152 0
127 147 0
137 157 0
121 140 0
127 146 0
136 157 0
131 150 0
129 148 0
133 153 0
133 154 0
130 151 0
126 146 0
122 141 0
127 146 0
136 156 0
119 138 0
122 141 0
121 139 0
119 138 0
121 139 0
133 152 0
123 140 0
137 157 0
120 137 0
126 145 0
138 158 0
126 146 0
129 148 0
118 138 0
124 141 0
133 153 0
129 148 0
134 152 0
134 150 0
127 146 0
141 161 0
124 142 0
130 150 0
126 145 0
123 142 0
132 149 0
121 139 0
136 155 0
136 152 0
139 157 0
140 158 0
127 146 0
126 145 0
126 144 0
126 143 0
128 144 0
117 134 0
127 145 0
125 143 0
136 155 0
132 152 0
134 151 0
121 138 0
126 143 0
136 154 0
137 154 0
132 148 0
126 144 0
130 148 0
133 152 0
130 147 0
139 156 0
147 166 0
134 152 0
129 148 0
135 152 0
126 143 0
137 156 0
139 158 0
137 154 0
129 145 0
127 142 0
131 147 0
123 141 0
134 149 0
135 153 0
126 141 0
137 153 0
134 153 0
142 159 0
133 149 0
143 160 0
124 140 0
140 157 0
132 147 0
145 159 0
126 142 0
136 151 0
132 147 0
141 155 0
125 140 0
133 148 0
133 148 0
133 147 0
141 156 0
129 139 0
132 147 0
130 147 0
138 152 0
139 154 0
132 148 0
133 147 0
123 135 0
141 156 0
131 142 0
142 154 0
130 141 0
134 145 0
128 139 0
136 148 0
137 147 0
135 143 0
127 135 0
134 145 0
136 147 0
135 144 0
137 148 0
130 138 0
134 143 0
127 134 0
128 138 0
135 143 0
130 139 0
125 131 0
139 148 0
134 141 0
128 135 0
140 147 0
144 152 0
133 141 0
133 138 0
130 138 0
132 138 0
141 147 0
138 142 0
126 129 0
125 129 0
133 138 0
133 137 0
130 133 0
133 137 0
125 129 0
115 114 0
129 132 0
115 118 0
118 122 0
134 136 0
133 136 0
125 129 0
143 146 0
129 130 0
134 138 0
127 129 0
127 128 0
134 136 0
136 140 0
118 118 0
128 131 0
136 139 0
117 115 0
132 135 0
142 142 0
132 135 0
135 137 0
139 142 0
130 131 0
140 141 0
127 128 0
140 142 0
139 143 0
139 144 0
141 143 0
140 142 0
137 141 0
140 144 0
130 131 0
135 138 0
135 135 0
145 146 0
143 150 0
139 146 0
140 145 0
141 144 0
153 160 0
146 152 0
135 136 0
147 151 0
138 142 0
145 151 0
146 153 0
151 157 0
143 148 0
141 149 0
146 153 0
159 168 0
156 167 0
151 158 0
148 156 0
155 164 0
159 171 0
155 162 0
156 166 0
156 165 0
153 162 0
157 169 0
160 173 0
157 171 0
156 167 0
159 172 0
155 167 0
157 167 0
164 176 0
159 171 0
157 167 0
160 175 0
165 186 0
165 185 0
162 182 0
167 186 0
164 185 0
163 184 0
164 184 0
157 177 0
162 182 0
165 185 0
161 180 0
163 182 0
159 179 0
161 179 0
160 180 0
163 182 0
153 172 0
153 171 0
154 173 0
148 165 0
162 180 0
159 177 0
153 172 0
157 175 0
151 169 0
153 171 0
150 167 0
158 175 0
150 166 0
149 165 0
156 173 0
151 168 0
151 168 0
150 166 0
153 170 0
148 164 0
155 170 0
150 166 0
148 164 0
149 166 0
142 159 0
146 161 0
148 165 0
144 159 0
146 162 0
144 159 0
137 152 0
140 155 0
144 160 0
142 157 0
140 155 0
143 157 0
146 161 0
141 156 0
141 155 0
142 157 0
138 152 0
135 150 0
143 158 0
142 157 0
141 157 0
146 161 0
138 153 0
142 157 0
140 155 0
141 156 0
142 157 0
142 158 0
136 151 0
139 155 0
140 155 0
150 167 0
135 151 0
138 153 0
142 158 0
137 153 0
142 158 0
135 151 0
143 159 0
144 161 0
140 158 0
138 154 0
141 158 0
140 157 0
142 159 0
134 151 0
145 163 0
139 156 0
141 158 0
136 153 0
137 154 0
130 146 0
136 155 0
134 150 0
135 152 0
142 159 0
146 164 0
142 161 0
145 164 0
137 154 0
137 155 0
147 165 0
134 152 0
140 159 0
136 155 0
139 158 0
141 160 0
138 157 0
136 154 0
135 154 0
140 158 0
145 162 0
146 164 0
140 160 0
144 164 0
135 154 0
141 160 0
133 152 0
137 157 0
141 160 0
147 167 0
145 165 0
134 154 0
137 155 0
137 157 0
139 159 0
133 152 0
132 152 0
145 164 0
135 156 0
143 163 0
139 158 0
142 163 0
147 167 0
135 155 0
142 163 0
141 161 0
142 163 0
143 162 0
135 155 0
139 159 0
135 155 0
131 151 0
138 158 0
145 165 0
135 155 0
143 164 0
135 156 0
145 165 0
139 161 0
139 160 0
145 165 0
144 164 0
135 154 0
135 154 0
138 160 0
132 152 0
134 155 0
136 155 0
128 147 0
139 158 0
128 147 0
137 157 0
138 158 0
130 150 0
134 154 0
129 149 0
126 148 0
139 160 0
130 150 0
134 154 0
132 152 0
135 154 0
139 159 0
132 153 0
118 137 0
129 149 0
136 157 0
132 152 0
132 151 0
130 149 0
129 149 0
135 155 0
129 149 0
125 144 0
128 148 0
129 149 0
131 151 0
133 153 0
130 149 0
142 162 0
122 143 0
121 139 0
130 150 0
134 154 0
133 152 0
119 137 0
118 137 0
124 142 0
130 151 0
115 134 0
125 144 0
119 138 0
126 145 0
128 147 0
130 149 0
128 147 0
139 159 0
128 148 0
127 144 0
118 136 0
129 148 0
125 144 0
132 151 0
126 145 0
127 145 0
139 158 0
121 141 0
128 147 0
127 145 0
122 141 0
129 147 0
128 147 0
132 149 0
127 144 0
138 156 0
134 153 0
126 145 0
130 147 0
123 141 0
131 149 0
135 154 0
134 151 0
125 143 0
138 157 0
131 147 0
134 152 0
136 156 0
128 145 0
136 154 0
138 157 0
139 158 0
138 155 0
130 145 0
135 152 0
134 152 0
122 140 0
141 162 0
130 148 0
138 155 0
131 147 0
134 153 0
129 146 0
126 142 0
130 147 0
138 154 0
138 155 0
135 154 0
137 154 0
136 153 0
135 151 0
137 155 0
134 150 0
133 152 0
138 153 0
142 159 0
133 148 0
128 143 0
137 154 0
144 160 0
132 150 0
138 154 0
136 152 0
130 143 0
135 149 0
141 156 0
150 165 0
134 148 0
125 139 0
140 155 0
143 161 0
136 152 0
137 152 0
133 145 0
136 154 0
137 150 0
143 157 0
132 145 0
145 160 0
135 148 0
132 145 0
140 153 0
142 156 0
141 155 0
130 141 0
141 154 0
138 148 0
127 139 0
138 152 0
138 149 0
133 144 0
133 143 0
132 143 0
134 143 0
123 132 0
135 144 0
136 145 0
132 144 0
131 139 0
125 133 0
135 143 0
126 134 0
131 138 0
139 148 0
134 135 0
131 137 0
139 144 0
132 139 0
140 145 0
137 145 0
137 144 0
126 133 0
130 135 0
134 138 0
124 129 0
135 139 0
126 129 0
130 132 0
133 137 0
143 151 0
138 142 0
130 135 0
134 137 0
138 143 0
138 140 0
125 124 0
136 137 0
126 129 0
136 139 0
132 134 0
129 131 0
128 129 0
130 132 0
135 140 0
128 131 0
128 126 0
134 139 0
133 134 0
134 136 0
130 131 0
135 137 0
133 132 0
132 132 0
136 138 0
129 131 0
137 140 0
130 131 0
130 131 0
139 143 0
132 132 0
149 154 0
139 143 0
142 146 0
145 149 0
141 145 0
140 144 0
138 141 0
137 143 0
140 146 0
143 144 0
153 158 0
143 149 0
150 155 0
154 163 0
146 152 0
146 153 0
144 150 0
149 158 0
151 158 0
144 150 0
150 161 0
157 166 0
152 158 0
153 163 0
155 163 0
147 154 0
154 162 0
153 163 0
154 165 0
157 165 0
158 169 0
155 168 0
160 172 0
154 164 0
156 167 0
153 162 0
160 171 0
158 170 0
155 164 0
161 176 0
164 184 0
166 185 0
163 183 0
163 182 0
162 181 0
163 182 0
162 181 0
160 179 0
161 179 0
163 181 0
155 172 0
158 177 0
157 175 0
160 180 0
157 176 0
160 179 0
154 171 0
160 177 0
159 178 0
156 174 0
153 170 0
154 171 0
153 171 0
153 171 0
157 175 0
156 173 0
151 167 0
158 176 0
155 172 0
151 168 0
150 165 0
154 171 0
151 169 0
148 165 0
148 164 0
152 168 0
146 162 0
150 166 0
148 165 0
148 164 0
146 162 0
145 161 0
140 155 0
141 156 0
150 165 0
145 161 0
150 166 0
145 160 0
139 153 0
148 164 0
147 162 0
147 163 0
141 157 0
149 164 0
137 153 0
137 152 0
144 160 0
138 153 0
142 158 0
145 160 0
142 158 0
142 158 0
143 159 0
142 158 0
141 157 0
141 157 0
142 159 0
142 158 0
145 160 0
139 155 0
144 160 0
137 153 0
137 153 0
147 164 0
143 159 0
141 159 0
140 157 0
138 154 0
140 157 0
132 148 0
135 151 0
140 156 0
138 155 0
148 166 0
144 161 0
141 159 0
141 158 0
143 160 0
142 160 0
136 154 0
135 152 0
141 159 0
144 162 0
143 161 0
143 160 0
142 160 0
141 159 0
137 155 0
138 156 0
146 164 0
144 162 0
140 158 0
143 161 0
140 158 0
139 158 0
135 154 0
138 156 0
148 167 0
146 165 0
137 156 0
137 156 0
137 156 0
145 164 0
131 151 0
137 157 0
135 153 0
141 161 0
144 164 0
143 163 0
145 165 0
143 162 0
139 158 0
142 163 0
145 165 0
136 155 0
140 160 0
140 160 0
144 164 0
149 170 0
141 160 0
136 156 0
137 157 0
143 162 0
127 146 0
138 157 0
135 156 0
135 156 0
142 162 0
134 154 0
127 147 0
142 162 0
148 169 0
138 158 0
144 165 0
139 159 0
137 158 0
138 158 0
138 157 0
132 153 0
145 165 0
138 157 0
134 156 0
130 151 0
132 153 0
134 155 0
135 155 0
134 155 0
133 153 0
135 156 0
138 158 0
130 151 0
140 161 0
138 159 0
138 159 0
122 143 0
134 154 0
131 152 0
133 153 0
141 161 0
129 148 0
124 144 0
129 149 0
133 152 0
136 156 0
130 150 0
133 153 0
136 157 0
131 151 0
129 149 0
128 149 0
128 147 0
124 144 0
124 143 0
131 151 0
129 148 0
125 146 0
129 148 0
131 150 0
134 152 0
117 136 0
126 145 0
133 152 0
126 145 0
138 159 0
131 152 0
128 148 0
127 148 0
134 154 0
136 157 0
132 150 0
135 154 0
132 153 0
138 159 0
134 154 0
124 143 0
125 144 0
124 142 0
131 153 0
133 152 0
127 146 0
118 138 0
131 151 0
139 158 0
121 141 0
133 152 0
134 152 0
128 147 0
129 147 0
129 149 0
127 146 0
125 143 0
131 149 0
138 156 0
131 149 0
132 152 0
137 158 0
130 149 0
131 149 0
119 138 0
136 155 0
132 151 0
133 152 0
145 163 0
128 147 0
123 142 0
147 166 0
122 139 0
140 156 0
142 160 0
134 153 0
132 149 0
138 157 0
130 149 0
127 145 0
143 161 0
136 155 0
128 145 0
139 157 0
139 156 0
136 154 0
136 156 0
137 155 0
143 159 0
135 153 0
129 146 0
126 142 0
136 153 0
129 146 0
136 152 0
131 146 0
137 154 0
137 153 0
140 158 0
141 159 0
132 149 0
126 143 0
131 149 0
137 153 0
133 149 0
138 154 0
135 151 0
135 150 0
140 157 0
142 158 0
146 162 0
139 154 0
133 149 0
141 159 0
142 157 0
145 161 0
128 142 0
140 155 0
138 151 0
129 141 0
136 147 0
144 159 0
132 146 0
145 159 0
131 143 0
136 150 0
138 152 0
129 142 0
131 144 0
137 150 0
135 149 0
130 143 0
142 153 0
128 139 0
129 140 0
139 150 0
141 155 0
137 151 0
135 145 0
125 135 0
142 154 0
132 143 0
136 148 0
124 133 0
134 144 0
132 141 0
136 144 0
126 134 0
125 134 0
139 147 0
132 139 0
128 134 0
125 132 0
127 135 0
144 151 0
135 141 0
134 140 0
134 142 0
130 133 0
134 139 0
140 148 0
128 134 0
132 136 0
139 142 0
136 139 0
127 130 0
122 127 0
134 136 0
139 146 0
136 144 0
136 142 0
140 146 0
136 138 0
141 145 0
133 134 0
132 137 0
129 130 0
135 139 0
135 141 0
135 139 0
135 138 0
133 135 0
128 129 0
128 130 0
122 121 0
137 142 0
145 149 0
134 138 0
129 130 0
137 139 0
134 138 0
140 144 0
140 142 0
142 144 0
141 142 0
145 149 0
146 149 0
145 152 0
148 155 0
141 147 0
145 150 0
141 146 0
148 152 0
142 146 0
147 152 0
134 142 0
144 147 0
149 154 0
143 149 0
144 150 0
148 154 0
141 147 0
145 151 0
147 151 0
149 156 0
155 164 0
151 161 0
157 165 0
149 158 0
146 155 0
148 156 0
158 166 0
151 159 0
156 167 0
151 159 0
154 163 0
151 159 0
155 167 0
157 169 0
157 168 0
158 167 0
150 162 0
155 166 0
153 166 0
161 174 0
158 168 0
159 178 0
165 184 0
163 182 0
161 181 0
159 177 0
158 177 0
164 183 0
160 180 0
156 175 0
161 180 0
161 180 0
156 174 0
162 180 0
156 175 0
157 176 0
151 169 0
159 177 0
158 175 0
153 171 0
154 172 0
158 176 0
156 174 0
155 173 0
153 170 0
154 171 0
158 175 0
156 172 0
148 165 0
145 161 0
141 156 0
154 171 0
144 160 0
153 169 0
154 170 0
156 173 0
153 169 0
146 163 0
144 159 0
154 171 0
155 172 0
149 165 0
146 162 0
148 163 0
145 161 0
150 165 0
136 152 0
142 158 0
147 162 0
150 166 0
143 158 0
136 152 0
144 159 0
146 163 0
137 152 0
145 161 0
141 157 0
142 157 0
142 158 0
149 164 0
140 156 0
147 163 0
143 158 0
138 154 0
140 156 0
146 162 0
147 164 0
138 154 0
145 163 0
142 159 0
137 152 0
146 162 0
140 157 0
141 158 0
144 161 0
138 155 0
137 154 0
145 161 0
152 170 0
142 159 0
142 159 0
138 155 0
143 161 0
144 161 0
144 161 0
137 154 0
144 161 0
134 151 0
137 154 0
143 160 0
139 156 0
148 166 0
145 163 0
143 161 0
144 164 0
140 159 0
140 157 0
144 162 0
142 160 0
137 156 0
145 163 0
141 158 0
146 167 0
142 162 0
146 165 0
146 165 0
139 159 0
143 161 0
141 160 0
142 161 0
138 157 0
143 162 0
146 165 0
137 156 0
140 160 0
136 155 0
142 162 0
133 151 0
135 155 0
143 162 0
149 169 0
142 162 0
147 167 0
138 158 0
134 154 0
147 167 0
138 159 0
134 153 0
137 158 0
142 161 0
143 164 0
135 155 0
141 160 0
140 160 0
142 163 0
133 155 0
146 167 0
150 171 0
145 166 0
138 160 0
132 154 0
146 166 0
138 157 0
145 164 0
131 151 0
133 153 0
142 163 0
143 163 0
130 151 0
136 156 0
129 149 0
141 161 0
133 153 0
132 153 0
141 161 0
131 150 0
143 165 0
139 158 0
136 157 0
140 160 0
135 156 0
143 164 0
135 156 0
129 149 0
144 165 0
134 154 0
136 157 0
135 155 0
137 158 0
134 156 0
138 158 0
136 157 0
133 154 0
127 148 0
134 155 0
142 163 0
138 159 0
124 144 0
135 155 0
137 157 0
128 148 0
131 150 0
115 135 0
132 152 0
126 145 0
142 162 0
143 164 0
134 155 0
143 164 0
126 146 0
137 157 0
136 156 0
128 146 0
129 148 0
133 152 0
128 148 0
129 148 0
127 147 0
134 153 0
124 144 0
134 155 0
128 147 0
130 148 0
129 148 0
123 143 0
124 143 0
123 141 0
120 141 0
130 150 0
128 146 0
121 140 0
132 152 0
129 148 0
137 157 0
135 155 0
122 140 0
135 155 0
132 151 0
137 156 0
137 156 0
131 150 0
122 142 0
130 148 0
140 159 0
135 154 0
127 147 0
128 148 0
130 149 0
135 155 0
134 151 0
141 162 0
138 156 0
142 162 0
130 149 0
127 144 0
131 149 0
123 141 0
134 153 0
129 147 0
133 152 0
144 163 0
140 157 0
138 159 0
140 159 0
132 151 0
138 157 0
137 156 0
143 162 0
133 151 0
140 159 0
141 157 0
138 155 0
135 153 0
137 156 0
130 146 0
134 151 0
131 149 0
137 153 0
133 150 0
131 148 0
131 148 0
139 157 0
134 150 0
135 153 0
141 156 0
136 152 0
145 161 0
138 156 0
134 153 0
132 147 0
144 163 0
137 153 0
140 156 0
130 148 0
134 148 0
146 163 0
141 159 0
136 151 0
132 147 0
139 153 0
137 151 0
132 148 0
134 148 0
142 156 0
141 156 0
136 148 0
143 156 0
142 156 0
137 151 0
135 150 0
132 144 0
132 147 0
131 145 0
131 146 0
126 137 0
136 149 0
142 155 0
144 159 0
143 155 0
136 148 0
137 149 0
129 138 0
141 154 0
131 143 0
138 146 0
130 138 0
139 150 0
144 153 0
137 147 0
136 145 0
138 147 0
142 154 0
138 148 0
136 144 0
131 140 0
130 138 0
139 145 0
123 129 0
133 142 0
137 146 0
138 146 0
129 134 0
132 137 0
139 147 0
138 143 0
130 134 0
139 146 0
124 128 0
137 144 0
136 139 0
125 130 0
135 140 0
135 140 0
131 139 0
141 143 0
131 135 0
136 142 0
137 139 0
141 144 0
129 134 0
135 138 0
137 140 0
134 138 0
131 134 0
132 134 0
139 144 0
144 148 0
127 128 0
136 140 0
145 147 0
138 142 0
140 147 0
133 136 0
137 142 0
139 145 0
133 138 0
148 155 0
145 149 0
134 136 0
140 142 0
135 141 0
136 139 0
143 146 0
140 143 0
146 149 0
144 148 0
138 140 0
143 149 0
140 144 0
148 154 0
140 145 0
146 153 0
147 153 0
139 144 0
153 160 0
145 150 0
147 155 0
147 152 0
149 157 0
150 157 0
147 154 0
146 152 0
152 161 0
153 162 0
148 155 0
153 159 0
155 165 0
150 158 0
151 161 0
152 159 0
158 171 0
150 160 0
161 171 0
154 166 0
155 164 0
152 163 0
156 165 0
148 156 0
157 168 0
161 175 0
150 161 0
164 183 0
159 178 0
161 181 0
163 183 0
161 179 0
160 179 0
163 182 0
157 176 0
163 182 0
160 179 0
165 184 0
158 176 0
162 181 0
157 176 0
159 177 0
155 172 0
153 170 0
159 176 0
152 169 0
153 170 0
156 174 0
155 173 0
154 171 0
151 168 0
155 173 0
161 179 0
159 176 0
155 172 0
148 165 0
156 173 0
157 175 0
152 168 0
150 167 0
150 166 0
157 174 0
154 171 0
146 162 0
150 167 0
151 166 0
147 163 0
152 168 0
138 153 0
148 164 0
146 162 0
151 167 0
147 163 0
141 157 0
147 163 0
153 169 0
151 167 0
143 160 0
142 158 0
147 163 0
141 156 0
140 156 0
148 164 0
140 156 0
144 160 0
141 158 0
142 159 0
136 152 0
144 159 0
143 158 0
141 157 0
147 163 0
146 163 0
138 154 0
146 162 0
138 155 0
143 160 0
142 158 0
144 161 0
148 164 0
138 155 0
144 160 0
146 163 0
140 157 0
139 155 0
145 163 0
146 164 0
145 163 0
139 155 0
139 156 0
144 161 0
146 163 0
143 161 0
143 161 0
147 167 0
144 162 0
140 158 0
137 156 0
146 163 0
137 155 0
134 152 0
143 161 0
146 164 0
140 159 0
146 166 0
137 156 0
138 156 0
140 158 0
146 165 0
144 163 0
147 166 0
142 162 0
134 152 0
136 154 0
141 160 0
141 161 0
138 157 0
139 158 0
139 160 0
144 163 0
140 159 0
142 161 0
147 167 0
144 163 0
133 152 0
148 168 0
144 164 0
141 160 0
144 164 0
141 161 0
135 155 0
144 163 0
139 159 0
148 167 0
142 161 0
138 159 0
154 175 0
137 157 0
149 169 0
147 168 0
136 155 0
146 167 0
142 162 0
144 165 0
139 160 0
145 166 0
131 152 0
147 169 0
144 164 0
140 161 0
135 156 0
139 159 0
130 151 0
137 156 0
136 157 0
133 153 0
145 167 0
149 170 0
132 153 0
133 154 0
132 152 0
138 159 0
137 157 0
135 156 0
129 150 0
137 158 0
132 153 0
134 154 0
137 157 0
146 168 0
130 150 0
133 154 0
132 154 0
134 155 0
133 154 0
138 158 0
129 150 0
141 162 0
137 158 0
136 157 0
131 151 0
128 148 0
136 157 0
125 145 0
136 155 0
135 155 0
136 154 0
135 155 0
130 151 0
130 151 0
133 154 0
136 155 0
137 156 0
135 154 0
133 154 0
131 152 0
134 154 0
136 157 0
136 157 0
137 158 0
133 152 0
139 159 0
136 156 0
133 153 0
135 155 0
139 159 0
127 147 0
129 148 0
138 159 0
127 146 0
136 157 0
141 161 0
135 155 0
135 156 0
128 148 0
133 153 0
136 155 0
122 140 0
129 148 0
127 146 0
125 142 0
126 145 0
136 154 0
132 153 0
136 155 0
143 163 0
134 153 0
140 159 0
132 151 0
135 154 0
133 151 0
133 153 0
137 158 0
135 155 0
137 157 0
131 149 0
126 143 0
133 150 0
134 154 0
136 156 0
136 155 0
128 146 0
143 161 0
140 158 0
133 152 0
136 154 0
138 156 0
130 149 0
132 152 0
134 153 0
135 153 0
132 148 0
139 157 0
131 148 0
135 153 0
129 149 0
139 157 0
135 153 0
145 164 0
142 158 0
139 156 0
142 160 0
141 159 0
139 158 0
142 160 0
130 146 0
131 148 0
125 141 0
150 168 0
139 155 0
138 154 0
143 161 0
139 158 0
142 158 0
133 148 0
139 156 0
133 149 0
134 150 0
146 162 0
144 160 0
138 154 0
139 156 0
140 156 0
139 155 0
140 155 0
141 157 0
146 162 0
136 152 0
133 149 0
140 157 0
137 154 0
139 154 0
129 146 0
136 148 0
143 159 0
138 150 0
138 152 0
147 161 0
135 148 0
138 150 0
141 153 0
126 136 0
134 146 0
143 158 0
132 143 0
141 155 0
143 156 0
127 141 0
145 160 0
134 145 0
132 143 0
130 137 0
141 151 0
143 155 0
131 142 0
136 145 0
129 141 0
131 141 0
140 150 0
131 140 0
133 141 0
141 152 0
138 147 0
132 140 0
133 141 0
133 139 0
139 145 0
131 141 0
145 153 0
137 146 0
136 143 0
147 156 0
134 142 0
139 148 0
148 157 0
141 146 0
142 151 0
143 150 0
128 132 0
140 145 0
138 142 0
135 139 0
135 141 0
136 143 0
140 146 0
152 162 0
132 136 0
142 149 0
134 137 0
139 143 0
142 150 0
136 139 0
136 139 0
136 142 0
134 138 0
138 143 0
134 137 0
130 133 0
135 140 0
133 134 0
133 136 0
136 139 0
135 138 0
137 142 0
147 151 0
138 142 0
136 141 0
138 142 0
137 140 0
146 148 0
134 136 0
136 139 0
137 139 0
148 153 0
139 146 0
136 139 0
148 152 0
139 141 0
145 150 0
149 156 0
150 159 0
146 151 0
153 162 0
146 149 0
149 155 0
142 149 0
152 161 0
150 156 0
153 159 0
148 155 0
148 154 0
149 157 0
143 149 0
154 164 0
157 166 0
145 153 0
155 162 0
150 161 0
152 160 0
162 173 0
155 165 0
156 165 0
147 155 0
147 155 0
159 171 0
159 170 0
157 168 0
162 183 0
162 181 0
159 178 0
162 182 0
161 180 0
166 185 0
165 185 0
158 177 0
161 180 0
163 182 0
159 177 0
158 176 0
163 181 0
159 176 0
158 176 0
154 172 0
161 179 0
156 174 0
152 169 0
158 177 0
158 176 0
156 173 0
153 170 0
152 169 0
154 171 0
152 169 0
151 167 0
151 168 0
156 174 0
149 165 0
148 165 0
154 171 0
156 173 0
148 164 0
153 170 0
149 166 0
150 167 0
149 164 0
148 165 0
146 162 0
144 161 0
152 169 0
147 164 0
145 161 0
148 164 0
144 160 0
146 163 0
154 171 0
145 160 0
150 166 0
143 159 0
147 164 0
148 164 0
142 158 0
142 159 0
148 165 0
148 164 0
149 166 0
143 160 0
151 168 0
143 160 0
147 164 0
143 160 0
142 158 0
139 156 0
142 159 0
138 155 0
144 162 0
146 163 0
139 154 0
140 157 0
151 169 0
136 153 0
151 168 0
144 162 0
142 160 0
147 165 0
138 156 0
150 168 0
146 163 0
152 171 0
151 170 0
144 161 0
141 159 0
148 167 0
140 159 0
143 162 0
148 166 0
137 155 0
142 160 0
145 164 0
143 161 0
152 170 0
145 163 0
144 163 0
149 168 0
143 162 0
142 161 0
144 163 0
144 164 0
146 165 0
147 167 0
145 165 0
144 164 0
142 162 0
140 159 0
143 163 0
135 155 0
143 163 0
149 169 0
141 161 0
146 166 0
137 156 0
146 166 0
140 160 0
142 161 0
148 169 0
133 153 0
137 156 0
139 159 0
145 166 0
146 166 0
142 162 0
145 166 0
138 159 0
140 160 0
141 160 0
148 168 0
141 161 0
145 165 0
150 170 0
143 163 0
145 165 0
138 158 0
143 164 0
144 165 0
145 165 0
142 163 0
138 159 0
141 162 0
139 158 0
135 156 0
129 151 0
133 152 0
148 167 0
140 160 0
142 163 0
136 157 0
140 161 0
130 151 0
132 153 0
133 153 0
142 161 0
144 166 0
139 159 0
138 159 0
134 154 0
127 147 0
139 160 0
148 169 0
139 160 0
132 153 0
133 154 0
136 156 0
130 149 0
130 150 0
137 158 0
131 151 0
138 159 0
141 162 0
144 163 0
141 162 0
133 153 0
132 153 0
133 153 0
139 160 0
133 154 0
136 156 0
131 150 0
133 154 0
136 157 0
135 155 0
135 155 0
127 146 0
129 149 0
138 157 0
134 155 0
126 145 0
134 154 0
144 165 0
128 147 0
136 155 0
124 144 0
131 151 0
132 153 0
138 159 0
130 151 0
128 149 0
126 146 0
125 147 0
125 144 0
140 160 0
135 154 0
131 151 0
129 149 0
137 157 0
134 154 0
129 149 0
141 162 0
128 147 0
117 138 0
124 143 0
135 153 0
131 150 0
129 149 0
139 159 0
130 148 0
128 145 0
145 165 0
136 155 0
128 149 0
138 156 0
126 144 0
137 155 0
135 152 0
131 151 0
131 148 0
139 158 0
122 140 0
136 155 0
138 156 0
139 158 0
129 149 0
135 155 0
141 161 0
135 154 0
133 154 0
134 153 0
136 155 0
133 151 0
136 155 0
131 151 0
137 155 0
126 145 0
134 152 0
140 157 0
139 157 0
137 155 0
140 157 0
134 152 0
143 160 0
133 150 0
132 148 0
127 145 0
138 154 0
137 156 0
141 159 0
139 157 0
137 156 0
142 159 0
141 156 0
149 167 0
139 155 0
133 152 0
136 151 0
149 166 0
140 157 0
140 155 0
142 161 0
132 146 0
138 153 0
136 152 0
138 153 0
138 155 0
133 152 0
145 162 0
145 160 0
147 164 0
140 156 0
139 154 0
136 149 0
146 162 0
144 158 0
143 157 0
136 150 0
139 157 0
131 146 0
138 152 0
133 146 0
141 157 0
142 157 0
141 157 0
137 153 0
136 149 0
128 138 0
142 156 0
139 152 0
134 145 0
136 149 0
137 151 0
141 154 0
137 151 0
134 145 0
140 152 0
139 151 0
141 154 0
146 155 0
137 148 0
136 147 0
134 146 0
138 149 0
144 154 0
144 154 0
135 146 0
137 149 0
139 151 0
144 154 0
121 131 0
137 147 0
130 138 0
139 149 0
142 149 0
142 150 0
139 149 0
133 141 0
139 147 0
140 147 0
133 142 0
138 145 0
140 146 0
136 142 0
134 142 0
135 141 0
144 151 0
136 141 0
136 142 0
141 146 0
133 138 0
140 148 0
137 142 0
140 146 0
138 144 0
135 140 0
144 151 0
138 144 0
132 135 0
148 153 0
142 147 0
132 136 0
135 139 0
133 137 0
137 140 0
138 142 0
138 144 0
145 150 0
132 134 0
144 150 0
142 149 0
135 138 0
136 140 0
135 138 0
140 144 0
145 145 0
143 149 0
135 137 0
136 137 0
148 153 0
140 144 0
147 155 0
144 150 0
140 146 0
151 157 0
152 161 0
143 149 0
148 154 0
139 144 0
147 152 0
149 155 0
153 162 0
148 155 0
143 151 0
156 166 0
151 158 0
149 158 0
153 160 0
154 161 0
154 159 0
149 154 0
152 162 0
150 155 0
153 163 0
151 161 0
161 170 0
155 162 0
150 153 0
150 158 0
153 163 0
157 170 0
151 163 0
152 161 0
158 178 0
167 186 0
162 180 0
156 174 0
162 181 0
163 183 0
161 179 0
162 182 0
162 181 0
156 176 0
160 178 0
158 177 0
152 170 0
158 175 0
160 179 0
161 179 0
157 175 0
152 169 0
158 176 0
156 174 0
152 170 0
157 173 0
152 170 0
148 164 0
156 173 0
151 167 0
154 171 0
154 171 0
155 172 0
154 171 0
149 166 0
150 166 0
150 166 0
149 165 0
144 160 0
153 169 0
149 167 0
154 171 0
142 158 0
154 171 0
150 167 0
146 162 0
146 163 0
148 164 0
144 160 0
151 168 0
148 165 0
152 168 0
150 168 0
148 163 0
146 162 0
146 163 0
142 158 0
146 163 0
139 155 0
147 165 0
144 161 0
146 163 0
142 158 0
140 156 0
147 164 0
145 162 0
139 157 0
148 166 0
140 157 0
147 164 0
145 162 0
144 161 0
151 169 0
139 155 0
146 163 0
141 159 0
148 165 0
145 162 0
145 163 0
137 156 0
153 171 0
140 159 0
148 166 0
145 164 0
149 167 0
136 155 0
148 166 0
147 165 0
142 161 0
132 149 0
154 174 0
144 162 0
148 167 0
147 165 0
146 165 0
137 157 0
155 174 0
139 159 0
137 155 0
145 164 0
135 154 0
142 161 0
148 168 0
141 160 0
145 164 0
147 167 0
144 163 0
149 170 0
135 154 0
143 163 0
140 159 0
147 166 0
142 161 0
136 155 0
143 162 0
137 157 0
133 153 0
145 165 0
136 155 0
140 160 0
142 162 0
143 163 0
146 166 0
144 163 0
140 160 0
143 164 0
142 161 0
148 168 0
139 159 0
144 165 0
145 165 0
144 164 0
143 163 0
142 162 0
142 162 0
144 164 0
148 168 0
141 162 0
148 169 0
144 165 0
144 165 0
142 163 0
139 158 0
142 162 0
140 161 0
138 158 0
145 165 0
147 168 0
141 163 0
147 169 0
139 161 0
138 159 0
136 157 0
148 168 0
135 156 0
139 160 0
142 163 0
135 156 0
132 153 0
148 169 0
128 147 0
142 164 0
134 154 0
136 156 0
145 166 0
136 157 0
137 158 0
135 154 0
130 151 0
137 158 0
136 157 0
135 156 0
137 158 0
133 153 0
135 157 0
143 162 0
135 155 0
140 161 0
138 159 0
136 157 0
139 159 0
128 147 0
135 157 0
137 157 0
137 158 0
129 148 0
137 159 0
135 154 0
137 157 0
133 153 0
122 142 0
140 159 0
132 152 0
136 157 0
137 158 0
132 151 0
142 162 0
143 163 0
130 149 0
132 151 0
138 159 0
127 147 0
130 151 0
129 150 0
133 155 0
128 149 0
137 156 0
131 151 0
135 156 0
135 154 0
125 144 0
137 157 0
135 155 0
139 158 0
138 157 0
134 156 0
142 160 0
135 154 0
137 157 0
130 147 0
126 145 0
135 154 0
138 156 0
137 157 0
136 156 0
138 159 0
137 155 0
126 145 0
139 159 0
135 154 0
141 160 0
133 152 0
118 138 0
129 149 0
144 164 0
130 147 0
125 144 0
135 154 0
137 156 0
133 153 0
123 142 0
137 155 0
137 154 0
130 148 0
143 160 0
130 148 0
137 157 0
136 154 0
136 157 0
136 153 0
135 153 0
144 163 0
136 154 0
134 153 0
137 154 0
146 165 0
134 153 0
139 156 0
130 148 0
136 154 0
140 159 0
138 155 0
138 156 0
139 157 0
136 155 0
132 150 0
148 164 0
146 163 0
143 162 0
139 157 0
145 162 0
130 146 0
135 152 0
138 154 0
140 159 0
150 169 0
143 162 0
141 158 0
138 154 0
138 153 0
148 166 0
140 159 0
136 151 0
148 163 0
146 162 0
138 155 0
140 155 0
140 154 0
141 155 0
141 158 0
144 160 0
150 164 0
144 159 0
148 164 0
136 145 0
139 153 0
146 159 0
138 151 0
139 155 0
140 154 0
136 149 0
139 152 0
145 161 0
138 152 0
135 150 0
139 152 0
147 163 0
147 161 0
139 153 0
132 142 0
140 151 0
140 151 0
137 148 0
143 153 0
137 147 0
135 144 0
129 138 0
137 148 0
136 147 0
138 148 0
141 154 0
140 148 0
133 143 0
140 149 0
133 142 0
146 155 0
131 140 0
136 143 0
136 142 0
133 141 0
142 149 0
140 147 0
139 148 0
130 138 0
135 145 0
141 151 0
139 147 0
139 149 0
138 144 0
138 144 0
141 145 0
138 143 0
136 144 0
135 143 0
122 127 0
141 147 0
144 149 0
131 136 0
142 148 0
134 142 0
133 135 0
135 141 0
144 153 0
139 143 0
132 139 0
142 147 0
145 151 0
136 142 0
139 143 0
140 144 0
141 144 0
139 145 0
145 152 0
141 146 0
138 143 0
137 141 0
146 154 0
144 148 0
145 151 0
138 143 0
141 145 0
147 156 0
147 154 0
146 155 0
149 155 0
143 148 0
141 141 0
150 157 0
148 156 0
145 151 0
151 157 0
148 155 0
142 146 0
153 160 0
149 159 0
159 169 0
144 152 0
146 155 0
154 162 0
153 159 0
151 160 0
152 163 0
151 158 0
142 147 0
154 163 0
155 161 0
150 161 0
153 166 0
154 165 0
156 166 0
152 161 0
150 161 0
156 168 0
159 173 0
160 180 0
158 177 0
160 180 0
161 180 0
158 177 0
159 177 0
157 175 0
162 180 0
161 180 0
156 175 0
160 178 0
161 180 0
158 176 0
156 176 0
160 178 0
152 170 0
162 181 0
158 176 0
151 169 0
157 176 0
153 170 0
152 170 0
155 173 0
151 168 0
157 174 0
152 170 0
157 175 0
150 167 0
153 170 0
151 168 0
146 163 0
152 169 0
155 173 0
152 169 0
151 168 0
151 168 0
150 167 0
152 169 0
148 165 0
141 158 0
150 166 0
142 158 0
152 169 0
148 164 0
147 164 0
145 162 0
146 162 0
156 174 0
149 167 0
148 165 0
151 167 0
149 166 0
150 167 0
147 164 0
148 165 0
153 171 0
150 167 0
148 165 0
144 161 0
147 165 0
149 167 0
143 160 0
150 167 0
153 171 0
149 166 0
153 170 0
142 159 0
148 165 0
152 170 0
143 160 0
144 161 0
139 157 0
152 170 0
143 160 0
150 167 0
143 161 0
143 161 0
140 158 0
137 155 0
131 148 0
138 155 0
149 167 0
145 164 0
143 162 0
144 162 0
150 169 0
144 163 0
142 161 0
150 169 0
143 162 0
148 167 0
142 162 0
145 163 0
146 165 0
147 165 0
149 169 0
152 172 0
144 163 0
139 159 0
140 159 0
143 163 0
147 167 0
135 154 0
155 175 0
139 159 0
142 161 0
148 168 0
139 159 0
151 170 0
152 171 0
141 161 0
149 170 0
146 164 0
142 162 0
140 160 0
149 170 0
147 166 0
137 157 0
149 170 0
149 170 0
148 168 0
145 164 0
144 164 0
149 169 0
147 168 0
142 163 0
155 177 0
150 170 0
141 161 0
133 154 0
148 169 0
142 162 0
137 157 0
137 158 0
143 163 0
144 165 0
141 161 0
141 160 0
137 157 0
147 167 0
142 162 0
144 164 0
138 158 0
141 162 0
141 161 0
138 159 0
137 158 0
138 159 0
138 159 0
144 165 0
145 165 0
141 163 0
150 169 0
138 159 0
141 162 0
139 159 0
133 153 0
140 161 0
148 169 0
142 163 0
141 162 0
144 164 0
141 163 0
139 160 0
139 160 0
140 162 0
126 145 0
146 166 0
140 161 0
142 163 0
141 162 0
136 156 0
139 160 0
133 154 0
133 153 0
134 155 0
135 156 0
136 156 0
139 160 0
133 154 0
135 155 0
129 149 0
139 159 0
130 150 0
142 163 0
144 164 0
135 156 0
124 145 0
136 157 0
141 161 0
132 153 0
128 148 0
135 155 0
136 156 0
134 153 0
140 162 0
128 148 0
123 143 0
140 160 0
132 152 0
132 152 0
140 160 0
134 155 0
135 156 0
139 159 0
141 161 0
128 148 0
127 147 0
135 156 0
145 165 0
126 145 0
132 152 0
138 158 0
132 150 0
135 156 0
131 152 0
140 160 0
134 153 0
132 152 0
133 154 0
143 162 0
137 157 0
145 166 0
144 162 0
134 152 0
129 149 0
140 160 0
137 158 0
148 167 0
146 166 0
130 149 0
142 159 0
141 160 0
120 138 0
140 161 0
138 157 0
139 159 0
143 162 0
134 153 0
144 163 0
138 156 0
129 147 0
139 157 0
131 150 0
133 152 0
138 156 0
140 158 0
139 158 0
143 163 0
131 149 0
135 154 0
148 168 0
145 162 0
147 165 0
135 154 0
133 149 0
138 156 0
131 149 0
144 162 0
134 151 0
143 160 0
135 151 0
146 164 0
140 157 0
147 165 0
139 158 0
149 167 0
147 163 0
136 155 0
144 162 0
151 168 0
144 161 0
135 153 0
143 160 0
142 159 0
138 153 0
140 157 0
139 155 0
148 165 0
136 151 0
147 163 0
136 153 0
132 147 0
149 168 0
143 159 0
148 165 0
133 148 0
141 159 0
137 150 0
133 147 0
146 161 0
138 153 0
134 148 0
144 160 0
145 159 0
145 159 0
137 151 0
143 157 0
144 159 0
141 154 0
138 152 0
136 148 0
131 143 0
132 144 0
140 153 0
136 149 0
127 139 0
140 152 0
135 146 0
143 158 0
142 155 0
134 143 0
138 148 0
143 156 0
138 150 0
139 148 0
132 142 0
143 153 0
144 156 0
141 153 0
138 149 0
146 155 0
135 145 0
140 149 0
143 152 0
143 152 0
140 152 0
141 152 0
137 145 0
133 140 0
131 140 0
139 147 0
136 146 0
143 151 0
144 151 0
145 155 0
142 145 0
140 147 0
145 151 0
147 158 0
142 147 0
141 149 0
141 147 0
128 134 0
135 138 0
138 143 0
130 136 0
139 147 0
132 136 0
141 145 0
138 143 0
140 147 0
143 151 0
141 146 0
141 145 0
141 148 0
140 147 0
142 148 0
140 145 0
141 147 0
138 141 0
138 143 0
145 151 0
143 147 0
148 154 0
141 146 0
145 149 0
140 146 0
141 148 0
141 149 0
148 156 0
147 153 0
145 153 0
153 158 0
146 153 0
151 157 0
145 151 0
149 155 0
139 143 0
144 151 0
152 164 0
157 164 0
148 156 0
143 150 0
153 160 0
154 163 0
146 153 0
150 158 0
149 161 0
152 159 0
157 169 0
145 151 0
152 162 0
152 161 0
149 157 0
157 168 0
153 164 0
154 162 0
154 165 0
153 163 0
161 180 0
161 180 0
161 181 0
163 182 0
160 179 0
160 178 0
158 176 0
158 176 0
161 180 0
156 175 0
159 178 0
156 174 0
152 170 0
158 176 0
161 180 0
161 180 0
155 172 0
153 170 0
157 174 0
157 175 0
159 177 0
148 165 0
151 169 0
152 169 0
159 176 0
153 171 0
155 173 0
156 174 0
153 170 0
156 173 0
156 174 0
155 172 0
154 172 0
152 168 0
144 160 0
155 173 0
147 164 0
155 172 0
151 168 0
151 169 0
148 165 0
145 162 0
150 167 0
149 165 0
149 165 0
145 161 0
141 157 0
152 170 0
148 165 0
145 162 0
149 165 0
140 156 0
145 162 0
150 167 0
146 163 0
145 162 0
148 165 0
148 167 0
154 172 0
142 161 0
147 165 0
144 160 0
152 169 0
138 155 0
146 162 0
140 158 0
148 165 0
153 171 0
144 161 0
138 155 0
147 166 0
148 167 0
146 164 0
148 166 0
142 159 0
145 163 0
146 165 0
147 165 0
141 159 0
146 164 0
146 165 0
146 164 0
141 159 0
151 169 0
149 168 0
135 154 0
146 165 0
148 166 0
152 172 0
144 164 0
140 159 0
138 157 0
145 165 0
148 167 0
145 164 0
138 157 0
145 164 0
146 166 0
147 166 0
151 171 0
138 158 0
151 170 0
143 163 0
144 164 0
150 170 0
145 163 0
146 167 0
144 163 0
148 167 0
142 162 0
145 165 0
147 167 0
148 167 0
134 154 0
147 167 0
143 163 0
138 158 0
138 159 0
144 165 0
132 152 0
152 173 0
140 160 0
145 166 0
147 167 0
145 167 0
144 165 0
150 171 0
142 163 0
142 163 0
142 163 0
153 174 0
144 165 0
149 170 0
148 168 0
150 172 0
147 169 0
141 162 0
144 166 0
147 168 0
142 163 0
142 163 0
136 156 0
149 169 0
137 158 0
139 159 0
139 159 0
140 160 0
131 151 0
152 175 0
150 170 0
145 166 0
137 158 0
139 159 0
139 160 0
140 160 0
133 153 0
150 170 0
139 158 0
136 156 0
140 161 0
141 162 0
143 164 0
146 168 0
140 161 0
143 164 0
139 160 0
134 155 0
133 153 0
138 158 0
138 160 0
133 153 0
144 165 0
144 165 0
141 161 0
143 163 0
139 160 0
137 157 0
146 168 0
135 156 0
141 161 0
140 161 0
135 155 0
132 152 0
134 154 0
126 146 0
132 153 0
133 153 0
142 163 0
132 153 0
133 153 0
139 160 0
123 142 0
139 160 0
143 164 0
132 154 0
136 157 0
135 157 0
133 153 0
132 151 0
139 159 0
138 157 0
136 156 0
136 157 0
127 147 0
136 154 0
139 159 0
137 157 0
140 160 0
141 162 0
141 163 0
136 156 0
130 150 0
130 150 0
145 164 0
136 156 0
137 157 0
140 158 0
135 154 0
122 141 0
133 154 0
143 163 0
129 149 0
131 150 0
133 152 0
143 163 0
134 153 0
132 151 0
137 156 0
136 156 0
132 152 0
144 163 0
133 153 0
140 160 0
137 155 0
140 158 0
138 157 0
140 159 0
131 150 0
139 157 0
141 160 0
141 160 0
140 160 0
134 152 0
134 153 0
142 161 0
133 152 0
137 155 0
147 164 0
138 156 0
137 156 0
143 161 0
136 154 0
137 153 0
138 156 0
136 153 0
134 151 0
146 162 0
135 152 0
137 156 0
145 162 0
141 161 0
150 168 0
136 153 0
137 155 0
141 161 0
141 155 0
137 154 0
145 163 0
141 156 0
138 155 0
147 163 0
142 159 0
137 153 0
147 163 0
138 151 0
144 159 0
138 157 0
132 147 0
132 147 0
145 163 0
143 161 0
135 149 0
144 159 0
138 152 0
141 154 0
146 163 0
141 156 0
144 159 0
139 158 0
143 157 0
140 155 0
144 160 0
138 151 0
134 145 0
142 154 0
139 153 0
134 147 0
141 152 0
134 148 0
135 149 0
134 147 0
152 166 0
145 162 0
141 154 0
136 148 0
142 156 0
147 162 0
132 143 0
150 162 0
146 159 0
136 146 0
134 145 0
145 160 0
143 155 0
135 147 0
146 160 0
142 151 0
139 151 0
138 149 0
144 156 0
141 150 0
144 152 0
142 152 0
147 160 0
137 147 0
135 145 0
149 162 0
137 145 0
147 157 0
134 144 0
142 150 0
141 149 0
130 141 0
140 148 0
139 147 0
133 139 0
138 143 0
144 152 0
135 142 0
138 145 0
137 144 0
140 148 0
145 152 0
136 142 0
140 150 0
141 148 0
145 153 0
139 145 0
130 135 0
145 152 0
139 145 0
140 145 0
143 150 0
148 152 0
148 155 0
142 149 0
143 149 0
144 150 0
142 147 0
137 142 0
140 147 0
148 155 0
141 146 0
148 152 0
151 158 0
141 147 0
149 155 0
143 150 0
145 150 0
137 141 0
148 157 0
142 150 0
139 144 0
134 139 0
149 153 0
145 153 0
135 137 0
149 156 0
144 148 0
147 155 0
146 154 0
145 150 0
145 151 0
155 164 0
148 156 0
149 160 0
149 158 0
153 161 0
152 162 0
159 167 0
147 155 0
151 159 0
156 165 0
152 162 0
145 155 0
152 163 0
155 167 0
154 165 0
156 167 0
146 156 0
164 182 0
159 178 0
160 178 0
158 176 0
162 180 0
156 175 0
157 175 0
157 176 0
157 175 0
151 169 0
164 183 0
159 178 0
159 177 0
161 180 0
155 173 0
159 176 0
163 182 0
156 174 0
156 174 0
156 174 0
157 175 0
153 170 0
158 176 0
149 167 0
155 172 0
154 171 0
149 166 0
156 174 0
154 172 0
154 171 0
148 165 0
154 171 0
148 165 0
152 169 0
149 165 0
148 165 0
150 167 0
147 165 0
152 170 0
151 168 0
153 170 0
152 169 0
153 170 0
156 174 0
153 171 0
150 167 0
151 169 0
154 171 0
142 159 0
148 165 0
150 168 0
156 173 0
144 162 0
152 170 0
152 170 0
158 176 0
146 164 0
145 162 0
152 172 0
150 168 0
154 172 0
144 162 0
154 172 0
148 165 0
145 164 0
148 166 0
144 161 0
141 160 0
147 164 0
150 168 0
145 164 0
149 167 0
148 168 0
150 169 0
141 158 0
138 157 0
144 162 0
146 165 0
149 167 0
145 165 0
145 164 0
146 164 0
146 164 0
146 166 0
148 167 0
152 171 0
150 169 0
146 165 0
145 165 0
153 174 0
147 165 0
147 167 0
148 167 0
145 165 0
142 161 0
144 165 0
140 159 0
145 165 0
140 160 0
149 169 0
148 167 0
145 165 0
140 159 0
140 159 0
148 168 0
144 163 0
135 154 0
151 170 0
143 163 0
145 166 0
144 165 0
151 170 0
145 164 0
144 164 0
146 165 0
146 168 0
142 162 0
142 162 0
143 164 0
138 159 0
146 166 0
143 164 0
141 160 0
136 156 0
153 174 0
144 166 0
145 165 0
139 161 0
136 157 0
143 163 0
147 168 0
144 163 0
147 167 0
133 154 0
142 161 0
146 168 0
140 162 0
140 161 0
137 156 0
146 167 0
136 157 0
140 160 0
137 158 0
135 156 0
136 156 0
134 155 0
151 172 0
137 159 0
133 152 0
145 165 0
140 161 0
139 160 0
133 153 0
139 160 0
136 158 0
141 163 0
133 155 0
141 162 0
137 158 0
149 170 0
143 164 0
140 162 0
141 161 0
137 156 0
142 164 0
135 156 0
138 160 0
139 159 0
138 160 0
130 149 0
143 164 0
131 153 0
136 155 0
133 154 0
137 158 0
139 159 0
146 167 0
132 152 0
140 161 0
137 160 0
137 157 0
139 160 0
131 151 0
132 152 0
125 144 0
128 150 0
140 161 0
141 162 0
138 159 0
142 162 0
131 151 0
140 161 0
132 151 0
132 152 0
138 159 0
134 153 0
141 162 0
147 167 0
128 147 0
123 144 0
136 156 0
140 162 0
133 152 0
141 161 0
133 152 0
142 164 0
137 158 0
133 154 0
135 156 0
135 156 0
138 156 0
141 161 0
141 161 0
138 159 0
135 155 0
134 153 0
141 161 0
143 160 0
137 158 0
138 159 0
145 165 0
139 158 0
125 145 0
132 152 0
129 149 0
138 157 0
147 167 0
126 145 0
133 152 0
132 151 0
140 159 0
138 157 0
144 164 0
146 166 0
137 157 0
129 148 0
145 165 0
141 160 0
140 158 0
133 152 0
134 153 0
140 159 0
133 152 0
141 161 0
139 158 0
139 158 0
135 153 0
144 166 0
144 163 0
138 156 0
145 166 0
139 158 0
140 158 0
142 161 0
148 167 0
140 157 0
145 163 0
139 157 0
139 157 0
139 157 0
140 160 0
145 163 0
145 165 0
148 166 0
138 155 0
138 155 0
135 152 0
138 157 0
145 164 0
134 151 0
139 156 0
138 154 0
143 161 0
140 158 0
142 158 0
143 162 0
139 157 0
145 161 0
136 153 0
143 161 0
136 152 0
142 156 0
141 158 0
145 161 0
142 158 0
140 157 0
143 159 0
133 150 0
141 154 0
133 148 0
146 162 0
140 155 0
139 154 0
141 154 0
140 154 0
143 159 0
142 159 0
139 153 0
142 157 0
143 156 0
138 154 0
142 158 0
140 155 0
142 157 0
136 149 0
137 152 0
144 157 0
149 162 0
136 150 0
145 158 0
143 157 0
144 156 0
143 157 0
141 154 0
143 157 0
149 164 0
137 148 0
148 162 0
134 145 0
138 148 0
143 153 0
143 156 0
130 140 0
146 158 0
146 157 0
138 148 0
133 143 0
139 147 0
138 148 0
148 159 0
140 149 0
141 149 0
140 148 0
140 148 0
134 140 0
140 149 0
146 155 0
142 151 0
143 152 0
134 139 0
132 137 0
142 152 0
144 152 0
131 137 0
143 149 0
142 149 0
146 154 0
142 150 0
142 148 0
136 142 0
139 143 0
145 152 0
146 153 0
134 142 0
140 146 0
137 143 0
142 148 0
149 157 0
141 149 0
144 148 0
143 149 0
144 150 0
139 146 0
145 148 0
145 152 0
150 160 0
145 148 0
137 140 0
147 154 0
155 162 0
143 148 0
148 155 0
143 151 0
148 156 0
145 151 0
149 158 0
145 151 0
151 158 0
149 155 0
134 136 0
152 160 0
148 155 0
154 161 0
144 149 0
154 162 0
153 161 0
154 164 0
147 156 0
158 165 0
150 160 0
149 158 0
155 164 0
151 161 0
149 159 0
155 166 0
156 165 0
155 164 0
153 164 0
153 161 0
158 169 0
162 182 0
160 179 0
161 179 0
161 179 0
160 178 0
160 180 0
161 179 0
162 181 0
164 183 0
158 176 0
157 176 0
158 177 0
153 171 0
158 176 0
155 173 0
158 176 0
160 178 0
157 175 0
159 177 0
155 173 0
155 173 0
146 163 0
156 174 0
153 171 0
157 175 0
154 171 0
157 175 0
154 171 0
150 168 0
153 171 0
154 172 0
150 168 0
153 170 0
150 167 0
155 171 0
157 175 0
156 173 0
157 175 0
155 173 0
153 170 0
153 170 0
147 164 0
152 171 0
150 168 0
146 163 0
154 171 0
146 163 0
156 175 0
148 165 0
150 167 0
151 169 0
144 161 0
149 167 0
153 171 0
148 166 0
149 166 0
144 161 0
151 168 0
139 155 0
156 175 0
149 166 0
154 172 0
151 169 0
148 166 0
152 170 0
155 174 0
150 168 0
150 168 0
145 163 0
146 165 0
143 161 0
155 174 0
147 167 0
146 165 0
151 170 0
148 168 0
147 165 0
149 168 0
149 169 0
141 159 0
148 167 0
145 163 0
148 167 0
141 161 0
143 161 0
138 157 0
140 159 0
155 176 0
150 170 0
149 170 0
146 166 0
144 164 0
148 168 0
150 170 0
144 164 0
147 166 0
140 159 0
142 161 0
148 169 0
142 161 0
146 167 0
147 166 0
149 169 0
147 167 0
145 164 0
148 168 0
150 170 0
141 161 0
146 167 0
150 171 0
145 166 0
146 168 0
147 167 0
149 170 0
143 163 0
153 174 0
137 157 0
146 165 0
146 168 0
150 171 0
142 163 0
141 159 0
151 172 0
135 157 0
139 160 0
147 168 0
144 166 0
140 161 0
149 169 0
137 158 0
145 164 0
144 163 0
138 159 0
145 167 0
146 166 0
150 171 0
142 163 0
147 170 0
144 165 0
136 156 0
142 163 0
146 169 0
141 160 0
140 161 0
148 169 0
138 159 0
133 153 0
144 164 0
148 169 0
132 152 0
143 163 0
140 160 0
142 164 0
146 167 0
149 171 0
138 159 0
138 159 0
135 154 0
135 155 0
141 161 0
143 164 0
142 163 0
139 159 0
138 160 0
145 166 0
136 156 0
137 159 0
139 160 0
140 162 0
137 157 0
145 166 0
139 160 0
139 159 0
140 161 0
135 156 0
138 158 0
147 168 0
136 155 0
141 163 0
139 159 0
138 160 0
137 156 0
141 161 0
144 164 0
136 157 0
131 152 0
134 156 0
145 166 0
143 163 0
134 154 0
140 161 0
136 157 0
141 162 0
141 162 0
125 145 0
137 158 0
137 156 0
140 161 0
133 154 0
133 153 0
142 162 0
138 158 0
134 153 0
142 162 0
128 148 0
134 154 0
136 155 0
130 150 0
135 156 0
131 152 0
142 162 0
137 155 0
138 159 0
135 155 0
138 157 0
140 160 0
141 161 0
145 164 0
145 165 0
133 152 0
141 161 0
135 155 0
135 156 0
144 163 0
130 149 0
137 156 0
139 158 0
147 166 0
139 159 0
137 158 0
138 157 0
153 173 0
142 161 0
136 155 0
129 149 0
133 152 0
134 155 0
138 156 0
146 166 0
133 153 0
130 148 0
140 160 0
140 160 0
135 155 0
135 153 0
142 161 0
143 161 0
136 155 0
126 143 0
142 162 0
142 161 0
134 152 0
139 158 0
148 165 0
142 160 0
146 166 0
136 154 0
144 161 0
138 156 0
144 162 0
144 162 0
143 161 0
132 149 0
149 167 0
141 156 0
146 164 0
140 156 0
145 162 0
141 157 0
143 162 0
138 154 0
146 164 0
134 151 0
139 157 0
149 168 0
140 157 0
146 163 0
142 159 0
145 162 0
136 153 0
147 163 0
137 154 0
147 163 0
141 157 0
141 158 0
145 159 0
142 158 0
139 153 0
140 155 0
150 165 0
142 157 0
147 162 0
138 152 0
135 151 0
133 148 0
144 160 0
148 166 0
138 152 0
145 160 0
147 161 0
147 163 0
147 162 0
145 159 0
140 156 0
137 149 0
141 155 0
139 154 0
147 160 0
148 161 0
139 151 0
140 153 0
148 161 0
143 154 0
142 156 0
137 150 0
142 153 0
144 154 0
142 153 0
139 148 0
154 167 0
136 148 0
148 161 0
146 158 0
138 148 0
143 156 0
132 142 0
133 142 0
146 156 0
138 150 0
147 156 0
135 144 0
137 147 0
142 153 0
146 152 0
134 142 0
141 150 0
145 155 0
149 158 0
139 149 0
143 151 0
138 146 0
141 147 0
144 152 0
147 155 0
139 146 0
130 137 0
148 158 0
139 146 0
148 156 0
150 158 0
135 141 0
151 161 0
140 146 0
148 157 0
135 144 0
149 157 0
143 151 0
135 140 0
139 145 0
145 151 0
145 151 0
150 158 0
145 148 0
141 147 0
149 158 0
136 142 0
141 146 0
146 152 0
148 156 0
149 157 0
146 155 0
145 153 0
143 149 0
146 153 0
137 142 0
143 150 0
148 155 0
142 148 0
149 158 0
148 153 0
145 154 0
151 158 0
151 160 0
147 153 0
153 161 0
155 163 0
153 159 0
153 161 0
146 153 0
149 160 0
150 158 0
155 163 0
153 162 0
151 161 0
145 155 0
151 157 0
152 163 0
151 161 0
160 171 0
156 168 0
161 181 0
164 183 0
162 181 0
161 179 0
157 175 0
157 175 0
162 182 0
157 176 0
154 173 0
158 177 0
152 171 0
158 177 0
160 178 0
155 173 0
157 175 0
158 177 0
157 175 0
158 176 0
155 172 0
151 169 0
155 173 0
158 177 0
151 168 0
156 174 0
153 171 0
157 175 0
155 173 0
155 172 0
156 174 0
154 172 0
150 167 0
152 170 0
149 166 0
150 167 0
155 174 0
153 171 0
154 172 0
153 171 0
155 173 0
153 170 0
150 168 0
146 163 0
149 167 0
151 169 0
147 165 0
150 167 0
145 161 0
151 168 0
151 169 0
150 167 0
154 172 0
151 169 0
150 167 0
144 162 0
149 167 0
151 169 0
149 167 0
145 162 0
152 170 0
145 162 0
150 168 0
148 166 0
147 166 0
147 166 0
154 174 0
149 167 0
150 169 0
145 163 0
147 166 0
149 167 0
149 168 0
146 164 0
144 163 0
147 165 0
145 164 0
152 170 0
154 173 0
145 164 0
141 159 0
149 168 0
149 168 0
150 170 0
140 161 0
147 167 0
151 170 0
152 172 0
149 168 0
146 165 0
148 166 0
150 170 0
148 167 0
150 169 0
142 161 0
141 160 0
143 163 0
145 164 0
151 171 0
139 158 0
143 162 0
150 170 0
148 168 0
145 164 0
138 159 0
156 177 0
148 168 0
144 164 0
145 164 0
152 173 0
144 165 0
144 165 0
144 164 0
140 160 0
143 162 0
149 170 0
150 171 0
139 159 0
150 171 0
150 170 0
144 164 0
142 163 0
142 163 0
146 167 0
149 169 0
140 161 0
140 160 0
148 168 0
148 169 0
150 171 0
150 171 0
154 174 0
145 167 0
149 171 0
146 166 0
144 166 0
146 167 0
140 161 0
146 166 0
143 163 0
142 163 0
144 166 0
147 169 0
145 166 0
146 167 0
139 160 0
146 166 0
144 165 0
137 158 0
141 162 0
145 165 0
139 161 0
144 164 0
140 160 0
149 169 0
144 165 0
138 160 0
138 158 0
144 166 0
141 162 0
146 166 0
149 170 0
140 162 0
135 157 0
127 147 0
145 166 0
137 160 0
140 160 0
147 167 0
136 159 0
147 169 0
140 161 0
141 162 0
136 157 0
143 165 0
142 164 0
138 157 0
136 156 0
145 167 0
124 146 0
142 164 0
145 167 0
140 161 0
140 160 0
138 158 0
137 158 0
132 154 0
134 155 0
148 168 0
131 151 0
133 155 0
140 161 0
136 157 0
144 165 0
136 156 0
135 156 0
141 161 0
139 160 0
140 158 0
137 156 0
134 155 0
138 158 0
130 150 0
136 156 0
139 160 0
137 158 0
144 164 0
137 158 0
137 158 0
136 155 0
138 159 0
137 158 0
141 161 0
145 165 0
137 158 0
135 156 0
143 163 0
150 171 0
142 163 0
142 162 0
129 149 0
140 161 0
139 161 0
145 165 0
128 148 0
143 162 0
142 162 0
132 151 0
141 160 0
135 155 0
132 152 0
139 160 0
135 155 0
136 155 0
141 159 0
138 157 0
144 163 0
147 166 0
141 162 0
135 154 0
141 161 0
146 166 0
138 157 0
145 163 0
142 161 0
134 153 0
131 149 0
137 157 0
143 164 0
144 162 0
143 162 0
137 156 0
154 174 0
141 159 0
142 162 0
141 160 0
138 155 0
131 148 0
143 161 0
144 164 0
147 167 0
147 166 0
141 160 0
141 160 0
149 165 0
143 163 0
142 161 0
140 158 0
139 157 0
138 155 0
137 154 0
142 161 0
151 170 0
142 160 0
137 155 0
135 153 0
143 160 0
143 163 0
142 160 0
138 155 0
140 158 0
143 159 0
144 160 0
137 155 0
144 161 0
136 153 0
143 159 0
158 173 0
139 157 0
147 164 0
149 164 0
140 156 0
138 154 0
138 155 0
141 158 0
146 161 0
152 167 0
153 169 0
145 159 0
140 156 0
127 142 0
145 161 0
143 159 0
143 156 0
154 171 0
140 155 0
146 161 0
147 164 0
137 150 0
150 166 0
139 154 0
136 150 0
146 160 0
142 156 0
148 161 0
151 164 0
141 153 0
145 157 0
138 153 0
133 146 0
150 165 0
137 149 0
147 158 0
140 154 0
148 160 0
144 157 0
134 142 0
144 155 0
147 161 0
149 161 0
143 155 0
145 157 0
142 153 0
139 149 0
141 151 0
140 149 0
130 140 0
140 149 0
144 156 0
150 160 0
142 154 0
149 160 0
130 138 0
146 157 0
147 159 0
143 157 0
142 151 0
146 154 0
150 158 0
143 151 0
152 161 0
137 146 0
145 156 0
144 153 0
141 149 0
149 160 0
139 148 0
150 158 0
146 151 0
145 151 0
141 147 0
143 149 0
143 150 0
144 151 0
137 143 0
144 151 0
141 146 0
146 153 0
145 154 0
147 155 0
143 152 0
148 158 0
150 160 0
143 152 0
151 156 0
149 157 0
147 156 0
148 155 0
154 163 0
145 153 0
153 163 0
150 156 0
152 160 0
151 160 0
151 160 0
155 164 0
152 162 0
145 151 0
152 158 0
149 157 0
151 160 0
150 158 0
157 168 0
149 157 0
155 166 0
155 166 0
151 162 0
153 161 0
146 155 0
158 168 0
153 166 0
156 169 0
161 180 0
164 182 0
157 176 0
161 180 0
156 174 0
160 178 0
160 179 0
162 182 0
162 181 0
156 175 0
158 176 0
165 183 0
161 180 0
155 173 0
158 176 0
158 176 0
158 175 0
158 176 0
156 174 0
155 174 0
150 168 0
157 175 0
151 169 0
158 176 0
155 173 0
154 171 0
163 181 0
153 171 0
156 175 0
153 170 0
149 167 0
152 170 0
155 172 0
152 170 0
150 169 0
147 166 0
155 172 0
156 174 0
148 166 0
152 169 0
151 169 0
155 174 0
155 173 0
153 170 0
153 172 0
152 170 0
144 161 0
154 173 0
150 168 0
148 166 0
146 163 0
150 168 0
152 170 0
157 175 0
157 176 0
152 170 0
142 159 0
154 172 0
149 168 0
143 161 0
148 165 0
143 161 0
147 167 0
144 162 0
154 174 0
148 168 0
143 161 0
142 161 0
148 166 0
155 173 0
148 166 0
148 167 0
154 173 0
140 159 0
143 161 0
144 163 0
149 168 0
154 175 0
148 167 0
143 161 0
150 168 0
147 167 0
151 171 0
145 165 0
137 156 0
149 170 0
156 175 0
146 165 0
146 166 0
141 159 0
145 164 0
144 164 0
147 167 0
146 166 0
149 169 0
152 173 0
147 167 0
137 158 0
149 168 0
142 162 0
143 164 0
141 161 0
141 161 0
149 169 0
146 165 0
136 155 0
144 165 0
147 167 0
150 170 0
145 166 0
139 159 0
147 166 0
147 168 0
146 167 0
149 171 0
142 161 0
150 171 0
148 167 0
152 173 0
145 167 0
150 172 0
143 164 0
149 170 0
143 163 0
146 167 0
147 166 0
146 167 0
135 156 0
142 163 0
142 162 0
145 166 0
147 168 0
148 168 0
140 160 0
139 160 0
140 159 0
140 162 0
132 154 0
150 170 0
140 162 0
141 162 0
147 167 0
136 156 0
147 168 0
133 154 0
138 158 0
142 165 0
141 163 0
146 167 0
148 170 0
142 162 0
142 163 0
147 168 0
148 171 0
146 167 0
143 165 0
136 156 0
146 166 0
142 162 0
140 162 0
141 161 0
145 166 0
138 158 0
139 160 0
144 165 0
142 163 0
141 163 0
144 165 0
145 166 0
133 153 0
142 162 0
150 172 0
135 155 0
141 162 0
147 169 0
148 169 0
128 150 0
140 161 0
138 159 0
131 152 0
134 154 0
146 167 0
139 160 0
128 148 0
143 165 0
132 154 0
140 160 0
135 158 0
142 162 0
140 161 0
135 155 0
146 169 0
134 155 0
141 162 0
141 161 0
130 151 0
129 149 0
140 160 0
133 153 0
140 162 0
138 158 0
137 158 0
135 153 0
146 165 0
138 158 0
138 157 0
145 164 0
141 162 0
140 160 0
141 161 0
138 159 0
134 154 0
146 166 0
143 161 0
136 155 0
142 161 0
144 164 0
141 163 0
136 157 0
142 161 0
146 165 0
139 158 0
139 160 0
136 156 0
138 158 0
145 165 0
144 164 0
142 162 0
143 163 0
140 158 0
136 153 0
153 173 0
142 162 0
142 162 0
136 153 0
139 157 0
141 162 0
140 160 0
139 158 0
137 158 0
143 163 0
142 162 0
133 154 0
138 157 0
131 150 0
133 150 0
141 160 0
136 155 0
139 158 0
145 164 0
147 167 0
139 157 0
141 162 0
140 158 0
147 167 0
141 158 0
140 157 0
138 156 0
152 171 0
142 159 0
144 163 0
128 147 0
149 168 0
150 171 0
134 152 0
147 167 0
147 166 0
132 148 0
149 167 0
142 159 0
136 155 0
145 162 0
136 153 0
143 161 0
143 162 0
146 163 0
147 166 0
140 159 0
143 162 0
154 173 0
145 162 0
139 156 0
141 160 0
143 161 0
138 155 0
144 162 0
138 152 0
152 170 0
142 158 0
146 164 0
142 159 0
144 159 0
148 166 0
140 154 0
142 158 0
146 164 0
147 164 0
138 154 0
142 157 0
143 159 0
146 163 0
139 154 0
148 165 0
142 156 0
146 161 0
147 163 0
143 159 0
138 151 0
139 153 0
146 160 0
150 167 0
147 161 0
144 157 0
139 152 0
143 158 0
146 160 0
139 151 0
144 160 0
139 153 0
143 154 0
151 165 0
136 148 0
145 159 0
139 151 0
146 158 0
136 147 0
151 165 0
145 158 0
139 152 0
130 140 0
139 150 0
142 154 0
140 152 0
149 161 0
142 152 0
137 146 0
143 154 0
147 157 0
146 157 0
137 144 0
145 155 0
146 154 0
146 156 0
130 138 0
134 143 0
139 147 0
144 153 0
143 151 0
135 142 0
142 151 0
138 146 0
146 156 0
141 150 0
148 158 0
139 145 0
140 148 0
145 149 0
145 153 0
153 163 0
144 152 0
139 142 0
146 154 0
143 151 0
143 151 0
139 146 0
152 160 0
147 153 0
147 155 0
136 139 0
146 155 0
138 146 0
147 155 0
148 157 0
150 159 0
148 156 0
148 156 0
153 161 0
148 156 0
156 166 0
152 160 0
150 159 0
152 159 0
151 159 0
148 155 0
155 163 0
147 154 0
145 155 0
156 166 0
154 164 0
148 155 0
154 163 0
143 152 0
151 159 0
156 165 0
146 154 0
149 156 0
151 159 0
154 163 0
150 159 0
152 165 0
161 181 0
163 182 0
159 177 0
155 174 0
156 175 0
161 180 0
158 176 0
154 172 0
157 175 0
159 178 0
157 176 0
155 173 0
155 174 0
158 176 0
161 179 0
158 177 0
156 173 0
159 177 0
157 175 0
153 171 0
148 166 0
155 173 0
158 176 0
154 173 0
159 177 0
151 169 0
155 173 0
157 176 0
150 167 0
159 177 0
161 180 0
153 172 0
155 173 0
149 167 0
153 171 0
153 170 0
147 165 0
148 167 0
150 169 0
154 173 0
152 171 0
155 172 0
153 171 0
154 173 0
149 166 0
147 164 0
154 171 0
152 171 0
151 169 0
152 169 0
144 162 0
147 166 0
147 166 0
150 168 0
151 170 0
147 165 0
154 172 0
155 174 0
154 172 0
152 172 0
149 168 0
154 173 0
150 168 0
151 169 0
139 158 0
146 165 0
152 171 0
145 164 0
139 157 0
150 169 0
153 171 0
150 169 0
151 170 0
150 170 0
146 165 0
144 163 0
153 172 0
150 168 0
149 169 0
146 166 0
151 171 0
143 162 0
146 165 0
153 173 0
156 175 0
147 166 0
145 165 0
148 168 0
155 175 0
148 169 0
142 161 0
150 170 0
141 162 0
150 170 0
155 175 0
147 167 0
147 167 0
148 169 0
148 168 0
153 174 0
147 167 0
145 164 0
147 169 0
144 163 0
147 168 0
144 163 0
151 172 0
154 175 0
140 160 0
150 169 0
141 162 0
154 174 0
141 162 0
144 165 0
154 176 0
145 166 0
153 174 0
148 169 0
146 168 0
146 166 0
149 170 0
150 171 0
148 169 0
155 178 0
142 164 0
144 165 0
151 173 0
139 161 0
147 168 0
147 169 0
142 164 0
149 170 0
143 164 0
135 155 0
146 167 0
142 163 0
155 177 0
147 169 0
143 165 0
141 163 0
141 162 0
145 166 0
150 170 0
143 164 0
143 165 0
139 161 0
149 172 0
146 168 0
137 158 0
142 164 0
145 166 0
140 162 0
141 164 0
148 171 0
148 169 0
140 161 0
140 159 0
147 168 0
142 164 0
141 161 0
142 164 0
138 158 0
147 168 0
142 163 0
138 158 0
137 158 0
140 160 0
132 153 0
137 158 0
143 164 0
146 166 0
142 163 0
144 165 0
136 158 0
142 164 0
144 165 0
138 158 0
136 156 0
136 158 0
148 170 0
134 155 0
138 158 0
143 164 0
140 161 0
144 165 0
134 155 0
142 162 0
122 142 0
134 154 0
135 156 0
133 153 0
143 163 0
142 163 0
135 155 0
141 161 0
135 154 0
144 166 0
139 160 0
142 162 0
150 171 0
134 155 0
135 155 0
131 151 0
137 158 0
128 149 0
141 161 0
137 158 0
137 156 0
143 164 0
139 159 0
140 161 0
138 159 0
144 163 0
129 149 0
139 158 0
136 157 0
142 162 0
139 159 0
145 165 0
142 162 0
141 160 0
140 160 0
135 154 0
136 156 0
143 163 0
142 161 0
135 154 0
129 149 0
139 160 0
141 163 0
144 163 0
147 166 0
145 165 0
139 159 0
143 161 0
138 158 0
141 160 0
142 160 0
136 153 0
141 160 0
136 155 0
137 154 0
137 156 0
135 155 0
145 165 0
141 161 0
136 154 0
136 155 0
144 164 0
142 161 0
138 157 0
148 167 0
141 160 0
145 164 0
136 154 0
134 152 0
148 168 0
147 167 0
140 159 0
137 156 0
147 167 0
148 167 0
136 156 0
148 166 0
139 159 0
145 163 0
137 156 0
154 172 0
144 162 0
140 158 0
140 155 0
141 159 0
148 166 0
149 168 0
149 165 0
143 159 0
141 157 0
142 159 0
146 165 0
141 158 0
143 160 0
146 162 0
134 150 0
146 164 0
136 152 0
147 165 0
139 156 0
142 159 0
150 169 0
144 161 0
149 166 0
146 163 0
148 161 0
143 157 0
142 160 0
145 160 0
148 164 0
143 159 0
142 157 0
145 162 0
136 150 0
133 148 0
139 154 0
143 157 0
141 157 0
138 155 0
136 151 0
143 156 0
137 151 0
146 160 0
139 152 0
137 147 0
146 161 0
143 158 0
142 157 0
143 157 0
143 157 0
147 164 0
144 158 0
149 163 0
137 151 0
142 156 0
144 159 0
150 163 0
139 149 0
147 158 0
151 163 0
137 150 0
145 159 0
145 156 0
141 153 0
149 161 0
142 154 0
143 155 0
145 154 0
134 147 0
143 155 0
145 156 0
143 153 0
143 150 0
141 151 0
145 158 0
137 146 0
145 155 0
148 159 0
139 144 0
141 151 0
141 150 0
143 152 0
150 162 0
142 152 0
148 156 0
149 161 0
145 151 0
146 154 0
150 160 0
135 142 0
142 148 0
143 153 0
141 148 0
143 152 0
144 153 0
159 168 0
144 154 0
146 153 0
148 158 0
142 150 0
147 154 0
146 153 0
139 146 0
149 156 0
135 141 0
141 149 0
154 164 0
145 152 0
145 151 0
146 155 0
148 154 0
144 152 0
157 167 0
143 149 0
155 165 0
151 160 0
147 154 0
148 158 0
156 165 0
146 154 0
149 155 0
152 161 0
147 156 0
151 161 0
151 161 0
153 161 0
153 164 0
155 166 0
155 162 0
155 165 0
149 160 0
147 156 0
149 157 0
158 176 0
165 185 0
159 178 0
160 180 0
161 179 0
159 178 0
162 180 0
158 176 0
156 175 0
157 175 0
159 177 0
160 178 0
157 176 0
156 174 0
159 176 0
153 170 0
155 174 0
157 176 0
154 173 0
154 172 0
151 169 0
155 174 0
155 173 0
156 173 0
156 175 0
160 179 0
151 169 0
158 176 0
152 171 0
155 174 0
153 172 0
157 175 0
159 178 0
155 172 0
154 173 0
154 172 0
155 173 0
152 170 0
152 170 0
153 171 0
148 166 0
149 168 0
158 177 0
149 167 0
147 164 0
148 166 0
150 167 0
154 173 0
150 168 0
155 174 0
146 164 0
154 172 0
151 170 0
147 166 0
153 172 0
158 177 0
154 172 0
144 162 0
143 162 0
149 167 0
149 168 0
153 173 0
153 172 0
144 162 0
150 169 0
149 168 0
153 171 0
151 170 0
148 167 0
147 167 0
150 169 0
160 179 0
149 169 0
149 168 0
154 174 0
151 171 0
149 170 0
148 167 0
154 174 0
153 174 0
146 166 0
149 168 0
149 169 0
149 169 0
151 172 0
149 169 0
140 161 0
153 173 0
151 171 0
157 177 0
141 161 0
146 167 0
151 172 0
150 170 0
146 166 0
144 163 0
151 172 0
147 168 0
144 165 0
149 170 0
147 168 0
156 177 0
136 156 0
145 166 0
153 173 0
141 161 0
151 171 0
151 170 0
144 165 0
153 175 0
148 168 0
142 163 0
143 163 0
148 169 0
150 171 0
147 168 0
147 167 0
149 170 0
152 174 0
139 160 0
144 166 0
145 167 0
141 161 0
151 173 0
153 174 0
148 170 0
145 167 0
147 168 0
138 159 0
152 174 0
149 171 0
150 171 0
145 167 0
151 172 0
147 168 0
147 169 0
156 177 0
146 167 0
145 165 0
150 172 0
149 171 0
141 162 0
146 168 0
141 163 0
144 165 0
146 167 0
143 164 0
146 167 0
137 158 0
143 163 0
144 166 0
146 166 0
146 168 0
146 167 0
142 164 0
140 161 0
149 172 0
144 164 0
135 157 0
139 161 0
132 153 0
140 161 0
147 168 0
144 164 0
140 162 0
139 161 0
137 158 0
145 166 0
148 168 0
142 164 0
140 160 0
140 162 0
150 171 0
146 168 0
139 161 0
145 165 0
144 164 0
138 158 0
137 159 0
135 155 0
143 164 0
146 167 0
139 160 0
138 157 0
143 164 0
144 165 0
137 159 0
148 168 0
143 163 0
146 167 0
139 159 0
140 160 0
143 166 0
138 158 0
140 160 0
138 158 0
148 169 0
139 161 0
130 151 0
136 155 0
136 156 0
143 164 0
139 160 0
141 162 0
132 153 0
142 164 0
135 153 0
146 167 0
139 160 0
139 160 0
141 161 0
142 163 0
140 159 0
145 166 0
137 159 0
141 162 0
136 155 0
146 167 0
140 161 0
143 164 0
135 154 0
143 162 0
144 164 0
136 156 0
143 165 0
145 166 0
143 165 0
143 163 0
139 157 0
137 156 0
146 165 0
136 156 0
146 164 0
142 160 0
141 162 0
150 170 0
138 158 0
135 154 0
142 162 0
145 165 0
153 173 0
138 156 0
140 158 0
138 158 0
142 163 0
142 163 0
141 160 0
145 163 0
140 161 0
145 164 0
148 168 0
134 153 0
140 158 0
146 166 0
146 165 0
140 159 0
148 168 0
138 157 0
147 167 0
141 160 0
136 154 0
146 166 0
140 160 0
135 154 0
143 161 0
145 163 0
134 153 0
139 157 0
149 167 0
138 156 0
144 162 0
149 168 0
144 162 0
143 160 0
148 166 0
145 163 0
142 159 0
150 168 0
141 159 0
142 159 0
143 160 0
146 164 0
148 167 0
139 155 0
138 158 0
138 156 0
146 163 0
140 156 0
140 157 0
146 161 0
153 171 0
144 164 0
149 166 0
148 166 0
144 161 0
145 161 0
151 166 0
151 165 0
143 159 0
151 169 0
145 160 0
151 166 0
140 157 0
147 163 0
144 159 0
145 161 0
145 158 0
141 158 0
144 159 0
137 150 0
147 159 0
147 161 0
144 159 0
145 161 0
142 157 0
147 163 0
153 168 0
140 151 0
145 159 0
137 148 0
150 163 0
146 161 0
146 162 0
144 157 0
146 162 0
141 156 0
144 155 0
138 149 0
148 161 0
142 154 0
147 157 0
145 155 0
146 157 0
141 154 0
144 153 0
141 152 0
149 161 0
139 152 0
153 165 0
147 160 0
141 152 0
146 155 0
152 166 0
143 154 0
149 158 0
143 154 0
143 152 0
142 150 0
146 156 0
146 158 0
143 153 0
147 155 0
147 158 0
147 156 0
150 161 0
143 151 0
149 157 0
146 155 0
141 148 0
144 156 0
147 155 0
148 156 0
144 150 0
153 164 0
151 160 0
147 157 0
147 157 0
138 146 0
147 153 0
143 149 0
152 159 0
152 163 0
149 158 0
155 163 0
147 152 0
147 156 0
149 155 0
152 161 0
144 154 0
151 160 0
151 161 0
152 160 0
154 164 0
149 157 0
152 161 0
146 154 0
151 159 0
145 153 0
147 155 0
153 163 0
151 159 0
153 161 0
152 163 0
144 154 0
156 164 0
147 156 0
155 166 0
150 161 0
148 159 0
156 169 0
155 173 0
162 181 0
159 178 0
159 177 0
156 175 0
158 177 0
159 177 0
157 176 0
159 177 0
154 172 0
157 176 0
159 178 0
160 179 0
155 175 0
159 177 0
161 179 0
158 176 0
155 173 0
155 173 0
157 176 0
157 175 0
159 178 0
154 173 0
151 170 0
158 176 0
158 177 0
148 167 0
155 173 0
154 172 0
157 175 0
154 172 0
158 176 0
151 168 0
149 167 0
155 174 0
154 172 0
155 173 0
150 168 0
154 172 0
149 166 0
153 172 0
150 168 0
151 169 0
153 171 0
157 175 0
148 167 0
151 170 0
155 173 0
155 173 0
152 170 0
152 171 0
152 170 0
150 169 0
156 174 0
153 172 0
149 168 0
146 165 0
151 170 0
154 173 0
147 167 0
149 169 0
152 171 0
141 160 0
152 172 0
148 167 0
153 172 0
153 172 0
149 167 0
159 179 0
144 163 0
153 172 0
150 169 0
154 173 0
143 163 0
149 169 0
152 172 0
147 166 0
141 162 0
149 168 0
145 165 0
147 167 0
156 176 0
147 166 0
148 169 0
152 171 0
148 168 0
151 171 0
140 160 0
152 171 0
151 171 0
153 173 0
150 171 0
150 170 0
149 170 0
153 172 0
145 165 0
140 160 0
153 174 0
145 166 0
147 167 0
147 168 0
146 167 0
142 162 0
148 168 0
149 171 0
151 171 0
147 169 0
153 175 0
151 171 0
155 176 0
145 167 0
149 169 0
148 169 0
147 168 0
141 162 0
147 168 0
146 166 0
142 163 0
154 176 0
144 165 0
145 166 0
147 168 0
152 173 0
147 168 0
146 168 0
153 174 0
151 173 0
140 161 0
144 166 0
144 165 0
140 161 0
143 163 0
151 171 0
145 165 0
154 175 0
142 163 0
145 166 0
148 170 0
147 167 0
149 171 0
141 163 0
145 166 0
143 164 0
147 169 0
144 166 0
147 169 0
145 164 0
149 171 0
139 161 0
143 165 0
147 168 0
150 171 0
142 164 0
141 163 0
138 158 0
136 159 0
147 167 0
145 167 0
134 154 0
145 166 0
146 167 0
148 169 0
147 168 0
145 167 0
141 163 0
143 166 0
142 162 0
151 173 0
141 162 0
145 166 0
146 168 0
149 171 0
150 171 0
141 162 0
143 163 0
142 164 0
147 168 0
141 161 0
145 167 0
147 169 0
136 156 0
138 160 0
139 161 0
139 161 0
136 158 0
144 163 0
143 163 0
143 163 0
138 160 0
139 158 0
139 160 0
134 154 0
128 148 0
131 151 0
136 155 0
142 164 0
143 164 0
135 157 0
137 157 0
143 165 0
141 162 0
135 156 0
145 166 0
142 163 0
148 168 0
150 170 0
134 154 0
144 166 0
138 159 0
146 166 0
136 157 0
145 165 0
142 163 0
154 175 0
137 158 0
138 158 0
150 172 0
141 160 0
144 165 0
143 163 0
138 158 0
143 163 0
139 158 0
142 162 0
137 158 0
145 164 0
137 157 0
138 157 0
147 168 0
144 163 0
133 153 0
138 159 0
139 160 0
137 158 0
139 158 0
139 160 0
142 162 0
143 162 0
142 160 0
136 155 0
141 161 0
150 170 0
148 168 0
139 158 0
152 173 0
143 163 0
145 165 0
149 168 0
142 162 0
143 164 0
143 162 0
140 158 0
138 159 0
142 162 0
144 164 0
141 160 0
150 168 0
151 170 0
145 164 0
144 164 0
146 166 0
148 168 0
138 159 0
132 151 0
144 164 0
141 161 0
141 158 0
141 160 0
146 166 0
149 169 0
138 155 0
140 157 0
142 160 0
142 161 0
144 165 0
143 161 0
148 167 0
143 160 0
150 168 0
139 155 0
148 166 0
147 165 0
142 160 0
147 165 0
144 161 0
149 166 0
149 165 0
144 161 0
148 166 0
146 165 0
149 165 0
144 161 0
146 163 0
145 159 0
149 167 0
146 163 0
147 163 0
150 167 0
142 158 0
146 162 0
144 161 0
142 157 0
140 155 0
143 161 0
139 154 0
152 168 0
148 162 0
144 161 0
145 162 0
148 162 0
144 157 0
149 163 0
140 155 0
145 158 0
145 159 0
135 149 0
149 163 0
149 165 0
148 162 0
150 164 0
152 168 0
144 156 0
147 161 0
142 156 0
151 164 0
140 150 0
153 167 0
148 162 0
147 160 0
149 163 0
142 156 0
151 163 0
145 160 0
144 157 0
140 154 0
148 160 0
148 160 0
148 159 0
146 156 0
147 159 0
153 167 0
144 156 0
147 157 0
146 158 0
143 152 0
140 150 0
139 148 0
145 156 0
145 151 0
144 153 0
144 155 0
147 158 0
147 156 0
145 155 0
145 151 0
155 165 0
146 155 0
140 151 0
142 152 0
147 157 0
143 151 0
139 148 0
149 158 0
141 149 0
145 156 0
142 153 0
149 158 0
150 159 0
152 161 0
151 160 0
150 160 0
144 152 0
143 150 0
145 154 0
155 165 0
152 165 0
142 150 0
138 144 0
149 159 0
149 158 0
149 159 0
150 161 0
146 154 0
150 161 0
148 158 0
156 166 0
143 150 0
147 154 0
158 170 0
151 160 0
147 156 0
156 164 0
148 158 0
154 166 0
152 162 0
155 166 0
154 164 0
154 160 0
151 162 0
153 161 0
156 175 0
161 180 0
158 177 0
160 179 0
164 182 0
160 180 0
156 175 0
159 178 0
150 169 0
155 172 0
151 169 0
159 177 0
159 177 0
160 179 0
160 178 0
153 171 0
158 176 0
159 178 0
155 173 0
158 176 0
157 175 0
160 178 0
153 171 0
157 175 0
156 173 0
160 179 0
152 172 0
154 173 0
148 166 0
154 172 0
153 172 0
159 178 0
157 174 0
154 173 0
160 179 0
150 168 0
151 169 0
148 166 0
157 176 0
155 174 0
152 170 0
154 173 0
151 169 0
155 173 0
157 176 0
154 174 0
148 167 0
157 176 0
148 166 0
151 170 0
154 174 0
152 171 0
152 171 0
154 173 0
155 174 0
142 160 0
148 166 0
151 170 0
145 164 0
158 178 0
144 162 0
158 178 0
153 174 0
152 172 0
148 166 0
151 171 0
150 170 0
151 171 0
155 175 0
151 170 0
152 171 0
151 171 0
151 171 0
153 173 0
147 167 0
154 174 0
146 166 0
145 165 0
153 174 0
158 177 0
147 167 0
150 170 0
143 163 0
155 175 0
149 169 0
146 166 0
145 166 0
144 164 0
147 167 0
151 172 0
145 165 0
152 173 0
153 174 0
157 178 0
149 169 0
150 171 0
154 174 0
144 164 0
156 178 0
147 166 0
150 170 0
157 178 0
145 165 0
147 167 0
141 161 0
142 162 0
145 166 0
150 170 0
149 170 0
146 165 0
147 167 0
148 169 0
149 169 0
142 162 0
149 171 0
148 169 0
144 165 0
149 170 0
152 173 0
148 169 0
150 171 0
146 168 0
146 168 0
153 175 0
145 165 0
141 161 0
144 165 0
145 165 0
144 165 0
145 167 0
145 167 0
142 162 0
146 167 0
148 169 0
148 168 0
146 168 0
148 169 0
146 167 0
152 173 0
148 169 0
148 170 0
148 170 0
147 168 0
141 163 0
135 156 0
143 164 0
148 169 0
145 166 0
152 173 0
141 162 0
142 163 0
143 164 0
144 165 0
144 166 0
140 162 0
151 173 0
144 166 0
147 169 0
148 170 0
136 157 0
140 161 0
146 167 0
138 160 0
140 161 0
151 173 0
137 158 0
146 168 0
144 165 0
141 162 0
146 166 0
143 164 0
142 161 0
131 152 0
151 173 0
143 163 0
143 165 0
143 164 0
146 168 0
146 167 0
148 169 0
146 166 0
146 168 0
144 166 0
139 159 0
140 162 0
135 156 0
134 154 0
139 160 0
141 162 0
139 159 0
137 159 0
142 162 0
137 159 0
145 167 0
143 163 0
144 165 0
143 165 0
134 154 0
147 166 0
141 163 0
142 162 0
135 156 0
142 162 0
147 168 0
143 164 0
142 162 0
141 163 0
141 161 0
145 164 0
148 169 0
144 165 0
142 162 0
140 161 0
151 170 0
136 157 0
145 166 0
148 169 0
143 163 0
128 147 0
141 162 0
131 150 0
148 167 0
141 162 0
137 158 0
144 164 0
140 161 0
144 166 0
149 170 0
140 161 0
141 161 0
138 157 0
141 161 0
148 169 0
144 163 0
149 169 0
140 161 0
138 159 0
144 164 0
141 161 0
143 162 0
137 157 0
149 170 0
137 155 0
138 157 0
141 159 0
144 163 0
148 166 0
142 163 0
139 158 0
142 160 0
140 159 0
133 152 0
133 151 0
147 167 0
136 155 0
140 160 0
149 169 0
145 163 0
148 167 0
141 161 0
140 158 0
141 160 0
144 164 0
151 171 0
145 164 0
135 151 0
138 154 0
142 161 0
141 160 0
141 159 0
143 161 0
140 157 0
141 160 0
141 159 0
152 173 0
149 165 0
141 159 0
147 167 0
150 168 0
138 155 0
138 155 0
146 164 0
143 161 0
143 159 0
149 167 0
144 161 0
151 168 0
143 162 0
147 165 0
144 161 0
145 164 0
152 170 0
138 153 0
139 154 0
149 165 0
145 165 0
139 156 0
135 153 0
139 157 0
147 165 0
145 160 0
143 160 0
139 155 0
141 156 0
151 167 0
149 166 0
144 160 0
142 158 0
146 163 0
144 160 0
147 163 0
147 163 0
144 158 0
153 169 0
148 166 0
148 162 0
151 166 0
144 158 0
146 160 0
141 154 0
152 167 0
145 160 0
144 159 0
143 155 0
149 162 0
142 155 0
147 161 0
147 160 0
141 155 0
155 168 0
146 160 0
141 152 0
144 155 0
136 147 0
140 153 0
143 154 0
148 161 0
148 161 0
143 156 0
148 160 0
143 154 0
145 153 0
148 160 0
153 165 0
145 158 0
142 155 0
145 154 0
145 153 0
139 150 0
150 161 0
141 153 0
153 166 0
144 150 0
145 153 0
147 159 0
150 162 0
145 154 0
149 161 0
148 156 0
152 164 0
150 161 0
145 157 0
147 156 0
147 159 0
148 160 0
155 166 0
149 158 0
149 157 0
154 163 0
143 150 0
151 162 0
151 159 0
146 156 0
149 160 0
152 160 0
150 160 0
151 163 0
150 162 0
143 149 0
155 163 0
149 160 0
147 156 0
152 161 0
148 157 0
155 164 0
152 158 0
152 162 0
157 170 0
150 161 0
153 159 0
152 164 0
156 167 0
153 163 0
157 166 0
151 161 0
157 168 0
152 165 0
151 162 0
159 171 0
156 165 0
163 182 0
159 179 0
161 180 0
162 181 0
155 174 0
157 176 0
159 179 0
161 180 0
159 177 0
156 175 0
161 180 0
152 171 0
158 176 0
156 175 0
155 174 0
158 177 0
158 178 0
152 171 0
154 171 0
158 176 0
159 177 0
161 180 0
158 178 0
160 179 0
157 177 0
158 176 0
154 172 0
158 176 0
156 175 0
162 181 0
155 174 0
155 174 0
159 177 0
156 175 0
156 175 0
156 174 0
151 169 0
151 170 0
151 169 0
156 174 0
154 172 0
152 170 0
151 170 0
158 177 0
155 174 0
153 173 0
153 171 0
155 174 0
151 170 0
157 176 0
158 177 0
158 175 0
154 173 0
154 173 0
152 172 0
154 173 0
148 166 0
152 172 0
147 167 0
153 172 0
153 173 0
157 177 0
148 167 0
151 170 0
155 174 0
150 169 0
143 163 0
151 170 0
144 163 0
153 172 0
151 170 0
148 168 0
146 165 0
152 171 0
152 171 0
155 175 0
152 171 0
145 164 0
154 174 0
152 173 0
152 173 0
152 172 0
151 171 0
149 169 0
147 167 0
146 166 0
154 174 0
144 164 0
149 169 0
145 166 0
148 169 0
154 175 0
155 177 0
150 172 0
151 171 0
148 169 0
150 171 0
150 170 0
150 171 0
148 169 0
155 176 0
147 169 0
148 168 0
137 157 0
151 171 0
143 163 0
152 174 0
152 173 0
148 170 0
151 173 0
149 169 0
148 169 0
151 173 0
145 165 0
149 170 0
150 171 0
136 158 0
141 162 0
155 176 0
147 168 0
145 166 0
144 165 0
138 160 0
151 173 0
150 172 0
143 164 0
149 172 0
149 171 0
144 166 0
154 175 0
151 173 0
138 159 0
149 171 0
153 175 0
144 165 0
153 175 0
149 171 0
145 166 0
150 171 0
147 169 0
150 171 0
147 169 0
148 169 0
145 165 0
153 174 0
155 176 0
149 170 0
141 162 0
138 160 0
148 170 0
151 173 0
147 169 0
144 165 0
141 162 0
143 163 0
143 165 0
147 169 0
144 166 0
147 169 0
143 164 0
144 166 0
144 165 0
147 169 0
149 170 0
152 173 0
144 165 0
152 174 0
148 169 0
138 159 0
142 164 0
137 157 0
143 164 0
137 158 0
141 163 0
142 162 0
144 166 0
137 158 0
139 159 0
137 158 0
137 158 0
140 162 0
150 172 0
142 164 0
141 162 0
143 162 0
136 155 0
143 164 0
146 168 0
146 166 0
142 161 0
138 158 0
143 165 0
145 167 0
147 168 0
142 162 0
137 158 0
140 160 0
139 160 0
147 167 0
146 167 0
138 160 0
145 165 0
142 163 0
144 166 0
134 155 0
144 165 0
147 167 0
145 165 0
148 168 0
143 165 0
146 166 0
135 156 0
145 166 0
138 159 0
150 170 0
148 169 0
143 166 0
143 163 0
149 172 0
140 160 0
148 168 0
143 163 0
133 152 0
152 172 0
146 166 0
148 168 0
149 169 0
145 164 0
149 170 0
153 174 0
142 163 0
133 152 0
142 161 0
145 165 0
146 166 0
141 162 0
148 170 0
143 164 0
138 159 0
143 164 0
143 164 0
154 175 0
146 167 0
145 164 0
147 169 0
150 170 0
144 164 0
145 164 0
145 164 0
144 164 0
143 162 0
148 166 0
141 161 0
145 163 0
140 158 0
138 159 0
147 165 0
147 166 0
142 162 0
149 167 0
145 163 0
152 172 0
142 161 0
140 159 0
136 155 0
135 152 0
138 157 0
132 149 0
144 162 0
143 160 0
152 170 0
150 169 0
146 166 0
144 162 0
138 157 0
147 163 0
156 172 0
145 162 0
153 172 0
151 169 0
147 164 0
149 167 0
147 163 0
146 164 0
150 169 0
146 163 0
153 171 0
148 166 0
136 153 0
141 160 0
143 161 0
137 154 0
145 161 0
144 160 0
147 163 0
143 158 0
147 164 0
141 156 0
148 164 0
149 166 0
137 151 0
146 165 0
149 166 0
146 162 0
148 165 0
147 163 0
144 158 0
139 155 0
147 163 0
144 158 0
139 156 0
144 160 0
148 161 0
141 154 0
141 154 0
139 156 0
149 166 0
149 164 0
142 157 0
144 156 0
148 161 0
147 159 0
142 156 0
148 161 0
151 166 0
148 160 0
142 155 0
150 165 0
145 159 0
143 157 0
142 155 0
137 149 0
144 157 0
143 155 0
147 159 0
150 161 0
144 154 0
143 156 0
148 161 0
144 157 0
145 155 0
139 149 0
147 160 0
148 159 0
146 158 0
146 157 0
142 151 0
155 167 0
145 156 0
145 156 0
145 157 0
141 151 0
141 152 0
152 164 0
152 164 0
153 164 0
148 159 0
153 165 0
147 156 0
153 166 0
145 154 0
143 150 0
151 159 0
146 154 0
144 154 0
148 160 0
151 162 0
140 149 0
144 155 0
149 157 0
152 160 0
137 147 0
157 170 0
147 158 0
152 161 0
155 164 0
154 166 0
155 165 0
151 159 0
146 153 0
149 158 0
158 167 0
152 162 0
144 153 0
159 171 0
155 166 0
151 159 0
149 159 0
151 158 0
159 171 0
143 151 0
151 160 0
153 164 0
152 161 0
156 168 0
150 160 0
146 155 0
152 164 0
156 163 0
155 164 0
162 181 0
161 180 0
163 182 0
151 170 0
163 182 0
161 181 0
161 181 0
155 174 0
156 175 0
157 176 0
157 176 0
156 174 0
159 178 0
161 181 0
151 169 0
156 175 0
154 173 0
153 172 0
157 176 0
153 171 0
153 172 0
157 177 0
156 176 0
156 175 0
158 177 0
159 178 0
156 175 0
163 184 0
154 173 0
151 170 0
153 171 0
150 169 0
152 170 0
158 176 0
148 167 0
154 173 0
152 170 0
150 168 0
147 164 0
146 165 0
154 173 0
154 174 0
152 171 0
157 176 0
152 172 0
148 167 0
155 174 0
156 176 0
150 169 0
148 166 0
159 179 0
159 178 0
157 177 0
148 166 0
146 165 0
158 178 0
153 172 0
157 177 0
150 170 0
141 160 0
153 173 0
154 173 0
148 168 0
158 179 0
150 170 0
155 174 0
153 173 0
151 171 0
151 171 0
148 167 0
149 168 0
151 171 0
147 166 0
153 173 0
150 169 0
152 172 0
153 173 0
151 171 0
151 171 0
151 171 0
153 173 0
148 170 0
150 170 0
153 173 0
151 171 0
147 167 0
149 169 0
151 172 0
153 173 0
153 174 0
149 171 0
148 169 0
146 167 0
146 166 0
150 172 0
148 169 0
146 166 0
154 175 0
150 171 0
148 169 0
153 174 0
152 173 0
143 162 0
154 175 0
149 171 0
152 174 0
144 165 0
147 168 0
150 171 0
154 174 0
149 169 0
147 168 0
151 172 0
152 173 0
145 166 0
149 171 0
153 174 0
150 171 0
151 172 0
149 172 0
142 163 0
146 167 0
142 164 0
150 171 0
150 171 0
145 167 0
142 163 0
142 164 0
140 161 0
144 166 0
152 173 0
146 167 0
144 166 0
149 170 0
146 168 0
149 170 0
142 163 0
144 166 0
143 165 0
146 169 0
152 173 0
149 171 0
142 164 0
142 163 0
151 172 0
141 161 0
146 167 0
142 163 0
145 165 0
145 166 0
151 174 0
148 170 0
145 167 0
146 167 0
143 164 0
150 171 0
154 174 0
142 163 0
142 164 0
149 170 0
147 169 0
142 163 0
149 171 0
143 164 0
150 172 0
146 168 0
153 175 0
144 165 0
141 162 0
151 170 0
149 168 0
150 172 0
143 165 0
150 171 0
144 166 0
137 159 0
135 157 0
148 169 0
139 160 0
145 166 0
138 159 0
142 163 0
148 170 0
147 169 0
144 165 0
137 157 0
142 163 0
150 171 0
134 155 0
141 162 0
145 165 0
136 157 0
142 164 0
149 170 0
142 161 0
144 165 0
143 165 0
135 156 0
146 167 0
139 159 0
135 157 0
143 164 0
139 160 0
139 161 0
142 162 0
143 164 0
146 167 0
142 163 0
145 166 0
138 158 0
144 164 0
145 166 0
142 162 0
139 159 0
145 167 0
140 161 0
136 156 0
146 165 0
146 168 0
146 165 0
145 166 0
146 167 0
150 171 0
145 164 0
145 166 0
144 165 0
142 163 0
147 169 0
145 166 0
152 173 0
141 160 0
144 166 0
149 170 0
150 171 0
147 167 0
139 159 0
147 167 0
146 166 0
128 146 0
148 171 0
143 161 0
149 168 0
142 161 0
136 156 0
150 170 0
145 165 0
140 159 0
148 169 0
141 159 0
151 168 0
149 167 0
146 165 0
148 167 0
153 173 0
151 172 0
137 156 0
141 161 0
142 159 0
142 162 0
143 161 0
139 157 0
143 162 0
139 156 0
141 160 0
146 163 0
148 166 0
144 164 0
149 170 0
148 165 0
152 171 0
144 165 0
150 170 0
139 161 0
145 164 0
145 165 0
147 167 0
148 166 0
150 169 0
145 162 0
145 163 0
144 164 0
149 167 0
151 172 0
149 168 0
147 165 0
137 153 0
146 164 0
150 168 0
147 164 0
148 167 0
150 169 0
153 172 0
147 164 0
147 163 0
142 158 0
153 170 0
144 161 0
147 165 0
147 163 0
140 154 0
142 159 0
147 164 0
151 168 0
142 157 0
139 156 0
153 170 0
141 155 0
144 160 0
150 167 0
150 166 0
139 157 0
136 149 0
142 156 0
145 162 0
149 164 0
147 163 0
146 162 0
152 168 0
146 159 0
145 158 0
138 153 0
145 161 0
151 168 0
148 162 0
147 161 0
151 166 0
154 168 0
148 166 0
143 157 0
151 164 0
151 166 0
150 167 0
146 161 0
142 155 0
153 167 0
148 160 0
152 167 0
148 160 0
151 165 0
149 163 0
149 160 0
146 158 0
149 160 0
141 154 0
151 163 0
155 167 0
145 157 0
146 156 0
146 158 0
149 162 0
148 158 0
148 157 0
145 159 0
140 150 0
147 155 0
148 161 0
145 156 0
138 148 0
150 161 0
154 167 0
151 162 0
149 161 0
143 154 0
150 160 0
140 149 0
148 158 0
147 158 0
149 160 0
154 164 0
147 156 0
153 163 0
153 166 0
156 165 0
149 160 0
148 160 0
146 157 0
148 161 0
150 162 0
147 157 0
152 162 0
154 165 0
148 156 0
152 162 0
151 161 0
147 155 0
146 154 0
151 162 0
156 168 0
153 164 0
153 164 0
149 158 0
148 156 0
149 160 0
149 158 0
147 156 0
158 171 0
158 166 0
151 160 0
152 165 0
151 161 0
158 177 0
160 178 0
157 177 0
157 176 0
163 183 0
157 176 0
165 184 0
156 176 0
159 178 0
160 179 0
158 176 0
159 178 0
157 176 0
162 181 0
160 179 0
157 175 0
156 176 0
159 179 0
153 170 0
157 177 0
153 173 0
160 180 0
150 168 0
152 170 0
158 177 0
154 173 0
150 168 0
160 179 0
154 172 0
154 173 0
157 175 0
158 178 0
157 176 0
153 172 0
152 172 0
157 177 0
153 172 0
155 174 0
155 174 0
157 176 0
145 163 0
162 180 0
146 165 0
149 167 0
158 177 0
156 175 0
149 169 0
151 171 0
150 170 0
154 175 0
146 165 0
154 174 0
149 168 0
156 175 0
161 182 0
157 176 0
153 172 0
160 179 0
154 172 0
150 169 0
157 177 0
150 170 0
150 169 0
153 172 0
152 172 0
156 177 0
149 168 0
153 173 0
154 175 0
150 170 0
154 174 0
161 182 0
148 169 0
147 167 0
149 169 0
155 176 0
150 171 0
153 172 0
143 163 0
146 167 0
150 171 0
149 170 0
151 171 0
155 175 0
154 174 0
150 170 0
146 165 0
145 165 0
153 175 0
143 163 0
154 174 0
143 163 0
146 167 0
150 171 0
150 171 0
148 170 0
140 160 0
151 173 0
147 168 0
154 175 0
151 172 0
144 165 0
143 164 0
149 170 0
153 176 0
148 169 0
151 173 0
146 167 0
149 170 0
151 172 0
147 168 0
148 170 0
141 162 0
144 165 0
149 170 0
147 170 0
148 170 0
148 170 0
149 169 0
145 165 0
154 176 0
150 171 0
148 170 0
148 170 0
153 174 0
154 175 0
154 175 0
144 166 0
144 166 0
142 162 0
145 166 0
148 169 0
152 173 0
144 166 0
144 165 0
144 165 0
151 173 0
142 164 0
150 170 0
150 171 0
145 167 0
150 171 0
154 176 0
148 170 0
145 167 0
150 171 0
142 162 0
143 165 0
149 171 0
152 174 0
148 169 0
147 169 0
140 161 0
153 176 0
144 164 0
139 161 0
137 158 0
142 163 0
147 168 0
147 168 0
150 171 0
152 174 0
139 160 0
142 162 0
145 166 0
137 159 0
144 165 0
146 168 0
143 165 0
141 161 0
140 161 0
145 167 0
146 167 0
145 165 0
146 168 0
142 163 0
143 164 0
150 170 0
142 163 0
143 163 0
139 160 0
145 165 0
138 160 0
143 164 0
142 164 0
144 165 0
139 161 0
148 168 0
144 164 0
137 158 0
137 158 0
150 170 0
132 153 0
155 176 0
140 161 0
134 155 0
141 162 0
148 169 0
143 164 0
141 162 0
138 157 0
139 159 0
148 169 0
149 169 0
141 161 0
152 173 0
139 160 0
143 165 0
139 161 0
149 171 0
148 170 0
137 156 0
141 163 0
145 166 0
144 165 0
139 159 0
138 160 0
139 158 0
144 166 0
148 169 0
151 172 0
147 168 0
147 168 0
147 167 0
143 163 0
133 152 0
150 171 0
143 162 0
140 161 0
147 168 0
139 159 0
146 168 0
141 160 0
139 157 0
135 154 0
154 175 0
145 165 0
140 159 0
140 161 0
139 157 0
147 168 0
143 165 0
149 170 0
142 161 0
136 155 0
141 161 0
144 162 0
140 160 0
144 164 0
147 167 0
142 163 0
144 165 0
135 154 0
140 159 0
142 161 0
146 165 0
150 169 0
141 161 0
146 166 0
146 164 0
139 157 0
141 159 0
143 163 0
140 159 0
147 167 0
155 175 0
147 165 0
142 161 0
140 160 0
148 166 0
145 163 0
143 162 0
147 166 0
151 171 0
149 167 0
145 165 0
147 166 0
143 163 0
136 153 0
140 158 0
146 165 0
153 172 0
148 167 0
154 174 0
155 174 0
150 167 0
149 167 0
144 163 0
154 172 0
142 161 0
148 165 0
138 154 0
146 161 0
149 167 0
147 166 0
143 163 0
149 166 0
143 160 0
143 161 0
148 164 0
147 163 0
147 165 0
151 167 0
152 170 0
150 169 0
144 160 0
139 154 0
147 161 0
144 160 0
145 158 0
151 167 0
131 145 0
141 156 0
148 164 0
149 165 0
142 159 0
145 161 0
143 160 0
146 159 0
148 164 0
151 166 0
147 161 0
153 168 0
153 169 0
146 161 0
157 169 0
154 170 0
153 169 0
145 160 0
148 162 0
146 161 0
141 154 0
148 162 0
146 160 0
149 162 0
156 171 0
153 166 0
150 163 0
151 166 0
153 167 0
150 164 0
142 154 0
145 156 0
144 156 0
149 161 0
153 166 0
146 157 0
150 162 0
146 156 0
145 157 0
148 158 0
150 161 0
144 154 0
147 158 0
139 149 0
150 163 0
142 153 0
152 164 0
153 164 0
152 162 0
148 161 0
146 155 0
147 158 0
155 165 0
150 161 0
149 161 0
147 156 0
151 160 0
141 152 0
154 167 0
150 162 0
151 161 0
148 156 0
146 156 0
155 166 0
152 162 0
156 166 0
154 166 0
150 160 0
154 167 0
151 163 0
157 169 0
142 151 0
150 160 0
158 170 0
151 163 0
152 160 0
145 154 0
152 166 0
146 158 0
152 161 0
149 157 0
149 160 0
145 153 0
146 154 0
159 172 0
152 161 0
157 167 0
157 167 0
147 157 0
161 181 0
156 176 0
158 176 0
162 182 0
158 178 0
160 179 0
157 176 0
162 182 0
162 181 0
159 178 0
155 174 0
158 177 0
161 181 0
160 180 0
160 179 0
161 180 0
161 180 0
157 176 0
158 177 0
156 174 0
159 178 0
154 173 0
155 174 0
158 176 0
158 178 0
156 175 0
152 171 0
157 176 0
156 175 0
154 173 0
158 177 0
161 180 0
157 176 0
159 179 0
157 176 0
157 177 0
156 175 0
154 173 0
154 172 0
154 173 0
149 167 0
150 170 0
159 179 0
157 176 0
160 179 0
154 174 0
153 174 0
156 177 0
153 173 0
154 175 0
158 179 0
158 177 0
149 169 0
155 175 0
156 174 0
157 178 0
158 178 0
151 171 0
151 171 0
153 172 0
146 165 0
154 175 0
143 162 0
146 165 0
155 174 0
155 175 0
150 171 0
144 164 0
156 176 0
144 163 0
150 171 0
144 164 0
152 172 0
153 173 0
150 170 0
156 177 0
147 167 0
149 169 0
150 169 0
144 165 0
146 166 0
143 163 0
150 170 0
150 170 0
146 165 0
158 179 0
148 169 0
153 173 0
150 172 0
151 171 0
146 166 0
151 171 0
148 169 0
148 170 0
147 168 0
145 166 0
148 168 0
148 168 0
154 175 0
149 170 0
156 178 0
146 167 0
150 173 0
151 172 0
156 177 0
156 177 0
149 170 0
146 167 0
147 168 0
153 175 0
149 170 0
146 168 0
146 167 0
150 172 0
142 163 0
149 170 0
149 171 0
156 178 0
148 168 0
136 156 0
148 169 0
145 168 0
147 169 0
153 176 0
151 172 0
146 166 0
153 174 0
143 164 0
152 172 0
144 164 0
149 171 0
146 166 0
149 170 0
150 172 0
149 170 0
152 174 0
153 175 0
147 168 0
147 169 0
137 159 0
150 171 0
149 170 0
147 170 0
150 173 0
148 169 0
151 172 0
144 166 0
137 160 0
143 164 0
152 174 0
140 161 0
151 173 0
149 171 0
144 165 0
150 170 0
142 162 0
144 166 0
150 171 0
149 171 0
130 151 0
143 165 0
146 168 0
139 160 0
147 169 0
142 164 0
145 165 0
138 159 0
150 171 0
133 153 0
144 165 0
148 170 0
140 160 0
152 173 0
145 168 0
144 166 0
144 164 0
140 162 0
140 162 0
141 161 0
136 157 0
143 164 0
140 161 0
143 163 0
149 170 0
143 165 0
145 166 0
145 167 0
139 160 0
142 163 0
141 162 0
136 156 0
137 161 0
148 170 0
147 168 0
138 160 0
148 170 0
138 159 0
137 155 0
132 151 0
132 153 0
141 163 0
143 164 0
146 167 0
140 160 0
146 166 0
149 171 0
140 160 0
148 168 0
145 167 0
138 158 0
144 164 0
136 158 0
138 158 0
150 171 0
138 158 0
143 164 0
136 158 0
135 156 0
144 165 0
141 162 0
139 158 0
140 161 0
142 163 0
149 169 0
149 170 0
141 161 0
137 157 0
142 163 0
138 159 0
138 157 0
146 167 0
139 159 0
154 174 0
142 163 0
150 170 0
141 162 0
151 173 0
145 166 0
148 169 0
143 162 0
137 157 0
145 166 0
138 158 0
149 171 0
147 167 0
135 153 0
149 169 0
148 168 0
145 166 0
141 160 0
141 161 0
147 168 0
148 169 0
149 170 0
144 163 0
142 162 0
145 165 0
144 163 0
144 163 0
147 166 0
150 168 0
138 156 0
154 174 0
142 163 0
149 169 0
152 171 0
147 167 0
139 158 0
152 172 0
157 175 0
156 176 0
143 162 0
149 167 0
152 171 0
147 166 0
145 162 0
142 160 0
153 172 0
144 161 0
156 177 0
152 170 0
148 167 0
145 163 0
141 158 0
143 159 0
143 162 0
149 168 0
149 168 0
139 156 0
139 157 0
146 163 0
150 170 0
147 164 0
149 167 0
150 166 0
150 166 0
146 164 0
143 160 0
150 167 0
150 168 0
155 171 0
149 169 0
140 154 0
145 162 0
153 169 0
142 160 0
148 164 0
144 161 0
154 171 0
142 157 0
146 165 0
144 161 0
149 166 0
143 158 0
146 160 0
146 163 0
150 164 0
153 168 0
140 155 0
148 163 0
142 156 0
147 163 0
147 162 0
147 160 0
158 174 0
143 158 0
136 150 0
143 159 0
153 166 0
150 163 0
144 161 0
153 168 0
144 158 0
144 157 0
142 156 0
151 163 0
149 164 0
145 156 0
145 159 0
152 166 0
154 165 0
149 162 0
148 162 0
147 160 0
144 156 0
150 164 0
150 166 0
151 162 0
144 158 0
152 167 0
147 161 0
152 162 0
155 169 0
138 149 0
146 158 0
147 157 0
149 159 0
142 154 0
158 171 0
151 162 0
155 165 0
148 159 0
147 160 0
150 162 0
143 155 0
149 162 0
149 160 0
151 161 0
152 161 0
153 165 0
156 167 0
153 163 0
143 152 0
145 155 0
145 158 0
148 160 0
156 167 0
151 162 0
145 155 0
151 163 0
155 167 0
152 164 0
152 161 0
153 164 0
148 158 0
151 161 0
147 158 0
156 167 0
150 162 0
153 164 0
146 155 0
158 168 0
154 165 0
154 165 0
150 159 0
157 167 0
150 160 0
147 158 0
150 158 0
154 165 0
157 176 0
161 181 0
163 182 0
158 178 0
159 178 0
159 178 0
159 178 0
158 178 0
157 175 0
160 179 0
163 182 0
161 180 0
157 176 0
153 171 0
159 177 0
157 176 0
153 173 0
161 179 0
154 173 0
160 179 0
163 181 0
153 172 0
155 174 0
154 173 0
153 173 0
153 172 0
155 173 0
153 173 0
153 171 0
152 171 0
159 179 0
151 169 0
156 175 0
159 177 0
158 179 0
147 164 0
157 176 0
155 176 0
153 173 0
155 174 0
154 173 0
154 173 0
153 173 0
163 183 0
156 176 0
158 178 0
155 175 0
154 173 0
157 177 0
152 171 0
153 172 0
152 171 0
154 174 0
153 172 0
148 167 0
149 168 0
146 165 0
155 176 0
149 170 0
145 165 0
147 167 0
149 169 0
153 174 0
150 170 0
150 170 0
159 180 0
146 166 0
155 175 0
148 168 0
152 171 0
149 170 0
154 174 0
154 175 0
156 176 0
160 180 0
153 173 0
152 172 0
146 166 0
156 178 0
152 172 0
154 175 0
156 177 0
152 173 0
152 172 0
154 175 0
157 178 0
148 169 0
151 172 0
153 175 0
147 168 0
150 171 0
150 172 0
155 176 0
151 172 0
149 170 0
154 176 0
150 171 0
150 172 0
148 169 0
149 170 0
148 169 0
141 161 0
149 170 0
153 175 0
154 175 0
145 165 0
143 164 0
152 174 0
151 172 0
146 168 0
151 173 0
147 169 0
151 172 0
151 172 0
154 174 0
148 169 0
147 168 0
146 168 0
149 171 0
150 170 0
152 173 0
152 174 0
152 174 0
150 171 0
154 176 0
144 165 0
151 173 0
149 169 0
154 175 0
152 174 0
143 164 0
144 164 0
151 172 0
135 155 0
152 173 0
143 163 0
147 168 0
153 175 0
146 167 0
146 167 0
147 169 0
144 165 0
142 162 0
148 169 0
152 173 0
144 165 0
148 169 0
146 167 0
141 162 0
148 169 0
140 161 0
147 169 0
137 159 0
149 171 0
142 164 0
142 164 0
153 173 0
144 166 0
145 166 0
150 171 0
151 172 0
149 170 0
145 166 0
140 162 0
148 169 0
146 168 0
145 166 0
145 167 0
143 164 0
153 174 0
149 170 0
139 162 0
139 160 0
144 165 0
149 171 0
137 160 0
143 165 0
149 171 0
148 170 0
151 172 0
146 167 0
154 176 0
141 163 0
146 167 0
145 165 0
148 169 0
138 159 0
133 154 0
147 169 0
144 165 0
146 168 0
147 167 0
146 167 0
141 162 0
144 166 0
134 155 0
148 169 0
141 161 0
149 170 0
155 176 0
142 163 0
147 168 0
149 171 0
146 167 0
142 164 0
138 160 0
142 164 0
144 164 0
147 168 0
137 157 0
150 171 0
148 169 0
139 159 0
144 163 0
141 162 0
144 165 0
146 167 0
145 166 0
144 164 0
143 165 0
143 165 0
143 163 0
141 162 0
147 167 0
151 172 0
147 167 0
136 156 0
138 159 0
145 166 0
146 166 0
145 166 0
145 165 0
141 160 0
149 170 0
146 167 0
135 154 0
149 168 0
143 163 0
147 166 0
137 155 0
141 161 0
152 174 0
147 167 0
141 162 0
147 166 0
149 169 0
146 166 0
148 168 0
148 168 0
141 160 0
149 169 0
147 163 0
151 170 0
144 164 0
149 168 0
149 169 0
152 172 0
143 162 0
148 168 0
147 166 0
147 166 0
148 167 0
145 164 0
133 155 0
148 167 0
151 171 0
142 162 0
140 160 0
147 166 0
141 159 0
145 163 0
151 169 0
139 158 0
148 166 0
150 168 0
140 160 0
153 172 0
146 164 0
153 170 0
142 160 0
143 161 0
140 160 0
147 165 0
151 169 0
150 169 0
150 169 0
147 163 0
142 159 0
151 168 0
149 169 0
146 162 0
142 158 0
152 169 0
144 161 0
147 167 0
143 160 0
149 168 0
134 151 0
147 165 0
154 173 0
144 162 0
146 165 0
141 159 0
148 163 0
143 161 0
147 164 0
156 176 0
152 168 0
146 163 0
150 168 0
145 162 0
155 172 0
152 169 0
150 168 0
149 167 0
143 158 0
150 169 0
140 156 0
148 160 0
151 166 0
139 152 0
151 165 0
150 166 0
151 166 0
143 156 0
148 163 0
142 156 0
150 167 0
152 168 0
151 170 0
152 170 0
147 163 0
143 160 0
152 165 0
148 162 0
147 163 0
146 160 0
145 159 0
148 156 0
147 160 0
138 149 0
148 160 0
146 159 0
155 169 0
148 160 0
151 164 0
154 170 0
155 168 0
147 161 0
156 170 0
155 170 0
148 163 0
148 162 0
147 161 0
150 160 0
136 149 0
150 160 0
147 157 0
148 161 0
150 161 0
150 163 0
147 158 0
145 156 0
154 168 0
154 164 0
149 160 0
151 161 0
150 164 0
148 158 0
156 166 0
146 157 0
147 155 0
148 159 0
151 163 0
154 164 0
151 160 0
154 164 0
152 162 0
151 163 0
153 166 0
150 161 0
151 165 0
156 169 0
154 166 0
151 162 0
156 169 0
150 162 0
158 170 0
151 161 0
155 165 0
150 161 0
153 163 0
147 158 0
145 153 0
152 160 0
161 174 0
162 176 0
157 168 0
154 166 0
149 160 0
161 181 0
152 171 0
162 181 0
156 175 0
159 178 0
160 180 0
160 180 0
157 177 0
159 178 0
160 180 0
154 173 0
161 180 0
160 179 0
157 176 0
161 180 0
159 179 0
154 174 0
156 175 0
159 177 0
160 180 0
150 169 0
152 171 0
153 172 0
158 178 0
156 175 0
156 175 0
157 177 0
159 178 0
158 177 0
161 181 0
154 173 0
158 178 0
152 170 0
151 170 0
157 176 0
152 172 0
151 171 0
163 183 0
158 177 0
154 173 0
148 166 0
158 178 0
155 174 0
158 178 0
156 177 0
159 179 0
152 172 0
152 172 0
157 178 0
150 170 0
154 174 0
156 176 0
153 173 0
156 176 0
154 174 0
155 174 0
155 176 0
151 172 0
149 169 0
148 169 0
148 168 0
153 174 0
153 174 0
148 168 0
150 170 0
148 168 0
149 170 0
148 168 0
155 176 0
152 172 0
153 172 0
151 172 0
155 176 0
147 168 0
145 165 0
156 177 0
150 170 0
157 178 0
152 173 0
149 170 0
148 169 0
150 170 0
153 174 0
151 172 0
147 167 0
151 173 0
149 170 0
157 178 0
155 176 0
152 174 0
148 169 0
152 173 0
154 175 0
147 168 0
152 171 0
147 168 0
151 172 0
150 170 0
149 171 0
145 167 0
156 178 0
152 174 0
151 172 0
156 178 0
152 174 0
141 162 0
150 170 0
145 165 0
149 170 0
150 173 0
156 178 0
152 173 0
150 171 0
152 173 0
142 163 0
149 171 0
142 163 0
153 174 0
143 165 0
141 161 0
152 174 0
148 171 0
153 176 0
145 166 0
147 169 0
144 164 0
143 164 0
150 172 0
152 174 0
148 170 0
157 179 0
148 169 0
155 177 0
145 165 0
150 172 0
149 171 0
148 169 0
142 163 0
147 169 0
153 175 0
147 169 0
148 171 0
145 166 0
142 163 0
155 176 0
147 169 0
153 175 0
153 175 0
147 169 0
155 177 0
145 166 0
145 166 0
155 176 0
142 162 0
144 165 0
149 171 0
146 167 0
150 171 0
142 162 0
144 166 0
143 163 0
139 160 0
153 175 0
148 169 0
142 162 0
149 170 0
138 160 0
149 171 0
139 160 0
145 166 0
146 167 0
145 167 0
141 162 0
142 164 0
144 165 0
135 156 0
146 168 0
144 164 0
145 166 0
152 174 0
145 168 0
139 161 0
143 165 0
143 164 0
137 159 0
148 171 0
148 169 0
157 177 0
136 156 0
148 168 0
145 167 0
143 164 0
148 170 0
140 161 0
143 165 0
142 161 0
141 162 0
148 169 0
140 160 0
149 171 0
138 159 0
155 177 0
146 166 0
150 172 0
148 169 0
148 168 0
148 167 0
151 172 0
148 169 0
140 160 0
148 168 0
148 170 0
144 164 0
146 166 0
143 162 0
144 164 0
134 154 0
156 177 0
138 160 0
138 158 0
149 170 0
150 171 0
150 171 0
147 167 0
150 169 0
145 166 0
143 163 0
145 167 0
149 169 0
148 169 0
142 162 0
135 156 0
149 170 0
136 156 0
142 161 0
142 162 0
147 167 0
152 173 0
151 173 0
147 167 0
146 167 0
148 168 0
143 162 0
145 165 0
143 164 0
142 162 0
145 165 0
147 168 0
151 170 0
146 164 0
148 168 0
143 162 0
139 156 0
145 166 0
148 169 0
151 170 0
141 161 0
144 165 0
142 163 0
140 159 0
154 174 0
151 169 0
144 164 0
152 173 0
142 161 0
151 171 0
152 171 0
144 164 0
142 161 0
144 164 0
134 154 0
143 161 0
141 159 0
147 164 0
138 156 0
143 161 0
143 160 0
144 163 0
145 163 0
153 172 0
142 161 0
149 167 0
136 153 0
145 164 0
145 164 0
147 165 0
141 159 0
136 153 0
147 166 0
142 159 0
141 157 0
152 171 0
152 171 0
150 167 0
153 172 0
140 160 0
150 168 0
140 158 0
148 165 0
153 170 0
147 166 0
154 172 0
147 166 0
151 170 0
152 169 0
150 169 0
146 163 0
146 163 0
148 167 0
148 165 0
142 156 0
151 170 0
148 163 0
145 161 0
144 159 0
142 158 0
139 154 0
147 164 0
141 156 0
145 158 0
151 168 0
150 164 0
149 166 0
147 164 0
146 162 0
148 162 0
143 158 0
144 158 0
145 160 0
149 165 0
145 158 0
151 167 0
149 161 0
139 152 0
148 164 0
151 167 0
151 165 0
148 161 0
149 165 0
150 162 0
149 161 0
145 158 0
151 165 0
144 156 0
149 163 0
155 169 0
149 164 0
145 159 0
147 160 0
151 164 0
146 159 0
147 160 0
145 158 0
154 168 0
157 171 0
151 165 0
146 158 0
150 163 0
148 161 0
151 163 0
151 164 0
156 171 0
148 160 0
146 161 0
149 160 0
146 156 0
147 160 0
154 167 0
146 159 0
152 167 0
153 165 0
146 156 0
154 167 0
154 162 0
146 158 0
150 162 0
153 162 0
149 158 0
148 159 0
152 164 0
148 156 0
154 166 0
154 166 0
155 166 0
149 159 0
152 162 0
154 166 0
150 160 0
153 165 0
157 167 0
154 169 0
153 164 0
151 163 0
151 161 0
154 165 0
156 168 0
152 162 0
158 168 0
146 154 0
152 163 0
163 183 0
159 178 0
157 176 0
159 179 0
155 175 0
161 180 0
159 179 0
160 179 0
148 167 0
156 175 0
158 177 0
162 181 0
153 170 0
158 178 0
162 181 0
157 175 0
155 175 0
157 176 0
155 175 0
154 173 0
157 177 0
160 179 0
157 176 0
158 179 0
157 176 0
158 178 0
158 177 0
155 174 0
159 179 0
151 170 0
156 176 0
160 180 0
151 170 0
158 177 0
159 179 0
158 178 0
157 177 0
155 175 0
155 175 0
151 170 0
151 170 0
158 178 0
148 168 0
156 176 0
158 179 0
154 174 0
154 174 0
157 177 0
156 177 0
156 176 0
154 175 0
154 174 0
157 177 0
150 170 0
146 165 0
151 171 0
151 171 0
160 180 0
150 170 0
158 178 0
152 171 0
157 177 0
149 169 0
152 173 0
156 178 0
154 174 0
149 170 0
148 169 0
151 172 0
161 181 0
154 174 0
147 166 0
158 179 0
149 168 0
150 170 0
157 177 0
149 170 0
156 177 0
150 171 0
152 173 0
155 176 0
159 180 0
150 170 0
151 173 0
152 173 0
148 168 0
150 171 0
147 167 0
151 171 0
147 168 0
158 178 0
148 169 0
156 176 0
147 169 0
146 167 0
155 175 0
150 171 0
143 164 0
154 175 0
151 173 0
148 170 0
150 172 0
145 166 0
145 166 0
156 179 0
153 175 0
155 177 0
148 169 0
142 163 0
154 176 0
156 178 0
150 170 0
151 173 0
146 168 0
154 176 0
152 174 0
147 168 0
148 170 0
157 180 0
148 169 0
153 175 0
150 169 0
157 177 0
152 174 0
150 172 0
146 168 0
149 170 0
151 174 0
142 164 0
146 170 0
153 176 0
154 175 0
150 171 0
147 169 0
149 171 0
145 168 0
154 176 0
157 180 0
143 165 0
147 168 0
146 166 0
146 167 0
146 169 0
148 170 0
148 169 0
132 153 0
153 174 0
148 169 0
153 174 0
144 166 0
146 169 0
144 165 0
137 157 0
146 169 0
147 170 0
145 166 0
147 169 0
145 166 0
145 166 0
150 171 0
138 159 0
149 171 0
140 161 0
144 166 0
155 177 0
149 171 0
143 164 0
148 169 0
147 168 0
142 164 0
146 169 0
145 167 0
152 173 0
144 165 0
160 182 0
141 161 0
147 168 0
147 169 0
144 166 0
149 170 0
141 163 0
141 161 0
145 167 0
146 167 0
141 162 0
144 165 0
146 167 0
154 175 0
139 162 0
144 165 0
138 161 0
141 161 0
148 169 0
146 166 0
139 159 0
145 166 0
140 161 0
149 171 0
141 161 0
131 151 0
145 166 0
145 163 0
146 168 0
146 167 0
136 156 0
146 167 0
148 169 0
143 164 0
133 154 0
144 165 0
147 169 0
147 168 0
146 168 0
150 172 0
143 163 0
148 167 0
146 167 0
148 169 0
146 168 0
148 169 0
138 158 0
144 163 0
142 163 0
148 169 0
147 169 0
144 164 0
145 168 0
137 156 0
147 167 0
140 161 0
146 168 0
148 168 0
145 165 0
151 173 0
152 171 0
150 169 0
149 169 0
142 163 0
154 174 0
143 164 0
146 166 0
154 175 0
144 162 0
143 161 0
151 172 0
151 172 0
136 157 0
144 164 0
148 168 0
145 165 0
141 160 0
144 164 0
146 166 0
140 160 0
143 162 0
144 162 0
146 164 0
145 162 0
147 164 0
148 168 0
143 162 0
143 162 0
145 164 0
153 173 0
146 166 0
140 158 0
146 165 0
144 163 0
144 163 0
154 175 0
144 164 0
148 167 0
145 166 0
147 168 0
147 167 0
143 161 0
143 161 0
155 172 0
149 170 0
143 161 0
147 166 0
145 164 0
145 162 0
150 168 0
144 162 0
150 170 0
143 163 0
143 160 0
142 160 0
150 167 0
151 169 0
145 162 0
150 169 0
148 167 0
150 170 0
146 163 0
149 167 0
145 161 0
147 166 0
140 157 0
153 172 0
154 172 0
149 169 0
157 175 0
147 163 0
154 171 0
147 165 0
152 170 0
146 160 0
143 159 0
153 171 0
138 157 0
148 166 0
150 169 0
147 164 0
145 161 0
150 167 0
146 162 0
147 162 0
150 166 0
153 169 0
151 168 0
157 173 0
148 163 0
143 155 0
151 165 0
144 160 0
146 161 0
145 161 0
150 166 0
152 167 0
149 165 0
153 169 0
149 165 0
146 161 0
153 167 0
149 162 0
147 164 0
151 167 0
147 160 0
150 166 0
144 157 0
146 158 0
147 160 0
150 164 0
151 166 0
147 161 0
152 165 0
155 169 0
153 167 0
153 167 0
149 163 0
158 172 0
150 167 0
153 167 0
148 162 0
154 169 0
153 166 0
139 151 0
146 157 0
156 170 0
152 164 0
150 161 0
145 154 0
147 158 0
149 162 0
157 171 0
151 164 0
150 162 0
154 168 0
145 158 0
151 160 0
145 155 0
156 168 0
147 158 0
142 153 0
150 161 0
158 171 0
156 167 0
148 160 0
155 166 0
150 161 0
152 163 0
152 163 0
156 168 0
159 173 0
149 161 0
145 153 0
154 167 0
152 163 0
152 162 0
153 166 0
155 167 0
153 163 0
151 162 0
159 170 0
152 163 0
153 166 0
157 170 0
155 164 0
160 179 0
156 174 0
154 173 0
157 177 0
159 178 0
163 183 0
157 176 0
161 181 0
160 180 0
158 176 0
158 178 0
154 172 0
166 186 0
162 181 0
159 178 0
153 173 0
155 175 0
153 174 0
155 175 0
159 179 0
157 178 0
159 179 0
156 176 0
159 178 0
154 174 0
154 174 0
160 181 0
152 171 0
159 178 0
160 180 0
155 174 0
153 173 0
155 174 0
151 170 0
163 182 0
159 179 0
155 174 0
155 174 0
152 170 0
154 173 0
152 171 0
154 173 0
152 171 0
152 172 0
157 177 0
159 178 0
151 171 0
158 179 0
157 177 0
158 177 0
157 177 0
150 169 0
155 176 0
148 169 0
155 176 0
151 171 0
150 169 0
155 175 0
152 171 0
151 170 0
150 170 0
154 175 0
153 173 0
153 172 0
153 173 0
154 175 0
151 171 0
150 172 0
153 173 0
153 174 0
151 172 0
151 172 0
154 175 0
153 174 0
151 172 0
151 171 0
153 174 0
152 173 0
150 170 0
153 175 0
153 174 0
153 174 0
150 172 0
147 168 0
155 176 0
148 169 0
159 180 0
147 168 0
151 173 0
155 175 0
147 168 0
154 177 0
154 175 0
150 170 0
148 169 0
149 171 0
149 171 0
155 176 0
144 164 0
150 171 0
152 174 0
156 176 0
145 166 0
150 171 0
151 173 0
145 166 0
147 167 0
151 172 0
147 168 0
147 169 0
153 174 0
151 171 0
147 167 0
149 170 0
149 170 0
149 170 0
146 168 0
148 170 0
139 161 0
145 167 0
144 166 0
141 162 0
145 167 0
150 172 0
147 168 0
151 173 0
152 173 0
151 173 0
154 177 0
155 177 0
148 169 0
147 167 0
155 176 0
150 171 0
150 173 0
152 173 0
144 165 0
148 170 0
147 167 0
133 152 0
149 170 0
152 173 0
151 173 0
147 168 0
154 176 0
148 170 0
148 171 0
152 173 0
145 168 0
143 164 0
155 177 0
143 165 0
147 168 0
147 168 0
151 172 0
149 168 0
156 178 0
138 159 0
144 165 0
151 173 0
145 167 0
149 171 0
147 169 0
141 161 0
145 168 0
145 166 0
147 169 0
142 162 0
156 178 0
148 170 0
157 179 0
138 158 0
148 168 0
155 177 0
145 166 0
136 158 0
148 170 0
145 167 0
135 156 0
143 163 0
152 174 0
146 169 0
148 170 0
148 169 0
144 165 0
146 167 0
147 167 0
141 162 0
144 166 0
135 154 0
141 161 0
149 171 0
151 171 0
145 167 0
143 165 0
140 161 0
143 164 0
140 160 0
145 168 0
147 168 0
145 166 0
138 160 0
148 169 0
148 170 0
148 169 0
142 164 0
144 165 0
150 171 0
151 172 0
140 161 0
146 166 0
143 165 0
152 174 0
153 173 0
151 172 0
147 168 0
144 164 0
147 166 0
151 171 0
147 168 0
146 167 0
153 174 0
145 165 0
145 165 0
147 165 0
148 169 0
147 169 0
146 166 0
145 164 0
145 165 0
145 166 0
154 174 0
143 164 0
145 165 0
139 159 0
150 172 0
138 157 0
152 173 0
146 166 0
150 169 0
155 176 0
150 171 0
152 173 0
153 174 0
143 162 0
138 158 0
150 170 0
152 171 0
151 171 0
148 168 0
144 165 0
148 169 0
147 169 0
153 173 0
144 163 0
150 170 0
145 165 0
147 168 0
149 171 0
143 162 0
143 162 0
149 168 0
148 168 0
151 170 0
139 158 0
150 172 0
146 165 0
144 162 0
135 154 0
150 170 0
149 168 0
153 172 0
138 156 0
147 168 0
145 162 0
148 167 0
154 175 0
148 167 0
144 161 0
147 166 0
154 174 0
154 175 0
142 161 0
148 166 0
149 169 0
151 170 0
143 161 0
145 164 0
150 169 0
149 167 0
146 164 0
147 164 0
153 173 0
150 168 0
146 163 0
150 167 0
151 169 0
155 173 0
151 170 0
157 176 0
144 160 0
140 157 0
151 168 0
153 171 0
149 166 0
145 163 0
156 170 0
152 167 0
144 161 0
143 159 0
146 164 0
136 152 0
149 165 0
144 161 0
147 163 0
153 170 0
140 158 0
147 164 0
150 164 0
150 167 0
143 159 0
148 163 0
150 166 0
146 162 0
146 160 0
149 166 0
151 166 0
141 157 0
145 161 0
151 167 0
149 164 0
149 165 0
154 168 0
147 160 0
140 154 0
151 164 0
152 167 0
146 159 0
154 168 0
148 162 0
151 166 0
144 158 0
147 161 0
150 164 0
151 167 0
150 166 0
145 162 0
146 162 0
151 165 0
151 164 0
147 164 0
145 160 0
147 160 0
148 160 0
147 159 0
141 153 0
145 159 0
150 165 0
158 173 0
145 157 0
152 162 0
146 157 0
152 163 0
153 167 0
149 161 0
153 165 0
147 158 0
144 159 0
155 165 0
154 166 0
153 166 0
148 157 0
150 162 0
148 161 0
149 160 0
148 160 0
147 159 0
146 155 0
147 159 0
152 165 0
154 166 0
154 165 0
156 168 0
153 165 0
152 163 0
148 160 0
153 163 0
147 158 0
150 161 0
155 167 0
151 161 0
147 161 0
150 162 0
151 160 0
150 162 0
154 166 0
151 162 0
153 164 0
148 157 0
151 161 0
156 175 0
163 182 0
158 177 0
164 184 0
163 184 0
158 177 0
162 181 0
159 178 0
155 174 0
159 180 0
157 177 0
155 174 0
160 181 0
159 179 0
159 178 0
157 176 0
154 174 0
163 183 0
152 171 0
153 173 0
152 172 0
154 173 0
155 175 0
163 184 0
160 180 0
158 179 0
151 170 0
154 174 0
155 173 0
151 170 0
158 178 0
152 171 0
153 172 0
153 172 0
154 173 0
156 176 0
153 173 0
151 171 0
152 171 0
155 175 0
153 173 0
157 178 0
150 170 0
152 172 0
156 177 0
154 174 0
154 175 0
154 174 0
149 170 0
155 175 0
156 177 0
149 170 0
154 175 0
158 179 0
154 174 0
153 173 0
155 175 0
157 178 0
152 172 0
150 170 0
155 174 0
156 176 0
150 171 0
158 178 0
153 173 0
149 169 0
156 177 0
151 172 0
155 177 0
151 172 0
153 175 0
153 174 0
155 175 0
154 174 0
149 169 0
162 184 0
149 169 0
158 178 0
151 171 0
156 177 0
148 168 0
159 178 0
156 177 0
149 170 0
154 174 0
151 173 0
151 172 0
154 176 0
159 181 0
146 168 0
151 173 0
155 175 0
146 166 0
152 173 0
158 180 0
147 167 0
149 171 0
154 176 0
150 171 0
157 178 0
154 176 0
158 179 0
153 175 0
154 175 0
152 173 0
147 168 0
153 174 0
149 171 0
153 174 0
144 166 0
151 173 0
152 174 0
159 181 0
158 180 0
149 170 0
148 168 0
147 168 0
148 169 0
148 169 0
151 172 0
149 170 0
151 175 0
146 167 0
152 174 0
155 176 0
148 169 0
147 167 0
145 167 0
143 163 0
143 165 0
151 173 0
149 171 0
151 174 0
145 166 0
149 170 0
148 169 0
147 169 0
150 172 0
144 167 0
152 173 0
152 173 0
146 168 0
153 175 0
145 167 0
143 164 0
155 177 0
150 170 0
148 170 0
154 175 0
144 165 0
142 164 0
144 165 0
145 167 0
150 173 0
153 175 0
147 170 0
148 169 0
147 169 0
144 165 0
141 163 0
145 167 0
149 172 0
152 174 0
142 162 0
147 168 0
146 168 0
144 165 0
146 167 0
146 168 0
144 165 0
148 169 0
144 165 0
155 178 0
147 169 0
146 169 0
138 160 0
150 171 0
139 160 0
147 168 0
146 167 0
138 159 0
148 168 0
145 166 0
146 168 0
143 164 0
151 172 0
144 167 0
146 168 0
145 166 0
143 163 0
154 176 0
146 167 0
137 158 0
142 163 0
146 166 0
143 164 0
141 162 0
143 165 0
144 164 0
150 171 0
146 165 0
148 168 0
146 166 0
150 172 0
143 163 0
151 173 0
147 170 0
147 167 0
140 162 0
144 164 0
144 165 0
150 170 0
142 164 0
144 165 0
150 171 0
143 164 0
147 169 0
150 172 0
154 176 0
146 166 0
146 165 0
142 163 0
147 167 0
144 165 0
142 162 0
152 173 0
147 167 0
141 162 0
150 172 0
147 168 0
148 168 0
148 168 0
146 166 0
152 173 0
145 166 0
154 173 0
150 170 0
144 164 0
148 170 0
147 169 0
151 173 0
144 164 0
145 165 0
147 166 0
137 159 0
143 162 0
150 172 0
149 170 0
149 169 0
150 170 0
144 166 0
145 165 0
151 172 0
145 166 0
141 159 0
141 161 0
149 170 0
153 174 0
148 168 0
144 163 0
152 172 0
146 163 0
143 163 0
150 169 0
155 175 0
150 168 0
149 169 0
143 164 0
147 166 0
148 167 0
139 158 0
146 167 0
152 172 0
149 168 0
152 172 0
149 168 0
152 173 0
152 171 0
143 162 0
147 167 0
149 168 0
153 174 0
144 163 0
146 165 0
146 165 0
146 166 0
149 168 0
153 173 0
146 164 0
148 165 0
153 174 0
154 172 0
147 165 0
148 165 0
144 161 0
152 168 0
153 171 0
144 160 0
156 174 0
146 164 0
146 163 0
145 162 0
145 162 0
144 161 0
148 168 0
143 157 0
147 165 0
155 172 0
150 168 0
151 168 0
148 165 0
151 169 0
140 157 0
155 174 0
146 162 0
144 162 0
150 166 0
151 168 0
146 163 0
150 166 0
151 167 0
153 168 0
142 155 0
152 169 0
145 159 0
143 158 0
151 167 0
146 163 0
149 166 0
143 158 0
150 167 0
149 164 0
153 169 0
152 167 0
150 169 0
154 169 0
140 155 0
152 165 0
149 165 0
152 166 0
147 159 0
159 173 0
144 158 0
149 163 0
152 168 0
151 166 0
143 154 0
146 162 0
144 159 0
152 167 0
151 164 0
151 165 0
157 172 0
151 165 0
147 162 0
151 166 0
153 167 0
154 167 0
155 169 0
151 163 0
160 175 0
145 155 0
147 161 0
155 170 0
154 167 0
154 166 0
144 159 0
148 160 0
152 164 0
154 168 0
152 167 0
145 157 0
157 169 0
147 158 0
149 158 0
151 161 0
152 163 0
152 164 0
153 164 0
155 165 0
148 159 0
150 162 0
155 167 0
152 165 0
147 156 0
157 169 0
151 163 0
154 167 0
149 161 0
154 165 0
150 161 0
148 157 0
153 163 0
153 166 0
151 161 0
146 159 0
153 165 0
149 163 0
157 170 0
155 165 0
158 177 0
166 186 0
160 179 0
161 180 0
160 180 0
162 182 0
160 180 0
156 175 0
156 175 0
160 179 0
158 178 0
158 177 0
160 178 0
150 170 0
158 178 0
159 178 0
163 181 0
160 181 0
155 174 0
156 177 0
152 172 0
159 179 0
158 179 0
159 179 0
155 175 0
157 176 0
156 175 0
155 174 0
158 177 0
156 175 0
160 181 0
164 184 0
155 176 0
158 178 0
159 179 0
162 182 0
154 174 0
159 180 0
153 173 0
155 174 0
149 168 0
162 183 0
156 176 0
157 179 0
157 177 0
151 170 0
159 179 0
145 165 0
159 179 0
150 169 0
155 175 0
151 171 0
155 175 0
153 174 0
154 176 0
150 170 0
159 179 0
155 176 0
153 174 0
154 176 0
155 176 0
152 173 0
149 170 0
154 175 0
152 173 0
148 168 0
154 173 0
155 175 0
156 177 0
151 171 0
155 175 0
155 176 0
151 172 0
148 168 0
150 172 0
156 177 0
158 180 0
156 178 0
147 167 0
149 171 0
150 171 0
156 178 0
147 167 0
155 174 0
152 173 0
148 169 0
149 171 0
151 172 0
156 177 0
149 170 0
147 169 0
149 169 0
148 169 0
153 173 0
149 171 0
151 172 0
146 167 0
153 174 0
150 172 0
151 173 0
148 170 0
150 171 0
154 176 0
150 171 0
147 167 0
145 165 0
152 176 0
153 175 0
148 170 0
147 168 0
149 170 0
150 172 0
154 176 0
152 174 0
146 166 0
149 171 0
153 174 0
151 173 0
156 179 0
150 171 0
159 179 0
153 175 0
158 181 0
154 176 0
155 177 0
152 173 0
151 173 0
149 171 0
151 174 0
148 169 0
150 172 0
156 179 0
150 172 0
145 168 0
155 176 0
153 175 0
154 177 0
152 175 0
151 173 0
156 178 0
146 169 0
153 174 0
148 170 0
146 167 0
151 173 0
143 164 0
153 175 0
145 167 0
150 171 0
145 167 0
145 167 0
150 172 0
149 169 0
147 169 0
154 177 0
151 174 0
150 171 0
149 170 0
144 165 0
143 165 0
152 175 0
150 171 0
145 166 0
146 168 0
152 173 0
139 160 0
143 165 0
145 166 0
148 168 0
148 170 0
147 168 0
150 172 0
146 168 0
150 172 0
143 163 0
149 171 0
146 168 0
150 171 0
152 174 0
151 172 0
140 162 0
152 174 0
147 169 0
151 172 0
142 162 0
149 170 0
145 167 0
146 168 0
147 169 0
149 171 0
147 168 0
151 172 0
145 167 0
139 159 0
148 170 0
152 173 0
143 166 0
138 160 0
149 170 0
146 167 0
153 175 0
146 168 0
147 169 0
152 175 0
141 162 0
148 169 0
139 160 0
141 160 0
145 166 0
144 165 0
147 168 0
150 172 0
143 164 0
144 164 0
144 165 0
152 174 0
148 169 0
141 162 0
144 164 0
150 172 0
149 169 0
147 167 0
150 171 0
144 165 0
144 167 0
142 162 0
148 170 0
143 165 0
147 167 0
150 170 0
150 170 0
146 167 0
145 166 0
140 161 0
149 168 0
144 165 0
144 164 0
147 166 0
143 163 0
143 162 0
149 170 0
142 162 0
146 165 0
149 170 0
146 166 0
146 166 0
145 166 0
147 168 0
147 168 0
144 164 0
150 171 0
145 165 0
145 165 0
148 167 0
144 162 0
145 165 0
141 161 0
146 167 0
139 159 0
142 162 0
146 166 0
153 174 0
156 175 0
154 175 0
145 163 0
153 173 0
148 169 0
141 160 0
141 159 0
146 164 0
141 160 0
148 168 0
145 165 0
154 175 0
155 175 0
137 155 0
146 165 0
152 172 0
147 166 0
152 171 0
148 168 0
147 164 0
146 168 0
152 170 0
150 170 0
149 169 0
153 171 0
148 166 0
148 166 0
147 166 0
150 170 0
153 172 0
145 162 0
144 163 0
156 173 0
146 165 0
148 166 0
150 168 0
148 166 0
154 171 0
149 168 0
151 170 0
143 161 0
150 168 0
149 167 0
151 169 0
144 162 0
144 161 0
148 165 0
148 164 0
140 158 0
154 172 0
149 166 0
149 167 0
149 166 0
151 165 0
148 165 0
152 168 0
150 167 0
152 169 0
142 156 0
149 167 0
150 166 0
153 170 0
153 171 0
146 161 0
145 159 0
149 167 0
156 171 0
150 162 0
149 163 0
156 170 0
146 164 0
159 178 0
151 168 0
154 170 0
154 173 0
153 169 0
150 166 0
150 164 0
145 160 0
145 159 0
147 161 0
149 164 0
149 165 0
148 163 0
149 164 0
152 165 0
146 159 0
150 165 0
148 161 0
152 167 0
147 160 0
144 156 0
149 163 0
145 160 0
148 161 0
150 162 0
155 170 0
148 162 0
147 160 0
145 159 0
148 162 0
139 150 0
152 165 0
148 163 0
147 160 0
140 151 0
152 166 0
156 169 0
149 162 0
147 161 0
144 156 0
148 160 0
148 162 0
150 162 0
154 166 0
156 168 0
156 169 0
147 160 0
155 170 0
145 157 0
156 167 0
161 175 0
152 162 0
155 169 0
155 167 0
156 169 0
155 165 0
154 166 0
149 162 0
152 163 0
155 168 0
151 163 0
150 160 0
153 163 0
153 166 0
158 169 0
152 165 0
149 160 0
154 173 0
155 175 0
160 179 0
159 179 0
161 182 0
160 180 0
155 175 0
158 177 0
156 177 0
159 180 0
155 175 0
159 179 0
153 173 0
155 175 0
157 176 0
153 171 0
155 175 0
161 181 0
158 177 0
151 171 0
157 177 0
157 177 0
161 182 0
151 171 0
156 176 0
159 179 0
151 171 0
159 177 0
157 178 0
150 170 0
151 170 0
158 179 0
156 175 0
162 182 0
154 174 0
153 173 0
154 174 0
154 173 0
157 176 0
153 173 0
161 181 0
156 177 0
158 178 0
150 170 0
149 168 0
159 179 0
156 177 0
155 174 0
156 177 0
151 172 0
156 176 0
159 180 0
147 167 0
153 174 0
155 175 0
155 176 0
154 175 0
156 176 0
153 173 0
153 173 0
161 183 0
153 174 0
149 170 0
154 174 0
153 174 0
150 171 0
156 175 0
155 177 0
155 177 0
153 173 0
151 171 0
150 171 0
150 170 0
146 167 0
150 171 0
153 174 0
153 174 0
145 165 0
150 171 0
156 177 0
153 174 0
153 172 0
160 181 0
150 172 0
145 165 0
157 179 0
148 169 0
152 173 0
154 175 0
157 178 0
150 171 0
154 175 0
156 178 0
147 168 0
153 175 0
154 175 0
155 177 0
143 165 0
152 172 0
143 164 0
146 167 0
152 173 0
153 175 0
147 168 0
156 179 0
152 173 0
153 174 0
152 174 0
152 174 0
149 171 0
142 164 0
154 176 0
157 179 0
153 175 0
150 171 0
156 177 0
144 166 0
155 178 0
155 177 0
146 168 0
155 177 0
144 166 0
150 172 0
152 174 0
152 174 0
155 177 0
151 172 0
150 172 0
149 170 0
153 174 0
148 170 0
149 171 0
153 175 0
148 170 0
150 172 0
151 172 0
153 176 0
136 157 0
157 179 0
149 171 0
150 172 0
147 169 0
147 168 0
156 178 0
147 169 0
151 173 0
150 171 0
146 169 0
151 172 0
151 172 0
145 168 0
149 169 0
136 158 0
144 166 0
151 172 0
149 171 0
142 164 0
144 166 0
149 170 0
145 167 0
144 166 0
149 172 0
155 176 0
145 167 0
147 170 0
141 161 0
147 168 0
149 171 0
144 165 0
155 177 0
152 174 0
151 173 0
138 159 0
145 167 0
141 162 0
147 170 0
132 153 0
153 174 0
153 175 0
151 173 0
147 168 0
147 168 0
152 173 0
148 169 0
151 172 0
145 167 0
142 163 0
141 161 0
146 169 0
147 166 0
147 169 0
145 166 0
144 166 0
155 177 0
153 174 0
137 159 0
150 172 0
153 173 0
137 157 0
144 166 0
159 182 0
142 163 0
141 162 0
144 165 0
147 167 0
149 171 0
147 167 0
140 161 0
152 173 0
144 166 0
151 172 0
139 159 0
147 168 0
146 167 0
148 168 0
149 171 0
144 165 0
144 165 0
147 167 0
143 165 0
147 167 0
144 166 0
148 167 0
136 159 0
150 171 0
149 170 0
153 173 0
144 164 0
148 169 0
147 169 0
150 170 0
147 168 0
143 164 0
150 172 0
150 170 0
146 167 0
145 165 0
145 167 0
147 168 0
145 165 0
152 173 0
152 173 0
146 167 0
149 170 0
138 160 0
149 169 0
143 163 0
148 168 0
144 163 0
149 170 0
146 167 0
151 171 0
149 170 0
154 176 0
145 166 0
149 168 0
150 171 0
147 168 0
143 162 0
151 171 0
142 161 0
146 165 0
143 163 0
144 163 0
152 172 0
141 161 0
152 172 0
149 169 0
145 165 0
148 169 0
151 170 0
153 174 0
152 171 0
152 173 0
153 172 0
155 173 0
153 171 0
147 165 0
149 168 0
141 163 0
154 172 0
148 170 0
153 172 0
148 168 0
154 174 0
152 172 0
151 168 0
151 172 0
152 169 0
145 163 0
153 171 0
148 167 0
152 170 0
151 170 0
152 172 0
146 166 0
156 175 0
149 168 0
145 165 0
151 169 0
143 162 0
148 165 0
148 166 0
151 169 0
142 160 0
152 171 0
145 162 0
148 165 0
147 163 0
147 165 0
149 166 0
150 167 0
152 170 0
145 160 0
144 158 0
157 177 0
156 174 0
152 169 0
141 154 0
151 168 0
148 165 0
156 173 0
147 163 0
154 173 0
149 166 0
152 169 0
141 158 0
143 160 0
149 166 0
144 160 0
145 161 0
145 160 0
154 170 0
152 168 0
154 170 0
148 163 0
146 164 0
149 162 0
149 162 0
149 164 0
152 169 0
145 161 0
151 166 0
149 163 0
149 164 0
148 163 0
148 164 0
150 166 0
148 163 0
145 162 0
150 165 0
151 165 0
151 164 0
149 164 0
155 169 0
149 163 0
145 158 0
145 159 0
150 164 0
156 170 0
161 176 0
153 168 0
149 163 0
155 169 0
151 164 0
154 167 0
150 165 0
149 165 0
155 169 0
144 155 0
149 161 0
149 163 0
155 168 0
152 163 0
151 164 0
146 156 0
152 163 0
154 165 0
155 170 0
151 162 0
148 159 0
157 171 0
152 162 0
155 166 0
150 164 0
156 166 0
148 158 0
153 167 0
155 167 0
154 168 0
149 161 0
152 163 0
154 165 0
157 172 0
151 163 0
155 168 0
148 161 0
154 165 0
155 167 0
154 165 0
163 182 0
157 177 0
161 181 0
159 178 0
159 178 0
159 180 0
165 185 0
161 180 0
159 179 0
159 179 0
164 183 0
154 173 0
159 180 0
159 179 0
159 178 0
161 181 0
153 174 0
156 175 0
153 173 0
156 176 0
160 180 0
155 175 0
156 177 0
155 175 0
158 179 0
156 176 0
161 181 0
158 179 0
159 179 0
153 172 0
164 184 0
153 173 0
154 174 0
150 169 0
158 180 0
164 183 0
160 180 0
156 176 0
154 175 0
161 181 0
162 183 0
154 174 0
158 177 0
146 165 0
151 171 0
160 179 0
157 177 0
157 177 0
154 174 0
159 180 0
156 177 0
161 182 0
151 171 0
151 171 0
153 173 0
158 178 0
158 178 0
156 176 0
152 172 0
161 182 0
163 183 0
154 175 0
149 168 0
149 169 0
158 179 0
159 180 0
151 172 0
153 173 0
148 169 0
154 175 0
148 168 0
150 171 0
160 182 0
153 173 0
153 174 0
153 173 0
155 176 0
158 180 0
152 172 0
146 168 0
145 165 0
150 172 0
157 179 0
159 180 0
156 178 0
152 172 0
151 171 0
155 176 0
149 171 0
156 178 0
152 173 0
150 171 0
155 177 0
156 177 0
149 170 0
158 180 0
148 170 0
153 174 0
152 173 0
157 178 0
147 169 0
150 170 0
151 173 0
149 170 0
150 172 0
146 168 0
158 180 0
152 173 0
149 171 0
150 171 0
152 173 0
155 177 0
153 174 0
150 171 0
142 164 0
153 175 0
153 175 0
149 171 0
152 174 0
152 174 0
149 171 0
153 175 0
156 176 0
156 178 0
155 177 0
157 179 0
150 173 0
153 175 0
156 178 0
150 172 0
144 165 0
157 178 0
141 161 0
143 166 0
151 174 0
151 172 0
149 170 0
145 168 0
147 168 0
157 179 0
149 171 0
153 176 0
144 165 0
147 169 0
152 175 0
148 170 0
151 173 0
149 171 0
153 175 0
159 180 0
149 171 0
152 174 0
148 170 0
152 173 0
148 170 0
140 161 0
146 169 0
146 167 0
141 162 0
152 174 0
140 161 0
152 174 0
157 179 0
146 169 0
145 166 0
138 159 0
148 170 0
147 169 0
152 174 0
151 173 0
149 171 0
148 170 0
148 169 0
144 166 0
149 171 0
140 162 0
146 169 0
152 173 0
138 158 0
150 171 0
144 166 0
151 172 0
149 171 0
148 170 0
141 162 0
150 171 0
150 172 0
145 166 0
148 170 0
149 170 0
145 166 0
149 171 0
143 165 0
152 173 0
153 175 0
151 173 0
142 163 0
146 166 0
144 166 0
149 170 0
145 167 0
145 165 0
150 171 0
141 163 0
144 165 0
152 174 0
143 165 0
155 178 0
146 167 0
145 165 0
139 161 0
149 171 0
143 164 0
145 167 0
146 169 0
148 169 0
144 165 0
150 171 0
145 166 0
145 167 0
140 161 0
148 169 0
142 162 0
148 170 0
153 174 0
138 160 0
146 167 0
150 171 0
146 164 0
155 176 0
147 168 0
149 170 0
148 170 0
145 166 0
154 174 0
146 167 0
150 172 0
145 166 0
152 175 0
146 168 0
151 172 0
154 176 0
149 171 0
147 167 0
150 169 0
153 174 0
142 163 0
154 175 0
153 174 0
145 165 0
147 167 0
144 165 0
141 161 0
153 173 0
150 170 0
143 163 0
149 169 0
150 170 0
148 168 0
145 165 0
142 163 0
147 167 0
149 167 0
143 163 0
144 166 0
145 165 0
146 164 0
148 168 0
148 167 0
145 165 0
147 167 0
150 169 0
147 167 0
154 174 0
150 169 0
145 164 0
144 163 0
147 166 0
146 165 0
146 166 0
150 168 0
150 171 0
145 165 0
154 174 0
150 171 0
148 168 0
149 166 0
154 174 0
143 163 0
147 166 0
153 172 0
151 168 0
146 165 0
152 170 0
151 171 0
153 171 0
155 175 0
141 158 0
149 168 0
148 165 0
153 169 0
144 161 0
153 173 0
152 169 0
149 168 0
150 168 0
151 171 0
149 168 0
152 171 0
146 166 0
148 165 0
145 162 0
154 172 0
145 163 0
156 173 0
145 165 0
153 171 0
147 165 0
145 162 0
149 166 0
152 169 0
151 168 0
149 165 0
150 169 0
148 163 0
151 168 0
157 174 0
154 172 0
152 170 0
148 166 0
139 154 0
152 168 0
147 161 0
151 168 0
142 157 0
147 161 0
151 167 0
149 166 0
148 162 0
155 172 0
149 163 0
146 160 0
152 167 0
160 176 0
149 165 0
150 166 0
152 168 0
148 163 0
153 169 0
153 167 0
150 167 0
159 173 0
150 165 0
147 162 0
155 170 0
153 169 0
152 167 0
150 164 0
155 172 0
152 166 0
149 160 0
150 165 0
147 161 0
150 164 0
148 161 0
152 165 0
155 172 0
149 161 0
151 164 0
152 162 0
143 155 0
156 168 0
150 165 0
143 153 0
146 157 0
147 157 0
153 166 0
154 167 0
153 167 0
141 151 0
151 164 0
156 171 0
155 167 0
156 170 0
156 168 0
150 163 0
152 165 0
153 166 0
154 164 0
152 162 0
156 169 0
144 155 0
145 154 0
152 166 0
157 170 0
155 168 0
151 163 0
155 166 0
154 166 0
153 166 0
158 179 0
159 178 0
158 179 0
164 184 0
156 176 0
158 179 0
157 177 0
156 176 0
163 182 0
158 178 0
165 185 0
157 177 0
162 182 0
158 177 0
158 178 0
161 181 0
163 183 0
158 178 0
157 176 0
153 173 0
157 176 0
157 177 0
152 173 0
154 175 0
161 182 0
155 175 0
160 180 0
160 180 0
157 178 0
154 175 0
160 180 0
159 179 0
157 178 0
155 176 0
147 167 0
157 176 0
154 174 0
155 176 0
153 171 0
161 182 0
157 177 0
155 176 0
154 175 0
152 171 0
152 172 0
155 176 0
154 174 0
158 180 0
153 174 0
154 175 0
156 177 0
155 175 0
155 176 0
157 177 0
160 181 0
157 178 0
153 174 0
159 181 0
152 173 0
148 168 0
153 174 0
158 180 0
156 176 0
155 176 0
149 170 0
154 175 0
156 177 0
155 176 0
152 173 0
157 179 0
150 170 0
154 175 0
154 175 0
157 177 0
159 180 0
157 178 0
152 172 0
156 178 0
153 174 0
155 175 0
149 170 0
148 170 0
144 165 0
154 176 0
148 170 0
155 176 0
152 173 0
149 171 0
150 172 0
154 176 0
153 174 0
154 175 0
153 174 0
152 175 0
150 171 0
155 176 0
154 176 0
155 177 0
152 174 0
156 177 0
156 176 0
156 178 0
148 170 0
149 170 0
147 168 0
153 175 0
152 173 0
148 170 0
150 171 0
154 176 0
151 172 0
151 173 0
153 174 0
146 166 0
145 168 0
153 175 0
148 170 0
145 165 0
151 174 0
147 169 0
144 165 0
150 172 0
158 180 0
145 166 0
150 172 0
146 168 0
145 168 0
144 165 0
150 171 0
143 165 0
147 168 0
151 173 0
147 170 0
152 174 0
149 172 0
155 179 0
157 179 0
145 165 0
149 170 0
146 167 0
152 173 0
151 173 0
150 173 0
148 168 0
149 171 0
152 173 0
150 171 0
154 176 0
151 174 0
155 177 0
156 179 0
153 176 0
153 175 0
147 169 0
153 175 0
149 171 0
151 173 0
143 165 0
149 170 0
148 170 0
151 173 0
148 170 0
149 170 0
145 167 0
145 166 0
148 170 0
142 165 0
147 169 0
143 165 0
141 161 0
143 166 0
152 174 0
145 166 0
146 170 0
149 171 0
151 172 0
148 170 0
152 174 0
146 168 0
143 162 0
150 172 0
147 169 0
150 173 0
144 167 0
156 177 0
143 165 0
144 166 0
145 167 0
144 165 0
150 172 0
144 166 0
139 160 0
152 174 0
151 173 0
147 166 0
147 169 0
152 173 0
149 170 0
149 171 0
146 169 0
152 173 0
150 170 0
146 168 0
141 162 0
147 169 0
154 177 0
144 165 0
147 168 0
153 175 0
150 170 0
146 166 0
152 174 0
145 167 0
141 162 0
146 168 0
146 167 0
152 173 0
147 170 0
148 169 0
151 174 0
147 167 0
149 171 0
147 169 0
149 170 0
148 169 0
149 168 0
145 166 0
155 176 0
153 173 0
152 172 0
150 170 0
147 167 0
151 172 0
147 168 0
149 170 0
143 162 0
148 168 0
155 177 0
150 171 0
151 172 0
151 173 0
145 164 0
151 170 0
147 169 0
141 160 0
152 173 0
141 161 0
154 175 0
149 171 0
146 167 0
149 170 0
146 164 0
145 165 0
151 171 0
146 166 0
148 167 0
142 162 0
152 172 0
151 172 0
148 168 0
143 162 0
149 168 0
152 172 0
151 171 0
145 165 0
155 174 0
147 166 0
149 168 0
149 168 0
147 165 0
155 175 0
150 171 0
153 172 0
143 162 0
152 173 0
149 169 0
141 161 0
149 169 0
156 175 0
143 163 0
151 172 0
150 169 0
142 159 0
149 167 0
146 165 0
146 168 0
149 168 0
153 173 0
152 170 0
146 164 0
145 164 0
153 172 0
144 162 0
153 171 0
153 171 0
150 170 0
154 173 0
157 176 0
152 170 0
154 174 0
147 165 0
145 163 0
147 165 0
150 169 0
157 176 0
153 172 0
151 169 0
148 167 0
146 164 0
152 171 0
150 168 0
159 176 0
146 163 0
142 160 0
149 166 0
155 172 0
148 167 0
154 174 0
151 169 0
149 164 0
147 165 0
148 166 0
150 165 0
146 164 0
147 164 0
148 165 0
153 168 0
145 164 0
155 172 0
149 166 0
149 166 0
149 166 0
147 163 0
143 161 0
151 166 0
149 166 0
155 172 0
144 160 0
154 172 0
157 173 0
142 155 0
157 172 0
154 167 0
147 161 0
154 171 0
153 168 0
147 163 0
149 165 0
153 167 0
155 170 0
147 161 0
161 177 0
147 162 0
146 159 0
152 169 0
150 165 0
155 169 0
155 170 0
155 167 0
145 157 0
152 166 0
156 169 0
156 173 0
153 166 0
148 163 0
155 169 0
156 171 0
149 164 0
156 170 0
157 171 0
154 169 0
152 165 0
149 159 0
156 168 0
150 165 0
153 167 0
154 166 0
149 160 0
150 161 0
154 167 0
160 174 0
148 163 0
153 165 0
155 170 0
156 168 0
149 162 0
152 165 0
148 159 0
155 168 0
157 169 0
157 172 0
153 168 0
160 172 0
148 161 0
149 163 0
150 162 0
152 164 0
153 165 0
155 170 0
156 167 0
164 183 0
157 178 0
157 177 0
163 182 0
160 181 0
159 178 0
163 183 0
161 181 0
164 184 0
163 183 0
159 179 0
162 183 0
157 177 0
161 181 0
159 179 0
155 176 0
159 178 0
164 184 0
153 172 0
159 178 0
156 176 0
161 181 0
157 176 0
157 178 0
153 174 0
157 178 0
162 183 0
155 176 0
157 177 0
150 170 0
152 172 0
155 175 0
156 176 0
151 171 0
152 173 0
152 172 0
158 178 0
154 174 0
153 174 0
158 178 0
155 175 0
153 174 0
149 169 0
153 173 0
158 179 0
157 178 0
148 169 0
155 176 0
152 172 0
161 182 0
152 173 0
155 177 0
150 171 0
155 176 0
159 179 0
152 173 0
156 176 0
154 174 0
152 173 0
152 172 0
153 174 0
150 171 0
151 171 0
151 171 0
151 172 0
155 176 0
151 172 0
152 172 0
150 171 0
152 173 0
153 174 0
153 174 0
151 172 0
152 173 0
153 172 0
154 174 0
158 179 0
147 167 0
159 181 0
153 175 0
151 171 0
152 174 0
147 167 0
155 177 0
148 170 0
151 174 0
143 165 0
157 179 0
156 176 0
152 174 0
145 166 0
151 172 0
151 172 0
148 170 0
150 171 0
153 174 0
158 179 0
146 167 0
148 170 0
152 174 0
151 173 0
149 170 0
155 176 0
153 173 0
148 170 0
154 176 0
152 175 0
156 178 0
157 178 0
142 163 0
153 175 0
149 171 0
154 177 0
156 178 0
152 173 0
144 166 0
149 171 0
156 178 0
149 171 0
155 177 0
147 169 0
149 170 0
155 176 0
151 172 0
157 178 0
148 171 0
149 170 0
153 175 0
155 177 0
142 163 0
155 177 0
146 166 0
148 170 0
148 170 0
154 177 0
152 173 0
154 175 0
152 174 0
155 176 0
151 173 0
152 175 0
142 164 0
151 173 0
148 169 0
152 173 0
153 175 0
151 173 0
144 166 0
148 172 0
151 173 0
149 171 0
151 173 0
144 166 0
150 170 0
151 174 0
145 166 0
152 175 0
144 167 0
153 174 0
153 175 0
148 169 0
149 171 0
149 171 0
152 173 0
146 168 0
150 171 0
150 172 0
146 167 0
141 161 0
140 162 0
148 170 0
150 171 0
154 175 0
150 172 0
151 171 0
152 174 0
144 167 0
150 171 0
149 170 0
151 173 0
148 171 0
147 169 0
143 165 0
150 172 0
150 171 0
145 166 0
142 163 0
149 170 0
148 169 0
151 172 0
142 162 0
142 163 0
146 169 0
153 174 0
140 161 0
150 172 0
145 167 0
143 165 0
144 166 0
148 171 0
142 163 0
148 169 0
143 163 0
145 166 0
147 168 0
144 165 0
148 169 0
148 170 0
148 170 0
145 167 0
141 163 0
152 173 0
141 162 0
149 169 0
151 173 0
143 164 0
152 174 0
149 170 0
149 171 0
145 167 0
154 176 0
148 169 0
146 169 0
154 175 0
146 168 0
148 168 0
140 160 0
152 173 0
148 169 0
146 168 0
149 169 0
149 170 0
146 166 0
135 156 0
147 169 0
139 160 0
149 169 0
151 171 0
146 167 0
148 169 0
153 175 0
145 165 0
152 172 0
151 173 0
145 165 0
156 177 0
146 167 0
155 176 0
148 169 0
151 172 0
150 173 0
151 173 0
142 163 0
153 174 0
150 173 0
146 167 0
153 175 0
153 174 0
147 167 0
157 177 0
151 170 0
151 170 0
146 168 0
156 177 0
146 166 0
142 162 0
153 173 0
149 169 0
150 169 0
151 173 0
157 177 0
150 170 0
144 163 0
142 161 0
151 171 0
148 166 0
149 167 0
148 168 0
152 170 0
159 180 0
142 162 0
149 168 0
152 171 0
153 173 0
155 174 0
148 167 0
153 171 0
147 166 0
151 170 0
149 167 0
148 167 0
154 175 0
145 165 0
159 180 0
146 164 0
143 162 0
146 163 0
147 165 0
155 173 0
148 167 0
161 179 0
145 163 0
147 165 0
155 173 0
149 166 0
144 164 0
150 169 0
151 169 0
150 166 0
148 167 0
146 165 0
154 170 0
148 164 0
149 167 0
146 164 0
152 169 0
153 170 0
149 166 0
148 164 0
151 170 0
150 169 0
150 168 0
152 169 0
146 163 0
149 165 0
152 168 0
150 167 0
147 164 0
151 168 0
148 163 0
149 167 0
152 170 0
148 163 0
150 166 0
150 165 0
143 161 0
149 165 0
156 173 0
152 168 0
153 169 0
153 168 0
150 164 0
153 170 0
155 171 0
151 166 0
148 165 0
153 169 0
158 173 0
153 169 0
151 166 0
146 162 0
148 162 0
152 168 0
146 162 0
149 165 0
152 168 0
153 168 0
152 169 0
149 167 0
145 158 0
149 161 0
147 162 0
156 171 0
149 163 0
151 165 0
147 162 0
154 168 0
153 168 0
156 170 0
153 166 0
157 171 0
159 174 0
147 160 0
160 175 0
150 163 0
157 171 0
158 172 0
156 172 0
155 171 0
153 166 0
151 165 0
154 167 0
158 173 0
153 168 0
156 171 0
158 171 0
150 164 0
146 159 0
151 164 0
152 166 0
160 173 0
153 165 0
152 167 0
156 169 0
154 167 0
153 167 0
153 164 0
154 166 0
155 168 0
155 167 0
161 181 0
166 186 0
160 180 0
160 180 0
160 181 0
161 182 0
159 178 0
160 180 0
160 180 0
158 178 0
159 179 0
154 174 0
157 177 0
157 178 0
156 176 0
153 172 0
159 180 0
154 173 0
151 172 0
157 178 0
158 178 0
156 175 0
153 174 0
159 179 0
162 182 0
156 176 0
160 180 0
162 182 0
155 176 0
153 173 0
153 174 0
155 175 0
157 178 0
158 179 0
153 173 0
157 177 0
159 178 0
152 172 0
156 177 0
158 180 0
155 174 0
157 178 0
156 177 0
162 182 0
156 178 0
154 174 0
159 181 0
153 173 0
152 172 0
157 176 0
154 175 0
148 169 0
156 177 0
158 179 0
158 179 0
157 179 0
154 175 0
156 176 0
159 180 0
153 174 0
154 175 0
156 176 0
155 176 0
154 175 0
151 172 0
155 176 0
153 174 0
155 177 0
151 172 0
153 175 0
156 177 0
148 168 0
147 168 0
154 175 0
152 171 0
149 169 0
156 177 0
155 176 0
154 175 0
154 175 0
151 173 0
156 179 0
151 172 0
151 173 0
151 173 0
158 179 0
153 175 0
156 177 0
146 167 0
153 175 0
152 173 0
150 172 0
155 176 0
158 180 0
153 175 0
151 172 0
151 172 0
151 172 0
147 168 0
157 179 0
154 175 0
154 176 0
159 181 0
160 182 0
148 171 0
151 172 0
159 182 0
152 174 0
158 179 0
156 177 0
152 174 0
151 173 0
159 181 0
156 177 0
149 171 0
146 168 0
150 173 0
150 171 0
157 180 0
148 168 0
154 175 0
149 171 0
141 163 0
150 172 0
158 179 0
153 175 0
153 174 0
156 178 0
148 171 0
145 166 0
153 174 0
153 175 0
150 172 0
146 167 0
148 171 0
146 167 0
147 168 0
145 167 0
155 177 0
154 175 0
150 172 0
148 168 0
152 172 0
152 174 0
148 169 0
153 176 0
156 178 0
141 163 0
151 173 0
144 165 0
151 173 0
149 172 0
151 173 0
143 166 0
154 177 0
146 168 0
149 170 0
156 178 0
150 173 0
154 176 0
142 162 0
148 170 0
146 169 0
145 165 0
147 169 0
160 180 0
147 168 0
146 169 0
142 163 0
151 172 0
147 169 0
150 172 0
148 169 0
142 163 0
143 165 0
151 174 0
145 167 0
147 168 0
152 175 0
145 165 0
148 170 0
151 172 0
151 173 0
149 172 0
144 166 0
145 167 0
153 174 0
147 170 0
142 164 0
145 167 0
156 178 0
153 175 0
142 164 0
154 176 0
144 166 0
143 166 0
147 169 0
152 174 0
142 164 0
150 171 0
144 166 0
145 167 0
155 176 0
148 170 0
156 177 0
146 168 0
145 165 0
150 172 0
144 164 0
147 168 0
152 173 0
145 167 0
143 164 0
150 173 0
145 165 0
148 169 0
143 162 0
152 173 0
147 168 0
141 162 0
140 160 0
148 169 0
156 175 0
142 163 0
147 169 0
154 175 0
150 172 0
148 169 0
148 170 0
140 160 0
147 167 0
151 172 0
148 169 0
146 166 0
151 172 0
143 164 0
149 171 0
154 174 0
147 169 0
150 170 0
147 168 0
145 165 0
150 170 0
144 164 0
154 175 0
148 170 0
149 168 0
147 167 0
146 167 0
143 164 0
151 172 0
149 169 0
154 175 0
156 177 0
146 167 0
154 174 0
147 169 0
156 176 0
147 168 0
149 171 0
148 168 0
142 161 0
153 174 0
147 167 0
151 172 0
149 170 0
156 176 0
147 166 0
150 170 0
149 171 0
153 172 0
148 168 0
151 170 0
154 175 0
150 170 0
140 159 0
151 171 0
153 174 0
147 168 0
155 175 0
144 163 0
156 175 0
154 174 0
152 172 0
147 166 0
151 170 0
144 163 0
155 174 0
154 173 0
150 169 0
158 177 0
150 170 0
149 167 0
154 172 0
153 172 0
153 172 0
153 173 0
149 167 0
146 167 0
145 164 0
152 172 0
150 168 0
153 172 0
158 177 0
148 165 0
145 164 0
153 169 0
143 162 0
151 170 0
155 174 0
147 164 0
156 174 0
150 170 0
153 172 0
151 168 0
151 169 0
144 161 0
150 166 0
150 168 0
148 163 0
149 166 0
142 156 0
145 162 0
150 170 0
149 165 0
142 158 0
151 170 0
153 169 0
145 163 0
146 161 0
151 168 0
151 168 0
155 173 0
152 170 0
151 167 0
157 173 0
154 171 0
149 164 0
141 158 0
149 164 0
154 169 0
152 169 0
143 158 0
153 169 0
153 168 0
148 163 0
154 169 0
151 167 0
156 174 0
155 169 0
151 167 0
149 167 0
155 170 0
152 168 0
159 174 0
153 169 0
152 167 0
148 163 0
153 170 0
150 166 0
157 172 0
154 170 0
153 165 0
151 165 0
162 177 0
144 156 0
151 166 0
148 163 0
151 166 0
152 167 0
146 158 0
153 167 0
152 168 0
151 164 0
152 165 0
158 170 0
155 170 0
152 167 0
154 166 0
146 156 0
153 167 0
154 166 0
156 168 0
152 166 0
157 170 0
149 161 0
157 169 0
155 167 0
152 164 0
159 175 0
155 171 0
152 163 0
156 171 0
156 170 0
157 167 0
151 165 0
156 168 0
158 172 0
156 168 0
153 169 0
160 180 0
155 175 0
162 183 0
159 180 0
159 179 0
163 182 0
163 184 0
163 183 0
158 178 0
153 173 0
161 182 0
159 179 0
157 177 0
155 175 0
162 183 0
157 176 0
155 176 0
155 175 0
153 173 0
160 181 0
160 180 0
157 177 0
163 184 0
162 183 0
161 182 0
159 179 0
157 178 0
157 177 0
157 177 0
157 178 0
156 175 0
157 177 0
155 175 0
155 176 0
164 184 0
157 178 0
156 177 0
157 178 0
154 174 0
152 173 0
159 180 0
157 179 0
161 181 0
154 175 0
157 177 0
157 177 0
154 174 0
158 178 0
154 175 0
156 178 0
157 177 0
158 180 0
159 180 0
150 171 0
153 173 0
155 175 0
150 172 0
154 177 0
153 174 0
157 179 0
157 178 0
155 176 0
158 180 0
155 175 0
155 176 0
155 177 0
152 174 0
149 171 0
154 177 0
152 173 0
151 173 0
155 177 0
161 182 0
153 174 0
152 174 0
161 183 0
145 165 0
148 169 0
156 178 0
149 169 0
152 172 0
152 173 0
155 177 0
152 174 0
156 178 0
154 175 0
150 171 0
150 172 0
150 172 0
162 185 0
154 176 0
153 174 0
152 173 0
147 168 0
158 180 0
151 172 0
149 170 0
152 172 0
151 173 0
157 178 0
155 176 0
155 177 0
148 169 0
150 171 0
156 177 0
154 176 0
153 176 0
155 177 0
151 173 0
155 177 0
152 174 0
149 170 0
149 171 0
155 177 0
148 169 0
148 169 0
154 176 0
154 176 0
150 171 0
151 174 0
147 168 0
160 182 0
149 171 0
147 168 0
159 180 0
157 179 0
148 169 0
153 174 0
154 175 0
154 176 0
154 176 0
156 178 0
153 174 0
154 175 0
146 169 0
150 172 0
156 178 0
156 177 0
153 174 0
148 170 0
151 173 0
148 169 0
144 166 0
150 172 0
148 170 0
155 176 0
153 175 0
145 167 0
147 169 0
147 167 0
145 166 0
152 173 0
147 168 0
159 181 0
147 168 0
145 167 0
148 169 0
150 173 0
155 178 0
153 175 0
156 178 0
149 170 0
148 169 0
147 169 0
140 161 0
149 171 0
147 168 0
158 181 0
150 170 0
158 179 0
151 173 0
143 165 0
146 167 0
146 168 0
150 172 0
156 177 0
149 170 0
147 169 0
145 166 0
152 173 0
153 175 0
149 172 0
145 167 0
151 171 0
150 172 0
138 160 0
148 169 0
150 171 0
152 175 0
147 168 0
146 166 0
143 165 0
137 159 0
149 170 0
148 171 0
151 172 0
153 172 0
148 169 0
141 161 0
153 174 0
148 171 0
141 163 0
144 167 0
150 172 0
150 172 0
146 166 0
146 169 0
155 174 0
152 173 0
141 163 0
143 165 0
153 175 0
153 174 0
151 173 0
146 168 0
153 175 0
153 175 0
136 157 0
155 175 0
147 168 0
152 174 0
146 168 0
149 169 0
145 166 0
154 176 0
151 172 0
151 172 0
153 173 0
148 169 0
148 169 0
150 171 0
148 167 0
152 174 0
146 167 0
149 170 0
143 163 0
149 171 0
147 168 0
150 172 0
151 174 0
148 169 0
149 169 0
152 173 0
146 166 0
147 167 0
155 175 0
152 173 0
156 176 0
153 175 0
145 165 0
151 171 0
149 169 0
147 168 0
149 169 0
144 164 0
156 176 0
139 159 0
153 172 0
145 165 0
142 161 0
148 167 0
151 171 0
151 171 0
151 172 0
143 164 0
144 162 0
146 167 0
152 171 0
151 172 0
152 172 0
156 175 0
142 162 0
154 175 0
144 163 0
142 162 0
145 164 0
154 174 0
150 171 0
150 168 0
143 162 0
152 172 0
156 175 0
150 171 0
152 170 0
153 173 0
157 176 0
146 164 0
156 176 0
145 164 0
152 171 0
150 170 0
147 166 0
148 167 0
151 170 0
150 171 0
144 163 0
147 167 0
152 170 0
152 172 0
150 169 0
158 176 0
156 176 0
148 167 0
151 169 0
143 161 0
153 170 0
151 170 0
155 173 0
151 170 0
143 161 0
149 169 0
146 162 0
155 173 0
151 168 0
155 173 0
151 170 0
152 169 0
147 166 0
153 172 0
154 172 0
151 168 0
152 169 0
145 161 0
158 177 0
151 170 0
153 170 0
146 162 0
161 179 0
150 170 0
150 167 0
155 173 0
149 165 0
155 171 0
151 169 0
152 170 0
155 170 0
149 166 0
155 173 0
150 166 0
143 158 0
153 169 0
150 166 0
148 161 0
149 165 0
147 165 0
152 170 0
151 167 0
154 173 0
152 167 0
159 172 0
155 171 0
155 172 0
155 168 0
154 170 0
152 170 0
153 168 0
151 167 0
146 159 0
147 163 0
153 168 0
151 166 0
144 156 0
149 164 0
146 158 0
153 169 0
156 172 0
154 169 0
148 163 0
144 158 0
154 169 0
154 170 0
157 175 0
150 165 0
150 164 0
148 160 0
147 162 0
149 161 0
152 168 0
154 170 0
149 163 0
153 167 0
154 169 0
151 165 0
159 174 0
150 162 0
155 169 0
151 165 0
146 156 0
150 164 0
158 170 0
153 167 0
149 161 0
146 157 0
155 168 0
157 169 0
152 164 0
156 169 0
151 165 0
153 166 0
156 170 0
157 178 0
162 183 0
161 182 0
159 180 0
156 176 0
160 181 0
159 179 0
160 180 0
160 181 0
159 179 0
162 182 0
157 177 0
156 175 0
158 178 0
159 179 0
159 180 0
156 177 0
156 176 0
158 178 0
160 180 0
158 179 0
160 181 0
161 182 0
159 179 0
161 181 0
157 178 0
161 181 0
161 182 0
153 174 0
154 175 0
162 183 0
157 178 0
165 185 0
163 185 0
153 173 0
155 175 0
152 172 0
155 176 0
160 180 0
158 179 0
150 169 0
157 176 0
154 175 0
158 179 0
154 175 0
157 178 0
154 176 0
163 184 0
156 177 0
151 171 0
158 180 0
154 175 0
151 173 0
158 178 0
158 179 0
160 181 0
153 174 0
148 170 0
150 171 0
151 170 0
157 178 0
158 179 0
156 177 0
153 174 0
158 180 0
158 180 0
156 177 0
149 171 0
156 177 0
154 174 0
157 179 0
149 170 0
153 173 0
154 175 0
155 176 0
159 180 0
159 181 0
152 174 0
156 177 0
149 171 0
157 178 0
153 174 0
161 182 0
154 176 0
153 174 0
159 181 0
159 180 0
155 177 0
154 175 0
149 171 0
160 181 0
155 176 0
161 183 0
154 177 0
156 179 0
151 172 0
155 177 0
153 175 0
148 171 0
146 168 0
149 171 0
153 175 0
155 177 0
155 177 0
146 169 0
154 175 0
147 168 0
149 171 0
152 173 0
146 168 0
149 171 0
146 167 0
145 166 0
154 176 0
150 172 0
151 174 0
149 172 0
154 176 0
153 175 0
151 173 0
153 176 0
157 180 0
149 171 0
156 179 0
148 170 0
155 178 0
154 176 0
149 171 0
145 167 0
153 174 0
144 165 0
154 175 0
148 170 0
158 179 0
151 173 0
143 164 0
147 169 0
154 176 0
146 169 0
152 174 0
152 173 0
153 175 0
151 173 0
152 174 0
157 179 0
157 178 0
151 173 0
149 171 0
150 171 0
150 172 0
151 173 0
151 173 0
148 170 0
151 173 0
146 167 0
147 169 0
150 172 0
146 169 0
151 174 0
139 160 0
149 169 0
150 173 0
155 177 0
148 169 0
147 168 0
154 177 0
147 169 0
142 165 0
157 179 0
151 172 0
152 176 0
151 173 0
153 175 0
150 172 0
148 170 0
148 170 0
153 175 0
153 175 0
149 171 0
149 172 0
147 168 0
149 171 0
154 175 0
152 174 0
147 168 0
141 161 0
149 172 0
154 176 0
156 176 0
149 172 0
154 177 0
142 164 0
150 172 0
154 176 0
144 166 0
146 167 0
156 177 0
148 171 0
152 174 0
147 169 0
156 178 0
139 161 0
147 170 0
143 166 0
146 169 0
147 170 0
141 161 0
151 172 0
146 167 0
152 175 0
146 167 0
151 173 0
153 174 0
152 173 0
144 165 0
145 164 0
147 169 0
141 161 0
139 160 0
148 168 0
150 171 0
151 172 0
150 171 0
150 172 0
150 171 0
146 166 0
147 167 0
143 164 0
157 179 0
151 173 0
144 166 0
148 169 0
150 172 0
151 172 0
152 171 0
155 177 0
148 168 0
153 174 0
146 165 0
149 171 0
153 174 0
154 176 0
150 172 0
144 166 0
151 172 0
150 172 0
151 172 0
154 174 0
150 170 0
150 171 0
152 172 0
145 167 0
150 170 0
149 169 0
159 179 0
152 171 0
147 168 0
153 174 0
147 168 0
153 176 0
144 163 0
143 163 0
144 163 0
149 168 0
151 171 0
154 173 0
154 174 0
143 164 0
149 169 0
151 171 0
152 171 0
157 176 0
152 172 0
141 160 0
149 170 0
145 164 0
152 172 0
148 170 0
154 175 0
149 167 0
145 164 0
149 166 0
147 167 0
155 175 0
156 175 0
159 180 0
156 177 0
158 177 0
150 168 0
148 166 0
143 162 0
149 169 0
154 174 0
144 164 0
152 173 0
148 167 0
150 171 0
156 176 0
150 168 0
147 167 0
151 171 0
145 164 0
152 169 0
153 172 0
149 168 0
153 169 0
151 170 0
146 163 0
146 165 0
152 170 0
154 174 0
152 170 0
151 170 0
144 164 0
152 170 0
149 168 0
151 169 0
146 163 0
158 176 0
155 174 0
146 165 0
151 170 0
153 172 0
154 171 0
145 163 0
153 170 0
154 173 0
147 164 0
153 174 0
155 174 0
155 173 0
146 161 0
154 171 0
153 170 0
147 163 0
146 162 0
149 167 0
153 171 0
144 161 0
145 161 0
147 163 0
147 162 0
151 167 0
151 167 0
156 171 0
158 173 0
148 163 0
150 168 0
158 174 0
150 164 0
146 161 0
153 168 0
144 158 0
151 167 0
155 172 0
156 172 0
155 171 0
144 156 0
155 170 0
156 171 0
146 161 0
153 169 0
156 171 0
155 170 0
148 162 0
156 172 0
158 172 0
149 162 0
152 167 0
157 171 0
155 171 0
150 164 0
147 160 0
159 174 0
148 161 0
155 170 0
151 163 0
155 168 0
147 160 0
149 164 0
149 164 0
153 167 0
152 167 0
161 176 0
153 166 0
150 162 0
157 171 0
159 171 0
150 163 0
156 173 0
154 168 0
152 166 0
159 176 0
160 175 0
147 161 0
157 170 0
150 162 0
152 166 0
150 162 0
154 169 0
160 181 0
157 177 0
157 177 0
157 178 0
161 182 0
166 187 0
162 182 0
158 178 0
156 176 0
160 181 0
155 176 0
153 173 0
152 173 0
159 179 0
155 176 0
161 182 0
159 179 0
160 179 0
156 177 0
160 180 0
160 181 0
157 178 0
156 177 0
162 183 0
156 177 0
157 178 0
156 176 0
155 175 0
154 175 0
160 180 0
160 181 0
157 178 0
158 177 0
155 176 0
156 176 0
161 182 0
158 179 0
161 180 0
155 175 0
156 177 0
155 176 0
157 177 0
152 173 0
154 175 0
160 181 0
153 173 0
156 178 0
154 176 0
156 178 0
157 179 0
152 172 0
154 175 0
154 176 0
159 180 0
160 182 0
153 173 0
153 175 0
156 178 0
153 175 0
156 178 0
151 173 0
158 180 0
152 173 0
151 172 0
151 172 0
152 173 0
151 172 0
154 176 0
154 175 0
156 177 0
153 175 0
157 178 0
157 178 0
153 175 0
157 179 0
154 176 0
150 171 0
147 168 0
151 172 0
153 174 0
157 178 0
155 177 0
152 174 0
157 178 0
151 173 0
151 172 0
156 177 0
156 177 0
159 181 0
154 175 0
157 180 0
150 172 0
156 178 0
153 174 0
152 174 0
159 181 0
148 170 0
148 168 0
156 177 0
159 181 0
152 174 0
158 179 0
150 172 0
147 168 0
152 174 0
153 175 0
151 172 0
156 177 0
150 172 0
156 178 0
161 183 0
150 172 0
148 170 0
155 176 0
148 170 0
150 171 0
148 169 0
142 163 0
151 171 0
153 172 0
155 176 0
150 171 0
158 179 0
156 177 0
150 172 0
155 178 0
160 182 0
150 171 0
150 173 0
153 175 0
157 180 0
155 178 0
156 179 0
152 174 0
152 174 0
153 174 0
160 183 0
151 173 0
156 178 0
149 172 0
153 176 0
149 171 0
154 177 0
144 167 0
154 176 0
155 177 0
151 174 0
153 176 0
150 172 0
154 175 0
156 178 0
149 171 0
153 175 0
156 178 0
147 169 0
154 176 0
145 165 0
154 176 0
150 171 0
151 173 0
147 169 0
148 169 0
151 174 0
145 167 0
146 168 0
147 169 0
150 172 0
145 168 0
151 174 0
151 173 0
137 161 0
148 170 0
150 172 0
148 169 0
154 177 0
157 180 0
154 175 0
152 174 0
150 171 0
149 171 0
154 176 0
145 166 0
154 176 0
152 173 0
150 171 0
148 169 0
155 176 0
154 176 0
140 162 0
142 163 0
144 165 0
153 176 0
145 167 0
150 171 0
143 164 0
146 167 0
146 166 0
150 169 0
153 174 0
149 169 0
152 174 0
142 161 0
145 166 0
148 169 0
149 171 0
150 172 0
150 171 0
149 169 0
146 167 0
154 176 0
152 174 0
149 169 0
143 163 0
144 166 0
153 175 0
156 178 0
152 174 0
142 164 0
153 175 0
149 170 0
152 173 0
151 173 0
147 168 0
147 169 0
146 166 0
148 169 0
149 170 0
151 171 0
151 172 0
154 176 0
154 174 0
147 169 0
143 163 0
140 160 0
154 175 0
148 167 0
145 166 0
148 168 0
154 174 0
151 172 0
151 172 0
153 174 0
145 166 0
153 174 0
145 167 0
153 174 0
155 176 0
147 169 0
146 167 0
155 175 0
146 166 0
149 170 0
157 177 0
148 170 0
157 179 0
149 169 0
147 167 0
147 168 0
151 171 0
151 173 0
158 179 0
143 163 0
155 174 0
155 175 0
145 164 0
150 169 0
156 176 0
145 164 0
154 175 0
150 171 0
148 168 0
156 175 0
148 170 0
152 172 0
152 173 0
152 172 0
151 171 0
149 169 0
154 174 0
147 166 0
148 169 0
153 174 0
150 170 0
146 165 0
155 176 0
158 178 0
149 169 0
142 163 0
152 171 0
146 166 0
147 167 0
155 175 0
148 166 0
144 164 0
145 164 0
156 175 0
155 176 0
147 166 0
147 167 0
152 171 0
149 166 0
148 166 0
150 169 0
154 174 0
152 171 0
151 170 0
151 169 0
143 162 0
149 167 0
151 170 0
150 167 0
156 176 0
153 170 0
144 163 0
157 176 0
155 175 0
147 163 0
150 168 0
158 178 0
153 170 0
142 157 0
150 169 0
146 160 0
154 171 0
149 166 0
154 171 0
152 168 0
154 170 0
153 170 0
147 166 0
154 170 0
151 168 0
156 173 0
150 166 0
156 172 0
154 171 0
146 163 0
155 169 0
144 159 0
153 171 0
152 168 0
146 164 0
148 163 0
151 166 0
154 169 0
154 169 0
154 171 0
154 170 0
149 164 0
154 172 0
154 171 0
149 166 0
156 176 0
158 175 0
152 171 0
148 165 0
153 169 0
148 164 0
148 163 0
148 161 0
156 172 0
154 169 0
149 165 0
155 170 0
159 178 0
157 176 0
157 171 0
155 170 0
156 174 0
159 176 0
155 170 0
151 165 0
150 165 0
153 168 0
152 167 0
146 160 0
153 167 0
150 166 0
158 173 0
148 162 0
154 169 0
154 167 0
156 172 0
158 172 0
156 170 0
154 170 0
155 169 0
154 166 0
150 164 0
155 169 0
153 166 0
155 171 0
155 171 0
151 164 0
157 173 0
160 175 0
151 164 0
155 169 0
150 163 0
157 168 0
162 182 0
160 180 0
157 176 0
156 177 0
162 183 0
166 187 0
157 177 0
163 184 0
157 177 0
162 184 0
156 177 0
161 181 0
154 173 0
158 178 0
155 176 0
162 183 0
159 179 0
156 177 0
158 179 0
160 181 0
163 183 0
161 182 0
158 178 0
157 178 0
158 179 0
157 178 0
161 182 0
161 183 0
159 179 0
152 173 0
156 177 0
159 181 0
155 175 0
158 179 0
156 177 0
153 174 0
153 174 0
153 173 0
151 172 0
151 171 0
155 175 0
155 176 0
156 175 0
154 175 0
157 177 0
157 178 0
158 178 0
149 170 0
154 175 0
153 174 0
157 179 0
155 176 0
151 171 0
154 175 0
156 177 0
157 178 0
160 181 0
151 170 0
146 166 0
155 176 0
156 178 0
154 176 0
156 177 0
150 172 0
155 176 0
152 174 0
155 176 0
149 170 0
153 173 0
153 174 0
155 176 0
152 173 0
155 176 0
153 174 0
160 180 0
151 172 0
153 175 0
143 164 0
159 181 0
155 176 0
162 184 0
157 178 0
150 173 0
160 181 0
156 177 0
156 177 0
152 175 0
155 177 0
154 175 0
159 182 0
159 181 0
161 183 0
153 174 0
143 165 0
152 173 0
154 174 0
152 173 0
151 173 0
156 178 0
150 172 0
154 176 0
152 174 0
158 179 0
150 173 0
152 174 0
157 179 0
153 175 0
152 175 0
149 169 0
146 167 0
154 177 0
155 177 0
147 169 0
157 179 0
152 174 0
156 178 0
154 176 0
153 174 0
147 168 0
153 174 0
154 176 0
138 159 0
150 172 0
151 173 0
149 170 0
146 167 0
146 166 0
151 173 0
155 177 0
150 172 0
155 177 0
150 173 0
154 175 0
150 172 0
154 176 0
151 173 0
155 177 0
154 177 0
150 172 0
148 170 0
157 180 0
149 171 0
152 173 0
147 168 0
147 168 0
144 166 0
145 168 0
153 176 0
159 180 0
157 179 0
141 162 0
149 171 0
146 167 0
153 174 0
156 178 0
153 175 0
152 173 0
148 169 0
151 173 0
153 176 0
156 177 0
150 172 0
156 178 0
151 172 0
146 167 0
146 167 0
152 174 0
145 167 0
146 167 0
153 176 0
148 170 0
151 174 0
153 174 0
156 178 0
147 169 0
151 172 0
147 169 0
147 168 0
151 173 0
151 173 0
153 175 0
154 175 0
147 169 0
149 169 0
155 175 0
148 169 0
146 167 0
156 178 0
155 177 0
143 165 0
144 166 0
156 178 0
150 172 0
155 177 0
146 168 0
154 177 0
151 172 0
154 176 0
154 176 0
146 167 0
145 168 0
146 165 0
145 167 0
151 172 0
155 177 0
150 171 0
153 175 0
149 170 0
147 168 0
144 165 0
150 170 0
149 169 0
153 175 0
158 178 0
160 181 0
144 166 0
151 173 0
149 170 0
151 171 0
147 168 0
150 171 0
147 168 0
147 169 0
151 173 0
143 164 0
150 170 0
144 165 0
144 166 0
149 170 0
150 170 0
149 170 0
150 172 0
150 172 0
139 160 0
154 176 0
160 180 0
155 177 0
158 179 0
158 179 0
147 168 0
149 170 0
150 169 0
146 165 0
151 172 0
146 166 0
142 164 0
141 161 0
153 174 0
154 175 0
151 172 0
148 168 0
155 176 0
148 169 0
155 176 0
155 177 0
153 173 0
150 170 0
148 169 0
149 172 0
150 171 0
149 170 0
145 166 0
148 169 0
148 167 0
150 173 0
150 171 0
158 178 0
154 175 0
146 167 0
145 166 0
147 167 0
149 171 0
156 175 0
148 168 0
148 169 0
147 167 0
149 170 0
147 166 0
158 179 0
149 169 0
152 172 0
154 172 0
155 175 0
147 168 0
143 160 0
154 173 0
151 168 0
149 168 0
153 173 0
151 168 0
150 168 0
148 164 0
158 177 0
143 161 0
145 164 0
151 171 0
154 174 0
157 176 0
151 169 0
150 170 0
149 168 0
152 171 0
154 175 0
150 170 0
150 169 0
156 175 0
148 167 0
151 171 0
152 170 0
150 169 0
149 168 0
160 179 0
153 170 0
156 174 0
144 161 0
152 172 0
154 173 0
151 167 0
154 172 0
158 177 0
152 170 0
157 176 0
152 172 0
148 167 0
154 170 0
151 168 0
149 167 0
150 169 0
148 165 0
147 164 0
147 164 0
151 169 0
156 172 0
146 162 0
155 172 0
157 175 0
155 171 0
150 166 0
151 167 0
152 169 0
150 170 0
150 168 0
149 167 0
144 161 0
147 162 0
152 169 0
153 170 0
157 174 0
154 171 0
152 167 0
158 175 0
151 167 0
153 170 0
146 159 0
155 172 0
154 173 0
155 170 0
154 171 0
155 171 0
150 165 0
156 172 0
155 172 0
148 164 0
153 170 0
152 167 0
149 163 0
147 161 0
155 170 0
151 169 0
152 166 0
154 167 0
154 169 0
154 170 0
148 162 0
150 164 0
157 170 0
152 168 0
160 177 0
149 161 0
156 173 0
154 167 0
157 171 0
152 164 0
155 170 0
156 171 0
153 168 0
152 163 0
154 169 0
151 166 0
153 167 0
157 171 0
157 172 0
159 173 0
157 171 0
159 174 0
158 172 0
158 175 0
158 174 0
150 164 0
159 174 0
156 176 0
160 180 0
159 178 0
161 182 0
157 178 0
157 176 0
164 184 0
162 183 0
159 179 0
159 180 0
160 182 0
158 179 0
162 182 0
159 179 0
155 175 0
157 177 0
163 184 0
158 179 0
157 178 0
162 182 0
159 180 0
160 180 0
156 178 0
148 168 0
158 179 0
158 179 0
162 183 0
156 176 0
162 183 0
165 185 0
157 177 0
162 182 0
158 179 0
159 180 0
155 176 0
158 179 0
157 177 0
151 171 0
161 182 0
160 181 0
160 180 0
159 181 0
159 180 0
154 175 0
156 177 0
154 174 0
160 180 0
159 181 0
154 175 0
161 182 0
154 176 0
158 180 0
153 174 0
154 176 0
160 180 0
155 177 0
154 176 0
155 176 0
152 173 0
156 178 0
153 175 0
156 177 0
159 180 0
156 179 0
154 175 0
152 173 0
152 173 0
157 179 0
157 177 0
158 180 0
149 169 0
159 180 0
152 174 0
159 179 0
150 171 0
155 177 0
156 177 0
150 171 0
157 179 0
151 173 0
158 181 0
147 167 0
157 179 0
155 176 0
145 166 0
159 181 0
155 177 0
153 174 0
160 181 0
152 174 0
159 182 0
158 180 0
146 169 0
151 173 0
154 176 0
148 169 0
152 175 0
147 169 0
152 173 0
155 177 0
159 181 0
147 169 0
147 169 0
156 177 0
156 178 0
156 178 0
147 169 0
156 178 0
157 179 0
159 181 0
137 158 0
149 171 0
148 169 0
157 179 0
159 181 0
147 169 0
152 174 0
155 176 0
155 178 0
151 173 0
149 171 0
152 175 0
155 179 0
154 175 0
153 175 0
148 169 0
149 172 0
150 172 0
154 176 0
152 174 0
149 171 0
153 175 0
154 175 0
157 180 0
154 175 0
151 173 0
145 167 0
152 174 0
151 174 0
157 177 0
145 166 0
152 174 0
160 182 0
152 174 0
150 173 0
151 173 0
149 172 0
146 168 0
150 173 0
151 171 0
151 174 0
146 168 0
152 174 0
152 173 0
155 178 0
147 168 0
153 175 0
155 177 0
149 171 0
153 175 0
153 176 0
148 169 0
149 171 0
150 171 0
154 176 0
149 171 0
148 170 0
149 170 0
148 171 0
150 171 0
148 168 0
152 173 0
153 175 0
148 169 0
147 168 0
155 177 0
153 175 0
149 170 0
146 169 0
146 168 0
154 176 0
154 175 0
153 175 0
149 171 0
149 171 0
150 172 0
150 172 0
144 167 0
154 177 0
149 171 0
154 177 0
145 167 0
145 168 0
145 167 0
147 167 0
149 169 0
151 174 0
148 169 0
158 181 0
145 168 0
151 173 0
152 173 0
151 174 0
150 173 0
154 177 0
143 166 0
145 166 0
146 169 0
157 179 0
156 179 0
142 163 0
150 169 0
154 177 0
156 177 0
153 174 0
148 169 0
152 172 0
150 172 0
154 176 0
142 163 0
151 173 0
146 168 0
138 160 0
146 168 0
154 175 0
153 175 0
150 171 0
146 166 0
147 167 0
150 171 0
150 172 0
150 172 0
152 174 0
143 165 0
147 169 0
142 162 0
145 166 0
154 174 0
149 171 0
150 170 0
153 175 0
148 170 0
154 175 0
151 172 0
153 174 0
145 167 0
156 178 0
160 181 0
143 163 0
150 172 0
150 172 0
150 171 0
156 179 0
150 171 0
144 165 0
150 172 0
151 171 0
155 176 0
152 173 0
146 167 0
153 175 0
149 170 0
151 172 0
151 169 0
156 177 0
145 164 0
159 179 0
157 177 0
150 172 0
149 168 0
149 169 0
150 169 0
149 168 0
146 164 0
154 175 0
147 167 0
154 174 0
153 175 0
152 171 0
148 167 0
149 169 0
144 165 0
152 171 0
151 171 0
155 174 0
147 167 0
152 172 0
157 175 0
146 164 0
148 169 0
153 174 0
153 172 0
151 170 0
153 172 0
153 174 0
148 168 0
151 170 0
143 162 0
152 172 0
151 167 0
152 171 0
160 182 0
157 177 0
147 164 0
157 178 0
153 172 0
152 171 0
152 172 0
152 171 0
144 162 0
152 169 0
156 174 0
159 177 0
152 171 0
151 169 0
159 177 0
146 165 0
146 164 0
147 165 0
150 166 0
153 170 0
152 170 0
156 173 0
156 172 0
147 165 0
155 173 0
147 164 0
151 168 0
155 173 0
153 172 0
152 168 0
153 171 0
148 166 0
156 172 0
155 174 0
151 169 0
151 168 0
151 166 0
140 159 0
154 173 0
147 165 0
153 170 0
155 171 0
152 168 0
152 170 0
161 178 0
150 166 0
150 165 0
151 167 0
153 171 0
156 175 0
156 175 0
152 168 0
151 165 0
145 160 0
149 167 0
155 172 0
153 170 0
152 168 0
148 165 0
150 166 0
154 172 0
156 172 0
155 172 0
153 166 0
155 170 0
147 162 0
156 172 0
151 168 0
153 167 0
147 161 0
152 168 0
153 169 0
152 168 0
154 169 0
151 163 0
150 162 0
154 171 0
153 169 0
156 171 0
158 173 0
149 163 0
149 162 0
147 160 0
157 172 0
151 167 0
155 171 0
149 161 0
156 171 0
158 173 0
159 174 0
152 165 0
154 169 0
157 171 0
155 169 0
160 175 0
158 175 0
162 178 0
152 166 0
149 162 0
162 183 0
160 180 0
155 175 0
157 177 0
164 184 0
158 178 0
158 178 0
158 178 0
157 176 0
159 179 0
155 176 0
160 181 0
160 180 0
157 178 0
160 181 0
161 182 0
157 178 0
159 180 0
154 174 0
155 176 0
157 177 0
160 180 0
158 179 0
156 176 0
155 175 0
166 187 0
158 178 0
159 180 0
157 177 0
163 185 0
160 181 0
153 173 0
156 176 0
147 168 0
155 176 0
156 176 0
155 175 0
151 172 0
155 176 0
156 177 0
156 176 0
156 176 0
154 174 0
155 176 0
152 173 0
148 169 0
153 175 0
156 176 0
157 178 0
156 177 0
150 171 0
151 171 0
159 179 0
158 179 0
153 174 0
154 176 0
148 168 0
151 172 0
158 180 0
153 175 0
153 174 0
152 174 0
154 175 0
161 184 0
153 174 0
157 179 0
161 181 0
150 170 0
153 175 0
154 175 0
150 172 0
156 178 0
159 179 0
157 178 0
160 182 0
152 175 0
157 178 0
156 177 0
153 175 0
157 178 0
154 175 0
158 180 0
145 166 0
149 171 0
155 177 0
155 177 0
156 177 0
154 175 0
148 169 0
146 168 0
155 177 0
156 176 0
152 175 0
154 176 0
156 178 0
155 176 0
154 175 0
156 177 0
162 183 0
153 175 0
152 174 0
158 180 0
155 177 0
152 173 0
154 175 0
155 177 0
153 175 0
146 168 0
155 178 0
156 178 0
154 177 0
155 176 0
145 167 0
149 171 0
151 173 0
149 172 0
148 170 0
155 178 0
147 169 0
155 178 0
157 179 0
154 176 0
150 172 0
157 179 0
156 178 0
149 172 0
154 176 0
154 177 0
157 179 0
153 176 0
148 170 0
148 170 0
152 174 0
153 176 0
146 167 0
150 172 0
154 175 0
157 180 0
155 177 0
149 169 0
154 175 0
152 174 0
157 180 0
150 170 0
148 170 0
149 170 0
148 171 0
156 178 0
158 179 0
156 179 0
150 172 0
153 174 0
154 175 0
150 171 0
154 176 0
154 177 0
149 172 0
156 178 0
146 168 0
152 174 0
146 168 0
151 173 0
149 172 0
145 169 0
155 177 0
145 168 0
151 174 0
149 170 0
151 173 0
154 176 0
146 167 0
148 169 0
154 175 0
153 176 0
146 167 0
154 177 0
149 170 0
152 174 0
156 179 0
150 171 0
153 176 0
147 168 0
146 168 0
148 169 0
144 167 0
151 173 0
153 176 0
155 177 0
156 178 0
145 167 0
148 171 0
154 175 0
161 183 0
151 173 0
151 174 0
151 173 0
154 176 0
136 156 0
154 176 0
156 178 0
150 172 0
151 174 0
146 167 0
154 177 0
153 175 0
152 175 0
146 167 0
152 174 0
150 172 0
153 175 0
148 169 0
147 167 0
151 171 0
152 174 0
152 175 0
150 173 0
146 168 0
157 179 0
151 173 0
145 167 0
145 168 0
141 161 0
144 166 0
150 173 0
150 170 0
150 171 0
153 174 0
140 161 0
150 172 0
153 173 0
153 174 0
146 166 0
155 176 0
147 168 0
148 167 0
153 175 0
153 173 0
155 177 0
144 164 0
143 163 0
153 174 0
158 180 0
150 170 0
155 177 0
147 166 0
152 172 0
148 168 0
152 173 0
149 168 0
151 173 0
153 173 0
149 171 0
150 171 0
140 160 0
156 176 0
153 173 0
150 170 0
151 174 0
156 178 0
155 175 0
163 183 0
147 166 0
147 168 0
146 168 0
151 172 0
150 171 0
148 170 0
154 173 0
148 168 0
149 170 0
151 172 0
152 172 0
154 174 0
151 171 0
154 176 0
151 172 0
148 167 0
154 174 0
155 176 0
149 168 0
146 166 0
157 177 0
151 171 0
153 173 0
147 167 0
155 177 0
155 176 0
152 171 0
157 177 0
152 172 0
146 166 0
157 177 0
143 162 0
146 165 0
152 171 0
153 174 0
150 170 0
145 164 0
151 170 0
151 170 0
151 169 0
156 175 0
147 166 0
148 167 0
158 176 0
154 174 0
150 168 0
148 166 0
156 177 0
150 170 0
151 170 0
161 179 0
151 170 0
155 174 0
148 168 0
154 173 0
147 164 0
152 169 0
156 173 0
152 171 0
154 170 0
154 172 0
152 169 0
158 178 0
155 175 0
153 171 0
156 175 0
150 169 0
160 176 0
153 170 0
152 170 0
148 166 0
151 169 0
149 166 0
152 169 0
156 174 0
156 174 0
152 170 0
157 174 0
149 167 0
153 172 0
150 167 0
155 171 0
154 170 0
154 171 0
154 171 0
151 167 0
153 172 0
150 167 0
153 172 0
159 177 0
154 168 0
161 180 0
157 174 0
152 169 0
157 176 0
154 169 0
154 170 0
154 171 0
152 166 0
154 169 0
152 170 0
154 170 0
154 170 0
152 168 0
161 178 0
150 164 0
150 165 0
149 165 0
158 174 0
154 171 0
151 164 0
154 168 0
145 161 0
154 169 0
157 172 0
161 177 0
151 166 0
155 170 0
155 172 0
160 176 0
149 162 0
157 172 0
157 172 0
151 165 0
147 162 0
156 171 0
157 171 0
150 166 0
153 167 0
161 176 0
149 163 0
163 179 0
153 167 0
155 171 0
159 173 0
160 176 0
158 171 0
156 170 0
145 158 0
162 182 0
160 181 0
163 183 0
152 173 0
164 185 0
155 175 0
163 183 0
156 175 0
159 179 0
157 177 0
157 176 0
155 176 0
157 178 0
159 179 0
162 181 0
156 176 0
157 178 0
157 178 0
160 180 0
159 178 0
158 180 0
159 179 0
159 179 0
156 176 0
160 180 0
157 176 0
159 180 0
160 181 0
153 174 0
156 178 0
158 178 0
161 182 0
153 173 0
162 184 0
157 178 0
153 174 0
161 182 0
158 178 0
154 176 0
158 179 0
159 180 0
157 178 0
156 177 0
156 176 0
154 176 0
152 173 0
161 183 0
151 171 0
154 175 0
151 171 0
156 177 0
161 182 0
152 175 0
152 172 0
157 179 0
152 174 0
158 179 0
154 175 0
159 179 0
156 177 0
158 179 0
158 179 0
156 178 0
156 176 0
162 184 0
154 175 0
156 177 0
158 179 0
154 176 0
155 176 0
154 176 0
153 176 0
156 179 0
159 179 0
159 181 0
153 175 0
155 177 0
155 177 0
154 174 0
158 180 0
156 177 0
159 181 0
154 175 0
158 180 0
158 180 0
154 175 0
156 178 0
155 176 0
159 181 0
150 172 0
154 176 0
149 170 0
162 184 0
154 176 0
149 169 0
153 176 0
155 177 0
153 175 0
153 175 0
156 178 0
153 176 0
155 176 0
158 180 0
156 178 0
154 176 0
156 178 0
156 179 0
148 169 0
152 175 0
150 172 0
153 174 0
158 182 0
143 165 0
154 175 0
152 173 0
154 177 0
152 173 0
154 176 0
158 181 0
156 177 0
143 165 0
148 169 0
152 173 0
154 177 0
154 176 0
150 170 0
152 173 0
154 176 0
154 177 0
156 178 0
149 170 0
156 179 0
156 178 0
156 179 0
145 167 0
152 175 0
155 176 0
153 175 0
155 177 0
155 177 0
159 181 0
149 171 0
156 177 0
149 170 0
147 170 0
157 180 0
155 178 0
153 175 0
149 170 0
159 180 0
154 176 0
149 170 0
159 180 0
157 179 0
151 172 0
150 171 0
155 178 0
151 171 0
144 166 0
153 175 0
155 177 0
154 176 0
146 168 0
151 173 0
156 179 0
150 172 0
151 173 0
153 174 0
151 173 0
142 163 0
144 167 0
141 163 0
154 176 0
156 178 0
150 172 0
158 180 0
153 174 0
149 171 0
150 172 0
149 171 0
147 169 0
157 180 0
152 174 0
152 174 0
145 167 0
145 166 0
148 170 0
142 163 0
149 169 0
149 170 0
148 170 0
149 172 0
146 167 0
151 173 0
153 175 0
152 173 0
160 181 0
149 170 0
152 175 0
142 165 0
149 171 0
146 166 0
148 169 0
147 168 0
147 169 0
153 174 0
150 171 0
150 172 0
147 169 0
150 171 0
152 172 0
152 174 0
152 173 0
150 171 0
149 170 0
150 173 0
141 161 0
153 175 0
148 171 0
148 169 0
151 173 0
149 170 0
149 170 0
147 168 0
146 166 0
144 165 0
154 174 0
150 171 0
151 173 0
152 173 0
144 165 0
148 169 0
149 171 0
149 170 0
156 176 0
150 172 0
146 169 0
150 169 0
144 165 0
150 172 0
153 175 0
152 173 0
153 174 0
149 170 0
153 175 0
145 166 0
145 166 0
154 174 0
150 172 0
149 171 0
150 170 0
154 175 0
142 163 0
149 171 0
156 177 0
157 179 0
147 168 0
156 176 0
154 176 0
150 170 0
150 171 0
150 170 0
150 170 0
150 170 0
152 173 0
145 164 0
151 172 0
150 171 0
154 176 0
151 172 0
149 169 0
158 178 0
144 164 0
147 167 0
148 167 0
145 165 0
151 172 0
155 176 0
158 177 0
149 170 0
149 169 0
148 169 0
150 171 0
152 172 0
150 171 0
151 169 0
150 170 0
144 164 0
149 170 0
154 175 0
149 168 0
150 170 0
158 179 0
155 175 0
150 170 0
150 169 0
151 170 0
148 166 0
153 173 0
150 170 0
154 172 0
148 166 0
147 168 0
150 170 0
153 172 0
149 169 0
154 174 0
152 172 0
156 176 0
156 177 0
152 171 0
155 173 0
152 171 0
157 176 0
154 173 0
153 172 0
157 174 0
149 167 0
152 170 0
149 167 0
150 168 0
151 170 0
154 173 0
156 174 0
150 168 0
157 175 0
150 166 0
154 174 0
151 171 0
154 169 0
150 168 0
154 171 0
153 169 0
152 171 0
160 180 0
151 168 0
146 165 0
157 175 0
158 176 0
155 174 0
156 173 0
147 163 0
158 176 0
152 169 0
156 174 0
151 168 0
154 171 0
152 168 0
149 164 0
146 161 0
154 171 0
153 168 0
161 180 0
148 165 0
151 167 0
156 171 0
160 178 0
153 170 0
154 169 0
148 164 0
158 175 0
158 174 0
150 165 0
152 168 0
148 165 0
158 175 0
155 172 0
151 165 0
154 169 0
150 167 0
159 176 0
157 171 0
154 168 0
151 165 0
153 169 0
156 172 0
152 166 0
153 169 0
164 180 0
153 168 0
153 166 0
157 173 0
152 166 0
156 173 0
156 171 0
161 180 0
153 171 0
157 173 0
150 165 0
159 173 0
153 168 0
147 162 0
161 177 0
160 176 0
158 172 0
153 170 0
154 168 0
153 170 0
149 161 0
149 165 0
159 180 0
165 185 0
160 181 0
162 183 0
158 179 0
160 181 0
160 181 0
161 182 0
153 173 0
157 177 0
162 183 0
159 180 0
159 180 0
164 185 0
159 180 0
161 182 0
158 180 0
156 177 0
157 178 0
162 183 0
158 179 0
158 179 0
158 178 0
156 175 0
157 177 0
156 177 0
157 177 0
147 167 0
159 180 0
156 175 0
158 179 0
162 183 0
156 175 0
157 177 0
154 175 0
153 174 0
153 173 0
155 176 0
159 179 0
153 175 0
154 174 0
158 179 0
157 179 0
156 177 0
160 180 0
152 173 0
156 177 0
155 176 0
158 179 0
158 180 0
157 179 0
155 176 0
159 180 0
149 171 0
158 180 0
154 177 0
157 178 0
158 180 0
162 184 0
156 178 0
160 181 0
159 181 0
159 181 0
157 179 0
154 176 0
156 177 0
158 179 0
148 169 0
156 177 0
158 179 0
158 179 0
156 177 0
152 174 0
153 174 0
154 176 0
153 175 0
155 176 0
157 179 0
151 174 0
149 170 0
159 180 0
160 182 0
156 178 0
154 175 0
153 174 0
156 178 0
155 177 0
157 179 0
151 173 0
151 172 0
160 182 0
151 171 0
154 176 0
155 176 0
151 174 0
154 177 0
158 181 0
156 179 0
148 170 0
154 177 0
156 178 0
159 182 0
158 181 0
157 179 0
154 175 0
146 166 0
151 172 0
156 179 0
160 182 0
155 176 0
156 177 0
148 170 0
147 169 0
152 174 0
152 175 0
156 177 0
149 172 0
157 179 0
152 174 0
154 177 0
150 172 0
151 173 0
158 180 0
155 177 0
153 175 0
156 177 0
146 168 0
151 174 0
154 176 0
150 172 0
158 180 0
154 176 0
156 178 0
156 179 0
150 172 0
153 175 0
152 173 0
148 171 0
155 178 0
154 177 0
155 177 0
150 172 0
157 179 0
147 168 0
155 177 0
148 170 0
149 171 0
145 167 0
153 176 0
152 174 0
154 177 0
148 170 0
149 170 0
150 172 0
159 180 0
149 171 0
147 169 0
150 171 0
156 178 0
151 173 0
153 174 0
156 178 0
159 180 0
153 175 0
153 175 0
145 168 0
157 180 0
147 168 0
147 168 0
147 169 0
148 170 0
154 176 0
147 169 0
146 168 0
152 172 0
152 173 0
154 176 0
153 175 0
150 172 0
148 170 0
153 175 0
142 163 0
148 170 0
155 177 0
154 177 0
152 176 0
151 173 0
147 169 0
151 174 0
145 166 0
153 174 0
151 172 0
148 169 0
148 170 0
155 175 0
156 178 0
147 168 0
147 168 0
148 168 0
146 168 0
147 169 0
149 171 0
148 169 0
146 168 0
158 181 0
143 164 0
153 175 0
147 169 0
154 176 0
148 171 0
153 175 0
151 173 0
143 166 0
151 172 0
151 173 0
149 170 0
160 183 0
145 166 0
148 169 0
156 177 0
151 173 0
151 173 0
153 174 0
150 170 0
158 180 0
151 173 0
147 169 0
148 169 0
147 168 0
155 175 0
149 171 0
142 163 0
151 172 0
150 172 0
156 178 0
154 175 0
152 173 0
153 176 0
155 176 0
149 171 0
151 172 0
143 163 0
145 166 0
158 178 0
157 179 0
153 174 0
147 168 0
146 167 0
158 180 0
156 175 0
153 173 0
148 169 0
149 168 0
155 177 0
157 177 0
152 172 0
150 171 0
151 171 0
157 178 0
151 171 0
154 174 0
147 168 0
143 163 0
152 173 0
145 166 0
153 174 0
153 175 0
154 172 0
153 176 0
155 174 0
150 170 0
152 173 0
152 173 0
155 175 0
153 175 0
147 167 0
151 172 0
155 175 0
151 171 0
153 171 0
148 168 0
155 176 0
151 171 0
148 169 0
149 168 0
164 183 0
154 174 0
147 166 0
145 163 0
159 181 0
148 169 0
143 164 0
147 167 0
154 175 0
149 169 0
153 172 0
150 170 0
157 177 0
151 171 0
152 172 0
147 167 0
148 166 0
148 167 0
150 169 0
151 172 0
151 169 0
151 170 0
152 172 0
156 175 0
152 172 0
150 169 0
145 165 0
154 173 0
147 165 0
149 166 0
154 172 0
153 170 0
144 162 0
150 170 0
153 172 0
162 181 0
155 175 0
151 170 0
151 171 0
151 169 0
156 176 0
154 173 0
147 166 0
156 174 0
151 169 0
156 175 0
148 165 0
155 173 0
153 171 0
148 165 0
155 173 0
151 169 0
144 162 0
152 170 0
160 178 0
158 177 0
154 169 0
150 169 0
151 169 0
150 167 0
150 169 0
162 180 0
160 177 0
152 169 0
157 174 0
150 167 0
150 168 0
152 169 0
151 168 0
153 168 0
156 173 0
160 177 0
150 167 0
155 171 0
160 178 0
151 167 0
148 163 0
152 168 0
158 173 0
153 169 0
150 165 0
152 166 0
158 171 0
152 168 0
152 168 0
159 177 0
153 169 0
153 170 0
144 160 0
157 173 0
154 168 0
150 163 0
157 173 0
157 174 0
155 172 0
158 174 0
153 168 0
153 169 0
151 164 0
157 170 0
157 171 0
150 165 0
159 174 0
156 172 0
158 175 0
149 164 0
149 166 0
157 172 0
153 168 0
155 172 0
157 172 0
153 168 0
154 169 0
158 172 0
159 174 0
