P3
400 225
255
204 226 255
204 226 255
204 226 255
204 226 255
204 226 255
204 226 255
204 226 255
204 226 255
204 226 255
204 226 255
204 226 255
204 226 255
204 226 255
204 226 255
204 226 255
203 226 255
203 226 255
203 226 255
203 226 255
201 223 255
191 212 255
177 197 255
173 193 255
165 183 255
145 161 255
150 167 255
126 141 255
131 146 255
107 119 255
125 139 255
99 110 255
107 119 255
86 95 255
64 71 255
60 67 255
20 22 255
45 50 255
20 22 255
0 0 255
28 31 255
0 0 255
0 0 255
20 22 255
35 39 255
35 39 255
40 45 255
49 55 255
60 67 255
66 74 255
78 87 255
98 110 255
102 114 255
119 133 254
124 138 255
129 144 255
139 155 255
147 165 255
162 181 255
167 186 255
181 202 255
189 211 255
197 220 255
201 224 255
200 224 255
200 224 255
200 224 255
200 224 255
200 224 255
200 224 255
200 224 255
200 224 255
200 224 255
200 224 255
200 224 255
200 224 255
200 224 255
200 224 255
200 224 255
199 224 255
199 224 255
199 223 255
199 223 255
199 223 255
199 223 255
199 223 255
199 223 255
199 223 255
199 223 255
199 223 255
199 223 255
199 223 255
199 223 255
198 223 255
198 223 255
198 223 255
198 223 255
198 223 255
198 223 255
198 223 255
198 223 255
198 223 255
198 223 255
198 223 255
198 223 255
198 223 255
198 223 255
197 222 255
197 222 255
197 222 255
197 222 255
197 222 255
197 222 255
197 222 255
197 222 255
197 222 255
197 222 255
197 222 255
197 222 255
197 222 255
197 222 255
197 222 255
196 222 255
196 222 255
196 222 255
196 222 255
196 222 255
196 222 255
196 222 255
196 222 255
196 222 255
196 222 255
196 222 255
196 222 255
196 222 255
196 222 255
196 221 255
196 221 255
195 221 255
195 221 255
195 221 255
195 221 255
195 221 255
195 221 255
195 221 255
195 221 255
195 221 255
195 221 255
195 221 255
195 221 255
195 221 255
195 221 255
195 221 255
195 221 255
195 221 255
195 221 255
194 221 255
194 221 255
194 221 255
194 221 255
194 221 255
194 221 255
194 221 255
194 221 255
194 221 255
194 221 255
194 221 255
194 221 255
194 221 255
194 221 255
194 221 255
194 221 255
194 221 255
194 221 255
194 221 255
194 221 255
194 221 255
194 221 255
194 220 255
194 220 255
194 220 255
194 220 255
194 220 255
194 220 255
194 220 255
194 220 255
194 220 255
193 220 255
193 220 255
193 220 255
193 220 255
193 220 255
193 220 255
193 220 255
193 220 255
193 220 255
193 220 255
193 220 255
193 220 255
193 220 255
193 220 255
193 220 255
193 220 255
193 220 255
193 220 255
193 220 255
193 220 255
193 220 255
193 220 255
193 220 255
193 220 255
193 220 255
193 220 255
193 220 255
193 220 255
194 220 255
194 220 255
194 220 255
194 220 255
194 220 255
194 220 255
194 220 255
194 220 255
194 220 255
194 221 255
194 221 255
194 221 255
194 221 255
194 221 255
194 221 255
194 221 255
194 221 255
194 221 255
194 221 255
194 221 255
194 221 255
194 221 255
194 221 255
194 221 255
194 221 255
194 221 255
194 221 255
194 221 255
194 221 255
194 221 255
194 221 255
195 221 255
195 221 255
195 221 255
195 221 255
195 221 255
195 221 255
195 221 255
195 221 255
195 221 255
195 221 255
195 221 255
195 221 255
195 221 255
195 221 255
195 221 255
195 221 255
195 221 255
195 221 255
196 221 255
196 221 255
196 222 255
196 222 255
196 222 255
196 222 255
196 222 255
196 222 255
196 222 255
196 222 255
196 222 255
196 222 255
196 222 255
196 222 255
196 222 255
196 222 255
197 222 255
197 222 255
197 222 255
197 222 255
197 222 255
197 222 255
197 222 255
197 222 255
197 222 255
197 222 255
197 222 255
197 222 255
197 222 255
197 222 255
197 223 255
198 223 255
198 223 255
198 223 255
198 223 255
198 223 255
198 223 255
198 223 255
198 223 255
198 223 255
198 223 255
198 223 255
198 223 255
198 223 255
198 223 255
199 223 255
199 223 255
199 223 255
199 223 255
199 223 255
199 223 255
199 223 255
199 223 255
199 223 255
199 223 255
199 223 255
199 223 255
199 224 255
199 224 255
199 224 255
200 224 255
200 224 255
200 224 255
200 224 255
200 224 255
200 224 255
200 224 255
200 224 255
200 224 255
200 224 255
200 224 255
200 224 255
200 224 255
200 224 255
201 224 255
201 218 249
201 210 240
200 207 236
202 188 214
203 174 198
203 168 191
201 147 167
201 145 165
204 140 159
203 121 137
199 103 117
202 116 133
206 98 111
203 74 84
206 55 62
204 63 72
202 45 51
205 45 51
202 22 25
202 0 0
203 0 0
205 0 0
204 0 0
208 31 36
204 31 36
203 55 62
203 39 44
205 78 88
206 81 92
205 95 108
205 93 105
205 103 117
204 112 128
202 146 165
204 135 153
204 158 179
204 176 199
202 177 201
203 191 217
203 207 234
204 205 233
204 216 245
203 224 254
203 226 255
203 226 255
203 226 255
203 226 255
204 226 255
204 226 255
204 226 255
204 226 255
204 226 255
204 226 255
204 226 255
204 226 255
204 226 255
204 226 255
204 226 255
204 226 255
204 226 255
204 226 255
204 226 255
204 226 255
204 226 255
204 226 255
204 226 255
204 226 255
204 226 255
204 226 255
204 226 255
204 226 255
204 226 255
204 226 255
198 219 255
188 208 255
156 173 255
150 166 255
127 141 255
117 129 255
91 101 255
76 84 255
28 31 255
0 0 255
0 0 255
0 0 255
0 0 255
0 0 255
0 0 255
0 0 255
0 0 255
0 0 255
0 0 255
0 0 255
0 0 255
0 0 255
0 0 255
0 0 255
0 0 255
0 0 255
0 0 255
0 0 255
0 0 255
0 0 255
0 0 255
0 0 255
0 0 255
0 0 255
0 0 255
0 0 255
0 0 255
0 0 255
0 0 255
0 0 255
0 0 255
0 0 255
0 0 254
0 0 255
0 0 255
0 0 255
0 0 255
0 0 255
0 0 255
0 0 255
0 0 255
28 31 255
87 97 255
92 102 255
120 134 255
147 165 255
152 170 255
181 203 255
187 209 255
193 216 255
200 224 255
200 224 255
200 224 255
200 224 255
200 224 255
200 224 255
200 224 255
200 224 255
200 224 255
199 224 255
199 224 255
199 223 255
199 223 255
199 223 255
199 223 255
199 223 255
199 223 255
199 223 255
199 223 255
199 223 255
199 223 255
199 223 255
199 223 255
198 223 255
198 223 255
198 223 255
198 223 255
198 223 255
198 223 255
198 223 255
198 223 255
198 223 255
198 223 255
198 223 255
198 223 255
198 223 255
198 223 255
197 223 255
197 222 255
197 222 255
197 222 255
197 222 255
197 222 255
197 222 255
197 222 255
197 222 255
197 222 255
197 222 255
197 222 255
197 222 255
197 222 255
197 222 255
196 222 255
196 222 255
196 222 255
196 222 255
196 222 255
196 222 255
196 222 255
196 222 255
196 222 255
196 222 255
196 222 255
196 222 255
196 222 255
196 222 255
196 222 255
196 221 255
195 221 255
195 221 255
195 221 255
195 221 255
195 221 255
195 221 255
195 221 255
195 221 255
195 221 255
195 221 255
195 221 255
195 221 255
195 221 255
195 221 255
195 221 255
195 221 255
195 221 255
195 221 255
195 221 255
194 221 255
194 221 255
194 221 255
194 221 255
194 221 255
194 221 255
194 221 255
194 221 255
194 221 255
194 221 255
194 221 255
194 221 255
194 221 255
194 221 255
194 221 255
194 221 255
194 221 255
194 221 255
194 221 255
194 221 255
194 221 255
194 221 255
194 221 255
194 221 255
194 221 255
194 220 255
194 220 255
194 220 255
194 220 255
194 220 255
194 220 255
194 220 255
194 220 255
194 220 255
194 220 255
194 220 255
194 220 255
194 220 255
194 220 255
194 220 255
194 220 255
194 220 255
194 220 255
194 220 255
194 220 255
194 220 255
194 220 255
194 220 255
194 220 255
194 220 255
194 220 255
194 220 255
194 220 255
194 220 255
194 220 255
194 220 255
194 220 255
194 220 255
194 220 255
194 221 255
194 221 255
194 221 255
194 221 255
194 221 255
194 221 255
194 221 255
194 221 255
194 221 255
194 221 255
194 221 255
194 221 255
194 221 255
194 221 255
194 221 255
194 221 255
194 221 255
194 221 255
194 221 255
194 221 255
194 221 255
194 221 255
194 221 255
194 221 255
194 221 255
195 221 255
195 221 255
195 221 255
195 221 255
195 221 255
195 221 255
195 221 255
195 221 255
195 221 255
195 221 255
195 221 255
195 221 255
195 221 255
195 221 255
195 221 255
195 221 255
195 221 255
195 221 255
195 221 255
196 221 255
196 221 255
196 222 255
196 222 255
196 222 255
196 222 255
196 222 255
196 222 255
196 222 255
196 222 255
196 222 255
196 222 255
196 222 255
196 222 255
196 222 255
196 222 255
197 222 255
197 222 255
197 222 255
197 222 255
197 222 255
197 222 255
197 222 255
197 222 255
197 222 255
197 222 255
197 222 255
197 222 255
197 222 255
197 222 255
197 223 255
198 223 255
198 223 255
198 223 255
198 223 255
198 223 255
198 223 255
198 223 255
198 223 255
198 223 255
198 223 255
198 223 255
198 223 255
198 223 255
198 223 255
199 223 255
199 223 255
199 223 255
199 223 255
199 223 255
199 223 255
199 223 255
199 223 255
199 223 255
199 223 255
199 223 255
199 223 255
199 224 255
199 224 255
200 224 255
200 224 255
200 224 255
200 224 255
200 224 255
200 224 255
200 224 255
200 224 255
200 224 255
200 217 248
201 204 233
201 190 217
201 187 214
201 172 196
204 132 151
203 116 133
202 97 111
203 59 67
204 0 0
205 0 0
205 0 0
203 0 0
206 0 0
203 0 0
201 0 0
203 0 0
206 0 0
202 0 0
203 0 0
202 0 0
206 0 0
206 0 0
203 0 0
202 0 0
205 0 0
206 0 0
203 0 0
200 0 0
204 0 0
203 0 0
206 0 0
202 0 0
207 0 0
205 0 0
204 0 0
203 0 0
206 0 0
205 0 0
205 0 0
203 0 0
204 0 0
206 0 0
205 0 0
207 0 0
203 0 0
207 0 0
205 0 0
205 0 0
206 0 0
205 0 0
205 39 44
204 81 92
205 87 99
207 139 157
205 158 179
203 179 203
205 181 204
203 206 233
205 221 250
204 226 255
204 226 255
204 226 255
204 226 255
204 226 255
204 226 255
204 226 255
204 226 255
204 226 255
204 226 255
204 226 255
205 226 255
205 226 255
204 226 255
204 226 255
202 224 255
184 204 255
141 157 255
158 175 255
127 141 255
95 106 255
57 64 255
0 0 255
0 0 255
0 0 255
0 0 255
0 0 255
0 0 255
0 0 255
0 0 255
0 0 255
0 0 255
0 0 255
0 0 255
0 0 255
0 0 255
0 0 255
0 0 255
0 0 255
0 0 255
0 0 255
0 0 255
0 0 255
0 0 255
0 0 255
0 0 255
0 0 255
0 0 255
0 0 255
0 0 255
0 0 255
0 0 255
0 0 255
0 0 255
0 0 255
0 0 255
0 0 255
0 0 255
0 0 255
0 0 255
0 0 255
0 0 255
0 0 255
0 0 255
0 0 255
0 0 255
0 0 255
0 0 255
0 0 255
0 0 254
0 0 255
0 0 255
0 0 255
0 0 255
0 0 255
0 0 255
0 0 255
0 0 255
0 0 255
0 0 255
0 0 255
20 22 255
72 80 255
102 114 255
133 148 255
157 176 255
168 188 255
175 196 255
198 221 255
200 224 255
200 224 255
200 224 255
200 224 255
199 224 255
199 224 255
199 223 255
199 223 255
199 223 255
199 223 255
199 223 255
199 223 255
199 223 255
199 223 255
199 223 255
199 223 255
199 223 255
199 223 255
198 223 255
198 223 255
198 223 255
198 223 255
198 223 255
198 223 255
198 223 255
198 223 255
198 223 255
198 223 255
198 223 255
198 223 255
198 223 255
198 223 255
197 223 255
197 222 255
197 222 255
197 222 255
197 222 255
197 222 255
197 222 255
197 222 255
197 222 255
197 222 255
197 222 255
197 222 255
197 222 255
197 222 255
197 222 255
196 222 255
196 222 255
196 222 255
196 222 255
196 222 255
196 222 255
196 222 255
196 222 255
196 222 255
196 222 255
196 222 255
196 222 255
196 222 255
196 222 255
196 222 255
196 221 255
195 221 255
195 221 255
195 221 255
195 221 255
195 221 255
195 221 255
195 221 255
195 221 255
195 221 255
195 221 255
195 221 255
195 221 255
195 221 255
195 221 255
195 221 255
195 221 255
195 221 255
195 221 255
195 221 255
195 221 255
195 221 255
194 221 255
194 221 255
194 221 255
194 221 255
194 221 255
194 221 255
194 221 255
194 221 255
194 221 255
194 221 255
194 221 255
194 221 255
194 221 255
194 221 255
194 221 255
194 221 255
194 221 255
194 221 255
194 221 255
194 221 255
194 221 255
194 221 255
194 221 255
194 221 255
194 221 255
194 221 255
194 221 255
194 221 255
194 221 255
194 221 255
194 221 255
194 220 255
194 220 255
194 220 255
194 220 255
194 220 255
194 220 255
194 220 255
194 220 255
194 220 255
194 220 255
194 220 255
194 220 255
194 220 255
194 220 255
194 220 255
194 221 255
194 221 255
194 221 255
194 221 255
194 221 255
194 221 255
194 221 255
194 221 255
194 221 255
194 221 255
194 221 255
194 221 255
194 221 255
194 221 255
194 221 255
194 221 255
194 221 255
194 221 255
194 221 255
194 221 255
194 221 255
194 221 255
194 221 255
194 221 255
194 221 255
194 221 255
194 221 255
194 221 255
194 221 255
194 221 255
195 221 255
195 221 255
195 221 255
195 221 255
195 221 255
195 221 255
195 221 255
195 221 255
195 221 255
195 221 255
195 221 255
195 221 255
195 221 255
195 221 255
195 221 255
195 221 255
195 221 255
195 221 255
195 221 255
195 221 255
195 221 255
196 221 255
196 222 255
196 222 255
196 222 255
196 222 255
196 222 255
196 222 255
196 222 255
196 222 255
196 222 255
196 222 255
196 222 255
196 222 255
196 222 255
196 222 255
196 222 255
197 222 255
197 222 255
197 222 255
197 222 255
197 222 255
197 222 255
197 222 255
197 222 255
197 222 255
197 222 255
197 222 255
197 222 255
197 222 255
197 222 255
197 223 255
198 223 255
198 223 255
198 223 255
198 223 255
198 223 255
198 223 255
198 223 255
198 223 255
198 223 255
198 223 255
198 223 255
198 223 255
198 223 255
198 223 255
199 223 255
199 223 255
199 223 255
199 223 255
199 223 255
199 223 255
199 223 255
199 223 255
199 223 255
199 223 255
199 223 255
199 223 255
199 224 255
199 224 255
200 224 255
200 224 255
200 224 255
200 224 255
200 221 253
200 205 234
201 176 201
202 167 191
202 136 155
203 92 105
202 63 72
199 0 0
201 0 0
202 0 0
201 0 0
202 0 0
204 0 0
205 0 0
198 0 0
204 0 0
204 0 0
205 0 0
205 0 0
203 0 0
203 0 0
206 0 0
208 0 0
205 0 0
205 0 0
207 0 0
204 0 0
205 0 0
203 0 0
203 0 0
207 0 0
209 0 0
206 0 0
205 0 0
205 0 0
203 0 0
205 0 0
207 0 0
204 0 0
207 0 0
205 0 0
205 0 0
209 0 0
209 0 0
205 0 0
207 0 0
204 0 0
203 0 0
206 0 0
207 0 0
203 0 0
205 0 0
206 0 0
207 0 0
206 0 0
208 0 0
207 0 0
206 0 0
207 0 0
207 0 0
206 0 0
202 0 0
204 0 0
207 0 0
204 0 0
205 0 0
206 0 0
206 64 72
203 93 105
205 145 163
205 158 179
204 177 199
204 208 236
204 217 245
204 226 255
204 226 255
205 226 255
205 226 255
178 197 255
145 160 255
128 141 255
79 87 255
0 0 255
0 0 255
0 0 255
0 0 255
0 0 255
0 0 255
0 0 255
0 0 255
0 0 255
0 0 255
0 0 255
0 0 255
0 0 255
0 0 255
0 0 255
0 0 255
0 0 255
0 0 255
0 0 255
0 0 255
0 0 255
0 0 255
0 0 255
0 0 255
0 0 255
0 0 255
0 0 255
0 0 255
0 0 255
0 0 255
0 0 255
0 0 255
0 0 255
0 0 255
0 0 255
0 0 255
0 0 255
0 0 255
0 0 255
0 0 254
0 0 255
0 0 255
0 0 255
0 0 255
0 0 255
0 0 255
0 0 255
0 0 255
0 0 255
0 0 255
0 0 254
0 0 255
0 0 255
0 0 254
0 0 255
0 0 255
0 0 255
0 0 255
0 0 253
0 0 255
0 0 255
0 0 255
0 0 255
0 0 254
0 0 255
0 0 255
0 0 255
0 0 254
0 0 255
0 0 255
0 0 255
0 0 255
0 0 255
40 44 255
87 97 255
126 141 255
132 148 255
157 176 255
186 209 255
200 224 255
199 224 255
199 224 255
199 223 255
199 223 255
199 223 255
199 223 255
199 223 255
199 223 255
199 223 255
199 223 255
199 223 255
199 223 255
199 223 255
199 223 255
198 223 255
198 223 255
198 223 255
198 223 255
198 223 255
198 223 255
198 223 255
198 223 255
198 223 255
198 223 255
198 223 255
198 223 255
198 223 255
198 223 255
197 223 255
197 222 255
197 222 255
197 222 255
197 222 255
197 222 255
197 222 255
197 222 255
197 222 255
197 222 255
197 222 255
197 222 255
197 222 255
197 222 255
197 222 255
196 222 255
196 222 255
196 222 255
196 222 255
196 222 255
196 222 255
196 222 255
196 222 255
196 222 255
196 222 255
196 222 255
196 222 255
196 222 255
196 222 255
196 222 255
196 222 255
196 221 255
195 221 255
195 221 255
195 221 255
195 221 255
195 221 255
195 221 255
195 221 255
195 221 255
195 221 255
195 221 255
195 221 255
195 221 255
195 221 255
195 221 255
195 221 255
195 221 255
195 221 255
195 221 255
195 221 255
195 221 255
195 221 255
194 221 255
194 221 255
194 221 255
194 221 255
194 221 255
194 221 255
194 221 255
194 221 255
194 221 255
194 221 255
194 221 255
194 221 255
194 221 255
194 221 255
194 221 255
194 221 255
194 221 255
194 221 255
194 221 255
194 221 255
194 221 255
194 221 255
194 221 255
194 221 255
194 221 255
194 221 255
194 221 255
194 221 255
194 221 255
194 221 255
194 221 255
194 221 255
194 221 255
194 221 255
194 221 255
194 221 255
194 221 255
194 221 255
194 221 255
194 221 255
194 221 255
194 221 255
194 221 255
194 221 255
194 221 255
194 221 255
194 221 255
194 221 255
194 221 255
194 221 255
194 221 255
194 221 255
194 221 255
194 221 255
194 221 255
194 221 255
194 221 255
194 221 255
194 221 255
194 221 255
194 221 255
194 221 255
194 221 255
194 221 255
194 221 255
194 221 255
194 221 255
194 221 255
194 221 255
194 221 255
195 221 255
195 221 255
195 221 255
195 221 255
195 221 255
195 221 255
195 221 255
195 221 255
195 221 255
195 221 255
195 221 255
195 221 255
195 221 255
195 221 255
195 221 255
195 221 255
195 221 255
195 221 255
195 221 255
195 221 255
195 221 255
196 221 255
196 222 255
196 222 255
196 222 255
196 222 255
196 222 255
196 222 255
196 222 255
196 222 255
196 222 255
196 222 255
196 222 255
196 222 255
196 222 255
196 222 255
196 222 255
196 222 255
197 222 255
197 222 255
197 222 255
197 222 255
197 222 255
197 222 255
197 222 255
197 222 255
197 222 255
197 222 255
197 222 255
197 222 255
197 222 255
197 222 255
197 223 255
198 223 255
198 223 255
198 223 255
198 223 255
198 223 255
198 223 255
198 223 255
198 223 255
198 223 255
198 223 255
198 223 255
198 223 255
198 223 255
198 223 255
199 223 255
199 223 255
199 223 255
199 223 255
199 223 255
199 223 255
199 223 255
199 223 255
199 223 255
199 223 255
199 223 255
199 223 255
199 224 255
199 224 255
200 224 255
200 218 249
200 191 218
203 153 175
201 141 161
202 102 117
202 54 62
203 0 0
204 0 0
204 0 0
202 0 0
205 0 0
199 0 0
203 0 0
205 0 0
201 0 0
204 0 0
204 0 0
203 0 0
204 0 0
205 0 0
204 0 0
207 0 0
207 0 0
204 0 0
202 0 0
207 0 0
204 0 0
206 0 0
204 0 0
207 0 0
205 0 0
205 0 0
206 0 0
204 0 0
206 0 0
205 0 0
204 0 0
204 0 0
207 0 0
207 0 0
202 0 0
206 0 0
204 0 0
206 0 0
203 0 0
206 0 0
210 0 0
206 0 0
207 0 0
210 0 0
209 0 0
206 0 0
204 0 0
205 0 0
205 0 0
206 0 0
206 0 0
205 0 0
206 0 0
205 0 0
206 0 0
208 0 0
208 0 0
204 0 0
209 0 0
204 0 0
207 0 0
211 0 0
208 0 0
204 0 0
205 0 0
206 0 0
207 0 0
207 0 0
207 0 0
204 0 0
207 0 0
206 0 0
204 22 25
206 101 114
204 130 147
205 165 186
205 189 214
0 0 255
0 0 255
0 0 255
0 0 255
0 0 255
0 0 255
0 0 255
0 0 255
0 0 255
0 0 255
0 0 255
0 0 255
0 0 255
0 0 255
0 0 255
0 0 255
0 0 255
0 0 255
0 0 255
0 0 255
0 0 255
0 0 255
0 0 255
0 0 255
0 0 255
0 0 255
0 0 255
0 0 255
0 0 255
0 0 255
0 0 255
0 0 255
0 0 255
0 0 254
0 0 255
0 0 255
0 0 255
0 0 255
0 0 255
0 0 255
0 0 255
0 0 255
0 0 255
0 0 255
0 0 255
0 0 255
0 0 255
0 0 255
0 0 255
0 0 255
0 0 255
0 0 254
0 0 255
0 0 255
0 0 255
0 0 255
0 0 255
0 0 255
0 0 255
0 0 255
0 0 255
0 0 254
0 0 255
0 0 255
0 0 255
0 0 254
0 0 255
0 0 255
0 0 255
0 0 255
0 0 255
0 0 255
0 0 255
0 0 253
0 0 255
0 0 254
0 0 255
0 0 255
0 0 255
0 0 255
0 0 255
0 0 255
0 0 255
74 83 254
103 116 255
141 158 255
167 187 255
195 219 255
199 223 255
199 223 255
199 223 255
199 223 255
199 223 255
199 223 255
199 223 255
199 223 255
199 223 255
199 223 255
199 223 255
199 223 255
198 223 255
198 223 255
198 223 255
198 223 255
198 223 255
198 223 255
198 223 255
198 223 255
198 223 255
198 223 255
198 223 255
198 223 255
198 223 255
198 223 255
197 223 255
197 222 255
197 222 255
197 222 255
197 222 255
197 222 255
197 222 255
197 222 255
197 222 255
197 222 255
197 222 255
197 222 255
197 222 255
197 222 255
197 222 255
197 222 255
196 222 255
196 222 255
196 222 255
196 222 255
196 222 255
196 222 255
196 222 255
196 222 255
196 222 255
196 222 255
196 222 255
196 222 255
196 222 255
196 222 255
196 222 255
196 221 255
196 221 255
195 221 255
195 221 255
195 221 255
195 221 255
195 221 255
195 221 255
195 221 255
195 221 255
195 221 255
195 221 255
195 221 255
195 221 255
195 221 255
195 221 255
195 221 255
195 221 255
195 221 255
195 221 255
195 221 255
195 221 255
195 221 255
195 221 255
194 221 255
194 221 255
194 221 255
194 221 255
194 221 255
194 221 255
194 221 255
194 221 255
194 221 255
194 221 255
194 221 255
194 221 255
194 221 255
194 221 255
194 221 255
194 221 255
194 221 255
194 221 255
194 221 255
194 221 255
194 221 255
194 221 255
194 221 255
194 221 255
194 221 255
194 221 255
194 221 255
194 221 255
194 221 255
194 221 255
194 221 255
194 221 255
194 221 255
194 221 255
194 221 255
194 221 255
194 221 255
194 221 255
194 221 255
194 221 255
194 221 255
194 221 255
194 221 255
194 221 255
194 221 255
194 221 255
194 221 255
194 221 255
194 221 255
194 221 255
194 221 255
194 221 255
194 221 255
194 221 255
194 221 255
194 221 255
194 221 255
194 221 255
194 221 255
194 221 255
194 221 255
194 221 255
195 221 255
195 221 255
195 221 255
195 221 255
195 221 255
195 221 255
195 221 255
195 221 255
195 221 255
195 221 255
195 221 255
195 221 255
195 221 255
195 221 255
195 221 255
195 221 255
195 221 255
195 221 255
195 221 255
195 221 255
195 221 255
195 221 255
196 221 255
196 221 255
196 222 255
196 222 255
196 222 255
196 222 255
196 222 255
196 222 255
196 222 255
196 222 255
196 222 255
196 222 255
196 222 255
196 222 255
196 222 255
196 222 255
196 222 255
197 222 255
197 222 255
197 222 255
197 222 255
197 222 255
197 222 255
197 222 255
197 222 255
197 222 255
197 222 255
197 222 255
197 222 255
197 222 255
197 222 255
197 222 255
197 223 255
198 223 255
198 223 255
198 223 255
198 223 255
198 223 255
198 223 255
198 223 255
198 223 255
198 223 255
198 223 255
198 223 255
198 223 255
198 223 255
198 223 255
199 223 255
199 223 255
199 223 255
199 223 255
199 223 255
199 223 255
199 223 255
199 223 255
199 223 255
199 223 255
199 223 255
199 223 255
200 216 246
200 192 220
200 155 177
201 130 149
202 70 80
202 0 0
200 0 0
199 0 0
204 0 0
201 0 0
201 0 0
205 0 0
201 0 0
204 0 0
205 0 0
205 0 0
204 0 0
203 0 0
202 0 0
204 0 0
203 0 0
204 0 0
203 0 0
198 0 0
204 0 0
199 0 0
203 0 0
206 0 0
206 0 0
202 0 0
201 0 0
204 0 0
204 0 0
205 0 0
207 0 0
205 0 0
206 0 0
205 0 0
209 0 0
207 0 0
207 0 0
203 0 0
206 0 0
205 0 0
203 0 0
205 0 0
205 0 0
206 0 0
206 0 0
205 0 0
207 0 0
208 0 0
204 0 0
202 0 0
207 0 0
205 0 0
205 0 0
206 0 0
206 0 0
207 0 0
207 0 0
207 0 0
207 0 0
208 0 0
208 0 0
206 0 0
204 0 0
206 0 0
207 0 0
206 0 0
209 0 0
208 0 0
209 0 0
211 0 0
208 0 0
207 0 0
208 0 0
206 0 0
207 0 0
210 0 0
206 0 0
208 0 0
208 0 0
207 0 0
208 0 0
211 0 0
211 0 0
207 0 0
0 0 255
0 0 255
0 0 255
0 0 255
0 0 255
0 0 255
0 0 255
0 0 255
0 0 255
0 0 255
0 0 255
0 0 255
0 0 255
0 0 255
0 0 255
0 0 255
0 0 255
0 0 255
0 0 255
0 0 255
0 0 255
0 0 255
0 0 254
0 0 255
0 0 255
0 0 255
0 0 255
0 0 254
0 0 255
0 0 255
0 0 255
0 0 255
0 0 255
0 0 255
0 0 255
0 0 254
0 0 255
0 0 255
0 0 255
0 0 255
0 0 255
0 0 254
0 0 255
0 0 255
0 0 255
0 0 255
0 0 255
0 0 255
0 0 254
0 0 255
0 0 255
0 0 255
0 0 255
0 0 255
0 0 255
0 0 255
0 0 254
0 0 253
0 0 255
0 0 255
0 0 253
0 0 255
0 0 254
0 0 255
0 0 254
0 0 255
0 0 255
0 0 255
0 0 254
0 0 255
0 0 255
0 0 255
0 0 255
0 0 255
0 0 255
0 0 255
0 0 255
0 0 255
0 0 255
0 0 255
0 0 255
0 0 254
0 0 255
0 0 254
0 0 255
0 0 255
0 0 255
0 0 255
69 77 255
119 134 254
159 179 255
186 208 255
198 222 255
199 223 255
199 223 255
199 223 255
199 223 255
199 223 255
199 223 255
199 223 255
199 223 255
199 223 255
198 223 255
198 223 255
198 223 255
198 223 255
198 223 255
198 223 255
198 223 255
198 223 255
198 223 255
198 223 255
198 223 255
198 223 255
198 223 255
198 223 255
198 223 255
197 222 255
197 222 255
197 222 255
197 222 255
197 222 255
197 222 255
197 222 255
197 222 255
197 222 255
197 222 255
197 222 255
197 222 255
197 222 255
197 222 255
197 222 255
196 222 255
196 222 255
196 222 255
196 222 255
196 222 255
196 222 255
196 222 255
196 222 255
196 222 255
196 222 255
196 222 255
196 222 255
196 222 255
196 222 255
196 222 255
196 222 255
196 221 255
195 221 255
195 221 255
195 221 255
195 221 255
195 221 255
195 221 255
195 221 255
195 221 255
195 221 255
195 221 255
195 221 255
195 221 255
195 221 255
195 221 255
195 221 255
195 221 255
195 221 255
195 221 255
195 221 255
195 221 255
195 221 255
195 221 255
195 221 255
195 221 255
194 221 255
194 221 255
194 221 255
194 221 255
194 221 255
194 221 255
194 221 255
194 221 255
194 221 255
194 221 255
194 221 255
194 221 255
194 221 255
194 221 255
194 221 255
194 221 255
194 221 255
194 221 255
194 221 255
194 221 255
194 221 255
194 221 255
194 221 255
194 221 255
194 221 255
194 221 255
194 221 255
194 221 255
194 221 255
194 221 255
194 221 255
194 221 255
194 221 255
194 221 255
194 221 255
194 221 255
194 221 255
194 221 255
194 221 255
194 221 255
194 221 255
194 221 255
194 221 255
194 221 255
194 221 255
194 221 255
194 221 255
194 221 255
194 221 255
194 221 255
194 221 255
194 221 255
194 221 255
194 221 255
195 221 255
195 221 255
195 221 255
195 221 255
195 221 255
195 221 255
195 221 255
195 221 255
195 221 255
195 221 255
195 221 255
195 221 255
195 221 255
195 221 255
195 221 255
195 221 255
195 221 255
195 221 255
195 221 255
195 221 255
195 221 255
195 221 255
195 221 255
195 221 255
196 221 255
196 222 255
196 222 255
196 222 255
196 222 255
196 222 255
196 222 255
196 222 255
196 222 255
196 222 255
196 222 255
196 222 255
196 222 255
196 222 255
196 222 255
196 222 255
196 222 255
197 222 255
197 222 255
197 222 255
197 222 255
197 222 255
197 222 255
197 222 255
197 222 255
197 222 255
197 222 255
197 222 255
197 222 255
197 222 255
197 222 255
197 222 255
198 223 255
198 223 255
198 223 255
198 223 255
198 223 255
198 223 255
198 223 255
198 223 255
198 223 255
198 223 255
198 223 255
198 223 255
198 223 255
198 223 255
198 223 255
199 223 255
199 223 255
199 223 255
199 223 255
199 223 255
199 223 255
199 223 255
199 223 255
199 223 255
199 223 255
199 204 233
201 176 201
201 122 140
201 102 117
199 0 0
200 0 0
200 0 0
201 0 0
202 0 0
204 0 0
201 0 0
202 0 0
202 0 0
202 0 0
205 0 0
203 0 0
205 0 0
205 0 0
204 0 0
202 0 0
204 0 0
202 0 0
201 0 0
204 0 0
205 0 0
205 0 0
204 0 0
206 0 0
203 0 0
202 0 0
206 0 0
206 0 0
204 0 0
206 0 0
210 0 0
204 0 0
202 0 0
205 0 0
205 0 0
210 0 0
206 0 0
205 0 0
206 0 0
208 0 0
209 0 0
207 0 0
204 0 0
204 0 0
207 0 0
200 0 0
208 0 0
208 0 0
209 0 0
204 0 0
207 0 0
206 0 0
207 0 0
205 0 0
205 0 0
206 0 0
204 0 0
207 0 0
205 0 0
205 0 0
208 0 0
207 0 0
204 0 0
205 0 0
208 0 0
208 0 0
206 0 0
204 0 0
207 0 0
205 0 0
207 0 0
206 0 0
205 0 0
207 0 0
207 0 0
206 0 0
209 0 0
207 0 0
209 0 0
210 0 0
209 0 0
206 0 0
206 0 0
206 0 0
209 0 0
207 0 0
206 0 0
209 0 0
0 0 255
0 0 255
0 0 255
0 0 255
0 0 255
0 0 255
0 0 255
0 0 255
0 0 255
0 0 255
0 0 255
0 0 255
0 0 255
0 0 255
0 0 255
0 0 255
0 0 255
0 0 255
0 0 255
0 0 255
0 0 255
0 0 255
0 0 255
0 0 255
0 0 255
0 0 255
0 0 255
0 0 255
0 0 255
0 0 255
0 0 255
0 0 255
0 0 255
0 0 255
0 0 255
0 0 255
0 0 255
0 0 254
0 0 255
0 0 255
0 0 254
0 0 255
0 0 255
0 0 255
0 0 255
0 0 255
0 0 255
0 0 255
0 0 255
0 0 255
0 0 255
0 0 255
0 0 255
0 0 254
0 0 255
0 0 255
0 0 255
0 0 255
0 0 255
0 0 255
0 0 255
0 0 255
0 0 254
0 0 255
0 0 255
0 0 254
0 0 255
0 0 254
0 0 253
0 0 254
0 0 255
0 0 255
0 0 255
0 0 255
0 0 255
0 0 255
0 0 255
0 0 253
0 0 255
0 0 255
0 0 254
0 0 255
0 0 254
0 0 254
0 0 255
0 0 255
0 0 255
0 0 255
0 0 255
0 0 254
0 0 254
0 0 249
63 70 255
119 134 255
153 171 255
188 211 255
198 222 255
199 223 255
199 223 255
199 223 255
199 223 255
199 223 255
199 223 255
199 223 255
198 223 255
198 223 255
198 223 255
198 223 255
198 223 255
198 223 255
198 223 255
198 223 255
198 223 255
198 223 255
198 223 255
198 223 255
198 223 255
198 223 255
198 223 255
197 222 255
197 222 255
197 222 255
197 222 255
197 222 255
197 222 255
197 222 255
197 222 255
197 222 255
197 222 255
197 222 255
197 222 255
197 222 255
197 222 255
197 222 255
197 222 255
196 222 255
196 222 255
196 222 255
196 222 255
196 222 255
196 222 255
196 222 255
196 222 255
196 222 255
196 222 255
196 222 255
196 222 255
196 222 255
196 222 255
196 222 255
196 222 255
196 221 255
195 221 255
195 221 255
195 221 255
195 221 255
195 221 255
195 221 255
195 221 255
195 221 255
195 221 255
195 221 255
195 221 255
195 221 255
195 221 255
195 221 255
195 221 255
195 221 255
195 221 255
195 221 255
195 221 255
195 221 255
195 221 255
195 221 255
195 221 255
195 221 255
195 221 255
195 221 255
194 221 255
194 221 255
194 221 255
194 221 255
194 221 255
194 221 255
194 221 255
194 221 255
194 221 255
194 221 255
194 221 255
194 221 255
194 221 255
194 221 255
194 221 255
194 221 255
194 221 255
194 221 255
194 221 255
194 221 255
194 221 255
194 221 255
194 221 255
194 221 255
194 221 255
194 221 255
194 221 255
194 221 255
194 221 255
194 221 255
194 221 255
194 221 255
194 221 255
194 221 255
194 221 255
194 221 255
194 221 255
194 221 255
194 221 255
194 221 255
194 221 255
194 221 255
194 221 255
195 221 255
195 221 255
195 221 255
195 221 255
195 221 255
195 221 255
195 221 255
195 221 255
195 221 255
195 221 255
195 221 255
195 221 255
195 221 255
195 221 255
195 221 255
195 221 255
195 221 255
195 221 255
195 221 255
195 221 255
195 221 255
195 221 255
195 221 255
195 221 255
195 221 255
195 221 255
195 221 255
196 221 255
196 222 255
196 222 255
196 222 255
196 222 255
196 222 255
196 222 255
196 222 255
196 222 255
196 222 255
196 222 255
196 222 255
196 222 255
196 222 255
196 222 255
196 222 255
196 222 255
197 222 255
197 222 255
197 222 255
197 222 255
197 222 255
197 222 255
197 222 255
197 222 255
197 222 255
197 222 255
197 222 255
197 222 255
197 222 255
197 222 255
197 222 255
197 222 255
198 223 255
198 223 255
198 223 255
198 223 255
198 223 255
198 223 255
198 223 255
198 223 255
198 223 255
198 223 255
198 223 255
198 223 255
198 223 255
198 223 255
198 223 255
199 223 255
199 223 255
199 223 255
199 223 255
199 223 255
199 223 255
199 223 255
199 222 254
199 201 230
198 180 206
202 118 135
201 80 92
203 0 0
200 0 0
202 0 0
203 0 0
202 0 0
199 0 0
202 0 0
201 0 0
202 0 0
200 0 0
204 0 0
203 0 0
202 0 0
202 0 0
203 0 0
202 0 0
205 0 0
204 0 0
204 0 0
203 0 0
207 0 0
204 0 0
202 0 0
206 0 0
204 0 0
207 0 0
207 0 0
206 0 0
208 0 0
204 0 0
208 0 0
205 0 0
205 0 0
205 0 0
205 0 0
209 0 0
206 0 0
206 0 0
204 0 0
204 0 0
203 0 0
206 0 0
208 0 0
204 0 0
209 0 0
207 0 0
206 0 0
208 0 0
204 0 0
206 0 0
206 0 0
207 0 0
206 0 0
206 0 0
207 0 0
203 0 0
209 0 0
206 0 0
207 0 0
204 0 0
207 0 0
208 0 0
209 0 0
207 0 0
206 0 0
205 0 0
209 0 0
209 0 0
206 0 0
210 0 0
207 0 0
209 0 0
209 0 0
208 0 0
210 0 0
206 0 0
212 0 0
206 0 0
209 0 0
210 0 0
207 0 0
209 0 0
208 0 0
206 0 0
210 0 0
208 0 0
207 0 0
208 0 0
212 0 0
209 0 0
208 0 0
206 0 0
0 0 255
0 0 255
0 0 255
0 0 255
0 0 255
0 0 255
0 0 255
0 0 255
0 0 255
0 0 255
0 0 255
0 0 255
0 0 255
0 0 255
0 0 255
0 0 255
0 0 255
0 0 255
0 0 255
0 0 255
0 0 255
0 0 255
0 0 255
0 0 255
0 0 255
0 0 255
0 0 255
0 0 255
0 0 255
0 0 255
0 0 255
0 0 255
0 0 255
0 0 255
0 0 255
0 0 255
0 0 255
0 0 255
0 0 255
0 0 255
0 0 255
0 0 255
0 0 255
0 0 255
0 0 255
0 0 255
0 0 255
0 0 255
0 0 255
0 0 255
0 0 255
0 0 255
0 0 255
0 0 255
0 0 253
0 0 255
0 0 255
0 0 255
0 0 255
0 0 254
0 0 255
0 0 255
0 0 255
0 0 255
0 0 255
0 0 255
0 0 255
0 0 255
0 0 254
0 0 255
0 0 255
0 0 253
0 0 255
0 0 254
0 0 253
0 0 254
0 0 255
0 0 255
0 0 254
0 0 255
0 0 255
0 0 253
0 0 254
0 0 255
0 0 255
0 0 255
0 0 254
0 0 254
0 0 253
0 0 255
0 0 254
0 0 255
0 0 255
0 0 252
0 0 255
0 0 255
52 59 255
123 137 255
153 171 255
186 208 255
199 223 255
199 223 255
199 223 255
199 223 255
199 223 255
199 223 255
198 223 255
198 223 255
198 223 255
198 223 255
198 223 255
198 223 255
198 223 255
198 223 255
198 223 255
198 223 255
198 223 255
198 223 255
198 223 255
198 223 255
198 223 255
197 223 255
197 222 255
197 222 255
197 222 255
197 222 255
197 222 255
197 222 255
197 222 255
197 222 255
197 222 255
197 222 255
197 222 255
197 222 255
197 222 255
197 222 255
197 222 255
196 222 255
196 222 255
196 222 255
196 222 255
196 222 255
196 222 255
196 222 255
196 222 255
196 222 255
196 222 255
196 222 255
196 222 255
196 222 255
196 222 255
196 222 255
196 222 255
196 222 255
196 221 255
195 221 255
195 221 255
195 221 255
195 221 255
195 221 255
195 221 255
195 221 255
195 221 255
195 221 255
195 221 255
195 221 255
195 221 255
195 221 255
195 221 255
195 221 255
195 221 255
195 221 255
195 221 255
195 221 255
195 221 255
195 221 255
195 221 255
195 221 255
195 221 255
195 221 255
195 221 255
195 221 255
195 221 255
195 221 255
195 221 255
194 221 255
194 221 255
194 221 255
194 221 255
194 221 255
194 221 255
194 221 255
194 221 255
194 221 255
194 221 255
194 221 255
194 221 255
194 221 255
194 221 255
194 221 255
194 221 255
194 221 255
194 221 255
194 221 255
194 221 255
194 221 255
194 221 255
194 221 255
194 221 255
194 221 255
194 221 255
194 221 255
194 221 255
194 221 255
194 221 255
195 221 255
195 221 255
195 221 255
195 221 255
195 221 255
195 221 255
195 221 255
195 221 255
195 221 255
195 221 255
195 221 255
195 221 255
195 221 255
195 221 255
195 221 255
195 221 255
195 221 255
195 221 255
195 221 255
195 221 255
195 221 255
195 221 255
195 221 255
195 221 255
195 221 255
195 221 255
195 221 255
195 221 255
195 221 255
195 221 255
196 221 255
196 222 255
196 222 255
196 222 255
196 222 255
196 222 255
196 222 255
196 222 255
196 222 255
196 222 255
196 222 255
196 222 255
196 222 255
196 222 255
196 222 255
196 222 255
196 222 255
196 222 255
197 222 255
197 222 255
197 222 255
197 222 255
197 222 255
197 222 255
197 222 255
197 222 255
197 222 255
197 222 255
197 222 255
197 222 255
197 222 255
197 222 255
197 222 255
197 223 255
198 223 255
198 223 255
198 223 255
198 223 255
198 223 255
198 223 255
198 223 255
198 223 255
198 223 255
198 223 255
198 223 255
198 223 255
198 223 255
198 223 255
198 223 255
199 223 255
199 223 255
199 223 255
199 223 255
199 223 255
199 223 255
198 214 245
198 176 201
199 136 155
199 74 84
200 0 0
204 0 0
201 0 0
203 0 0
200 0 0
204 0 0
204 0 0
205 0 0
205 0 0
204 0 0
202 0 0
205 0 0
202 0 0
205 0 0
202 0 0
202 0 0
205 0 0
206 0 0
203 0 0
204 0 0
206 0 0
206 0 0
204 0 0
204 0 0
203 0 0
201 0 0
206 0 0
203 0 0
205 0 0
204 0 0
207 0 0
205 0 0
206 0 0
205 0 0
205 0 0
207 0 0
205 0 0
205 0 0
204 0 0
207 0 0
207 0 0
206 0 0
209 0 0
206 0 0
205 0 0
207 0 0
204 0 0
208 0 0
208 0 0
204 0 0
203 0 0
206 0 0
206 0 0
207 0 0
208 0 0
209 0 0
204 0 0
206 0 0
205 0 0
207 0 0
206 0 0
207 0 0
206 0 0
205 0 0
208 0 0
208 0 0
208 0 0
206 0 0
210 0 0
209 0 0
209 0 0
208 0 0
211 0 0
205 0 0
210 0 0
206 0 0
207 0 0
210 0 0
208 0 0
210 0 0
206 0 0
207 0 0
210 0 0
206 0 0
207 0 0
207 0 0
208 0 0
207 0 0
207 0 0
205 0 0
207 0 0
210 0 0
211 0 0
207 0 0
208 0 0
209 0 0
0 0 255
0 0 255
0 0 255
0 0 255
0 0 255
0 0 255
0 0 255
0 0 255
0 0 255
0 0 255
0 0 255
0 0 255
0 0 255
0 0 255
0 0 255
0 0 255
0 0 255
0 0 255
0 0 255
0 0 255
0 0 255
0 0 255
0 0 255
0 0 255
0 0 254
0 0 255
0 0 255
0 0 255
0 0 255
0 0 255
0 0 254
0 0 255
0 0 254
0 0 255
0 0 255
0 0 255
0 0 255
0 0 255
0 0 254
0 0 255
0 0 255
0 0 255
0 0 255
0 0 254
0 0 255
0 0 255
0 0 255
0 0 254
0 0 255
0 0 255
0 0 254
0 0 255
0 0 255
0 0 255
0 0 255
0 0 253
0 0 255
0 0 255
0 0 255
0 0 255
0 0 254
0 0 255
0 0 255
0 0 255
0 0 255
0 0 255
0 0 254
0 0 253
0 0 250
0 0 253
0 0 254
0 0 255
0 0 253
0 0 253
0 0 253
0 0 255
0 0 255
0 0 252
0 0 255
0 0 254
0 0 254
0 0 255
0 0 255
0 0 254
0 0 255
0 0 254
0 0 254
0 0 255
0 0 253
0 0 255
0 0 254
0 0 254
0 0 254
0 0 254
0 0 254
0 0 255
0 0 253
0 0 254
0 0 254
19 22 253
86 97 255
138 155 255
174 196 255
196 220 255
199 223 255
199 223 255
199 223 255
199 223 255
199 223 255
198 223 255
198 223 255
198 223 255
198 223 255
198 223 255
198 223 255
198 223 255
198 223 255
198 223 255
198 223 255
198 223 255
198 223 255
198 223 255
198 223 255
197 223 255
197 222 255
197 222 255
197 222 255
197 222 255
197 222 255
197 222 255
197 222 255
197 222 255
197 222 255
197 222 255
197 222 255
197 222 255
197 222 255
197 222 255
197 222 255
196 222 255
196 222 255
196 222 255
196 222 255
196 222 255
196 222 255
196 222 255
196 222 255
196 222 255
196 222 255
196 222 255
196 222 255
196 222 255
196 222 255
196 222 255
196 222 255
196 222 255
196 222 255
196 221 255
195 221 255
195 221 255
195 221 255
195 221 255
195 221 255
195 221 255
195 221 255
195 221 255
195 221 255
195 221 255
195 221 255
195 221 255
195 221 255
195 221 255
195 221 255
195 221 255
195 221 255
195 221 255
195 221 255
195 221 255
195 221 255
195 221 255
195 221 255
195 221 255
195 221 255
195 221 255
195 221 255
195 221 255
195 221 255
195 221 255
195 221 255
195 221 255
195 221 255
195 221 255
195 221 255
195 221 255
195 221 255
195 221 255
195 221 255
195 221 255
195 221 255
195 221 255
195 221 255
195 221 255
195 221 255
195 221 255
195 221 255
195 221 255
195 221 255
195 221 255
195 221 255
195 221 255
195 221 255
195 221 255
195 221 255
195 221 255
195 221 255
195 221 255
195 221 255
195 221 255
195 221 255
195 221 255
195 221 255
195 221 255
195 221 255
195 221 255
195 221 255
195 221 255
195 221 255
195 221 255
195 221 255
195 221 255
195 221 255
195 221 255
195 221 255
195 221 255
195 221 255
195 221 255
195 221 255
195 221 255
195 221 255
195 221 255
195 221 255
196 221 255
196 221 255
196 222 255
196 222 255
196 222 255
196 222 255
196 222 255
196 222 255
196 222 255
196 222 255
196 222 255
196 222 255
196 222 255
196 222 255
196 222 255
196 222 255
196 222 255
196 222 255
196 222 255
197 222 255
197 222 255
197 222 255
197 222 255
197 222 255
197 222 255
197 222 255
197 222 255
197 222 255
197 222 255
197 222 255
197 222 255
197 222 255
197 222 255
197 222 255
197 222 255
197 223 255
198 223 255
198 223 255
198 223 255
198 223 255
198 223 255
198 223 255
198 223 255
198 223 255
198 223 255
198 223 255
198 223 255
198 223 255
198 223 255
198 223 255
199 223 255
199 223 255
199 223 255
199 223 255
199 223 255
199 223 255
200 198 227
199 151 173
199 80 92
201 0 0
199 0 0
201 0 0
202 0 0
200 0 0
202 0 0
203 0 0
202 0 0
203 0 0
205 0 0
202 0 0
201 0 0
201 0 0
202 0 0
205 0 0
206 0 0
204 0 0
205 0 0
208 0 0
207 0 0
204 0 0
207 0 0
207 0 0
198 0 0
206 0 0
202 0 0
204 0 0
205 0 0
206 0 0
206 0 0
205 0 0
202 0 0
205 0 0
205 0 0
205 0 0
208 0 0
204 0 0
207 0 0
207 0 0
208 0 0
205 0 0
210 0 0
207 0 0
206 0 0
207 0 0
209 0 0
207 0 0
208 0 0
207 0 0
208 0 0
207 0 0
209 0 0
208 0 0
206 0 0
204 0 0
207 0 0
208 0 0
207 0 0
210 0 0
209 0 0
205 0 0
207 0 0
205 0 0
209 0 0
211 0 0
208 0 0
207 0 0
211 0 0
207 0 0
210 0 0
207 0 0
210 0 0
208 0 0
207 0 0
212 0 0
205 0 0
210 0 0
208 0 0
208 0 0
209 0 0
206 0 0
209 0 0
208 0 0
211 0 0
206 0 0
205 0 0
208 0 0
208 0 0
207 0 0
206 0 0
207 0 0
209 0 0
210 0 0
208 0 0
207 0 0
210 0 0
207 0 0
207 0 0
207 0 0
206 0 0
0 0 255
0 0 255
0 0 255
0 0 255
0 0 255
0 0 255
0 0 255
0 0 255
0 0 255
0 0 255
0 0 255
0 0 255
0 0 255
0 0 255
0 0 255
0 0 255
0 0 255
0 0 255
0 0 255
0 0 255
0 0 255
0 0 255
0 0 255
0 0 255
0 0 255
0 0 254
0 0 255
0 0 255
0 0 255
0 0 255
0 0 255
0 0 255
0 0 255
0 0 255
0 0 255
0 0 255
0 0 255
0 0 255
0 0 255
0 0 255
0 0 255
0 0 255
0 0 255
0 0 255
0 0 255
0 0 255
0 0 254
0 0 255
0 0 255
0 0 254
0 0 255
0 0 255
0 0 253
0 0 254
0 0 255
0 0 255
0 0 255
0 0 255
0 0 255
0 0 254
0 0 254
0 0 254
0 0 255
0 0 254
0 0 255
0 0 253
0 0 255
0 0 254
0 0 255
0 0 255
0 0 254
0 0 255
0 0 253
0 0 254
0 0 253
0 0 252
0 0 254
0 0 254
0 0 255
0 0 253
0 0 255
0 0 254
0 0 254
0 0 254
0 0 254
0 0 255
0 0 254
0 0 254
0 0 255
0 0 255
0 0 255
0 0 255
0 0 255
0 0 253
0 0 254
0 0 254
0 0 255
0 0 254
0 0 254
0 0 253
0 0 255
0 0 254
0 0 254
52 59 255
121 136 254
169 189 255
192 215 255
199 223 255
199 223 255
199 223 255
199 223 255
198 223 255
198 223 255
198 223 255
198 223 255
198 223 255
198 223 255
198 223 255
198 223 255
198 223 255
198 223 255
198 223 255
198 223 255
198 223 255
198 223 255
198 223 255
197 222 255
197 222 255
197 222 255
197 222 255
197 222 255
197 222 255
197 222 255
197 222 255
197 222 255
197 222 255
197 222 255
197 222 255
197 222 255
197 222 255
197 222 255
197 222 255
196 222 255
196 222 255
196 222 255
196 222 255
196 222 255
196 222 255
196 222 255
196 222 255
196 222 255
196 222 255
196 222 255
196 222 255
196 222 255
196 222 255
196 222 255
196 222 255
196 222 255
196 222 255
196 221 255
196 221 255
195 221 255
195 221 255
195 221 255
195 221 255
195 221 255
195 221 255
195 221 255
195 221 255
195 221 255
195 221 255
195 221 255
195 221 255
195 221 255
195 221 255
195 221 255
195 221 255
195 221 255
195 221 255
195 221 255
195 221 255
195 221 255
195 221 255
195 221 255
195 221 255
195 221 255
195 221 255
195 221 255
195 221 255
195 221 255
195 221 255
195 221 255
195 221 255
195 221 255
195 221 255
195 221 255
195 221 255
195 221 255
195 221 255
195 221 255
195 221 255
195 221 255
195 221 255
195 221 255
195 221 255
195 221 255
195 221 255
195 221 255
195 221 255
195 221 255
195 221 255
195 221 255
195 221 255
195 221 255
195 221 255
195 221 255
195 221 255
195 221 255
195 221 255
195 221 255
195 221 255
195 221 255
195 221 255
195 221 255
195 221 255
195 221 255
195 221 255
195 221 255
195 221 255
195 221 255
195 221 255
195 221 255
195 221 255
195 221 255
195 221 255
195 221 255
195 221 255
196 221 255
196 221 255
196 222 255
196 222 255
196 222 255
196 222 255
196 222 255
196 222 255
196 222 255
196 222 255
196 222 255
196 222 255
196 222 255
196 222 255
196 222 255
196 222 255
196 222 255
196 222 255
196 222 255
196 222 255
197 222 255
197 222 255
197 222 255
197 222 255
197 222 255
197 222 255
197 222 255
197 222 255
197 222 255
197 222 255
197 222 255
197 222 255
197 222 255
197 222 255
197 222 255
197 222 255
198 223 255
198 223 255
198 223 255
198 223 255
198 223 255
198 223 255
198 223 255
198 223 255
198 223 255
198 223 255
198 223 255
198 223 255
198 223 255
198 223 255
198 223 255
199 223 255
199 223 255
199 223 255
199 223 255
199 221 253
200 173 198
200 128 147
200 59 67
200 0 0
203 0 0
202 0 0
202 0 0
198 0 0
201 0 0
200 0 0
201 0 0
199 0 0
203 0 0
205 0 0
203 0 0
205 0 0
205 0 0
204 0 0
202 0 0
204 0 0
200 0 0
205 0 0
205 0 0
202 0 0
208 0 0
203 0 0
203 0 0
210 0 0
203 0 0
205 0 0
204 0 0
205 0 0
207 0 0
204 0 0
205 0 0
203 0 0
206 0 0
204 0 0
206 0 0
208 0 0
207 0 0
206 0 0
206 0 0
207 0 0
208 0 0
207 0 0
207 0 0
207 0 0
205 0 0
209 0 0
203 0 0
205 0 0
210 0 0
206 0 0
209 0 0
211 0 0
206 0 0
206 0 0
208 0 0
207 0 0
205 0 0
207 0 0
209 0 0
206 0 0
203 0 0
208 0 0
211 0 0
207 0 0
208 0 0
207 0 0
205 0 0
208 0 0
208 0 0
204 0 0
206 0 0
206 0 0
212 0 0
208 0 0
204 0 0
207 0 0
206 0 0
209 0 0
209 0 0
208 0 0
207 0 0
206 0 0
208 0 0
205 0 0
208 0 0
208 0 0
208 0 0
206 0 0
207 0 0
207 0 0
209 0 0
208 0 0
206 0 0
209 0 0
211 0 0
211 0 0
207 0 0
207 0 0
209 0 0
204 0 0
207 0 0
208 0 0
0 0 255
0 0 255
0 0 255
0 0 255
0 0 255
0 0 255
0 0 255
0 0 255
0 0 255
0 0 255
0 0 255
0 0 255
0 0 255
0 0 255
0 0 255
0 0 255
0 0 255
0 0 255
0 0 254
0 0 255
0 0 254
0 0 255
0 0 255
0 0 255
0 0 255
0 0 255
0 0 255
0 0 255
0 0 255
0 0 255
0 0 255
0 0 255
0 0 254
0 0 254
0 0 255
0 0 255
0 0 255
0 0 255
0 0 255
0 0 254
0 0 254
0 0 255
0 0 255
0 0 254
0 0 255
0 0 255
0 0 255
0 0 255
0 0 255
0 0 255
0 0 254
0 0 255
0 0 255
0 0 254
0 0 255
0 0 255
0 0 255
0 0 254
0 0 255
0 0 255
0 0 255
0 0 254
0 0 255
0 0 253
0 0 255
0 0 255
0 0 254
0 0 255
0 0 255
0 0 254
0 0 253
0 0 255
0 0 255
0 0 255
0 0 255
0 0 254
0 0 255
0 0 255
0 0 255
0 0 255
0 0 253
0 0 255
0 0 255
0 0 253
0 0 254
0 0 254
0 0 255
0 0 253
0 0 252
0 0 255
0 0 254
0 0 255
0 0 254
0 0 254
0 0 254
0 0 255
0 0 250
0 0 255
0 0 254
0 0 254
0 0 255
0 0 254
0 0 253
0 0 253
0 0 254
0 0 255
34 38 255
124 139 255
170 191 255
194 218 254
199 223 255
199 223 255
199 223 255
198 223 255
198 223 255
198 223 255
198 223 255
198 223 255
198 223 255
198 223 255
198 223 255
198 223 255
198 223 255
198 223 255
198 223 255
198 223 255
198 223 255
198 223 255
197 223 255
197 222 255
197 222 255
197 222 255
197 222 255
197 222 255
197 222 255
197 222 255
197 222 255
197 222 255
197 222 255
197 222 255
197 222 255
197 222 255
197 222 255
197 222 255
197 222 255
196 222 255
196 222 255
196 222 255
196 222 255
196 222 255
196 222 255
196 222 255
196 222 255
196 222 255
196 222 255
196 222 255
196 222 255
196 222 255
196 222 255
196 222 255
196 222 255
196 222 255
196 222 255
196 222 255
196 221 255
196 221 255
195 221 255
195 221 255
195 221 255
195 221 255
195 221 255
195 221 255
195 221 255
195 221 255
195 221 255
195 221 255
195 221 255
195 221 255
195 221 255
195 221 255
195 221 255
195 221 255
195 221 255
195 221 255
195 221 255
195 221 255
195 221 255
195 221 255
195 221 255
195 221 255
195 221 255
195 221 255
195 221 255
195 221 255
195 221 255
195 221 255
195 221 255
195 221 255
195 221 255
195 221 255
195 221 255
195 221 255
195 221 255
195 221 255
195 221 255
195 221 255
195 221 255
195 221 255
195 221 255
195 221 255
195 221 255
195 221 255
195 221 255
195 221 255
195 221 255
195 221 255
195 221 255
195 221 255
195 221 255
195 221 255
195 221 255
195 221 255
195 221 255
195 221 255
195 221 255
195 221 255
195 221 255
195 221 255
195 221 255
195 221 255
195 221 255
195 221 255
195 221 255
195 221 255
196 221 255
196 221 255
196 222 255
196 222 255
196 222 255
196 222 255
196 222 255
196 222 255
196 222 255
196 222 255
196 222 255
196 222 255
196 222 255
196 222 255
196 222 255
196 222 255
196 222 255
196 222 255
196 222 255
196 222 255
196 222 255
197 222 255
197 222 255
197 222 255
197 222 255
197 222 255
197 222 255
197 222 255
197 222 255
197 222 255
197 222 255
197 222 255
197 222 255
197 222 255
197 222 255
197 222 255
197 222 255
197 223 255
198 223 255
198 223 255
198 223 255
198 223 255
198 223 255
198 223 255
198 223 255
198 223 255
198 223 255
198 223 255
198 223 255
198 223 255
198 223 255
198 223 255
198 223 255
199 223 255
199 223 255
199 223 255
199 216 248
201 187 214
199 132 151
204 50 57
200 0 0
200 0 0
200 0 0
203 0 0
201 0 0
201 0 0
206 0 0
201 0 0
201 0 0
204 0 0
202 0 0
202 0 0
204 0 0
205 0 0
203 0 0
204 0 0
201 0 0
202 0 0
204 0 0
201 0 0
203 0 0
201 0 0
201 0 0
203 0 0
204 0 0
204 0 0
205 0 0
203 0 0
204 0 0
206 0 0
204 0 0
205 0 0
206 0 0
203 0 0
207 0 0
209 0 0
205 0 0
203 0 0
209 0 0
206 0 0
206 0 0
208 0 0
206 0 0
210 0 0
207 0 0
203 0 0
208 0 0
205 0 0
206 0 0
209 0 0
204 0 0
203 0 0
208 0 0
206 0 0
208 0 0
204 0 0
207 0 0
208 0 0
205 0 0
205 0 0
209 0 0
206 0 0
208 0 0
210 0 0
207 0 0
207 0 0
206 0 0
207 0 0
205 0 0
208 0 0
207 0 0
205 0 0
206 0 0
209 0 0
209 0 0
207 0 0
205 0 0
208 0 0
208 0 0
212 0 0
209 0 0
211 0 0
210 0 0
208 0 0
212 0 0
208 0 0
209 0 0
208 0 0
206 0 0
209 0 0
209 0 0
208 0 0
209 0 0
209 0 0
209 0 0
210 0 0
207 0 0
208 0 0
212 0 0
206 0 0
206 0 0
210 0 0
208 0 0
208 0 0
208 0 0
213 0 0
0 0 255
0 0 255
0 0 255
0 0 255
0 0 255
0 0 255
0 0 255
0 0 255
0 0 255
0 0 255
0 0 255
0 0 255
0 0 255
0 0 255
0 0 255
0 0 255
0 0 255
0 0 254
0 0 255
0 0 255
0 0 255
0 0 255
0 0 255
0 0 255
0 0 255
0 0 255
0 0 255
0 0 255
0 0 255
0 0 255
0 0 255
0 0 255
0 0 255
0 0 255
0 0 255
0 0 255
0 0 255
0 0 255
0 0 255
0 0 255
0 0 254
0 0 255
0 0 254
0 0 255
0 0 254
0 0 255
0 0 255
0 0 255
0 0 255
0 0 255
0 0 255
0 0 254
0 0 253
0 0 255
0 0 255
0 0 255
0 0 255
0 0 254
0 0 254
0 0 255
0 0 255
0 0 254
0 0 254
0 0 253
0 0 254
0 0 253
0 0 254
0 0 254
0 0 254
0 0 255
0 0 254
0 0 255
0 0 255
0 0 254
0 0 255
0 0 254
0 0 255
0 0 254
0 0 254
0 0 254
0 0 254
0 0 252
0 0 255
0 0 255
0 0 255
0 0 255
0 0 255
0 0 253
0 0 254
0 0 255
0 0 254
0 0 254
0 0 253
0 0 253
0 0 255
0 0 254
0 0 249
0 0 254
0 0 254
0 0 254
0 0 254
0 0 254
0 0 253
0 0 252
0 0 254
0 0 252
0 0 253
0 0 255
0 0 253
48 54 253
105 118 254
167 188 255
196 220 255
199 223 255
199 223 255
198 223 255
198 223 255
198 223 255
198 223 255
198 223 255
198 223 255
198 223 255
198 223 255
198 223 255
198 223 255
198 223 255
198 223 255
198 223 255
198 223 255
198 223 255
198 223 255
197 222 255
197 222 255
197 222 255
197 222 255
197 222 255
197 222 255
197 222 255
197 222 255
197 222 255
197 222 255
197 222 255
197 222 255
197 222 255
197 222 255
197 222 255
197 222 255
197 222 255
196 222 255
196 222 255
196 222 255
196 222 255
196 222 255
196 222 255
196 222 255
196 222 255
196 222 255
196 222 255
196 222 255
196 222 255
196 222 255
196 222 255
196 222 255
196 222 255
196 222 255
196 222 255
196 222 255
196 222 255
196 221 255
196 221 255
195 221 255
195 221 255
195 221 255
195 221 255
195 221 255
195 221 255
195 221 255
195 221 255
195 221 255
195 221 255
195 221 255
195 221 255
195 221 255
195 221 255
195 221 255
195 221 255
195 221 255
195 221 255
195 221 255
195 221 255
195 221 255
195 221 255
195 221 255
195 221 255
195 221 255
195 221 255
195 221 255
195 221 255
195 221 255
195 221 255
195 221 255
195 221 255
195 221 255
195 221 255
195 221 255
195 221 255
195 221 255
195 221 255
195 221 255
195 221 255
195 221 255
195 221 255
195 221 255
195 221 255
195 221 255
195 221 255
195 221 255
195 221 255
195 221 255
195 221 255
195 221 255
195 221 255
195 221 255
195 221 255
195 221 255
195 221 255
195 221 255
195 221 255
195 221 255
195 221 255
196 221 255
196 221 255
196 222 255
196 222 255
196 222 255
196 222 255
196 222 255
196 222 255
196 222 255
196 222 255
196 222 255
196 222 255
196 222 255
196 222 255
196 222 255
196 222 255
196 222 255
196 222 255
196 222 255
196 222 255
196 222 255
196 222 255
197 222 255
197 222 255
197 222 255
197 222 255
197 222 255
197 222 255
197 222 255
197 222 255
197 222 255
197 222 255
197 222 255
197 222 255
197 222 255
197 222 255
197 222 255
197 222 255
197 222 255
198 223 255
198 223 255
198 223 255
198 223 255
198 223 255
198 223 255
198 223 255
198 223 255
198 223 255
198 223 255
198 223 255
198 223 255
198 223 255
198 223 255
198 223 255
198 223 255
199 223 255
199 223 255
199 220 252
199 181 207
199 124 142
201 54 62
200 0 0
203 0 0
201 0 0
198 0 0
202 0 0
205 0 0
202 0 0
203 0 0
201 0 0
202 0 0
202 0 0
200 0 0
203 0 0
203 0 0
207 0 0
204 0 0
202 0 0
206 0 0
206 0 0
205 0 0
206 0 0
201 0 0
202 0 0
207 0 0
204 0 0
206 0 0
204 0 0
202 0 0
207 0 0
207 0 0
204 0 0
204 0 0
205 0 0
207 0 0
203 0 0
205 0 0
205 0 0
208 0 0
204 0 0
206 0 0
204 0 0
205 0 0
210 0 0
207 0 0
207 0 0
205 0 0
205 0 0
206 0 0
206 0 0
208 0 0
204 0 0
207 0 0
210 0 0
205 0 0
207 0 0
208 0 0
206 0 0
207 0 0
207 0 0
206 0 0
203 0 0
207 0 0
207 0 0
208 0 0
207 0 0
208 0 0
206 0 0
209 0 0
203 0 0
208 0 0
209 0 0
207 0 0
206 0 0
209 0 0
209 0 0
208 0 0
209 0 0
208 0 0
208 0 0
207 0 0
209 0 0
209 0 0
211 0 0
208 0 0
210 0 0
206 0 0
209 0 0
210 0 0
211 0 0
211 0 0
209 0 0
210 0 0
211 0 0
207 0 0
208 0 0
207 0 0
210 0 0
210 0 0
212 0 0
206 0 0
206 0 0
210 0 0
210 0 0
209 0 0
206 0 0
210 0 0
209 0 0
206 0 0
209 0 0
0 0 255
0 0 255
0 0 255
0 0 255
0 0 255
0 0 255
0 0 255
0 0 255
0 0 255
0 0 255
0 0 255
0 0 255
0 0 254
0 0 255
0 0 255
0 0 255
0 0 255
0 0 255
0 0 255
0 0 255
0 0 255
0 0 255
0 0 255
0 0 253
0 0 255
0 0 255
0 0 255
0 0 255
0 0 255
0 0 255
0 0 255
0 0 255
0 0 255
0 0 255
0 0 253
0 0 255
0 0 255
0 0 254
0 0 255
0 0 255
0 0 254
0 0 255
0 0 255
0 0 255
0 0 255
0 0 255
0 0 255
0 0 254
0 0 255
0 0 255
0 0 255
0 0 253
0 0 255
0 0 254
0 0 255
0 0 254
0 0 255
0 0 255
0 0 255
0 0 255
0 0 254
0 0 253
0 0 255
0 0 255
0 0 255
0 0 254
0 0 254
0 0 255
0 0 255
0 0 255
0 0 255
0 0 254
0 0 254
0 0 253
0 0 254
0 0 254
0 0 252
0 0 253
0 0 255
0 0 254
0 0 255
0 0 254
0 0 253
0 0 254
0 0 253
0 0 253
0 0 254
0 0 254
0 0 253
0 0 253
0 0 252
0 0 252
0 0 253
0 0 254
0 0 255
0 0 254
0 0 253
0 0 254
0 0 253
0 0 253
0 0 253
0 0 252
0 0 255
0 0 253
0 0 255
0 0 249
0 0 255
0 0 254
0 0 253
0 0 253
0 0 254
0 0 254
39 44 253
116 130 254
179 201 255
199 223 255
199 223 255
199 223 255
198 223 255
198 223 255
198 223 255
198 223 255
198 223 255
198 223 255
198 223 255
198 223 255
198 223 255
198 223 255
198 223 255
198 223 255
198 223 255
198 223 255
198 223 255
197 223 255
197 222 255
197 222 255
197 222 255
197 222 255
197 222 255
197 222 255
197 222 255
197 222 255
197 222 255
197 222 255
197 222 255
197 222 255
197 222 255
197 222 255
197 222 255
197 222 255
197 222 255
196 222 255
196 222 255
196 222 255
196 222 255
196 222 255
196 222 255
196 222 255
196 222 255
196 222 255
196 222 255
196 222 255
196 222 255
196 222 255
196 222 255
196 222 255
196 222 255
196 222 255
196 222 255
196 222 255
196 222 255
196 222 255
196 221 255
196 221 255
196 221 255
195 221 255
195 221 255
195 221 255
195 221 255
195 221 255
195 221 255
195 221 255
195 221 255
195 221 255
195 221 255
195 221 255
195 221 255
195 221 255
195 221 255
195 221 255
195 221 255
195 221 255
195 221 255
195 221 255
195 221 255
195 221 255
195 221 255
195 221 255
195 221 255
195 221 255
195 221 255
195 221 255
195 221 255
195 221 255
195 221 255
195 221 255
195 221 255
195 221 255
195 221 255
195 221 255
195 221 255
195 221 255
195 221 255
195 221 255
195 221 255
195 221 255
195 221 255
195 221 255
195 221 255
195 221 255
195 221 255
195 221 255
195 221 255
195 221 255
195 221 255
196 221 255
196 221 255
196 221 255
196 222 255
196 222 255
196 222 255
196 222 255
196 222 255
196 222 255
196 222 255
196 222 255
196 222 255
196 222 255
196 222 255
196 222 255
196 222 255
196 222 255
196 222 255
196 222 255
196 222 255
196 222 255
196 222 255
196 222 255
196 222 255
197 222 255
197 222 255
197 222 255
197 222 255
197 222 255
197 222 255
197 222 255
197 222 255
197 222 255
197 222 255
197 222 255
197 222 255
197 222 255
197 222 255
197 222 255
197 222 255
197 222 255
197 223 255
198 223 255
198 223 255
198 223 255
198 223 255
198 223 255
198 223 255
198 223 255
198 223 255
198 223 255
198 223 255
198 223 255
198 223 255
198 223 255
198 223 255
198 223 255
199 223 255
199 223 255
199 222 254
200 196 224
197 141 161
197 44 51
202 0 0
196 0 0
200 0 0
200 0 0
202 0 0
203 0 0
203 0 0
198 0 0
199 0 0
203 0 0
204 0 0
205 0 0
201 0 0
203 0 0
206 0 0
204 0 0
203 0 0
202 0 0
205 0 0
206 0 0
199 0 0
207 0 0
202 0 0
204 0 0
204 0 0
203 0 0
205 0 0
207 0 0
204 0 0
206 0 0
204 0 0
205 0 0
204 0 0
204 0 0
201 0 0
204 0 0
208 0 0
206 0 0
207 0 0
207 0 0
205 0 0
208 0 0
204 0 0
201 0 0
205 0 0
206 0 0
205 0 0
205 0 0
209 0 0
208 0 0
207 0 0
205 0 0
208 0 0
208 0 0
204 0 0
207 0 0
208 0 0
209 0 0
206 0 0
208 0 0
204 0 0
204 0 0
210 0 0
209 0 0
206 0 0
206 0 0
210 0 0
208 0 0
207 0 0
210 0 0
206 0 0
210 0 0
206 0 0
208 0 0
209 0 0
208 0 0
205 0 0
207 0 0
207 0 0
209 0 0
204 0 0
207 0 0
209 0 0
209 0 0
209 0 0
206 0 0
209 0 0
213 0 0
204 0 0
208 0 0
209 0 0
209 0 0
207 0 0
210 0 0
207 0 0
205 0 0
210 0 0
207 0 0
209 0 0
210 0 0
206 0 0
210 0 0
209 0 0
211 0 0
209 0 0
210 0 0
209 0 0
207 0 0
210 0 0
208 0 0
211 0 0
210 0 0
0 0 255
0 0 255
0 0 255
0 0 255
0 0 255
0 0 254
0 0 255
0 0 255
0 0 255
0 0 255
0 0 255
0 0 255
0 0 255
0 0 255
0 0 254
0 0 255
0 0 254
0 0 255
0 0 255
0 0 255
0 0 255
0 0 255
0 0 255
0 0 255
0 0 255
0 0 255
0 0 255
0 0 255
0 0 255
0 0 255
0 0 255
0 0 255
0 0 255
0 0 255
0 0 254
0 0 255
0 0 255
0 0 255
0 0 254
0 0 254
0 0 255
0 0 255
0 0 255
0 0 254
0 0 255
0 0 255
0 0 254
0 0 255
0 0 255
0 0 255
0 0 253
0 0 255
0 0 255
0 0 253
0 0 255
0 0 254
0 0 255
0 0 255
0 0 255
0 0 255
0 0 255
0 0 255
0 0 253
0 0 254
0 0 255
0 0 255
0 0 254
0 0 255
0 0 252
0 0 253
0 0 254
0 0 255
0 0 254
0 0 255
0 0 253
0 0 254
0 0 253
0 0 254
0 0 254
0 0 254
0 0 254
0 0 254
0 0 254
0 0 254
0 0 254
0 0 254
0 0 255
0 0 254
0 0 254
0 0 250
0 0 254
0 0 254
0 0 254
0 0 254
0 0 252
0 0 254
0 0 253
0 0 249
0 0 254
0 0 255
0 0 254
0 0 249
0 0 253
0 0 253
0 0 254
0 0 254
0 0 254
0 0 254
0 0 255
0 0 253
0 0 250
0 0 253
0 0 250
0 0 254
0 0 255
71 80 255
147 165 255
187 210 255
199 223 255
199 223 255
198 223 255
198 223 255
198 223 255
198 223 255
198 223 255
198 223 255
198 223 255
198 223 255
198 223 255
198 223 255
198 223 255
198 223 255
198 223 255
198 223 255
198 223 255
198 223 255
197 222 255
197 222 255
197 222 255
197 222 255
197 222 255
197 222 255
197 222 255
197 222 255
197 222 255
197 222 255
197 222 255
197 222 255
197 222 255
197 222 255
197 222 255
197 222 255
197 222 255
197 222 255
196 222 255
196 222 255
196 222 255
196 222 255
196 222 255
196 222 255
196 222 255
196 222 255
196 222 255
196 222 255
196 222 255
196 222 255
196 222 255
196 222 255
196 222 255
196 222 255
196 222 255
196 222 255
196 222 255
196 222 255
196 222 255
196 222 255
196 222 255
196 221 255
196 221 255
196 221 255
196 221 255
195 221 255
195 221 255
195 221 255
195 221 255
195 221 255
195 221 255
195 221 255
195 221 255
195 221 255
195 221 255
195 221 255
195 221 255
195 221 255
195 221 255
195 221 255
195 221 255
195 221 255
195 221 255
195 221 255
195 221 255
195 221 255
195 221 255
195 221 255
195 221 255
195 221 255
195 221 255
195 221 255
195 221 255
195 221 255
195 221 255
195 221 255
195 221 255
195 221 255
195 221 255
195 221 255
195 221 255
195 221 255
195 221 255
196 221 255
196 221 255
196 221 255
196 221 255
196 222 255
196 222 255
196 222 255
196 222 255
196 222 255
196 222 255
196 222 255
196 222 255
196 222 255
196 222 255
196 222 255
196 222 255
196 222 255
196 222 255
196 222 255
196 222 255
196 222 255
196 222 255
196 222 255
196 222 255
196 222 255
196 222 255
196 222 255
197 222 255
197 222 255
197 222 255
197 222 255
197 222 255
197 222 255
197 222 255
197 222 255
197 222 255
197 222 255
197 222 255
197 222 255
197 222 255
197 222 255
197 222 255
197 222 255
197 222 255
197 222 255
198 223 255
198 223 255
198 223 255
198 223 255
198 223 255
198 223 255
198 223 255
198 223 255
198 223 255
198 223 255
198 223 255
198 223 255
198 223 255
198 223 255
198 223 255
198 223 255
199 223 255
199 223 255
199 204 234
197 168 193
199 86 99
201 0 0
202 0 0
199 0 0
200 0 0
202 0 0
198 0 0
199 0 0
200 0 0
200 0 0
202 0 0
200 0 0
201 0 0
199 0 0
199 0 0
201 0 0
204 0 0
203 0 0
204 0 0
206 0 0
203 0 0
204 0 0
203 0 0
206 0 0
203 0 0
207 0 0
204 0 0
204 0 0
204 0 0
210 0 0
204 0 0
203 0 0
206 0 0
204 0 0
201 0 0
205 0 0
205 0 0
209 0 0
207 0 0
207 0 0
207 0 0
204 0 0
205 0 0
207 0 0
205 0 0
208 0 0
206 0 0
207 0 0
206 0 0
207 0 0
208 0 0
207 0 0
208 0 0
209 0 0
208 0 0
206 0 0
205 0 0
206 0 0
206 0 0
208 0 0
204 0 0
211 0 0
208 0 0
208 0 0
208 0 0
206 0 0
210 0 0
209 0 0
208 0 0
207 0 0
209 0 0
210 0 0
206 0 0
207 0 0
206 0 0
210 0 0
207 0 0
210 0 0
205 0 0
208 0 0
207 0 0
207 0 0
208 0 0
210 0 0
211 0 0
207 0 0
212 0 0
206 0 0
212 0 0
207 0 0
207 0 0
210 0 0
208 0 0
210 0 0
208 0 0
206 0 0
213 0 0
207 0 0
211 0 0
208 0 0
210 0 0
212 0 0
213 0 0
209 0 0
211 0 0
210 0 0
205 0 0
209 0 0
212 0 0
210 0 0
210 0 0
206 0 0
211 0 0
209 0 0
207 0 0
206 0 0
0 0 255
0 0 255
0 0 255
0 0 255
0 0 255
0 0 255
0 0 255
0 0 255
0 0 255
0 0 255
0 0 255
0 0 255
0 0 255
0 0 255
0 0 255
0 0 255
0 0 255
0 0 255
0 0 255
0 0 255
0 0 255
0 0 255
0 0 255
0 0 255
0 0 255
0 0 254
0 0 255
0 0 254
0 0 255
0 0 255
0 0 255
0 0 255
0 0 255
0 0 255
0 0 254
0 0 255
0 0 255
0 0 255
0 0 255
0 0 255
0 0 255
0 0 255
0 0 255
0 0 255
0 0 255
0 0 255
0 0 255
0 0 255
0 0 255
0 0 254
0 0 253
0 0 254
0 0 255
0 0 255
0 0 255
0 0 255
0 0 255
0 0 255
0 0 255
0 0 254
0 0 255
0 0 255
0 0 255
0 0 255
0 0 254
0 0 254
0 0 254
0 0 254
0 0 255
0 0 255
0 0 252
0 0 252
0 0 254
0 0 254
0 0 254
0 0 254
0 0 253
0 0 254
0 0 254
0 0 254
0 0 255
0 0 254
0 0 254
0 0 254
0 0 250
0 0 253
0 0 252
0 0 255
0 0 255
0 0 255
0 0 254
0 0 252
0 0 253
0 0 253
0 0 255
0 0 253
0 0 253
0 0 254
0 0 254
0 0 254
0 0 253
0 0 253
0 0 254
0 0 254
0 0 252
0 0 255
0 0 254
0 0 254
0 0 254
0 0 254
0 0 252
0 0 253
0 0 254
0 0 250
0 0 252
0 0 254
0 0 254
0 0 252
97 109 254
155 174 255
198 222 255
199 223 255
199 223 255
198 223 255
198 223 255
198 223 255
198 223 255
198 223 255
198 223 255
198 223 255
198 223 255
198 223 255
198 223 255
198 223 255
198 223 255
198 223 255
198 223 255
198 223 255
197 223 255
197 222 255
197 222 255
197 222 255
197 222 255
197 222 255
197 222 255
197 222 255
197 222 255
197 222 255
197 222 255
197 222 255
197 222 255
197 222 255
197 222 255
197 222 255
197 222 255
197 222 255
197 222 255
196 222 255
196 222 255
196 222 255
196 222 255
196 222 255
196 222 255
196 222 255
196 222 255
196 222 255
196 222 255
196 222 255
196 222 255
196 222 255
196 222 255
196 222 255
196 222 255
196 222 255
196 222 255
196 222 255
196 222 255
196 222 255
196 222 255
196 222 255
196 222 255
196 222 255
196 222 255
196 222 255
196 222 255
196 221 255
196 221 255
196 221 255
196 221 255
196 221 255
195 221 255
195 221 255
195 221 255
195 221 255
195 221 255
195 221 255
195 221 255
195 221 255
195 221 255
195 221 255
195 221 255
195 221 255
195 221 255
195 221 255
195 221 255
195 221 255
195 221 255
195 221 255
195 221 255
195 221 255
196 221 255
196 221 255
196 221 255
196 221 255
196 221 255
196 222 255
196 222 255
196 222 255
196 222 255
196 222 255
196 222 255
196 222 255
196 222 255
196 222 255
196 222 255
196 222 255
196 222 255
196 222 255
196 222 255
196 222 255
196 222 255
196 222 255
196 222 255
196 222 255
196 222 255
196 222 255
196 222 255
196 222 255
196 222 255
196 222 255
196 222 255
196 222 255
196 222 255
197 222 255
197 222 255
197 222 255
197 222 255
197 222 255
197 222 255
197 222 255
197 222 255
197 222 255
197 222 255
197 222 255
197 222 255
197 222 255
197 222 255
197 222 255
197 222 255
197 222 255
197 222 255
198 223 255
198 223 255
198 223 255
198 223 255
198 223 255
198 223 255
198 223 255
198 223 255
198 223 255
198 223 255
198 223 255
198 223 255
198 223 255
198 223 255
198 223 255
198 223 255
198 223 255
199 223 255
199 221 253
199 188 215
198 122 140
200 0 0
198 0 0
201 0 0
203 0 0
205 0 0
198 0 0
202 0 0
200 0 0
199 0 0
200 0 0
203 0 0
202 0 0
200 0 0
204 0 0
200 0 0
202 0 0
201 0 0
206 0 0
204 0 0
202 0 0
205 0 0
202 0 0
206 0 0
206 0 0
204 0 0
205 0 0
202 0 0
203 0 0
204 0 0
205 0 0
209 0 0
205 0 0
201 0 0
205 0 0
207 0 0
204 0 0
209 0 0
204 0 0
207 0 0
205 0 0
206 0 0
206 0 0
206 0 0
208 0 0
209 0 0
205 0 0
211 0 0
209 0 0
208 0 0
203 0 0
207 0 0
207 0 0
204 0 0
208 0 0
204 0 0
209 0 0
206 0 0
203 0 0
208 0 0
209 0 0
205 0 0
206 0 0
208 0 0
206 0 0
205 0 0
206 0 0
210 0 0
204 0 0
209 0 0
204 0 0
206 0 0
206 0 0
207 0 0
213 0 0
213 0 0
207 0 0
208 0 0
212 0 0
205 0 0
208 0 0
210 0 0
208 0 0
207 0 0
210 0 0
209 0 0
208 0 0
214 0 0
209 0 0
210 0 0
209 0 0
209 0 0
207 0 0
207 0 0
205 0 0
209 0 0
210 0 0
210 0 0
206 0 0
209 0 0
211 0 0
208 0 0
209 0 0
209 0 0
208 0 0
209 0 0
210 0 0
208 0 0
209 0 0
208 0 0
209 0 0
207 0 0
210 0 0
209 0 0
208 0 0
208 0 0
205 0 0
208 0 0
208 0 0
0 0 255
0 0 255
0 0 255
0 0 255
0 0 255
0 0 255
0 0 255
0 0 254
0 0 255
0 0 255
0 0 255
0 0 255
0 0 254
0 0 255
0 0 255
0 0 255
0 0 255
0 0 255
0 0 255
0 0 255
0 0 255
0 0 254
0 0 255
0 0 253
0 0 255
0 0 254
0 0 255
0 0 255
0 0 254
0 0 255
0 0 255
0 0 254
0 0 255
0 0 255
0 0 254
0 0 255
0 0 255
0 0 255
0 0 255
0 0 254
0 0 255
0 0 254
0 0 255
0 0 255
0 0 255
0 0 255
0 0 255
0 0 255
0 0 255
0 0 254
0 0 255
0 0 255
0 0 255
0 0 254
0 0 255
0 0 255
0 0 255
0 0 254
0 0 252
0 0 255
0 0 255
0 0 255
0 0 253
0 0 253
0 0 255
0 0 255
0 0 254
0 0 255
0 0 255
0 0 254
0 0 254
0 0 255
0 0 254
0 0 255
0 0 254
0 0 253
0 0 255
0 0 254
0 0 250
0 0 254
0 0 253
0 0 253
0 0 254
0 0 255
0 0 254
0 0 255
0 0 254
0 0 254
0 0 255
0 0 254
0 0 252
0 0 253
0 0 254
0 0 254
0 0 254
0 0 255
0 0 253
0 0 254
0 0 255
0 0 255
0 0 254
0 0 255
0 0 249
0 0 254
0 0 253
0 0 250
0 0 250
0 0 254
0 0 253
0 0 255
0 0 252
0 0 253
0 0 255
0 0 254
0 0 255
0 0 250
0 0 255
0 0 254
0 0 254
0 0 255
52 59 254
130 146 254
188 212 255
199 223 255
199 223 255
198 223 255
198 223 255
198 223 255
198 223 255
198 223 255
198 223 255
198 223 255
198 223 255
198 223 255
198 223 255
198 223 255
198 223 255
198 223 255
198 223 255
198 223 255
198 223 255
197 223 255
197 222 255
197 222 255
197 222 255
197 222 255
197 222 255
197 222 255
197 222 255
197 222 255
197 222 255
197 222 255
197 222 255
197 222 255
197 222 255
197 222 255
197 222 255
197 222 255
197 222 255
197 222 255
197 222 255
196 222 255
196 222 255
196 222 255
196 222 255
196 222 255
196 222 255
196 222 255
196 222 255
196 222 255
196 222 255
196 222 255
196 222 255
196 222 255
196 222 255
196 222 255
196 222 255
196 222 255
196 222 255
196 222 255
196 222 255
196 222 255
196 222 255
196 222 255
196 222 255
196 222 255
196 222 255
196 222 255
196 222 255
196 222 255
196 222 255
196 222 255
196 222 255
196 222 255
196 222 255
196 222 255
196 222 255
196 222 255
196 222 255
196 222 255
196 222 255
196 222 255
196 222 255
196 222 255
196 222 255
196 222 255
196 222 255
196 222 255
196 222 255
196 222 255
196 222 255
196 222 255
196 222 255
196 222 255
196 222 255
196 222 255
196 222 255
196 222 255
196 222 255
196 222 255
196 222 255
196 222 255
196 222 255
196 222 255
196 222 255
196 222 255
196 222 255
196 222 255
196 222 255
196 222 255
196 222 255
196 222 255
196 222 255
196 222 255
196 222 255
196 222 255
196 222 255
196 222 255
196 222 255
197 222 255
197 222 255
197 222 255
197 222 255
197 222 255
197 222 255
197 222 255
197 222 255
197 222 255
197 222 255
197 222 255
197 222 255
197 222 255
197 222 255
197 222 255
197 222 255
197 222 255
197 222 255
197 222 255
197 223 255
198 223 255
198 223 255
198 223 255
198 223 255
198 223 255
198 223 255
198 223 255
198 223 255
198 223 255
198 223 255
198 223 255
198 223 255
198 223 255
198 223 255
198 223 255
198 223 255
199 223 255
199 223 255
199 214 245
199 159 182
197 80 92
201 0 0
197 0 0
200 0 0
197 0 0
196 0 0
196 0 0
197 0 0
202 0 0
201 0 0
205 0 0
202 0 0
202 0 0
199 0 0
204 0 0
204 0 0
203 0 0
204 0 0
203 0 0
203 0 0
205 0 0
200 0 0
202 0 0
203 0 0
203 0 0
204 0 0
204 0 0
202 0 0
203 0 0
203 0 0
203 0 0
204 0 0
205 0 0
202 0 0
203 0 0
201 0 0
204 0 0
210 0 0
207 0 0
207 0 0
205 0 0
206 0 0
205 0 0
205 0 0
204 0 0
210 0 0
206 0 0
211 0 0
203 0 0
206 0 0
207 0 0
203 0 0
210 0 0
206 0 0
206 0 0
210 0 0
209 0 0
209 0 0
209 0 0
207 0 0
211 0 0
208 0 0
209 0 0
208 0 0
208 0 0
208 0 0
209 0 0
204 0 0
210 0 0
206 0 0
210 0 0
211 0 0
209 0 0
207 0 0
207 0 0
206 0 0
207 0 0
210 0 0
205 0 0
207 0 0
209 0 0
208 0 0
209 0 0
209 0 0
208 0 0
205 0 0
209 0 0
208 0 0
206 0 0
209 0 0
212 0 0
209 0 0
207 0 0
211 0 0
210 0 0
206 0 0
212 0 0
211 0 0
205 0 0
207 0 0
213 0 0
206 0 0
209 0 0
213 0 0
210 0 0
212 0 0
210 0 0
209 0 0
211 0 0
210 0 0
208 0 0
209 0 0
210 0 0
211 0 0
210 0 0
212 0 0
212 0 0
209 0 0
209 0 0
212 0 0
209 0 0
0 0 255
0 0 255
0 0 255
0 0 255
0 0 255
0 0 255
0 0 255
0 0 255
0 0 255
0 0 254
0 0 255
0 0 254
0 0 255
0 0 255
0 0 255
0 0 254
0 0 255
0 0 254
0 0 255
0 0 254
0 0 255
0 0 255
0 0 254
0 0 255
0 0 255
0 0 255
0 0 255
0 0 255
0 0 255
0 0 255
0 0 255
0 0 255
0 0 255
0 0 255
0 0 255
0 0 255
0 0 255
0 0 255
0 0 255
0 0 255
0 0 255
0 0 255
0 0 255
0 0 255
0 0 255
0 0 255
0 0 255
0 0 254
0 0 254
0 0 254
0 0 255
0 0 255
0 0 254
0 0 254
0 0 254
0 0 255
0 0 255
0 0 255
0 0 255
0 0 253
0 0 254
0 0 255
0 0 254
0 0 254
0 0 253
0 0 254
0 0 254
0 0 254
0 0 254
0 0 254
0 0 255
0 0 254
0 0 253
0 0 255
0 0 255
0 0 255
0 0 255
0 0 255
0 0 253
0 0 252
0 0 252
0 0 255
0 0 255
0 0 254
0 0 253
0 0 255
0 0 254
0 0 254
0 0 253
0 0 253
0 0 250
0 0 252
0 0 253
0 0 253
0 0 253
0 0 255
0 0 252
0 0 253
0 0 254
0 0 254
0 0 254
0 0 254
0 0 252
0 0 254
0 0 252
0 0 253
0 0 255
0 0 253
0 0 249
0 0 254
0 0 254
0 0 253
0 0 250
0 0 253
0 0 254
0 0 250
0 0 252
0 0 255
0 0 253
0 0 250
0 0 255
0 0 254
19 22 254
109 122 254
175 197 254
199 223 255
199 223 255
199 223 255
198 223 255
198 223 255
198 223 255
198 223 255
198 223 255
198 223 255
198 223 255
198 223 255
198 223 255
198 223 255
198 223 255
198 223 255
198 223 255
198 223 255
198 223 255
198 223 255
197 223 255
197 222 255
197 222 255
197 222 255
197 222 255
197 222 255
197 222 255
197 222 255
197 222 255
197 222 255
197 222 255
197 222 255
197 222 255
197 222 255
197 222 255
197 222 255
197 222 255
197 222 255
197 222 255
197 222 255
197 222 255
196 222 255
196 222 255
196 222 255
196 222 255
196 222 255
196 222 255
196 222 255
196 222 255
196 222 255
196 222 255
196 222 255
196 222 255
196 222 255
196 222 255
196 222 255
196 222 255
196 222 255
196 222 255
196 222 255
196 222 255
196 222 255
196 222 255
196 222 255
196 222 255
196 222 255
196 222 255
196 222 255
196 222 255
196 222 255
196 222 255
196 222 255
196 222 255
196 222 255
196 222 255
196 222 255
196 222 255
196 222 255
196 222 255
196 222 255
196 222 255
196 222 255
196 222 255
196 222 255
196 222 255
196 222 255
196 222 255
196 222 255
196 222 255
196 222 255
196 222 255
196 222 255
196 222 255
196 222 255
196 222 255
196 222 255
196 222 255
196 222 255
196 222 255
196 222 255
196 222 255
196 222 255
196 222 255
196 222 255
196 222 255
196 222 255
196 222 255
196 222 255
196 222 255
196 222 255
196 222 255
197 222 255
197 222 255
197 222 255
197 222 255
197 222 255
197 222 255
197 222 255
197 222 255
197 222 255
197 222 255
197 222 255
197 222 255
197 222 255
197 222 255
197 222 255
197 222 255
197 222 255
197 222 255
197 222 255
197 222 255
197 223 255
198 223 255
198 223 255
198 223 255
198 223 255
198 223 255
198 223 255
198 223 255
198 223 255
198 223 255
198 223 255
198 223 255
198 223 255
198 223 255
198 223 255
198 223 255
198 223 255
198 223 255
199 223 255
199 223 255
198 206 236
200 134 153
195 38 44
200 0 0
202 0 0
200 0 0
203 0 0
200 0 0
201 0 0
197 0 0
199 0 0
200 0 0
203 0 0
203 0 0
201 0 0
202 0 0
203 0 0
203 0 0
199 0 0
202 0 0
200 0 0
205 0 0
206 0 0
202 0 0
203 0 0
205 0 0
205 0 0
206 0 0
203 0 0
207 0 0
207 0 0
205 0 0
203 0 0
206 0 0
204 0 0
207 0 0
210 0 0
205 0 0
208 0 0
208 0 0
205 0 0
204 0 0
208 0 0
205 0 0
207 0 0
208 0 0
208 0 0
204 0 0
204 0 0
206 0 0
207 0 0
207 0 0
206 0 0
206 0 0
206 0 0
207 0 0
205 0 0
205 0 0
209 0 0
207 0 0
204 0 0
209 0 0
208 0 0
208 0 0
208 0 0
209 0 0
204 0 0
203 0 0
211 0 0
205 0 0
207 0 0
209 0 0
210 0 0
209 0 0
208 0 0
206 0 0
205 0 0
210 0 0
209 0 0
210 0 0
207 0 0
212 0 0
208 0 0
210 0 0
212 0 0
208 0 0
209 0 0
209 0 0
211 0 0
210 0 0
206 0 0
210 0 0
208 0 0
207 0 0
210 0 0
210 0 0
212 0 0
210 0 0
210 0 0
213 0 0
212 0 0
206 0 0
209 0 0
213 0 0
213 0 0
212 0 0
211 0 0
206 0 0
209 0 0
209 0 0
211 0 0
214 0 0
211 0 0
208 0 0
210 0 0
210 0 0
212 0 0
211 0 0
211 0 0
209 0 0
212 0 0
208 0 0
208 0 0
209 0 0
209 0 0
0 0 255
0 0 255
0 0 254
0 0 255
0 0 255
0 0 255
0 0 255
0 0 255
0 0 255
0 0 255
0 0 255
0 0 255
0 0 255
0 0 255
0 0 254
0 0 255
0 0 255
0 0 255
0 0 255
0 0 255
0 0 255
0 0 255
0 0 255
0 0 254
0 0 255
0 0 255
0 0 255
0 0 255
0 0 255
0 0 255
0 0 255
0 0 255
0 0 255
0 0 255
0 0 255
0 0 255
0 0 254
0 0 254
0 0 255
0 0 254
0 0 255
0 0 255
0 0 254
0 0 255
0 0 255
0 0 255
0 0 254
0 0 253
0 0 255
0 0 255
0 0 255
0 0 254
0 0 255
0 0 255
0 0 254
0 0 253
0 0 255
0 0 255
0 0 255
0 0 254
0 0 254
0 0 254
0 0 255
0 0 255
0 0 254
0 0 255
0 0 253
0 0 254
0 0 254
0 0 255
0 0 254
0 0 254
0 0 253
0 0 255
0 0 255
0 0 254
0 0 255
0 0 254
0 0 253
0 0 255
0 0 255
0 0 254
0 0 252
0 0 253
0 0 255
0 0 253
0 0 253
0 0 254
0 0 254
0 0 250
0 0 254
0 0 255
0 0 254
0 0 253
0 0 252
0 0 250
0 0 254
0 0 249
0 0 253
0 0 253
0 0 252
0 0 254
0 0 255
0 0 249
0 0 253
0 0 252
0 0 248
0 0 254
0 0 250
0 0 253
0 0 254
0 0 252
0 0 254
0 0 250
0 0 252
0 0 255
0 0 254
0 0 249
0 0 253
0 0 252
0 0 250
0 0 249
0 0 253
0 0 254
0 0 252
89 100 254
166 187 253
199 223 255
199 223 255
199 223 255
198 223 255
198 223 255
198 223 255
198 223 255
198 223 255
198 223 255
198 223 255
198 223 255
198 223 255
198 223 255
198 223 255
198 223 255
198 223 255
198 223 255
198 223 255
198 223 255
198 223 255
197 223 255
197 222 255
197 222 255
197 222 255
197 222 255
197 222 255
197 222 255
197 222 255
197 222 255
197 222 255
197 222 255
197 222 255
197 222 255
197 222 255
197 222 255
197 222 255
197 222 255
197 222 255
197 222 255
197 222 255
197 222 255
197 222 255
196 222 255
196 222 255
196 222 255
196 222 255
196 222 255
196 222 255
196 222 255
196 222 255
196 222 255
196 222 255
196 222 255
196 222 255
196 222 255
196 222 255
196 222 255
196 222 255
196 222 255
196 222 255
196 222 255
196 222 255
196 222 255
196 222 255
196 222 255
196 222 255
196 222 255
196 222 255
196 222 255
196 222 255
196 222 255
196 222 255
196 222 255
196 222 255
196 222 255
196 222 255
196 222 255
196 222 255
196 222 255
196 222 255
196 222 255
196 222 255
196 222 255
196 222 255
196 222 255
196 222 255
196 222 255
196 222 255
196 222 255
196 222 255
196 222 255
196 222 255
196 222 255
196 222 255
196 222 255
196 222 255
196 222 255
196 222 255
196 222 255
196 222 255
196 222 255
196 222 255
196 222 255
196 222 255
197 222 255
197 222 255
197 222 255
197 222 255
197 222 255
197 222 255
197 222 255
197 222 255
197 222 255
197 222 255
197 222 255
197 222 255
197 222 255
197 222 255
197 222 255
197 222 255
197 222 255
197 222 255
197 222 255
197 222 255
197 222 255
197 223 255
198 223 255
198 223 255
198 223 255
198 223 255
198 223 255
198 223 255
198 223 255
198 223 255
198 223 255
198 223 255
198 223 255
198 223 255
198 223 255
198 223 255
198 223 255
198 223 255
198 223 255
199 223 255
199 223 255
199 222 254
199 177 203
197 80 92
196 0 0
195 0 0
201 0 0
199 0 0
197 0 0
199 0 0
198 0 0
198 0 0
201 0 0
204 0 0
200 0 0
203 0 0
202 0 0
198 0 0
202 0 0
201 0 0
200 0 0
200 0 0
206 0 0
205 0 0
204 0 0
204 0 0
205 0 0
204 0 0
202 0 0
202 0 0
207 0 0
202 0 0
208 0 0
201 0 0
205 0 0
203 0 0
208 0 0
206 0 0
208 0 0
206 0 0
205 0 0
203 0 0
202 0 0
205 0 0
203 0 0
204 0 0
205 0 0
205 0 0
209 0 0
207 0 0
206 0 0
205 0 0
207 0 0
208 0 0
207 0 0
205 0 0
206 0 0
204 0 0
204 0 0
208 0 0
204 0 0
208 0 0
212 0 0
209 0 0
210 0 0
207 0 0
210 0 0
209 0 0
206 0 0
205 0 0
206 0 0
204 0 0
207 0 0
209 0 0
209 0 0
203 0 0
206 0 0
207 0 0
209 0 0
209 0 0
211 0 0
209 0 0
207 0 0
212 0 0
208 0 0
210 0 0
209 0 0
211 0 0
210 0 0
207 0 0
208 0 0
207 0 0
212 0 0
207 0 0
208 0 0
208 0 0
210 0 0
209 0 0
208 0 0
209 0 0
212 0 0
209 0 0
208 0 0
209 0 0
211 0 0
209 0 0
212 0 0
210 0 0
209 0 0
212 0 0
212 0 0
212 0 0
206 0 0
210 0 0
211 0 0
210 0 0
209 0 0
211 0 0
212 0 0
210 0 0
211 0 0
211 0 0
211 0 0
208 0 0
208 0 0
208 0 0
209 0 0
212 0 0
211 0 0
0 0 255
0 0 255
0 0 255
0 0 255
0 0 255
0 0 255
0 0 255
0 0 255
0 0 255
0 0 255
0 0 255
0 0 255
0 0 255
0 0 255
0 0 254
0 0 255
0 0 255
0 0 255
0 0 255
0 0 255
0 0 255
0 0 254
0 0 255
0 0 255
0 0 255
0 0 255
0 0 255
0 0 255
0 0 255
0 0 255
0 0 254
0 0 254
0 0 255
0 0 255
0 0 254
0 0 255
0 0 255
0 0 255
0 0 255
0 0 255
0 0 253
0 0 255
0 0 252
0 0 254
0 0 255
0 0 253
0 0 254
0 0 253
0 0 255
0 0 255
0 0 255
0 0 252
0 0 254
0 0 255
0 0 255
0 0 253
0 0 255
0 0 254
0 0 255
0 0 255
0 0 254
0 0 255
0 0 255
0 0 255
0 0 255
0 0 254
0 0 255
0 0 255
0 0 254
0 0 254
0 0 254
0 0 255
0 0 254
0 0 252
0 0 254
0 0 255
0 0 253
0 0 252
0 0 254
0 0 254
0 0 252
0 0 254
0 0 253
0 0 253
0 0 254
0 0 254
0 0 253
0 0 253
0 0 253
0 0 252
0 0 255
0 0 254
0 0 255
0 0 252
0 0 253
0 0 252
0 0 253
0 0 252
0 0 255
0 0 254
0 0 253
0 0 252
0 0 254
0 0 248
0 0 250
0 0 254
0 0 254
0 0 253
0 0 250
0 0 253
0 0 253
0 0 254
0 0 250
0 0 249
0 0 253
0 0 249
0 0 252
0 0 254
0 0 252
0 0 253
0 0 253
0 0 252
0 0 250
0 0 252
0 0 253
0 0 252
0 0 254
59 67 254
151 170 254
196 220 255
199 223 255
199 223 255
199 223 255
198 223 255
198 223 255
198 223 255
198 223 255
198 223 255
198 223 255
198 223 255
198 223 255
198 223 255
198 223 255
198 223 255
198 223 255
198 223 255
198 223 255
198 223 255
198 223 255
198 223 255
197 223 255
197 222 255
197 222 255
197 222 255
197 222 255
197 222 255
197 222 255
197 222 255
197 222 255
197 222 255
197 222 255
197 222 255
197 222 255
197 222 255
197 222 255
197 222 255
197 222 255
197 222 255
197 222 255
197 222 255
197 222 255
197 222 255
197 222 255
197 222 255
196 222 255
196 222 255
196 222 255
196 222 255
196 222 255
196 222 255
196 222 255
196 222 255
196 222 255
196 222 255
196 222 255
196 222 255
196 222 255
196 222 255
196 222 255
196 222 255
196 222 255
196 222 255
196 222 255
196 222 255
196 222 255
196 222 255
196 222 255
196 222 255
196 222 255
196 222 255
196 222 255
196 222 255
196 222 255
196 222 255
196 222 255
196 222 255
196 222 255
196 222 255
196 222 255
196 222 255
196 222 255
196 222 255
196 222 255
196 222 255
196 222 255
196 222 255
196 222 255
196 222 255
196 222 255
196 222 255
196 222 255
196 222 255
196 222 255
196 222 255
196 222 255
196 222 255
197 222 255
197 222 255
197 222 255
197 222 255
197 222 255
197 222 255
197 222 255
197 222 255
197 222 255
197 222 255
197 222 255
197 222 255
197 222 255
197 222 255
197 222 255
197 222 255
197 222 255
197 222 255
197 222 255
197 222 255
197 222 255
197 222 255
197 222 255
197 223 255
198 223 255
198 223 255
198 223 255
198 223 255
198 223 255
198 223 255
198 223 255
198 223 255
198 223 255
198 223 255
198 223 255
198 223 255
198 223 255
198 223 255
198 223 255
198 223 255
198 223 255
199 223 255
199 223 255
199 223 255
199 221 253
202 165 189
198 80 92
198 0 0
199 0 0
202 0 0
202 0 0
201 0 0
198 0 0
199 0 0
201 0 0
202 0 0
199 0 0
198 0 0
198 0 0
197 0 0
204 0 0
201 0 0
203 0 0
200 0 0
204 0 0
201 0 0
203 0 0
203 0 0
202 0 0
202 0 0
201 0 0
207 0 0
205 0 0
203 0 0
205 0 0
203 0 0
204 0 0
202 0 0
206 0 0
202 0 0
204 0 0
202 0 0
207 0 0
206 0 0
207 0 0
202 0 0
203 0 0
204 0 0
207 0 0
208 0 0
204 0 0
208 0 0
204 0 0
205 0 0
206 0 0
208 0 0
207 0 0
212 0 0
207 0 0
209 0 0
208 0 0
209 0 0
206 0 0
211 0 0
208 0 0
206 0 0
207 0 0
207 0 0
209 0 0
210 0 0
210 0 0
207 0 0
210 0 0
208 0 0
205 0 0
211 0 0
205 0 0
207 0 0
209 0 0
207 0 0
204 0 0
209 0 0
206 0 0
211 0 0
208 0 0
209 0 0
209 0 0
211 0 0
209 0 0
210 0 0
209 0 0
209 0 0
211 0 0
211 0 0
210 0 0
208 0 0
206 0 0
208 0 0
207 0 0
206 0 0
209 0 0
210 0 0
208 0 0
207 0 0
209 0 0
207 0 0
208 0 0
209 0 0
209 0 0
212 0 0
207 0 0
213 0 0
209 0 0
207 0 0
211 0 0
211 0 0
212 0 0
208 0 0
209 0 0
211 0 0
209 0 0
208 0 0
210 0 0
211 0 0
212 0 0
211 0 0
208 0 0
212 0 0
211 0 0
211 0 0
210 0 0
213 0 0
209 0 0
211 0 0
0 0 255
0 0 255
0 0 255
0 0 255
0 0 255
0 0 255
0 0 255
0 0 255
0 0 255
0 0 255
0 0 255
0 0 255
0 0 255
0 0 255
0 0 255
0 0 255
0 0 255
0 0 255
0 0 254
0 0 255
0 0 255
0 0 254
0 0 255
0 0 255
0 0 254
0 0 255
0 0 255
0 0 255
0 0 255
0 0 255
0 0 255
0 0 253
0 0 254
0 0 255
0 0 254
0 0 255
0 0 255
0 0 255
0 0 254
0 0 255
0 0 255
0 0 254
0 0 255
0 0 254
0 0 255
0 0 255
0 0 254
0 0 253
0 0 255
0 0 255
0 0 254
0 0 254
0 0 255
0 0 254
0 0 254
0 0 254
0 0 255
0 0 254
0 0 255
0 0 254
0 0 254
0 0 253
0 0 254
0 0 255
0 0 252
0 0 255
0 0 255
0 0 254
0 0 255
0 0 253
0 0 255
0 0 253
0 0 254
0 0 253
0 0 254
0 0 255
0 0 253
0 0 252
0 0 254
0 0 254
0 0 254
0 0 253
0 0 253
0 0 255
0 0 254
0 0 252
0 0 253
0 0 253
0 0 254
0 0 254
0 0 253
0 0 250
0 0 253
0 0 253
0 0 254
0 0 254
0 0 254
0 0 254
0 0 254
0 0 253
0 0 253
0 0 252
0 0 254
0 0 253
0 0 252
0 0 253
0 0 254
0 0 252
0 0 254
0 0 254
0 0 253
0 0 248
0 0 252
0 0 250
0 0 252
0 0 253
0 0 252
0 0 254
0 0 253
0 0 252
0 0 252
0 0 253
0 0 254
0 0 250
0 0 253
0 0 250
0 0 253
0 0 253
0 0 250
56 63 253
140 158 252
192 215 255
199 223 255
199 223 255
199 223 255
199 223 255
198 223 255
198 223 255
198 223 255
198 223 255
198 223 255
198 223 255
198 223 255
198 223 255
198 223 255
198 223 255
198 223 255
198 223 255
198 223 255
198 223 255
198 223 255
198 223 255
198 223 255
198 223 255
197 222 255
197 222 255
197 222 255
197 222 255
197 222 255
197 222 255
197 222 255
197 222 255
197 222 255
197 222 255
197 222 255
197 222 255
197 222 255
197 222 255
197 222 255
197 222 255
197 222 255
197 222 255
197 222 255
197 222 255
197 222 255
197 222 255
197 222 255
197 222 255
197 222 255
197 222 255
196 222 255
196 222 255
196 222 255
196 222 255
196 222 255
196 222 255
196 222 255
196 222 255
196 222 255
196 222 255
196 222 255
196 222 255
196 222 255
196 222 255
196 222 255
196 222 255
196 222 255
196 222 255
196 222 255
196 222 255
196 222 255
196 222 255
196 222 255
196 222 255
196 222 255
196 222 255
196 222 255
196 222 255
196 222 255
196 222 255
196 222 255
196 222 255
196 222 255
196 222 255
196 222 255
196 222 255
196 222 255
196 222 255
196 222 255
196 222 255
197 222 255
197 222 255
197 222 255
197 222 255
197 222 255
197 222 255
197 222 255
197 222 255
197 222 255
197 222 255
197 222 255
197 222 255
197 222 255
197 222 255
197 222 255
197 222 255
197 222 255
197 222 255
197 222 255
197 222 255
197 222 255
197 222 255
197 222 255
197 222 255
197 222 255
197 222 255
197 223 255
198 223 255
198 223 255
198 223 255
198 223 255
198 223 255
198 223 255
198 223 255
198 223 255
198 223 255
198 223 255
198 223 255
198 223 255
198 223 255
198 223 255
198 223 255
198 223 255
198 223 255
198 223 255
199 223 255
199 223 255
199 223 255
199 220 252
197 153 175
201 63 72
196 0 0
198 0 0
193 0 0
198 0 0
201 0 0
201 0 0
199 0 0
202 0 0
205 0 0
202 0 0
203 0 0
203 0 0
199 0 0
201 0 0
202 0 0
201 0 0
207 0 0
205 0 0
207 0 0
203 0 0
205 0 0
204 0 0
204 0 0
201 0 0
205 0 0
202 0 0
202 0 0
203 0 0
205 0 0
206 0 0
200 0 0
207 0 0
207 0 0
204 0 0
209 0 0
209 0 0
207 0 0
205 0 0
205 0 0
206 0 0
206 0 0
206 0 0
206 0 0
205 0 0
205 0 0
208 0 0
206 0 0
206 0 0
208 0 0
202 0 0
210 0 0
205 0 0
210 0 0
208 0 0
208 0 0
209 0 0
208 0 0
208 0 0
206 0 0
206 0 0
206 0 0
208 0 0
207 0 0
209 0 0
208 0 0
207 0 0
210 0 0
203 0 0
208 0 0
211 0 0
206 0 0
205 0 0
205 0 0
211 0 0
206 0 0
209 0 0
206 0 0
212 0 0
208 0 0
210 0 0
206 0 0
212 0 0
209 0 0
209 0 0
210 0 0
210 0 0
206 0 0
208 0 0
211 0 0
211 0 0
208 0 0
208 0 0
210 0 0
208 0 0
207 0 0
210 0 0
209 0 0
213 0 0
210 0 0
210 0 0
210 0 0
208 0 0
210 0 0
212 0 0
214 0 0
212 0 0
210 0 0
211 0 0
210 0 0
210 0 0
208 0 0
212 0 0
210 0 0
211 0 0
211 0 0
213 0 0
211 0 0
210 0 0
210 0 0
211 0 0
210 0 0
208 0 0
209 0 0
209 0 0
210 0 0
212 0 0
211 0 0
206 0 0
213 0 0
0 0 255
0 0 255
0 0 255
0 0 255
0 0 255
0 0 255
0 0 255
0 0 255
0 0 255
0 0 255
0 0 254
0 0 255
0 0 255
0 0 255
0 0 254
0 0 255
0 0 255
0 0 255
0 0 255
0 0 255
0 0 254
0 0 255
0 0 255
0 0 255
0 0 255
0 0 255
0 0 254
0 0 255
0 0 254
0 0 254
0 0 255
0 0 254
0 0 255
0 0 255
0 0 255
0 0 255
0 0 255
0 0 255
0 0 255
0 0 255
0 0 255
0 0 254
0 0 255
0 0 255
0 0 255
0 0 254
0 0 254
0 0 255
0 0 255
0 0 254
0 0 254
0 0 255
0 0 253
0 0 254
0 0 255
0 0 255
0 0 255
0 0 254
0 0 254
0 0 254
0 0 252
0 0 255
0 0 252
0 0 255
0 0 255
0 0 253
0 0 254
0 0 255
0 0 254
0 0 252
0 0 253
0 0 255
0 0 253
0 0 255
0 0 253
0 0 254
0 0 252
0 0 254
0 0 254
0 0 255
0 0 253
0 0 255
0 0 255
0 0 248
0 0 254
0 0 254
0 0 255
0 0 255
0 0 253
0 0 249
0 0 254
0 0 250
0 0 249
0 0 255
0 0 254
0 0 254
0 0 249
0 0 255
0 0 254
0 0 254
0 0 253
0 0 254
0 0 252
0 0 253
0 0 253
0 0 250
0 0 250
0 0 246
0 0 254
0 0 253
0 0 253
0 0 250
0 0 252
0 0 253
0 0 249
0 0 254
0 0 254
0 0 253
0 0 250
0 0 250
0 0 252
0 0 250
0 0 250
0 0 254
0 0 255
0 0 249
0 0 244
0 0 252
0 0 252
0 0 254
0 0 254
59 67 249
143 161 254
194 218 255
199 223 255
199 223 255
199 223 255
199 223 255
199 223 255
198 223 255
198 223 255
198 223 255
198 223 255
198 223 255
198 223 255
198 223 255
198 223 255
198 223 255
198 223 255
198 223 255
198 223 255
198 223 255
198 223 255
198 223 255
198 223 255
198 223 255
198 223 255
197 223 255
197 222 255
197 222 255
197 222 255
197 222 255
197 222 255
197 222 255
197 222 255
197 222 255
197 222 255
197 222 255
197 222 255
197 222 255
197 222 255
197 222 255
197 222 255
197 222 255
197 222 255
197 222 255
197 222 255
197 222 255
197 222 255
197 222 255
197 222 255
197 222 255
197 222 255
197 222 255
197 222 255
197 222 255
197 222 255
197 222 255
197 222 255
196 222 255
196 222 255
196 222 255
196 222 255
196 222 255
196 222 255
196 222 255
196 222 255
196 222 255
196 222 255
196 222 255
196 222 255
196 222 255
196 222 255
196 222 255
196 222 255
196 222 255
196 222 255
196 222 255
196 222 255
196 222 255
196 222 255
197 222 255
197 222 255
197 222 255
197 222 255
197 222 255
197 222 255
197 222 255
197 222 255
197 222 255
197 222 255
197 222 255
197 222 255
197 222 255
197 222 255
197 222 255
197 222 255
197 222 255
197 222 255
197 222 255
197 222 255
197 222 255
197 222 255
197 222 255
197 222 255
197 222 255
197 222 255
197 222 255
197 222 255
197 222 255
197 222 255
197 222 255
197 223 255
198 223 255
198 223 255
198 223 255
198 223 255
198 223 255
198 223 255
198 223 255
198 223 255
198 223 255
198 223 255
198 223 255
198 223 255
198 223 255
198 223 255
198 223 255
198 223 255
198 223 255
198 223 255
198 223 255
199 223 255
199 223 255
199 223 255
199 223 255
199 211 241
198 146 167
199 54 62
200 0 0
199 0 0
198 0 0
197 0 0
199 0 0
204 0 0
198 0 0
204 0 0
198 0 0
204 0 0
199 0 0
197 0 0
202 0 0
200 0 0
199 0 0
202 0 0
202 0 0
201 0 0
202 0 0
201 0 0
205 0 0
204 0 0
198 0 0
204 0 0
199 0 0
206 0 0
203 0 0
203 0 0
204 0 0
203 0 0
202 0 0
204 0 0
201 0 0
206 0 0
206 0 0
210 0 0
206 0 0
203 0 0
205 0 0
206 0 0
204 0 0
207 0 0
202 0 0
205 0 0
202 0 0
205 0 0
205 0 0
208 0 0
205 0 0
206 0 0
209 0 0
206 0 0
206 0 0
206 0 0
210 0 0
205 0 0
206 0 0
207 0 0
206 0 0
207 0 0
206 0 0
208 0 0
206 0 0
208 0 0
208 0 0
206 0 0
206 0 0
214 0 0
210 0 0
209 0 0
210 0 0
208 0 0
208 0 0
203 0 0
209 0 0
209 0 0
212 0 0
209 0 0
210 0 0
204 0 0
209 0 0
211 0 0
212 0 0
208 0 0
210 0 0
206 0 0
208 0 0
211 0 0
208 0 0
215 0 0
209 0 0
209 0 0
206 0 0
209 0 0
210 0 0
207 0 0
209 0 0
208 0 0
210 0 0
213 0 0
214 0 0
212 0 0
208 0 0
212 0 0
210 0 0
211 0 0
214 0 0
214 0 0
211 0 0
208 0 0
207 0 0
209 0 0
214 0 0
213 0 0
213 0 0
212 0 0
207 0 0
209 0 0
211 0 0
210 0 0
209 0 0
212 0 0
213 0 0
210 0 0
208 0 0
211 0 0
214 0 0
211 0 0
209 0 0
208 0 0
210 0 0
0 0 255
0 0 255
0 0 255
0 0 255
0 0 255
0 0 255
0 0 255
0 0 255
0 0 255
0 0 254
0 0 255
0 0 255
0 0 255
0 0 255
0 0 255
0 0 255
0 0 255
0 0 255
0 0 255
0 0 255
0 0 255
0 0 255
0 0 255
0 0 255
0 0 255
0 0 255
0 0 255
0 0 254
0 0 255
0 0 255
0 0 255
0 0 255
0 0 255
0 0 255
0 0 254
0 0 255
0 0 254
0 0 255
0 0 255
0 0 255
0 0 255
0 0 255
0 0 255
0 0 253
0 0 255
0 0 254
0 0 255
0 0 255
0 0 255
0 0 255
0 0 254
0 0 255
0 0 255
0 0 253
0 0 255
0 0 255
0 0 255
0 0 254
0 0 254
0 0 253
0 0 253
0 0 255
0 0 253
0 0 254
0 0 255
0 0 252
0 0 254
0 0 255
0 0 255
0 0 253
0 0 254
0 0 253
0 0 253
0 0 254
0 0 252
0 0 254
0 0 253
0 0 253
0 0 254
0 0 255
0 0 255
0 0 255
0 0 252
0 0 254
0 0 254
0 0 254
0 0 254
0 0 253
0 0 254
0 0 253
0 0 252
0 0 253
0 0 250
0 0 255
0 0 255
0 0 252
0 0 252
0 0 249
0 0 253
0 0 252
0 0 249
0 0 253
0 0 252
0 0 253
0 0 252
0 0 246
0 0 248
0 0 252
0 0 250
0 0 252
0 0 253
0 0 248
0 0 250
0 0 252
0 0 248
0 0 253
0 0 253
0 0 254
0 0 249
0 0 248
0 0 252
0 0 249
0 0 250
0 0 252
0 0 248
0 0 250
0 0 253
0 0 254
0 0 249
0 0 250
0 0 250
0 0 250
0 0 250
48 54 252
138 155 255
194 218 254
199 223 255
199 223 255
199 223 255
199 223 255
199 223 255
198 223 255
198 223 255
198 223 255
198 223 255
198 223 255
198 223 255
198 223 255
198 223 255
198 223 255
198 223 255
198 223 255
198 223 255
198 223 255
198 223 255
198 223 255
198 223 255
198 223 255
198 223 255
198 223 255
198 223 255
197 222 255
197 222 255
197 222 255
197 222 255
197 222 255
197 222 255
197 222 255
197 222 255
197 222 255
197 222 255
197 222 255
197 222 255
197 222 255
197 222 255
197 222 255
197 222 255
197 222 255
197 222 255
197 222 255
197 222 255
197 222 255
197 222 255
197 222 255
197 222 255
197 222 255
197 222 255
197 222 255
197 222 255
197 222 255
197 222 255
197 222 255
197 222 255
197 222 255
197 222 255
197 222 255
197 222 255
197 222 255
197 222 255
197 222 255
197 222 255
197 222 255
197 222 255
197 222 255
197 222 255
197 222 255
197 222 255
197 222 255
197 222 255
197 222 255
197 222 255
197 222 255
197 222 255
197 222 255
197 222 255
197 222 255
197 222 255
197 222 255
197 222 255
197 222 255
197 222 255
197 222 255
197 222 255
197 222 255
197 222 255
197 222 255
197 222 255
197 222 255
197 222 255
197 222 255
197 222 255
197 222 255
197 222 255
197 222 255
197 222 255
197 222 255
197 222 255
197 222 255
197 223 255
198 223 255
198 223 255
198 223 255
198 223 255
198 223 255
198 223 255
198 223 255
198 223 255
198 223 255
198 223 255
198 223 255
198 223 255
198 223 255
198 223 255
198 223 255
198 223 255
198 223 255
198 223 255
198 223 255
198 223 255
199 223 255
199 223 255
199 223 255
199 223 255
199 223 255
199 218 249
197 164 188
198 54 62
200 0 0
199 0 0
198 0 0
195 0 0
195 0 0
198 0 0
197 0 0
202 0 0
200 0 0
197 0 0
200 0 0
202 0 0
204 0 0
203 0 0
201 0 0
204 0 0
201 0 0
201 0 0
200 0 0
199 0 0
200 0 0
204 0 0
200 0 0
203 0 0
205 0 0
199 0 0
205 0 0
202 0 0
206 0 0
207 0 0
202 0 0
202 0 0
201 0 0
211 0 0
206 0 0
204 0 0
206 0 0
203 0 0
209 0 0
205 0 0
206 0 0
205 0 0
205 0 0
209 0 0
206 0 0
206 0 0
207 0 0
206 0 0
208 0 0
205 0 0
204 0 0
209 0 0
210 0 0
205 0 0
205 0 0
206 0 0
206 0 0
205 0 0
205 0 0
207 0 0
207 0 0
211 0 0
208 0 0
209 0 0
207 0 0
208 0 0
210 0 0
206 0 0
207 0 0
209 0 0
208 0 0
209 0 0
206 0 0
206 0 0
208 0 0
208 0 0
213 0 0
211 0 0
209 0 0
211 0 0
206 0 0
205 0 0
209 0 0
206 0 0
210 0 0
210 0 0
208 0 0
209 0 0
206 0 0
210 0 0
209 0 0
206 0 0
209 0 0
210 0 0
209 0 0
211 0 0
214 0 0
207 0 0
208 0 0
211 0 0
211 0 0
209 0 0
210 0 0
208 0 0
212 0 0
210 0 0
209 0 0
211 0 0
209 0 0
209 0 0
210 0 0
210 0 0
212 0 0
208 0 0
212 0 0
211 0 0
209 0 0
210 0 0
210 0 0
211 0 0
210 0 0
212 0 0
213 0 0
209 0 0
210 0 0
212 0 0
212 0 0
214 0 0
209 0 0
212 0 0
210 0 0
213 0 0
208 0 0
0 0 254
0 0 255
0 0 255
0 0 255
0 0 255
0 0 255
0 0 255
0 0 255
0 0 255
0 0 255
0 0 255
0 0 255
0 0 255
0 0 255
0 0 255
0 0 255
0 0 255
0 0 255
0 0 255
0 0 255
0 0 254
0 0 255
0 0 255
0 0 254
0 0 254
0 0 254
0 0 254
0 0 255
0 0 255
0 0 255
0 0 255
0 0 255
0 0 255
0 0 255
0 0 255
0 0 255
0 0 254
0 0 254
0 0 255
0 0 255
0 0 253
0 0 253
0 0 255
0 0 254
0 0 255
0 0 255
0 0 253
0 0 254
0 0 255
0 0 254
0 0 255
0 0 255
0 0 255
0 0 255
0 0 255
0 0 252
0 0 255
0 0 255
0 0 255
0 0 254
0 0 254
0 0 254
0 0 255
0 0 255
0 0 255
0 0 255
0 0 254
0 0 252
0 0 254
0 0 250
0 0 254
0 0 253
0 0 252
0 0 255
0 0 254
0 0 252
0 0 254
0 0 253
0 0 250
0 0 254
0 0 254
0 0 254
0 0 254
0 0 253
0 0 253
0 0 255
0 0 252
0 0 254
0 0 246
0 0 253
0 0 254
0 0 254
0 0 254
0 0 253
0 0 253
0 0 255
0 0 255
0 0 253
0 0 253
0 0 252
0 0 252
0 0 254
0 0 255
0 0 250
0 0 254
0 0 253
0 0 253
0 0 252
0 0 253
0 0 254
0 0 255
0 0 253
0 0 254
0 0 253
0 0 252
0 0 253
0 0 255
0 0 249
0 0 253
0 0 252
0 0 250
0 0 254
0 0 252
0 0 250
0 0 248
0 0 253
0 0 252
0 0 249
0 0 252
0 0 248
0 0 250
0 0 252
0 0 249
0 0 252
0 0 252
56 63 255
142 159 255
196 220 254
199 223 255
199 223 255
199 223 255
199 223 255
199 223 255
199 223 255
199 223 255
198 223 255
198 223 255
198 223 255
198 223 255
198 223 255
198 223 255
198 223 255
198 223 255
198 223 255
198 223 255
198 223 255
198 223 255
198 223 255
198 223 255
198 223 255
198 223 255
198 223 255
198 223 255
198 223 255
198 223 255
197 223 255
197 222 255
197 222 255
197 222 255
197 222 255
197 222 255
197 222 255
197 222 255
197 222 255
197 222 255
197 222 255
197 222 255
197 222 255
197 222 255
197 222 255
197 222 255
197 222 255
197 222 255
197 222 255
197 222 255
197 222 255
197 222 255
197 222 255
197 222 255
197 222 255
197 222 255
197 222 255
197 222 255
197 222 255
197 222 255
197 222 255
197 222 255
197 222 255
197 222 255
197 222 255
197 222 255
197 222 255
197 222 255
197 222 255
197 222 255
197 222 255
197 222 255
197 222 255
197 222 255
197 222 255
197 222 255
197 222 255
197 222 255
197 222 255
197 222 255
197 222 255
197 222 255
197 222 255
197 222 255
197 222 255
197 222 255
197 222 255
197 222 255
197 222 255
197 222 255
197 222 255
197 222 255
197 222 255
197 222 255
197 222 255
197 222 255
197 222 255
197 222 255
197 222 255
197 223 255
198 223 255
198 223 255
198 223 255
198 223 255
198 223 255
198 223 255
198 223 255
198 223 255
198 223 255
198 223 255
198 223 255
198 223 255
198 223 255
198 223 255
198 223 255
198 223 255
198 223 255
198 223 255
198 223 255
198 223 255
198 223 255
199 223 255
199 223 255
199 223 255
199 223 255
199 223 255
199 223 255
199 221 253
199 165 189
197 74 84
191 0 0
196 0 0
199 0 0
200 0 0
200 0 0
198 0 0
196 0 0
200 0 0
199 0 0
203 0 0
200 0 0
199 0 0
197 0 0
207 0 0
203 0 0
204 0 0
200 0 0
200 0 0
201 0 0
202 0 0
206 0 0
205 0 0
202 0 0
206 0 0
203 0 0
206 0 0
208 0 0
202 0 0
203 0 0
204 0 0
204 0 0
201 0 0
205 0 0
206 0 0
203 0 0
207 0 0
205 0 0
204 0 0
209 0 0
206 0 0
209 0 0
206 0 0
207 0 0
206 0 0
210 0 0
206 0 0
207 0 0
200 0 0
208 0 0
204 0 0
208 0 0
203 0 0
207 0 0
209 0 0
204 0 0
205 0 0
206 0 0
208 0 0
209 0 0
206 0 0
206 0 0
209 0 0
208 0 0
210 0 0
209 0 0
209 0 0
211 0 0
209 0 0
209 0 0
207 0 0
207 0 0
207 0 0
203 0 0
208 0 0
212 0 0
210 0 0
206 0 0
211 0 0
210 0 0
207 0 0
212 0 0
210 0 0
208 0 0
208 0 0
204 0 0
206 0 0
211 0 0
212 0 0
207 0 0
208 0 0
207 0 0
208 0 0
207 0 0
212 0 0
209 0 0
211 0 0
213 0 0
208 0 0
211 0 0
213 0 0
210 0 0
209 0 0
207 0 0
208 0 0
210 0 0
212 0 0
207 0 0
213 0 0
209 0 0
212 0 0
211 0 0
208 0 0
215 0 0
209 0 0
210 0 0
211 0 0
208 0 0
212 0 0
214 0 0
209 0 0
209 0 0
210 0 0
213 0 0
212 0 0
212 0 0
210 0 0
207 0 0
213 0 0
209 0 0
212 0 0
213 0 0
212 0 0
209 0 0
210 0 0
212 0 0
0 0 255
0 0 255
0 0 255
0 0 255
0 0 255
0 0 255
0 0 255
0 0 255
0 0 253
0 0 255
0 0 255
0 0 254
0 0 255
0 0 254
0 0 255
0 0 255
0 0 254
0 0 255
0 0 255
0 0 255
0 0 254
0 0 255
0 0 255
0 0 254
0 0 255
0 0 253
0 0 255
0 0 255
0 0 255
0 0 254
0 0 255
0 0 254
0 0 255
0 0 255
0 0 255
0 0 255
0 0 255
0 0 255
0 0 255
0 0 254
0 0 254
0 0 255
0 0 254
0 0 255
0 0 250
0 0 253
0 0 255
0 0 255
0 0 254
0 0 254
0 0 254
0 0 253
0 0 255
0 0 254
0 0 254
0 0 255
0 0 254
0 0 254
0 0 254
0 0 253
0 0 255
0 0 254
0 0 253
0 0 254
0 0 254
0 0 253
0 0 255
0 0 255
0 0 254
0 0 255
0 0 255
0 0 254
0 0 255
0 0 255
0 0 254
0 0 253
0 0 254
0 0 254
0 0 254
0 0 254
0 0 253
0 0 255
0 0 254
0 0 249
0 0 255
0 0 254
0 0 254
0 0 252
0 0 252
0 0 252
0 0 249
0 0 253
0 0 255
0 0 253
0 0 253
0 0 254
0 0 250
0 0 253
0 0 252
0 0 254
0 0 254
0 0 255
0 0 252
0 0 254
0 0 252
0 0 252
0 0 250
0 0 253
0 0 252
0 0 249
0 0 252
0 0 252
0 0 254
0 0 250
0 0 252
0 0 252
0 0 255
0 0 248
0 0 254
0 0 248
0 0 245
0 0 252
0 0 250
0 0 250
0 0 253
0 0 253
0 0 248
0 0 249
0 0 252
0 0 253
0 0 253
0 0 246
0 0 246
0 0 249
0 0 252
0 0 252
0 0 250
71 80 252
169 189 253
198 222 255
199 223 255
199 223 255
199 223 255
199 223 255
199 223 255
199 223 255
199 223 255
199 223 255
198 223 255
198 223 255
198 223 255
198 223 255
198 223 255
198 223 255
198 223 255
198 223 255
198 223 255
198 223 255
198 223 255
198 223 255
198 223 255
198 223 255
198 223 255
198 223 255
198 223 255
198 223 255
198 223 255
198 223 255
198 223 255
198 223 255
197 223 255
197 222 255
197 222 255
197 222 255
197 222 255
197 222 255
197 222 255
197 222 255
197 222 255
197 222 255
197 222 255
197 222 255
197 222 255
197 222 255
197 222 255
197 222 255
197 222 255
197 222 255
197 222 255
197 222 255
197 222 255
197 222 255
197 222 255
197 222 255
197 222 255
197 222 255
197 222 255
197 222 255
197 222 255
197 222 255
197 222 255
197 222 255
197 222 255
197 222 255
197 222 255
197 222 255
197 222 255
197 222 255
197 222 255
197 222 255
197 222 255
197 222 255
197 222 255
197 222 255
197 222 255
197 222 255
197 222 255
197 222 255
197 222 255
197 222 255
197 222 255
197 222 255
197 222 255
197 222 255
197 222 255
197 222 255
197 222 255
197 222 255
197 222 255
197 223 255
198 223 255
198 223 255
198 223 255
198 223 255
198 223 255
198 223 255
198 223 255
198 223 255
198 223 255
198 223 255
198 223 255
198 223 255
198 223 255
198 223 255
198 223 255
198 223 255
198 223 255
198 223 255
198 223 255
198 223 255
198 223 255
198 223 255
199 223 255
199 223 255
199 223 255
199 223 255
199 223 255
199 223 255
199 223 255
199 223 255
199 223 255
198 184 211
196 86 99
199 0 0
193 0 0
195 0 0
193 0 0
196 0 0
197 0 0
201 0 0
200 0 0
200 0 0
196 0 0
195 0 0
197 0 0
204 0 0
203 0 0
205 0 0
199 0 0
197 0 0
205 0 0
204 0 0
202 0 0
203 0 0
203 0 0
201 0 0
204 0 0
205 0 0
201 0 0
203 0 0
200 0 0
204 0 0
203 0 0
204 0 0
207 0 0
202 0 0
203 0 0
204 0 0
203 0 0
207 0 0
207 0 0
203 0 0
203 0 0
204 0 0
203 0 0
205 0 0
208 0 0
204 0 0
207 0 0
205 0 0
207 0 0
207 0 0
202 0 0
206 0 0
210 0 0
206 0 0
205 0 0
204 0 0
206 0 0
209 0 0
207 0 0
211 0 0
206 0 0
209 0 0
207 0 0
205 0 0
206 0 0
209 0 0
212 0 0
207 0 0
207 0 0
207 0 0
208 0 0
206 0 0
206 0 0
208 0 0
207 0 0
207 0 0
209 0 0
211 0 0
209 0 0
209 0 0
210 0 0
205 0 0
210 0 0
211 0 0
207 0 0
214 0 0
209 0 0
212 0 0
210 0 0
213 0 0
213 0 0
208 0 0
212 0 0
209 0 0
210 0 0
208 0 0
211 0 0
209 0 0
213 0 0
208 0 0
209 0 0
209 0 0
212 0 0
208 0 0
212 0 0
214 0 0
208 0 0
211 0 0
211 0 0
209 0 0
209 0 0
209 0 0
210 0 0
212 0 0
212 0 0
212 0 0
210 0 0
207 0 0
211 0 0
209 0 0
211 0 0
210 0 0
210 0 0
207 0 0
211 0 0
209 0 0
211 0 0
208 0 0
214 0 0
215 0 0
210 0 0
209 0 0
212 0 0
208 0 0
212 0 0
210 0 0
211 0 0
215 0 0
0 0 255
0 0 255
0 0 255
0 0 255
0 0 255
0 0 255
0 0 255
0 0 255
0 0 255
0 0 255
0 0 254
0 0 255
0 0 255
0 0 255
0 0 255
0 0 255
0 0 255
0 0 255
0 0 255
0 0 254
0 0 254
0 0 254
0 0 255
0 0 255
0 0 255
0 0 255
0 0 254
0 0 255
0 0 255
0 0 255
0 0 255
0 0 255
0 0 255
0 0 255
0 0 255
0 0 255
0 0 255
0 0 254
0 0 255
0 0 255
0 0 254
0 0 255
0 0 255
0 0 255
0 0 254
0 0 255
0 0 255
0 0 255
0 0 254
0 0 255
0 0 253
0 0 254
0 0 255
0 0 254
0 0 254
0 0 254
0 0 255
0 0 255
0 0 254
0 0 255
0 0 254
0 0 254
0 0 255
0 0 254
0 0 255
0 0 253
0 0 253
0 0 254
0 0 254
0 0 255
0 0 255
0 0 253
0 0 255
0 0 253
0 0 255
0 0 253
0 0 254
0 0 254
0 0 253
0 0 253
0 0 253
0 0 250
0 0 253
0 0 254
0 0 252
0 0 253
0 0 250
0 0 254
0 0 254
0 0 254
0 0 255
0 0 254
0 0 253
0 0 254
0 0 254
0 0 248
0 0 252
0 0 255
0 0 246
0 0 253
0 0 255
0 0 252
0 0 254
0 0 253
0 0 254
0 0 254
0 0 254
0 0 255
0 0 252
0 0 248
0 0 253
0 0 249
0 0 254
0 0 252
0 0 249
0 0 254
0 0 249
0 0 252
0 0 252
0 0 252
0 0 254
0 0 248
0 0 249
0 0 250
0 0 250
0 0 252
0 0 250
0 0 249
0 0 249
0 0 248
0 0 248
0 0 250
0 0 252
0 0 249
0 0 245
0 0 252
0 0 254
0 0 255
0 0 254
99 111 253
172 193 254
199 223 255
199 223 255
199 223 255
199 223 255
199 223 255
199 223 255
199 223 255
199 223 255
199 223 255
199 223 255
198 223 255
198 223 255
198 223 255
198 223 255
198 223 255
198 223 255
198 223 255
198 223 255
198 223 255
198 223 255
198 223 255
198 223 255
198 223 255
198 223 255
198 223 255
198 223 255
198 223 255
198 223 255
198 223 255
198 223 255
198 223 255
198 223 255
198 223 255
198 223 255
198 223 255
197 222 255
197 222 255
197 222 255
197 222 255
197 222 255
197 222 255
197 222 255
197 222 255
197 222 255
197 222 255
197 222 255
197 222 255
197 222 255
197 222 255
197 222 255
197 222 255
197 222 255
197 222 255
197 222 255
197 222 255
197 222 255
197 222 255
197 222 255
197 222 255
197 222 255
197 222 255
197 222 255
197 222 255
197 222 255
197 222 255
197 222 255
197 222 255
197 222 255
197 222 255
197 222 255
197 222 255
197 222 255
197 222 255
197 222 255
197 222 255
197 222 255
197 222 255
197 222 255
197 222 255
197 222 255
197 222 255
197 222 255
197 223 255
197 223 255
198 223 255
198 223 255
198 223 255
198 223 255
198 223 255
198 223 255
198 223 255
198 223 255
198 223 255
198 223 255
198 223 255
198 223 255
198 223 255
198 223 255
198 223 255
198 223 255
198 223 255
198 223 255
198 223 255
198 223 255
198 223 255
198 223 255
198 223 255
198 223 255
199 223 255
199 223 255
199 223 255
199 223 255
199 223 255
199 223 255
199 223 255
199 223 255
199 223 255
199 223 255
199 196 224
198 97 111
197 0 0
200 0 0
202 0 0
194 0 0
196 0 0
198 0 0
201 0 0
198 0 0
204 0 0
200 0 0
200 0 0
198 0 0
201 0 0
201 0 0
196 0 0
201 0 0
202 0 0
202 0 0
200 0 0
197 0 0
204 0 0
205 0 0
203 0 0
208 0 0
206 0 0
201 0 0
205 0 0
205 0 0
206 0 0
204 0 0
206 0 0
200 0 0
198 0 0
207 0 0
205 0 0
201 0 0
202 0 0
204 0 0
208 0 0
210 0 0
208 0 0
206 0 0
209 0 0
202 0 0
209 0 0
205 0 0
206 0 0
204 0 0
203 0 0
204 0 0
203 0 0
204 0 0
205 0 0
204 0 0
208 0 0
210 0 0
208 0 0
209 0 0
208 0 0
206 0 0
207 0 0
205 0 0
206 0 0
210 0 0
210 0 0
208 0 0
206 0 0
210 0 0
209 0 0
208 0 0
211 0 0
210 0 0
208 0 0
210 0 0
209 0 0
207 0 0
208 0 0
208 0 0
209 0 0
207 0 0
212 0 0
212 0 0
212 0 0
210 0 0
211 0 0
209 0 0
212 0 0
210 0 0
213 0 0
213 0 0
209 0 0
211 0 0
207 0 0
211 0 0
210 0 0
211 0 0
213 0 0
208 0 0
208 0 0
213 0 0
211 0 0
208 0 0
207 0 0
210 0 0
214 0 0
211 0 0
209 0 0
210 0 0
213 0 0
211 0 0
210 0 0
208 0 0
210 0 0
210 0 0
207 0 0
208 0 0
210 0 0
215 0 0
211 0 0
211 0 0
212 0 0
211 0 0
210 0 0
211 0 0
210 0 0
212 0 0
212 0 0
209 0 0
216 0 0
215 0 0
212 0 0
208 0 0
211 0 0
211 0 0
210 0 0
212 0 0
210 0 0
211 0 0
212 0 0
0 0 255
0 0 255
0 0 255
0 0 255
0 0 255
0 0 255
0 0 255
0 0 255
0 0 255
0 0 255
0 0 255
0 0 255
0 0 254
0 0 255
0 0 255
0 0 255
0 0 255
0 0 255
0 0 255
0 0 255
0 0 254
0 0 255
0 0 255
0 0 255
0 0 255
0 0 255
0 0 255
0 0 255
0 0 255
0 0 255
0 0 255
0 0 255
0 0 255
0 0 255
0 0 254
0 0 255
0 0 253
0 0 254
0 0 253
0 0 254
0 0 255
0 0 253
0 0 255
0 0 254
0 0 255
0 0 254
0 0 253
0 0 255
0 0 255
0 0 254
0 0 255
0 0 255
0 0 255
0 0 255
0 0 254
0 0 254
0 0 254
0 0 252
0 0 254
0 0 254
0 0 253
0 0 250
0 0 254
0 0 254
0 0 253
0 0 254
0 0 255
0 0 255
0 0 254
0 0 255
0 0 254
0 0 254
0 0 255
0 0 253
0 0 253
0 0 252
0 0 253
0 0 253
0 0 253
0 0 254
0 0 254
0 0 254
0 0 252
0 0 254
0 0 254
0 0 250
0 0 253
0 0 246
0 0 255
0 0 252
0 0 253
0 0 250
0 0 254
0 0 252
0 0 250
0 0 253
0 0 254
0 0 254
0 0 252
0 0 249
0 0 250
0 0 252
0 0 249
0 0 250
0 0 252
0 0 249
0 0 249
0 0 252
0 0 255
0 0 250
0 0 246
0 0 253
0 0 254
0 0 250
0 0 245
0 0 250
0 0 248
0 0 252
0 0 252
0 0 255
0 0 252
0 0 249
0 0 252
0 0 248
0 0 250
0 0 250
0 0 246
0 0 250
0 0 249
0 0 249
0 0 250
0 0 248
0 0 249
0 0 252
0 0 250
0 0 249
0 0 250
0 0 248
0 0 249
0 0 250
0 0 250
101 114 248
186 208 254
199 223 255
199 223 255
199 223 255
199 223 255
199 223 255
199 223 255
199 223 255
199 223 255
199 223 255
199 223 255
199 223 255
199 223 255
198 223 255
198 223 255
198 223 255
198 223 255
198 223 255
198 223 255
198 223 255
198 223 255
198 223 255
198 223 255
198 223 255
198 223 255
198 223 255
198 223 255
198 223 255
198 223 255
198 223 255
198 223 255
198 223 255
198 223 255
198 223 255
198 223 255
198 223 255
198 223 255
198 223 255
198 223 255
198 223 255
197 223 255
197 223 255
197 222 255
197 222 255
197 222 255
197 222 255
197 222 255
197 222 255
197 222 255
197 222 255
197 222 255
197 222 255
197 222 255
197 222 255
197 222 255
197 222 255
197 222 255
197 222 255
197 222 255
197 222 255
197 222 255
197 222 255
197 222 255
197 222 255
197 222 255
197 222 255
197 222 255
197 222 255
197 222 255
197 222 255
197 222 255
197 222 255
197 222 255
197 222 255
197 223 255
198 223 255
198 223 255
198 223 255
198 223 255
198 223 255
198 223 255
198 223 255
198 223 255
198 223 255
198 223 255
198 223 255
198 223 255
198 223 255
198 223 255
198 223 255
198 223 255
198 223 255
198 223 255
198 223 255
198 223 255
198 223 255
198 223 255
198 223 255
198 223 255
198 223 255
198 223 255
198 223 255
198 223 255
199 223 255
199 223 255
199 223 255
199 223 255
199 223 255
199 223 255
199 223 255
199 223 255
199 223 255
199 223 255
199 223 255
199 223 255
200 206 236
198 139 159
199 22 25
194 0 0
196 0 0
200 0 0
202 0 0
202 0 0
204 0 0
200 0 0
196 0 0
200 0 0
197 0 0
199 0 0
202 0 0
202 0 0
202 0 0
203 0 0
202 0 0
204 0 0
199 0 0
201 0 0
198 0 0
202 0 0
201 0 0
202 0 0
200 0 0
200 0 0
200 0 0
206 0 0
203 0 0
206 0 0
205 0 0
208 0 0
205 0 0
205 0 0
206 0 0
203 0 0
204 0 0
201 0 0
198 0 0
203 0 0
209 0 0
209 0 0
204 0 0
207 0 0
209 0 0
204 0 0
208 0 0
209 0 0
211 0 0
206 0 0
205 0 0
208 0 0
204 0 0
210 0 0
207 0 0
207 0 0
209 0 0
208 0 0
210 0 0
209 0 0
205 0 0
206 0 0
210 0 0
208 0 0
206 0 0
208 0 0
209 0 0
205 0 0
207 0 0
207 0 0
212 0 0
210 0 0
208 0 0
208 0 0
206 0 0
207 0 0
208 0 0
211 0 0
209 0 0
207 0 0
209 0 0
209 0 0
211 0 0
211 0 0
211 0 0
210 0 0
210 0 0
210 0 0
208 0 0
211 0 0
206 0 0
212 0 0
211 0 0
210 0 0
208 0 0
211 0 0
212 0 0
214 0 0
210 0 0
211 0 0
209 0 0
207 0 0
204 0 0
213 0 0
209 0 0
211 0 0
209 0 0
210 0 0
214 0 0
211 0 0
215 0 0
208 0 0
208 0 0
211 0 0
210 0 0
209 0 0
213 0 0
209 0 0
207 0 0
208 0 0
211 0 0
209 0 0
212 0 0
208 0 0
210 0 0
211 0 0
212 0 0
207 0 0
207 0 0
212 0 0
207 0 0
212 0 0
210 0 0
208 0 0
213 0 0
211 0 0
209 0 0
213 0 0
209 0 0
209 0 0
207 0 0
0 0 255
0 0 255
0 0 255
0 0 255
0 0 255
0 0 254
0 0 255
0 0 254
0 0 255
0 0 255
0 0 255
0 0 255
0 0 255
0 0 255
0 0 255
0 0 255
0 0 255
0 0 254
0 0 255
0 0 255
0 0 255
0 0 255
0 0 255
0 0 255
0 0 255
0 0 255
0 0 254
0 0 254
0 0 254
0 0 254
0 0 254
0 0 254
0 0 254
0 0 254
0 0 255
0 0 255
0 0 255
0 0 254
0 0 254
0 0 255
0 0 254
0 0 254
0 0 255
0 0 255
0 0 255
0 0 255
0 0 254
0 0 254
0 0 255
0 0 255
0 0 252
0 0 255
0 0 255
0 0 254
0 0 255
0 0 255
0 0 254
0 0 253
0 0 254
0 0 250
0 0 255
0 0 254
0 0 254
0 0 255
0 0 253
0 0 254
0 0 254
0 0 253
0 0 250
0 0 255
0 0 254
0 0 255
0 0 254
0 0 255
0 0 255
0 0 253
0 0 254
0 0 252
0 0 255
0 0 252
0 0 254
0 0 252
0 0 253
0 0 252
0 0 253
0 0 254
0 0 254
0 0 250
0 0 250
0 0 254
0 0 250
0 0 255
0 0 250
0 0 252
0 0 254
0 0 252
0 0 249
0 0 252
0 0 248
0 0 254
0 0 253
0 0 249
0 0 254
0 0 255
0 0 255
0 0 255
0 0 253
0 0 252
0 0 252
0 0 253
0 0 253
0 0 253
0 0 250
0 0 254
0 0 255
0 0 250
0 0 255
0 0 255
0 0 250
0 0 250
0 0 248
0 0 249
0 0 249
0 0 250
0 0 248
0 0 248
0 0 250
0 0 246
0 0 252
0 0 248
0 0 252
0 0 252
0 0 250
0 0 253
0 0 249
0 0 248
0 0 249
0 0 248
0 0 252
0 0 249
0 0 252
0 0 245
44 50 250
127 143 250
197 221 255
199 223 255
199 223 255
199 223 255
199 223 255
199 223 255
199 223 255
199 223 255
199 223 255
199 223 255
199 223 255
199 223 255
199 223 255
199 223 255
198 223 255
198 223 255
198 223 255
198 223 255
198 223 255
198 223 255
198 223 255
198 223 255
198 223 255
198 223 255
198 223 255
198 223 255
198 223 255
198 223 255
198 223 255
198 223 255
198 223 255
198 223 255
198 223 255
198 223 255
198 223 255
198 223 255
198 223 255
198 223 255
198 223 255
198 223 255
198 223 255
198 223 255
198 223 255
198 223 255
198 223 255
198 223 255
198 223 255
198 223 255
198 223 255
198 223 255
198 223 255
198 223 255
198 223 255
198 223 255
197 223 255
197 223 255
197 223 255
197 223 255
197 223 255
198 223 255
198 223 255
198 223 255
198 223 255
198 223 255
198 223 255
198 223 255
198 223 255
198 223 255
198 223 255
198 223 255
198 223 255
198 223 255
198 223 255
198 223 255
198 223 255
198 223 255
198 223 255
198 223 255
198 223 255
198 223 255
198 223 255
198 223 255
198 223 255
198 223 255
198 223 255
198 223 255
198 223 255
198 223 255
198 223 255
198 223 255
198 223 255
198 223 255
198 223 255
198 223 255
198 223 255
198 223 255
198 223 255
199 223 255
199 223 255
199 223 255
199 223 255
199 223 255
199 223 255
199 223 255
199 223 255
199 223 255
199 223 255
199 223 255
199 223 255
199 223 255
199 223 255
199 223 255
198 158 181
200 22 25
195 0 0
194 0 0
194 0 0
197 0 0
194 0 0
197 0 0
193 0 0
200 0 0
202 0 0
199 0 0
202 0 0
199 0 0
201 0 0
203 0 0
201 0 0
203 0 0
201 0 0
206 0 0
197 0 0
201 0 0
203 0 0
202 0 0
207 0 0
205 0 0
205 0 0
205 0 0
205 0 0
202 0 0
202 0 0
202 0 0
202 0 0
200 0 0
201 0 0
204 0 0
206 0 0
204 0 0
199 0 0
208 0 0
204 0 0
204 0 0
207 0 0
206 0 0
206 0 0
208 0 0
209 0 0
208 0 0
205 0 0
206 0 0
205 0 0
206 0 0
207 0 0
207 0 0
203 0 0
207 0 0
207 0 0
209 0 0
205 0 0
208 0 0
205 0 0
210 0 0
206 0 0
206 0 0
202 0 0
208 0 0
210 0 0
205 0 0
207 0 0
206 0 0
206 0 0
210 0 0
210 0 0
206 0 0
211 0 0
209 0 0
207 0 0
207 0 0
206 0 0
209 0 0
210 0 0
211 0 0
209 0 0
207 0 0
208 0 0
211 0 0
207 0 0
209 0 0
210 0 0
207 0 0
207 0 0
207 0 0
212 0 0
209 0 0
209 0 0
212 0 0
210 0 0
208 0 0
210 0 0
209 0 0
207 0 0
210 0 0
211 0 0
214 0 0
211 0 0
211 0 0
209 0 0
212 0 0
215 0 0
205 0 0
209 0 0
210 0 0
210 0 0
213 0 0
209 0 0
210 0 0
211 0 0
208 0 0
213 0 0
209 0 0
214 0 0
212 0 0
212 0 0
208 0 0
208 0 0
213 0 0
210 0 0
210 0 0
212 0 0
211 0 0
211 0 0
211 0 0
213 0 0
214 0 0
210 0 0
213 0 0
213 0 0
210 0 0
209 0 0
211 0 0
210 0 0
212 0 0
209 0 0
209 0 0
0 0 255
0 0 255
0 0 255
0 0 255
0 0 255
0 0 255
0 0 255
0 0 255
0 0 255
0 0 255
0 0 254
0 0 255
0 0 255
0 0 255
0 0 255
0 0 255
0 0 255
0 0 255
0 0 255
0 0 255
0 0 254
0 0 255
0 0 254
0 0 255
0 0 255
0 0 255
0 0 255
0 0 254
0 0 255
0 0 255
0 0 255
0 0 255
0 0 255
0 0 255
0 0 255
0 0 255
0 0 253
0 0 255
0 0 254
0 0 254
0 0 254
0 0 255
0 0 255
0 0 254
0 0 254
0 0 255
0 0 255
0 0 253
0 0 254
0 0 254
0 0 255
0 0 252
0 0 254
0 0 254
0 0 254
0 0 253
0 0 254
0 0 254
0 0 255
0 0 254
0 0 252
0 0 254
0 0 253
0 0 254
0 0 255
0 0 255
0 0 253
0 0 255
0 0 253
0 0 255
0 0 255
0 0 252
0 0 253
0 0 254
0 0 254
0 0 254
0 0 254
0 0 253
0 0 254
0 0 254
0 0 253
0 0 253
0 0 254
0 0 252
0 0 252
0 0 255
0 0 253
0 0 250
0 0 250
0 0 253
0 0 249
0 0 252
0 0 253
0 0 252
0 0 253
0 0 253
0 0 253
0 0 253
0 0 249
0 0 249
0 0 250
0 0 254
0 0 253
0 0 249
0 0 253
0 0 254
0 0 252
0 0 252
0 0 252
0 0 255
0 0 252
0 0 253
0 0 255
0 0 250
0 0 249
0 0 248
0 0 253
0 0 254
0 0 249
0 0 253
0 0 245
0 0 253
0 0 250
0 0 254
0 0 254
0 0 253
0 0 252
0 0 248
0 0 241
0 0 248
0 0 252
0 0 253
0 0 245
0 0 248
0 0 249
0 0 248
0 0 252
0 0 250
0 0 253
0 0 242
0 0 252
0 0 246
0 0 254
0 0 246
89 100 249
168 188 255
199 223 255
199 223 255
199 223 255
199 223 255
199 223 255
199 223 255
199 223 255
199 223 255
199 223 255
199 223 255
199 223 255
199 223 255
199 223 255
199 223 255
199 223 255
199 223 255
199 223 255
198 223 255
198 223 255
198 223 255
198 223 255
198 223 255
198 223 255
198 223 255
198 223 255
198 223 255
198 223 255
198 223 255
198 223 255
198 223 255
198 223 255
198 223 255
198 223 255
198 223 255
198 223 255
198 223 255
198 223 255
198 223 255
198 223 255
198 223 255
198 223 255
198 223 255
198 223 255
198 223 255
198 223 255
198 223 255
198 223 255
198 223 255
198 223 255
198 223 255
198 223 255
198 223 255
198 223 255
198 223 255
198 223 255
198 223 255
198 223 255
198 223 255
198 223 255
198 223 255
198 223 255
198 223 255
198 223 255
198 223 255
198 223 255
198 223 255
198 223 255
198 223 255
198 223 255
198 223 255
198 223 255
198 223 255
198 223 255
198 223 255
198 223 255
198 223 255
198 223 255
198 223 255
198 223 255
198 223 255
198 223 255
198 223 255
198 223 255
198 223 255
198 223 255
198 223 255
198 223 255
198 223 255
198 223 255
198 223 255
198 223 255
199 223 255
199 223 255
199 223 255
199 223 255
199 223 255
199 223 255
199 223 255
199 223 255
199 223 255
199 223 255
199 223 255
199 223 255
199 223 255
199 223 255
199 223 255
199 223 255
199 223 255
199 186 212
192 83 95
195 0 0
201 0 0
199 0 0
195 0 0
196 0 0
197 0 0
196 0 0
203 0 0
201 0 0
204 0 0
200 0 0
201 0 0
198 0 0
198 0 0
196 0 0
198 0 0
203 0 0
200 0 0
200 0 0
198 0 0
197 0 0
202 0 0
201 0 0
205 0 0
202 0 0
203 0 0
201 0 0
200 0 0
204 0 0
204 0 0
203 0 0
207 0 0
211 0 0
204 0 0
205 0 0
201 0 0
200 0 0
204 0 0
203 0 0
204 0 0
195 0 0
206 0 0
200 0 0
210 0 0
206 0 0
205 0 0
204 0 0
209 0 0
208 0 0
206 0 0
208 0 0
204 0 0
207 0 0
208 0 0
205 0 0
208 0 0
201 0 0
207 0 0
208 0 0
207 0 0
209 0 0
212 0 0
208 0 0
210 0 0
205 0 0
209 0 0
208 0 0
205 0 0
208 0 0
211 0 0
208 0 0
207 0 0
206 0 0
208 0 0
209 0 0
206 0 0
205 0 0
211 0 0
210 0 0
209 0 0
210 0 0
210 0 0
208 0 0
208 0 0
209 0 0
209 0 0
209 0 0
211 0 0
208 0 0
212 0 0
209 0 0
208 0 0
212 0 0
213 0 0
207 0 0
213 0 0
210 0 0
210 0 0
212 0 0
208 0 0
210 0 0
211 0 0
213 0 0
212 0 0
211 0 0
209 0 0
210 0 0
211 0 0
208 0 0
212 0 0
213 0 0
210 0 0
211 0 0
210 0 0
210 0 0
211 0 0
214 0 0
212 0 0
211 0 0
211 0 0
215 0 0
212 0 0
211 0 0
211 0 0
210 0 0
209 0 0
212 0 0
210 0 0
212 0 0
208 0 0
211 0 0
211 0 0
215 0 0
215 0 0
213 0 0
209 0 0
211 0 0
216 0 0
215 0 0
209 0 0
215 0 0
213 0 0
210 0 0
212 0 0
0 0 254
0 0 255
0 0 255
0 0 255
0 0 255
0 0 255
0 0 255
0 0 255
0 0 255
0 0 255
0 0 255
0 0 255
0 0 255
0 0 255
0 0 255
0 0 255
0 0 255
0 0 253
0 0 255
0 0 255
0 0 255
0 0 254
0 0 255
0 0 254
0 0 254
0 0 254
0 0 255
0 0 255
0 0 255
0 0 255
0 0 255
0 0 255
0 0 255
0 0 255
0 0 255
0 0 254
0 0 255
0 0 254
0 0 255
0 0 255
0 0 254
0 0 255
0 0 255
0 0 255
0 0 254
0 0 254
0 0 255
0 0 255
0 0 253
0 0 254
0 0 253
0 0 254
0 0 254
0 0 254
0 0 254
0 0 253
0 0 254
0 0 255
0 0 254
0 0 253
0 0 255
0 0 254
0 0 255
0 0 255
0 0 254
0 0 253
0 0 252
0 0 253
0 0 255
0 0 254
0 0 253
0 0 253
0 0 254
0 0 254
0 0 253
0 0 253
0 0 254
0 0 252
0 0 253
0 0 253
0 0 254
0 0 254
0 0 252
0 0 255
0 0 254
0 0 252
0 0 254
0 0 255
0 0 252
0 0 248
0 0 253
0 0 252
0 0 248
0 0 252
0 0 253
0 0 252
0 0 254
0 0 253
0 0 254
0 0 254
0 0 252
0 0 253
0 0 255
0 0 254
0 0 252
0 0 253
0 0 249
0 0 252
0 0 253
0 0 252
0 0 253
0 0 253
0 0 249
0 0 248
0 0 249
0 0 252
0 0 254
0 0 250
0 0 250
0 0 249
0 0 249
0 0 252
0 0 250
0 0 250
0 0 250
0 0 245
0 0 246
0 0 250
0 0 248
0 0 250
0 0 252
0 0 253
0 0 245
0 0 245
0 0 250
0 0 252
0 0 245
0 0 252
0 0 244
0 0 248
0 0 246
0 0 248
0 0 249
0 0 248
0 0 250
0 0 250
131 146 252
182 204 255
199 224 255
199 223 255
199 223 255
199 223 255
199 223 255
199 223 255
199 223 255
199 223 255
199 223 255
199 223 255
199 223 255
199 223 255
199 223 255
199 223 255
199 223 255
199 223 255
199 223 255
199 223 255
199 223 255
198 223 255
198 223 255
198 223 255
198 223 255
198 223 255
198 223 255
198 223 255
198 223 255
198 223 255
198 223 255
198 223 255
198 223 255
198 223 255
198 223 255
198 223 255
198 223 255
198 223 255
198 223 255
198 223 255
198 223 255
198 223 255
198 223 255
198 223 255
198 223 255
198 223 255
198 223 255
198 223 255
198 223 255
198 223 255
198 223 255
198 223 255
198 223 255
198 223 255
198 223 255
198 223 255
198 223 255
198 223 255
198 223 255
198 223 255
198 223 255
198 223 255
198 223 255
198 223 255
198 223 255
198 223 255
198 223 255
198 223 255
198 223 255
198 223 255
198 223 255
198 223 255
198 223 255
198 223 255
198 223 255
198 223 255
198 223 255
198 223 255
198 223 255
198 223 255
198 223 255
198 223 255
198 223 255
198 223 255
198 223 255
198 223 255
199 223 255
199 223 255
199 223 255
199 223 255
199 223 255
199 223 255
199 223 255
199 223 255
199 223 255
199 223 255
199 223 255
199 223 255
199 223 255
199 223 255
199 223 255
199 223 255
199 223 255
199 223 255
199 223 255
199 224 255
198 216 246
196 130 149
195 0 0
199 0 0
192 0 0
197 0 0
199 0 0
196 0 0
192 0 0
199 0 0
198 0 0
200 0 0
199 0 0
193 0 0
197 0 0
199 0 0
197 0 0
199 0 0
207 0 0
200 0 0
201 0 0
196 0 0
204 0 0
202 0 0
199 0 0
204 0 0
205 0 0
203 0 0
204 0 0
201 0 0
203 0 0
200 0 0
204 0 0
203 0 0
202 0 0
201 0 0
206 0 0
203 0 0
206 0 0
205 0 0
202 0 0
205 0 0
205 0 0
207 0 0
210 0 0
209 0 0
206 0 0
201 0 0
202 0 0
202 0 0
204 0 0
210 0 0
206 0 0
204 0 0
198 0 0
204 0 0
207 0 0
207 0 0
208 0 0
201 0 0
208 0 0
205 0 0
204 0 0
206 0 0
208 0 0
207 0 0
206 0 0
208 0 0
209 0 0
210 0 0
212 0 0
207 0 0
211 0 0
211 0 0
211 0 0
205 0 0
207 0 0
207 0 0
213 0 0
209 0 0
208 0 0
211 0 0
210 0 0
209 0 0
209 0 0
211 0 0
210 0 0
209 0 0
205 0 0
207 0 0
212 0 0
209 0 0
214 0 0
209 0 0
213 0 0
212 0 0
208 0 0
212 0 0
209 0 0
209 0 0
210 0 0
206 0 0
208 0 0
211 0 0
210 0 0
212 0 0
211 0 0
208 0 0
210 0 0
210 0 0
208 0 0
212 0 0
206 0 0
214 0 0
209 0 0
210 0 0
212 0 0
211 0 0
210 0 0
208 0 0
212 0 0
209 0 0
208 0 0
210 0 0
208 0 0
210 0 0
213 0 0
213 0 0
211 0 0
212 0 0
213 0 0
211 0 0
215 0 0
210 0 0
213 0 0
212 0 0
211 0 0
213 0 0
211 0 0
213 0 0
213 0 0
212 0 0
211 0 0
212 0 0
212 0 0
214 0 0
212 0 0
211 0 0
0 0 255
0 0 255
0 0 255
0 0 255
0 0 255
0 0 254
0 0 254
0 0 255
0 0 255
0 0 255
0 0 255
0 0 255
0 0 255
0 0 255
0 0 254
0 0 255
0 0 255
0 0 255
0 0 255
0 0 255
0 0 255
0 0 255
0 0 255
0 0 255
0 0 254
0 0 255
0 0 254
0 0 254
0 0 255
0 0 254
0 0 254
0 0 255
0 0 254
0 0 254
0 0 254
0 0 254
0 0 254
0 0 254
0 0 255
0 0 254
0 0 255
0 0 255
0 0 254
0 0 254
0 0 253
0 0 253
0 0 255
0 0 254
0 0 254
0 0 255
0 0 255
0 0 254
0 0 253
0 0 253
0 0 255
0 0 254
0 0 254
0 0 254
0 0 254
0 0 254
0 0 255
0 0 254
0 0 255
0 0 255
0 0 252
0 0 254
0 0 254
0 0 255
0 0 253
0 0 254
0 0 255
0 0 254
0 0 253
0 0 253
0 0 253
0 0 255
0 0 254
0 0 254
0 0 253
0 0 254
0 0 253
0 0 255
0 0 252
0 0 253
0 0 254
0 0 254
0 0 254
0 0 252
0 0 254
0 0 249
0 0 250
0 0 252
0 0 252
0 0 250
0 0 252
0 0 253
0 0 252
0 0 253
0 0 250
0 0 252
0 0 253
0 0 250
0 0 249
0 0 250
0 0 249
0 0 253
0 0 254
0 0 249
0 0 248
0 0 248
0 0 250
0 0 252
0 0 245
0 0 254
0 0 250
0 0 253
0 0 246
0 0 250
0 0 254
0 0 246
0 0 248
0 0 249
0 0 249
0 0 249
0 0 249
0 0 246
0 0 246
0 0 253
0 0 245
0 0 245
0 0 250
0 0 252
0 0 249
0 0 249
0 0 250
0 0 245
0 0 252
0 0 246
0 0 252
0 0 250
0 0 249
0 0 249
0 0 246
0 0 244
0 0 250
0 0 252
0 0 248
44 50 250
146 164 253
199 222 255
199 224 255
199 224 255
199 224 255
199 223 255
199 223 255
199 223 255
199 223 255
199 223 255
199 223 255
199 223 255
199 223 255
199 223 255
199 223 255
199 223 255
199 223 255
199 223 255
199 223 255
199 223 255
199 223 255
199 223 255
199 223 255
199 223 255
199 223 255
198 223 255
198 223 255
198 223 255
198 223 255
198 223 255
198 223 255
198 223 255
198 223 255
198 223 255
198 223 255
198 223 255
198 223 255
198 223 255
198 223 255
198 223 255
198 223 255
198 223 255
198 223 255
198 223 255
198 223 255
198 223 255
198 223 255
198 223 255
198 223 255
198 223 255
198 223 255
198 223 255
198 223 255
198 223 255
198 223 255
198 223 255
198 223 255
198 223 255
198 223 255
198 223 255
198 223 255
198 223 255
198 223 255
198 223 255
198 223 255
198 223 255
198 223 255
198 223 255
198 223 255
198 223 255
198 223 255
198 223 255
198 223 255
198 223 255
198 223 255
198 223 255
198 223 255
198 223 255
198 223 255
199 223 255
199 223 255
199 223 255
199 223 255
199 223 255
199 223 255
199 223 255
199 223 255
199 223 255
199 223 255
199 223 255
199 223 255
199 223 255
199 223 255
199 223 255
199 223 255
199 223 255
199 223 255
199 223 255
199 223 255
199 224 255
199 224 255
199 224 255
200 224 255
199 188 215
195 77 88
190 0 0
196 0 0
192 0 0
193 0 0
196 0 0
193 0 0
193 0 0
201 0 0
200 0 0
194 0 0
198 0 0
202 0 0
200 0 0
197 0 0
204 0 0
197 0 0
196 0 0
199 0 0
205 0 0
199 0 0
203 0 0
205 0 0
198 0 0
201 0 0
204 0 0
204 0 0
201 0 0
203 0 0
204 0 0
208 0 0
203 0 0
203 0 0
205 0 0
205 0 0
199 0 0
201 0 0
204 0 0
204 0 0
202 0 0
206 0 0
200 0 0
209 0 0
204 0 0
205 0 0
205 0 0
209 0 0
202 0 0
206 0 0
208 0 0
202 0 0
211 0 0
205 0 0
204 0 0
202 0 0
212 0 0
210 0 0
206 0 0
208 0 0
205 0 0
205 0 0
206 0 0
206 0 0
209 0 0
208 0 0
210 0 0
210 0 0
205 0 0
206 0 0
205 0 0
212 0 0
207 0 0
207 0 0
211 0 0
210 0 0
207 0 0
208 0 0
209 0 0
212 0 0
207 0 0
211 0 0
207 0 0
209 0 0
209 0 0
210 0 0
208 0 0
209 0 0
209 0 0
207 0 0
209 0 0
209 0 0
210 0 0
211 0 0
207 0 0
210 0 0
210 0 0
212 0 0
209 0 0
211 0 0
210 0 0
210 0 0
209 0 0
212 0 0
211 0 0
208 0 0
210 0 0
210 0 0
210 0 0
211 0 0
211 0 0
210 0 0
211 0 0
210 0 0
211 0 0
210 0 0
213 0 0
209 0 0
212 0 0
211 0 0
211 0 0
210 0 0
209 0 0
210 0 0
211 0 0
212 0 0
211 0 0
209 0 0
210 0 0
213 0 0
216 0 0
213 0 0
211 0 0
213 0 0
214 0 0
210 0 0
209 0 0
214 0 0
209 0 0
212 0 0
212 0 0
208 0 0
212 0 0
216 0 0
213 0 0
213 0 0
212 0 0
215 0 0
215 0 0
0 0 255
0 0 255
0 0 255
0 0 255
0 0 255
0 0 255
0 0 255
0 0 255
0 0 254
0 0 255
0 0 255
0 0 255
0 0 254
0 0 255
0 0 255
0 0 255
0 0 255
0 0 255
0 0 255
0 0 254
0 0 255
0 0 255
0 0 255
0 0 254
0 0 255
0 0 255
0 0 254
0 0 255
0 0 255
0 0 254
0 0 255
0 0 255
0 0 255
0 0 255
0 0 255
0 0 255
0 0 253
0 0 254
0 0 255
0 0 255
0 0 254
0 0 254
0 0 254
0 0 253
0 0 255
0 0 255
0 0 255
0 0 254
0 0 255
0 0 254
0 0 255
0 0 254
0 0 253
0 0 255
0 0 254
0 0 254
0 0 253
0 0 254
0 0 254
0 0 255
0 0 255
0 0 255
0 0 255
0 0 254
0 0 253
0 0 252
0 0 253
0 0 254
0 0 254
0 0 253
0 0 254
0 0 254
0 0 252
0 0 253
0 0 252
0 0 253
0 0 252
0 0 254
0 0 255
0 0 254
0 0 253
0 0 255
0 0 253
0 0 250
0 0 252
0 0 255
0 0 255
0 0 249
0 0 255
0 0 250
0 0 249
0 0 253
0 0 254
0 0 254
0 0 254
0 0 249
0 0 253
0 0 248
0 0 253
0 0 253
0 0 252
0 0 253
0 0 253
0 0 252
0 0 254
0 0 250
0 0 250
0 0 254
0 0 253
0 0 249
0 0 249
0 0 252
0 0 250
0 0 250
0 0 252
0 0 249
0 0 244
0 0 249
0 0 252
0 0 250
0 0 253
0 0 253
0 0 246
0 0 249
0 0 246
0 0 241
0 0 245
0 0 244
0 0 248
0 0 248
0 0 245
0 0 250
0 0 248
0 0 249
0 0 246
0 0 249
0 0 253
0 0 245
0 0 249
0 0 249
0 0 248
0 0 246
0 0 245
0 0 244
0 0 250
0 0 246
0 0 245
0 0 253
0 0 249
126 141 255
186 209 254
200 224 255
200 224 255
199 224 255
199 224 255
199 224 255
199 224 255
199 223 255
199 223 255
199 223 255
199 223 255
199 223 255
199 223 255
199 223 255
199 223 255
199 223 255
199 223 255
199 223 255
199 223 255
199 223 255
199 223 255
199 223 255
199 223 255
199 223 255
199 223 255
199 223 255
199 223 255
199 223 255
199 223 255
199 223 255
198 223 255
198 223 255
198 223 255
198 223 255
198 223 255
198 223 255
198 223 255
198 223 255
198 223 255
198 223 255
198 223 255
198 223 255
198 223 255
198 223 255
198 223 255
198 223 255
198 223 255
198 223 255
198 223 255
198 223 255
198 223 255
198 223 255
198 223 255
198 223 255
198 223 255
198 223 255
198 223 255
198 223 255
198 223 255
198 223 255
198 223 255
198 223 255
198 223 255
198 223 255
198 223 255
198 223 255
198 223 255
198 223 255
198 223 255
198 223 255
199 223 255
199 223 255
199 223 255
199 223 255
199 223 255
199 223 255
199 223 255
199 223 255
199 223 255
199 223 255
199 223 255
199 223 255
199 223 255
199 223 255
199 223 255
199 223 255
199 223 255
199 223 255
199 223 255
199 223 255
199 223 255
199 223 255
199 223 255
199 224 255
199 224 255
199 224 255
199 224 255
200 224 255
200 224 255
200 212 242
192 120 137
196 0 0
194 0 0
198 0 0
194 0 0
200 0 0
192 0 0
196 0 0
203 0 0
197 0 0
200 0 0
200 0 0
199 0 0
203 0 0
202 0 0
203 0 0
204 0 0
200 0 0
201 0 0
198 0 0
203 0 0
195 0 0
200 0 0
202 0 0
204 0 0
206 0 0
197 0 0
206 0 0
205 0 0
200 0 0
202 0 0
207 0 0
203 0 0
206 0 0
201 0 0
208 0 0
208 0 0
204 0 0
205 0 0
206 0 0
205 0 0
204 0 0
206 0 0
203 0 0
204 0 0
202 0 0
201 0 0
207 0 0
207 0 0
204 0 0
208 0 0
207 0 0
207 0 0
208 0 0
209 0 0
205 0 0
205 0 0
208 0 0
207 0 0
208 0 0
209 0 0
206 0 0
206 0 0
208 0 0
203 0 0
208 0 0
210 0 0
209 0 0
207 0 0
208 0 0
209 0 0
211 0 0
208 0 0
210 0 0
209 0 0
209 0 0
212 0 0
206 0 0
206 0 0
213 0 0
211 0 0
208 0 0
208 0 0
204 0 0
215 0 0
210 0 0
212 0 0
208 0 0
206 0 0
211 0 0
208 0 0
212 0 0
210 0 0
209 0 0
207 0 0
211 0 0
207 0 0
213 0 0
212 0 0
211 0 0
207 0 0
210 0 0
212 0 0
210 0 0
212 0 0
208 0 0
210 0 0
211 0 0
209 0 0
211 0 0
215 0 0
214 0 0
211 0 0
209 0 0
210 0 0
211 0 0
212 0 0
210 0 0
215 0 0
210 0 0
210 0 0
209 0 0
211 0 0
211 0 0
215 0 0
209 0 0
212 0 0
212 0 0
213 0 0
210 0 0
212 0 0
210 0 0
211 0 0
212 0 0
210 0 0
211 0 0
206 0 0
211 0 0
211 0 0
210 0 0
212 0 0
214 0 0
212 0 0
212 0 0
211 0 0
212 0 0
211 0 0
209 0 0
214 0 0
213 0 0
0 0 255
0 0 255
0 0 255
0 0 254
0 0 255
0 0 255
0 0 255
0 0 255
0 0 255
0 0 255
0 0 255
0 0 255
0 0 255
0 0 254
0 0 255
0 0 255
0 0 254
0 0 255
0 0 255
0 0 255
0 0 255
0 0 255
0 0 254
0 0 255
0 0 254
0 0 255
0 0 253
0 0 254
0 0 254
0 0 255
0 0 254
0 0 254
0 0 253
0 0 255
0 0 255
0 0 255
0 0 255
0 0 255
0 0 253
0 0 254
0 0 255
0 0 255
0 0 255
0 0 254
0 0 255
0 0 255
0 0 255
0 0 253
0 0 254
0 0 254
0 0 255
0 0 253
0 0 254
0 0 254
0 0 253
0 0 254
0 0 253
0 0 254
0 0 253
0 0 254
0 0 254
0 0 254
0 0 252
0 0 255
0 0 255
0 0 255
0 0 255
0 0 254
0 0 252
0 0 253
0 0 253
0 0 253
0 0 253
0 0 253
0 0 255
0 0 253
0 0 250
0 0 252
0 0 253
0 0 255
0 0 252
0 0 253
0 0 250
0 0 253
0 0 253
0 0 254
0 0 250
0 0 252
0 0 250
0 0 253
0 0 254
0 0 253
0 0 254
0 0 254
0 0 253
0 0 250
0 0 254
0 0 253
0 0 249
0 0 250
0 0 254
0 0 253
0 0 252
0 0 246
0 0 253
0 0 252
0 0 249
0 0 253
0 0 252
0 0 250
0 0 250
0 0 250
0 0 250
0 0 249
0 0 253
0 0 250
0 0 253
0 0 250
0 0 253
0 0 248
0 0 250
0 0 248
0 0 249
0 0 250
0 0 250
0 0 250
0 0 248
0 0 250
0 0 248
0 0 246
0 0 252
0 0 244
0 0 249
0 0 249
0 0 248
0 0 245
0 0 245
0 0 250
0 0 241
0 0 252
0 0 248
0 0 244
0 0 240
0 0 242
0 0 246
0 0 245
0 0 241
0 0 246
0 0 248
0 0 248
56 63 249
157 176 249
200 224 255
200 224 255
200 224 255
200 224 255
200 224 255
199 224 255
199 224 255
199 224 255
199 224 255
199 223 255
199 223 255
199 223 255
199 223 255
199 223 255
199 223 255
199 223 255
199 223 255
199 223 255
199 223 255
199 223 255
199 223 255
199 223 255
199 223 255
199 223 255
199 223 255
199 223 255
199 223 255
199 223 255
199 223 255
199 223 255
199 223 255
199 223 255
199 223 255
199 223 255
199 223 255
199 223 255
199 223 255
199 223 255
199 223 255
198 223 255
198 223 255
198 223 255
198 223 255
198 223 255
198 223 255
198 223 255
198 223 255
198 223 255
198 223 255
198 223 255
198 223 255
198 223 255
198 223 255
198 223 255
198 223 255
198 223 255
198 223 255
199 223 255
199 223 255
199 223 255
199 223 255
199 223 255
199 223 255
199 223 255
199 223 255
199 223 255
199 223 255
199 223 255
199 223 255
199 223 255
199 223 255
199 223 255
199 223 255
199 223 255
199 223 255
199 223 255
199 223 255
199 223 255
199 223 255
199 223 255
199 223 255
199 223 255
199 223 255
199 223 255
199 223 255
199 223 255
199 223 255
199 224 255
199 224 255
199 224 255
200 224 255
200 224 255
200 224 255
200 224 255
200 224 255
200 224 255
195 177 203
197 74 84
195 0 0
201 0 0
192 0 0
190 0 0
196 0 0
192 0 0
194 0 0
200 0 0
198 0 0
199 0 0
192 0 0
197 0 0
196 0 0
197 0 0
199 0 0
197 0 0
200 0 0
200 0 0
204 0 0
203 0 0
199 0 0
204 0 0
202 0 0
199 0 0
202 0 0
203 0 0
204 0 0
205 0 0
200 0 0
199 0 0
202 0 0
205 0 0
208 0 0
203 0 0
203 0 0
203 0 0
205 0 0
207 0 0
206 0 0
203 0 0
208 0 0
207 0 0
207 0 0
199 0 0
205 0 0
205 0 0
206 0 0
201 0 0
208 0 0
206 0 0
204 0 0
208 0 0
206 0 0
206 0 0
207 0 0
208 0 0
204 0 0
203 0 0
206 0 0
211 0 0
205 0 0
207 0 0
208 0 0
207 0 0
208 0 0
210 0 0
207 0 0
202 0 0
211 0 0
209 0 0
207 0 0
206 0 0
215 0 0
211 0 0
206 0 0
206 0 0
212 0 0
209 0 0
211 0 0
210 0 0
209 0 0
209 0 0
211 0 0
209 0 0
208 0 0
212 0 0
209 0 0
206 0 0
207 0 0
211 0 0
207 0 0
206 0 0
208 0 0
211 0 0
213 0 0
208 0 0
209 0 0
209 0 0
214 0 0
208 0 0
211 0 0
212 0 0
207 0 0
211 0 0
210 0 0
210 0 0
213 0 0
211 0 0
209 0 0
213 0 0
212 0 0
212 0 0
213 0 0
213 0 0
208 0 0
214 0 0
214 0 0
209 0 0
209 0 0
215 0 0
216 0 0
212 0 0
211 0 0
212 0 0
211 0 0
212 0 0
213 0 0
214 0 0
212 0 0
211 0 0
210 0 0
212 0 0
213 0 0
211 0 0
214 0 0
214 0 0
212 0 0
209 0 0
214 0 0
211 0 0
212 0 0
214 0 0
211 0 0
210 0 0
211 0 0
214 0 0
212 0 0
216 0 0
212 0 0
211 0 0
0 0 255
0 0 255
0 0 255
0 0 254
0 0 254
0 0 255
0 0 255
0 0 255
0 0 254
0 0 253
0 0 254
0 0 255
0 0 255
0 0 255
0 0 254
0 0 255
0 0 254
0 0 255
0 0 255
0 0 255
0 0 254
0 0 255
0 0 255
0 0 255
0 0 255
0 0 253
0 0 255
0 0 254
0 0 255
0 0 254
0 0 254
0 0 255
0 0 254
0 0 254
0 0 254
0 0 254
0 0 255
0 0 254
0 0 252
0 0 252
0 0 254
0 0 255
0 0 254
0 0 253
0 0 253
0 0 253
0 0 254
0 0 255
0 0 253
0 0 254
0 0 255
0 0 255
0 0 255
0 0 254
0 0 254
0 0 254
0 0 254
0 0 248
0 0 255
0 0 254
0 0 255
0 0 254
0 0 255
0 0 255
0 0 254
0 0 252
0 0 254
0 0 254
0 0 252
0 0 255
0 0 254
0 0 252
0 0 253
0 0 250
0 0 254
0 0 252
0 0 253
0 0 254
0 0 255
0 0 254
0 0 253
0 0 254
0 0 254
0 0 254
0 0 255
0 0 249
0 0 253
0 0 249
0 0 253
0 0 252
0 0 252
0 0 252
0 0 254
0 0 249
0 0 252
0 0 253
0 0 250
0 0 254
0 0 252
0 0 249
0 0 252
0 0 249
0 0 248
0 0 253
0 0 253
0 0 250
0 0 250
0 0 254
0 0 250
0 0 254
0 0 252
0 0 252
0 0 249
0 0 253
0 0 250
0 0 253
0 0 253
0 0 253
0 0 253
0 0 248
0 0 253
0 0 242
0 0 253
0 0 246
0 0 252
0 0 245
0 0 250
0 0 254
0 0 253
0 0 253
0 0 254
0 0 248
0 0 248
0 0 252
0 0 253
0 0 244
0 0 246
0 0 244
0 0 245
0 0 250
0 0 246
0 0 245
0 0 248
0 0 244
0 0 252
0 0 250
0 0 255
0 0 246
0 0 246
0 0 248
0 0 246
0 0 242
106 118 248
194 217 254
200 224 255
200 224 255
200 224 255
200 224 255
200 224 255
200 224 255
200 224 255
200 224 255
199 224 255
199 224 255
199 224 255
199 224 255
199 223 255
199 223 255
199 223 255
199 223 255
199 223 255
199 223 255
199 223 255
199 223 255
199 223 255
199 223 255
199 223 255
199 223 255
199 223 255
199 223 255
199 223 255
199 223 255
199 223 255
199 223 255
199 223 255
199 223 255
199 223 255
199 223 255
199 223 255
199 223 255
199 223 255
199 223 255
199 223 255
199 223 255
199 223 255
199 223 255
199 223 255
199 223 255
199 223 255
199 223 255
199 223 255
199 223 255
199 223 255
199 223 255
199 223 255
199 223 255
199 223 255
199 223 255
199 223 255
199 223 255
199 223 255
199 223 255
199 223 255
199 223 255
199 223 255
199 223 255
199 223 255
199 223 255
199 223 255
199 223 255
199 223 255
199 223 255
199 223 255
199 223 255
199 223 255
199 223 255
199 223 255
199 223 255
199 223 255
199 223 255
199 223 255
199 223 255
199 223 255
199 223 255
199 224 255
199 224 255
199 224 255
199 224 255
200 224 255
200 224 255
200 224 255
200 224 255
200 224 255
200 224 255
200 224 255
200 224 255
200 213 244
194 122 140
194 0 0
199 0 0
194 0 0
192 0 0
196 0 0
196 0 0
199 0 0
200 0 0
195 0 0
198 0 0
200 0 0
194 0 0
198 0 0
199 0 0
203 0 0
198 0 0
197 0 0
198 0 0
202 0 0
205 0 0
197 0 0
197 0 0
196 0 0
199 0 0
195 0 0
201 0 0
203 0 0
198 0 0
194 0 0
200 0 0
204 0 0
204 0 0
200 0 0
205 0 0
203 0 0
205 0 0
199 0 0
207 0 0
206 0 0
206 0 0
204 0 0
205 0 0
206 0 0
208 0 0
207 0 0
207 0 0
205 0 0
208 0 0
198 0 0
208 0 0
208 0 0
205 0 0
207 0 0
205 0 0
212 0 0
205 0 0
205 0 0
205 0 0
210 0 0
210 0 0
207 0 0
208 0 0
207 0 0
207 0 0
207 0 0
208 0 0
210 0 0
213 0 0
208 0 0
208 0 0
207 0 0
210 0 0
206 0 0
205 0 0
208 0 0
214 0 0
208 0 0
211 0 0
209 0 0
207 0 0
209 0 0
215 0 0
206 0 0
210 0 0
210 0 0
211 0 0
213 0 0
207 0 0
210 0 0
210 0 0
213 0 0
212 0 0
207 0 0
211 0 0
208 0 0
208 0 0
210 0 0
213 0 0
210 0 0
211 0 0
211 0 0
211 0 0
211 0 0
212 0 0
209 0 0
215 0 0
212 0 0
215 0 0
211 0 0
211 0 0
209 0 0
210 0 0
208 0 0
210 0 0
207 0 0
213 0 0
213 0 0
209 0 0
213 0 0
209 0 0
214 0 0
212 0 0
211 0 0
212 0 0
209 0 0
211 0 0
210 0 0
212 0 0
214 0 0
210 0 0
211 0 0
209 0 0
211 0 0
211 0 0
211 0 0
215 0 0
216 0 0
211 0 0
213 0 0
211 0 0
214 0 0
212 0 0
209 0 0
211 0 0
215 0 0
216 0 0
213 0 0
211 0 0
213 0 0
212 0 0
215 0 0
210 0 0
0 0 255
0 0 255
0 0 254
0 0 255
0 0 255
0 0 255
0 0 255
0 0 255
0 0 255
0 0 255
0 0 255
0 0 254
0 0 255
0 0 255
0 0 255
0 0 254
0 0 254
0 0 255
0 0 255
0 0 255
0 0 254
0 0 255
0 0 255
0 0 255
0 0 255
0 0 254
0 0 254
0 0 255
0 0 255
0 0 255
0 0 254
0 0 254
0 0 254
0 0 254
0 0 254
0 0 255
0 0 255
0 0 252
0 0 255
0 0 255
0 0 254
0 0 255
0 0 255
0 0 254
0 0 255
0 0 255
0 0 253
0 0 254
0 0 254
0 0 253
0 0 252
0 0 255
0 0 255
0 0 254
0 0 253
0 0 252
0 0 254
0 0 255
0 0 254
0 0 254
0 0 254
0 0 255
0 0 254
0 0 254
0 0 254
0 0 254
0 0 249
0 0 253
0 0 255
0 0 253
0 0 253
0 0 253
0 0 254
0 0 254
0 0 250
0 0 254
0 0 253
0 0 255
0 0 249
0 0 254
0 0 252
0 0 254
0 0 254
0 0 255
0 0 253
0 0 249
0 0 250
0 0 253
0 0 253
0 0 252
0 0 254
0 0 253
0 0 249
0 0 254
0 0 253
0 0 253
0 0 254
0 0 253
0 0 254
0 0 252
0 0 249
0 0 253
0 0 253
0 0 252
0 0 250
0 0 252
0 0 252
0 0 250
0 0 254
0 0 250
0 0 246
0 0 254
0 0 248
0 0 249
0 0 250
0 0 248
0 0 253
0 0 248
0 0 250
0 0 253
0 0 248
0 0 250
0 0 245
0 0 253
0 0 252
0 0 245
0 0 246
0 0 248
0 0 248
0 0 248
0 0 245
0 0 244
0 0 250
0 0 249
0 0 245
0 0 249
0 0 242
0 0 246
0 0 244
0 0 246
0 0 249
0 0 245
0 0 240
0 0 250
0 0 248
0 0 245
0 0 248
0 0 242
0 0 244
0 0 240
0 0 241
0 0 236
0 0 244
80 89 240
189 211 255
200 224 255
200 224 255
200 224 255
200 224 255
200 224 255
200 224 255
200 224 255
200 224 255
200 224 255
200 224 255
200 224 255
200 224 255
199 224 255
199 224 255
199 224 255
199 224 255
199 223 255
199 223 255
199 223 255
199 223 255
199 223 255
199 223 255
199 223 255
199 223 255
199 223 255
199 223 255
199 223 255
199 223 255
199 223 255
199 223 255
199 223 255
199 223 255
199 223 255
199 223 255
199 223 255
199 223 255
199 223 255
199 223 255
199 223 255
199 223 255
199 223 255
199 223 255
199 223 255
199 223 255
199 223 255
199 223 255
199 223 255
199 223 255
199 223 255
199 223 255
199 223 255
199 223 255
199 223 255
199 223 255
199 223 255
199 223 255
199 223 255
199 223 255
199 223 255
199 223 255
199 223 255
199 223 255
199 223 255
199 223 255
199 223 255
199 223 255
199 223 255
199 223 255
199 223 255
199 223 255
199 223 255
199 223 255
199 223 255
199 223 255
199 224 255
199 224 255
199 224 255
199 224 255
200 224 255
200 224 255
200 224 255
200 224 255
200 224 255
200 224 255
200 224 255
200 224 255
200 224 255
200 224 255
200 224 255
200 224 255
196 186 212
189 74 84
191 0 0
194 0 0
195 0 0
195 0 0
193 0 0
199 0 0
197 0 0
194 0 0
194 0 0
201 0 0
193 0 0
200 0 0
203 0 0
198 0 0
199 0 0
202 0 0
198 0 0
198 0 0
197 0 0
198 0 0
195 0 0
206 0 0
200 0 0
202 0 0
203 0 0
206 0 0
198 0 0
205 0 0
203 0 0
205 0 0
206 0 0
204 0 0
200 0 0
206 0 0
205 0 0
206 0 0
202 0 0
200 0 0
207 0 0
203 0 0
203 0 0
206 0 0
209 0 0
207 0 0
208 0 0
206 0 0
206 0 0
204 0 0
206 0 0
211 0 0
205 0 0
204 0 0
205 0 0
212 0 0
211 0 0
206 0 0
205 0 0
205 0 0
211 0 0
206 0 0
205 0 0
207 0 0
207 0 0
199 0 0
206 0 0
212 0 0
210 0 0
212 0 0
211 0 0
209 0 0
207 0 0
210 0 0
213 0 0
208 0 0
205 0 0
212 0 0
207 0 0
209 0 0
212 0 0
210 0 0
207 0 0
212 0 0
209 0 0
210 0 0
208 0 0
207 0 0
206 0 0
211 0 0
207 0 0
211 0 0
210 0 0
210 0 0
212 0 0
209 0 0
211 0 0
213 0 0
208 0 0
208 0 0
212 0 0
211 0 0
209 0 0
210 0 0
214 0 0
210 0 0
207 0 0
208 0 0
212 0 0
211 0 0
209 0 0
210 0 0
210 0 0
212 0 0
210 0 0
211 0 0
211 0 0
213 0 0
214 0 0
212 0 0
212 0 0
210 0 0
212 0 0
211 0 0
212 0 0
210 0 0
211 0 0
213 0 0
211 0 0
212 0 0
215 0 0
209 0 0
212 0 0
212 0 0
213 0 0
213 0 0
218 0 0
214 0 0
211 0 0
210 0 0
211 0 0
212 0 0
212 0 0
212 0 0
213 0 0
214 0 0
211 0 0
214 0 0
214 0 0
212 0 0
212 0 0
211 0 0
214 0 0
212 0 0
211 0 0
0 0 255
0 0 254
0 0 255
0 0 255
0 0 255
0 0 255
0 0 254
0 0 254
0 0 255
0 0 255
0 0 255
0 0 255
0 0 254
0 0 255
0 0 255
0 0 255
0 0 255
0 0 255
0 0 255
0 0 255
0 0 254
0 0 255
0 0 255
0 0 255
0 0 253
0 0 255
0 0 254
0 0 253
0 0 255
0 0 255
0 0 255
0 0 253
0 0 255
0 0 255
0 0 255
0 0 254
0 0 255
0 0 255
0 0 255
0 0 255
0 0 253
0 0 255
0 0 254
0 0 254
0 0 254
0 0 252
0 0 254
0 0 255
0 0 255
0 0 255
0 0 255
0 0 253
0 0 255
0 0 255
0 0 253
0 0 255
0 0 255
0 0 253
0 0 254
0 0 255
0 0 255
0 0 255
0 0 255
0 0 254
0 0 255
0 0 253
0 0 253
0 0 252
0 0 254
0 0 253
0 0 254
0 0 254
0 0 253
0 0 254
0 0 255
0 0 255
0 0 252
0 0 253
0 0 255
0 0 253
0 0 253
0 0 252
0 0 254
0 0 250
0 0 254
0 0 254
0 0 254
0 0 252
0 0 253
0 0 254
0 0 250
0 0 254
0 0 254
0 0 250
0 0 254
0 0 254
0 0 252
0 0 250
0 0 254
0 0 254
0 0 253
0 0 248
0 0 253
0 0 245
0 0 254
0 0 248
0 0 250
0 0 253
0 0 253
0 0 248
0 0 248
0 0 252
0 0 250
0 0 249
0 0 246
0 0 252
0 0 249
0 0 246
0 0 249
0 0 252
0 0 252
0 0 249
0 0 253
0 0 249
0 0 252
0 0 246
0 0 246
0 0 250
0 0 245
0 0 249
0 0 250
0 0 249
0 0 242
0 0 244
0 0 241
0 0 250
0 0 245
0 0 245
0 0 241
0 0 249
0 0 252
0 0 245
0 0 249
0 0 241
0 0 248
0 0 248
0 0 249
0 0 248
0 0 244
0 0 245
0 0 250
0 0 245
0 0 248
0 0 246
20 22 240
123 138 249
199 223 255
200 224 255
200 224 255
200 224 255
200 224 255
200 224 255
200 224 255
200 224 255
200 224 255
200 224 255
200 224 255
200 224 255
200 224 255
200 224 255
200 224 255
200 224 255
199 224 255
199 224 255
199 224 255
199 224 255
199 224 255
199 224 255
199 223 255
199 223 255
199 223 255
199 223 255
199 223 255
199 223 255
199 223 255
199 223 255
199 223 255
199 223 255
199 223 255
199 223 255
199 223 255
199 223 255
199 223 255
199 223 255
199 223 255
199 223 255
199 223 255
199 223 255
199 223 255
199 223 255
199 223 255
199 223 255
199 223 255
199 223 255
199 223 255
199 223 255
199 223 255
199 223 255
199 223 255
199 223 255
199 223 255
199 223 255
199 223 255
199 223 255
199 223 255
199 223 255
199 223 255
199 223 255
199 223 255
199 223 255
199 223 255
199 223 255
199 224 255
199 224 255
199 224 255
199 224 255
199 224 255
199 224 255
200 224 255
200 224 255
200 224 255
200 224 255
200 224 255
200 224 255
200 224 255
200 224 255
200 224 255
200 224 255
200 224 255
200 224 255
200 224 255
200 224 255
200 224 255
200 221 252
197 153 175
198 22 25
196 0 0
196 0 0
199 0 0
195 0 0
196 0 0
195 0 0
193 0 0
198 0 0
199 0 0
188 0 0
200 0 0
196 0 0
198 0 0
203 0 0
197 0 0
200 0 0
198 0 0
203 0 0
194 0 0
201 0 0
200 0 0
201 0 0
205 0 0
202 0 0
201 0 0
201 0 0
201 0 0
200 0 0
204 0 0
205 0 0
198 0 0
203 0 0
202 0 0
200 0 0
202 0 0
205 0 0
203 0 0
206 0 0
206 0 0
206 0 0
207 0 0
210 0 0
208 0 0
209 0 0
209 0 0
204 0 0
208 0 0
200 0 0
204 0 0
204 0 0
205 0 0
201 0 0
204 0 0
203 0 0
206 0 0
205 0 0
207 0 0
210 0 0
209 0 0
208 0 0
210 0 0
205 0 0
213 0 0
208 0 0
207 0 0
210 0 0
200 0 0
206 0 0
212 0 0
203 0 0
207 0 0
205 0 0
206 0 0
210 0 0
210 0 0
205 0 0
207 0 0
204 0 0
209 0 0
209 0 0
210 0 0
213 0 0
209 0 0
204 0 0
208 0 0
209 0 0
207 0 0
211 0 0
212 0 0
208 0 0
208 0 0
208 0 0
208 0 0
210 0 0
212 0 0
212 0 0
207 0 0
212 0 0
209 0 0
210 0 0
212 0 0
213 0 0
212 0 0
214 0 0
211 0 0
213 0 0
212 0 0
216 0 0
210 0 0
211 0 0
211 0 0
209 0 0
210 0 0
214 0 0
210 0 0
213 0 0
215 0 0
213 0 0
213 0 0
210 0 0
211 0 0
212 0 0
213 0 0
211 0 0
213 0 0
210 0 0
215 0 0
209 0 0
211 0 0
210 0 0
216 0 0
211 0 0
212 0 0
211 0 0
215 0 0
213 0 0
211 0 0
208 0 0
208 0 0
216 0 0
213 0 0
209 0 0
210 0 0
210 0 0
215 0 0
215 0 0
213 0 0
211 0 0
212 0 0
212 0 0
214 0 0
215 0 0
213 0 0
215 0 0
0 0 255
0 0 255
0 0 253
0 0 255
0 0 255
0 0 255
0 0 255
0 0 253
0 0 255
0 0 255
0 0 255
0 0 255
0 0 255
0 0 255
0 0 255
0 0 255
0 0 255
0 0 254
0 0 255
0 0 255
0 0 255
0 0 255
0 0 255
0 0 254
0 0 255
0 0 254
0 0 254
0 0 255
0 0 255
0 0 255
0 0 254
0 0 255
0 0 255
0 0 255
0 0 255
0 0 254
0 0 255
0 0 254
0 0 255
0 0 255
0 0 254
0 0 253
0 0 255
0 0 254
0 0 252
0 0 255
0 0 254
0 0 254
0 0 254
0 0 253
0 0 254
0 0 254
0 0 253
0 0 254
0 0 253
0 0 254
0 0 254
0 0 253
0 0 254
0 0 254
0 0 253
0 0 255
0 0 253
0 0 255
0 0 255
0 0 254
0 0 254
0 0 253
0 0 249
0 0 253
0 0 252
0 0 255
0 0 254
0 0 254
0 0 253
0 0 255
0 0 254
0 0 252
0 0 250
0 0 253
0 0 254
0 0 250
0 0 252
0 0 254
0 0 250
0 0 253
0 0 252
0 0 255
0 0 254
0 0 252
0 0 253
0 0 250
0 0 253
0 0 248
0 0 250
0 0 252
0 0 250
0 0 250
0 0 250
0 0 254
0 0 252
0 0 253
0 0 249
0 0 252
0 0 252
0 0 252
0 0 254
0 0 253
0 0 250
0 0 252
0 0 252
0 0 248
0 0 253
0 0 249
0 0 254
0 0 252
0 0 250
0 0 248
0 0 248
0 0 252
0 0 250
0 0 250
0 0 254
0 0 250
0 0 248
0 0 244
0 0 244
0 0 241
0 0 245
0 0 253
0 0 253
0 0 253
0 0 252
0 0 246
0 0 250
0 0 245
0 0 244
0 0 250
0 0 241
0 0 249
0 0 241
0 0 241
0 0 252
0 0 246
0 0 245
0 0 244
0 0 246
0 0 245
0 0 248
0 0 248
0 0 244
0 0 240
0 0 234
0 0 248
0 0 246
0 0 248
89 100 246
192 215 255
200 224 255
200 224 255
200 224 255
200 224 255
200 224 255
200 224 255
200 224 255
200 224 255
200 224 255
200 224 255
200 224 255
200 224 255
200 224 255
200 224 255
200 224 255
200 224 255
200 224 255
200 224 255
200 224 255
200 224 255
200 224 255
200 224 255
199 224 255
199 224 255
199 224 255
199 224 255
199 224 255
199 224 255
199 224 255
199 224 255
199 223 255
199 223 255
199 223 255
199 223 255
199 223 255
199 223 255
199 223 255
199 223 255
199 223 255
199 223 255
199 223 255
199 223 255
199 223 255
199 223 255
199 223 255
199 223 255
199 223 255
199 223 255
199 223 255
199 223 255
199 223 255
199 223 255
199 223 255
199 223 255
199 224 255
199 224 255
199 224 255
199 224 255
199 224 255
199 224 255
199 224 255
199 224 255
200 224 255
200 224 255
200 224 255
200 224 255
200 224 255
200 224 255
200 224 255
200 224 255
200 224 255
200 224 255
200 224 255
200 224 255
200 224 255
200 224 255
200 224 255
200 224 255
200 224 255
200 224 255
200 224 255
200 224 255
200 224 255
200 224 255
200 206 236
195 109 125
190 0 0
193 0 0
193 0 0
200 0 0
200 0 0
195 0 0
191 0 0
196 0 0
197 0 0
193 0 0
203 0 0
196 0 0
201 0 0
198 0 0
199 0 0
194 0 0
200 0 0
188 0 0
197 0 0
200 0 0
193 0 0
198 0 0
199 0 0
197 0 0
198 0 0
206 0 0
202 0 0
200 0 0
204 0 0
205 0 0
203 0 0
207 0 0
199 0 0
205 0 0
203 0 0
199 0 0
206 0 0
207 0 0
206 0 0
203 0 0
199 0 0
206 0 0
204 0 0
199 0 0
207 0 0
199 0 0
210 0 0
201 0 0
206 0 0
201 0 0
206 0 0
207 0 0
204 0 0
205 0 0
207 0 0
204 0 0
212 0 0
208 0 0
208 0 0
207 0 0
209 0 0
205 0 0
207 0 0
207 0 0
207 0 0
208 0 0
208 0 0
206 0 0
209 0 0
213 0 0
210 0 0
210 0 0
208 0 0
207 0 0
208 0 0
210 0 0
211 0 0
209 0 0
210 0 0
211 0 0
208 0 0
206 0 0
209 0 0
211 0 0
209 0 0
207 0 0
208 0 0
207 0 0
207 0 0
211 0 0
210 0 0
214 0 0
209 0 0
209 0 0
210 0 0
209 0 0
210 0 0
207 0 0
209 0 0
210 0 0
211 0 0
207 0 0
209 0 0
210 0 0
212 0 0
207 0 0
206 0 0
211 0 0
209 0 0
210 0 0
212 0 0
211 0 0
211 0 0
212 0 0
209 0 0
208 0 0
208 0 0
211 0 0
214 0 0
212 0 0
212 0 0
213 0 0
210 0 0
211 0 0
210 0 0
211 0 0
215 0 0
213 0 0
212 0 0
214 0 0
214 0 0
213 0 0
208 0 0
211 0 0
210 0 0
213 0 0
214 0 0
216 0 0
212 0 0
212 0 0
213 0 0
215 0 0
212 0 0
215 0 0
212 0 0
211 0 0
211 0 0
217 0 0
214 0 0
213 0 0
214 0 0
211 0 0
209 0 0
211 0 0
212 0 0
212 0 0
0 0 255
0 0 254
0 0 255
0 0 254
0 0 255
0 0 255
0 0 255
0 0 255
0 0 255
0 0 254
0 0 255
0 0 254
0 0 254
0 0 255
0 0 255
0 0 254
0 0 255
0 0 255
0 0 255
0 0 255
0 0 255
0 0 255
0 0 255
0 0 255
0 0 255
0 0 255
0 0 254
0 0 255
0 0 255
0 0 252
0 0 254
0 0 254
0 0 254
0 0 255
0 0 255
0 0 254
0 0 254
0 0 255
0 0 255
0 0 255
0 0 254
0 0 255
0 0 254
0 0 255
0 0 253
0 0 254
0 0 253
0 0 254
0 0 254
0 0 255
0 0 254
0 0 253
0 0 255
0 0 255
0 0 252
0 0 254
0 0 253
0 0 253
0 0 255
0 0 254
0 0 253
0 0 254
0 0 253
0 0 252
0 0 253
0 0 249
0 0 254
0 0 253
0 0 254
0 0 253
0 0 252
0 0 252
0 0 253
0 0 254
0 0 252
0 0 252
0 0 253
0 0 254
0 0 254
0 0 253
0 0 250
0 0 253
0 0 254
0 0 255
0 0 255
0 0 254
0 0 253
0 0 253
0 0 252
0 0 250
0 0 252
0 0 252
0 0 249
0 0 252
0 0 253
0 0 252
0 0 253
0 0 252
0 0 250
0 0 255
0 0 249
0 0 254
0 0 253
0 0 249
0 0 250
0 0 252
0 0 250
0 0 252
0 0 250
0 0 250
0 0 250
0 0 252
0 0 249
0 0 245
0 0 252
0 0 246
0 0 246
0 0 250
0 0 250
0 0 253
0 0 253
0 0 246
0 0 252
0 0 245
0 0 249
0 0 249
0 0 249
0 0 250
0 0 245
0 0 255
0 0 250
0 0 249
0 0 248
0 0 248
0 0 246
0 0 240
0 0 248
0 0 242
0 0 245
0 0 244
0 0 245
0 0 252
0 0 241
0 0 246
0 0 244
0 0 245
0 0 245
0 0 246
0 0 249
0 0 242
0 0 241
0 0 246
0 0 248
0 0 242
0 0 250
0 0 237
0 0 246
53 59 242
169 189 249
200 224 255
200 224 255
200 224 255
200 224 255
200 224 255
200 224 255
200 224 255
200 224 255
200 224 255
200 224 255
200 224 255
200 224 255
200 224 255
200 224 255
200 224 255
200 224 255
200 224 255
200 224 255
200 224 255
200 224 255
200 224 255
200 224 255
200 224 255
200 224 255
200 224 255
200 224 255
200 224 255
200 224 255
200 224 255
200 224 255
200 224 255
200 224 255
199 224 255
199 224 255
199 224 255
199 224 255
199 224 255
199 224 255
199 224 255
199 224 255
199 224 255
199 224 255
199 224 255
199 224 255
199 224 255
199 224 255
199 224 255
199 224 255
199 224 255
199 224 255
200 224 255
200 224 255
200 224 255
200 224 255
200 224 255
200 224 255
200 224 255
200 224 255
200 224 255
200 224 255
200 224 255
200 224 255
200 224 255
200 224 255
200 224 255
200 224 255
200 224 255
200 224 255
200 224 255
200 224 255
200 224 255
200 224 255
200 224 255
200 224 255
200 224 255
200 224 255
200 224 255
200 224 255
200 224 255
200 224 255
200 224 255
200 224 255
196 191 218
195 63 72
196 0 0
188 0 0
194 0 0
196 0 0
194 0 0
192 0 0
194 0 0
196 0 0
198 0 0
190 0 0
195 0 0
195 0 0
198 0 0
197 0 0
198 0 0
197 0 0
197 0 0
204 0 0
191 0 0
196 0 0
198 0 0
199 0 0
200 0 0
201 0 0
198 0 0
203 0 0
199 0 0
202 0 0
202 0 0
201 0 0
202 0 0
200 0 0
203 0 0
202 0 0
203 0 0
199 0 0
203 0 0
209 0 0
201 0 0
205 0 0
203 0 0
208 0 0
205 0 0
202 0 0
203 0 0
207 0 0
210 0 0
206 0 0
201 0 0
209 0 0
203 0 0
208 0 0
203 0 0
205 0 0
207 0 0
204 0 0
210 0 0
206 0 0
205 0 0
204 0 0
204 0 0
206 0 0
209 0 0
205 0 0
212 0 0
205 0 0
213 0 0
209 0 0
211 0 0
205 0 0
205 0 0
209 0 0
204 0 0
209 0 0
211 0 0
205 0 0
212 0 0
211 0 0
215 0 0
211 0 0
213 0 0
205 0 0
213 0 0
205 0 0
208 0 0
210 0 0
212 0 0
214 0 0
208 0 0
212 0 0
206 0 0
210 0 0
212 0 0
212 0 0
206 0 0
212 0 0
209 0 0
211 0 0
210 0 0
210 0 0
209 0 0
213 0 0
211 0 0
208 0 0
211 0 0
211 0 0
212 0 0
211 0 0
215 0 0
212 0 0
213 0 0
212 0 0
215 0 0
212 0 0
213 0 0
210 0 0
211 0 0
213 0 0
216 0 0
211 0 0
211 0 0
211 0 0
211 0 0
208 0 0
210 0 0
216 0 0
213 0 0
213 0 0
215 0 0
207 0 0
213 0 0
212 0 0
214 0 0
217 0 0
215 0 0
212 0 0
212 0 0
208 0 0
209 0 0
215 0 0
210 0 0
213 0 0
213 0 0
213 0 0
213 0 0
213 0 0
213 0 0
215 0 0
211 0 0
213 0 0
214 0 0
213 0 0
212 0 0
213 0 0
211 0 0
211 0 0
214 0 0
0 0 255
0 0 254
0 0 255
0 0 255
0 0 255
0 0 253
0 0 254
0 0 255
0 0 255
0 0 255
0 0 255
0 0 255
0 0 253
0 0 255
0 0 255
0 0 254
0 0 255
0 0 255
0 0 253
0 0 252
0 0 254
0 0 255
0 0 255
0 0 254
0 0 254
0 0 254
0 0 255
0 0 255
0 0 252
0 0 255
0 0 252
0 0 254
0 0 254
0 0 255
0 0 254
0 0 254
0 0 255
0 0 255
0 0 255
0 0 254
0 0 253
0 0 254
0 0 254
0 0 254
0 0 255
0 0 255
0 0 255
0 0 255
0 0 254
0 0 255
0 0 254
0 0 253
0 0 255
0 0 253
0 0 253
0 0 250
0 0 254
0 0 254
0 0 254
0 0 254
0 0 253
0 0 254
0 0 255
0 0 254
0 0 255
0 0 254
0 0 254
0 0 253
0 0 253
0 0 255
0 0 254
0 0 255
0 0 253
0 0 248
0 0 249
0 0 253
0 0 253
0 0 254
0 0 253
0 0 253
0 0 253
0 0 252
0 0 250
0 0 254
0 0 252
0 0 253
0 0 249
0 0 252
0 0 254
0 0 254
0 0 255
0 0 252
0 0 253
0 0 246
0 0 253
0 0 252
0 0 249
0 0 249
0 0 255
0 0 252
0 0 249
0 0 248
0 0 252
0 0 254
0 0 253
0 0 254
0 0 253
0 0 248
0 0 253
0 0 252
0 0 252
0 0 253
0 0 252
0 0 250
0 0 249
0 0 246
0 0 249
0 0 249
0 0 248
0 0 252
0 0 248
0 0 248
0 0 246
0 0 249
0 0 253
0 0 252
0 0 249
0 0 252
0 0 249
0 0 242
0 0 249
0 0 246
0 0 244
0 0 236
0 0 252
0 0 248
0 0 245
0 0 246
0 0 252
0 0 240
0 0 249
0 0 246
0 0 241
0 0 245
0 0 246
0 0 240
0 0 250
0 0 248
0 0 245
0 0 237
0 0 249
0 0 241
0 0 244
0 0 242
0 0 238
0 0 242
0 0 242
0 0 242
28 31 248
149 166 249
201 224 255
201 224 255
200 224 255
200 224 255
200 224 255
200 224 255
200 224 255
200 224 255
200 224 255
200 224 255
200 224 255
200 224 255
200 224 255
200 224 255
200 224 255
200 224 255
200 224 255
200 224 255
200 224 255
200 224 255
200 224 255
200 224 255
200 224 255
200 224 255
200 224 255
200 224 255
200 224 255
200 224 255
200 224 255
200 224 255
200 224 255
200 224 255
200 224 255
200 224 255
200 224 255
200 224 255
200 224 255
200 224 255
200 224 255
200 224 255
200 224 255
200 224 255
200 224 255
200 224 255
200 224 255
200 224 255
200 224 255
200 224 255
200 224 255
200 224 255
200 224 255
200 224 255
200 224 255
200 224 255
200 224 255
200 224 255
200 224 255
200 224 255
200 224 255
200 224 255
200 224 255
200 224 255
200 224 255
200 224 255
200 224 255
200 224 255
200 224 255
200 224 255
200 224 255
200 224 255
200 224 255
200 224 255
200 224 255
200 224 255
200 224 255
200 224 255
200 224 255
200 224 255
201 224 255
201 224 255
193 162 184
194 22 25
189 0 0
194 0 0
190 0 0
192 0 0
196 0 0
191 0 0
196 0 0
194 0 0
201 0 0
194 0 0
200 0 0
192 0 0
200 0 0
193 0 0
202 0 0
197 0 0
202 0 0
196 0 0
199 0 0
202 0 0
204 0 0
199 0 0
196 0 0
196 0 0
204 0 0
199 0 0
201 0 0
206 0 0
205 0 0
199 0 0
200 0 0
200 0 0
206 0 0
204 0 0
201 0 0
204 0 0
201 0 0
202 0 0
201 0 0
200 0 0
205 0 0
207 0 0
206 0 0
204 0 0
206 0 0
206 0 0
203 0 0
206 0 0
206 0 0
205 0 0
211 0 0
208 0 0
207 0 0
207 0 0
204 0 0
208 0 0
207 0 0
211 0 0
202 0 0
207 0 0
204 0 0
206 0 0
208 0 0
210 0 0
212 0 0
209 0 0
208 0 0
209 0 0
209 0 0
207 0 0
206 0 0
206 0 0
210 0 0
215 0 0
206 0 0
207 0 0
208 0 0
206 0 0
207 0 0
209 0 0
213 0 0
212 0 0
208 0 0
210 0 0
208 0 0
209 0 0
209 0 0
212 0 0
208 0 0
206 0 0
211 0 0
214 0 0
212 0 0
210 0 0
215 0 0
212 0 0
215 0 0
210 0 0
211 0 0
209 0 0
213 0 0
213 0 0
207 0 0
208 0 0
212 0 0
209 0 0
213 0 0
210 0 0
210 0 0
211 0 0
210 0 0
211 0 0
212 0 0
212 0 0
210 0 0
212 0 0
215 0 0
219 0 0
210 0 0
211 0 0
216 0 0
211 0 0
214 0 0
213 0 0
213 0 0
210 0 0
216 0 0
211 0 0
214 0 0
213 0 0
210 0 0
214 0 0
213 0 0
210 0 0
215 0 0
211 0 0
213 0 0
211 0 0
212 0 0
212 0 0
212 0 0
210 0 0
211 0 0
213 0 0
214 0 0
214 0 0
213 0 0
213 0 0
208 0 0
212 0 0
214 0 0
216 0 0
212 0 0
210 0 0
216 0 0
217 0 0
211 0 0
212 0 0
0 0 255
0 0 254
0 0 255
0 0 255
0 0 255
0 0 255
0 0 254
0 0 254
0 0 255
0 0 255
0 0 255
0 0 254
0 0 255
0 0 255
0 0 255
0 0 255
0 0 255
0 0 254
0 0 254
0 0 254
0 0 254
0 0 255
0 0 255
0 0 255
0 0 255
0 0 255
0 0 255
0 0 254
0 0 255
0 0 254
0 0 254
0 0 255
0 0 254
0 0 254
0 0 255
0 0 255
0 0 255
0 0 254
0 0 255
0 0 255
0 0 255
0 0 252
0 0 255
0 0 254
0 0 253
0 0 254
0 0 254
0 0 255
0 0 255
0 0 252
0 0 255
0 0 253
0 0 255
0 0 255
0 0 255
0 0 254
0 0 255
0 0 254
0 0 253
0 0 253
0 0 255
0 0 254
0 0 254
0 0 254
0 0 254
0 0 255
0 0 253
0 0 253
0 0 254
0 0 253
0 0 252
0 0 253
0 0 252
0 0 254
0 0 254
0 0 254
0 0 253
0 0 252
0 0 249
0 0 254
0 0 253
0 0 253
0 0 254
0 0 252
0 0 253
0 0 255
0 0 252
0 0 253
0 0 249
0 0 254
0 0 254
0 0 254
0 0 252
0 0 254
0 0 252
0 0 253
0 0 249
0 0 252
0 0 250
0 0 253
0 0 252
0 0 253
0 0 252
0 0 249
0 0 252
0 0 252
0 0 252
0 0 252
0 0 248
0 0 252
0 0 249
0 0 248
0 0 250
0 0 252
0 0 245
0 0 246
0 0 249
0 0 248
0 0 241
0 0 253
0 0 249
0 0 249
0 0 253
0 0 250
0 0 249
0 0 250
0 0 244
0 0 249
0 0 246
0 0 241
0 0 245
0 0 241
0 0 248
0 0 244
0 0 252
0 0 250
0 0 249
0 0 248
0 0 244
0 0 245
0 0 248
0 0 245
0 0 249
0 0 245
0 0 249
0 0 244
0 0 246
0 0 238
0 0 245
0 0 245
0 0 244
0 0 249
0 0 246
0 0 245
0 0 246
0 0 244
0 0 241
0 0 248
0 0 241
0 0 242
108 121 248
197 220 255
201 224 255
201 224 255
201 224 255
201 224 255
201 224 255
200 224 255
200 224 255
200 224 255
200 224 255
200 224 255
200 224 255
200 224 255
200 224 255
200 224 255
200 224 255
200 224 255
200 224 255
200 224 255
200 224 255
200 224 255
200 224 255
200 224 255
200 224 255
200 224 255
200 224 255
200 224 255
200 224 255
200 224 255
200 224 255
200 224 255
200 224 255
200 224 255
200 224 255
200 224 255
200 224 255
200 224 255
200 224 255
200 224 255
200 224 255
200 224 255
200 224 255
200 224 255
200 224 255
200 224 255
200 224 255
200 224 255
200 224 255
200 224 255
200 224 255
200 224 255
200 224 255
200 224 255
200 224 255
200 224 255
200 224 255
200 224 255
200 224 255
200 224 255
200 224 255
200 224 255
200 224 255
200 224 255
200 224 255
200 224 255
200 224 255
200 224 255
200 224 255
200 224 255
200 224 255
200 224 255
200 224 255
201 224 255
201 224 255
201 224 255
201 224 255
201 224 255
201 219 249
193 123 140
185 0 0
190 0 0
199 0 0
188 0 0
191 0 0
193 0 0
197 0 0
189 0 0
196 0 0
199 0 0
195 0 0
206 0 0
195 0 0
196 0 0
196 0 0
205 0 0
197 0 0
205 0 0
195 0 0
198 0 0
202 0 0
203 0 0
201 0 0
198 0 0
204 0 0
202 0 0
201 0 0
203 0 0
198 0 0
202 0 0
203 0 0
199 0 0
208 0 0
203 0 0
202 0 0
204 0 0
205 0 0
204 0 0
204 0 0
208 0 0
205 0 0
199 0 0
200 0 0
204 0 0
207 0 0
203 0 0
204 0 0
205 0 0
204 0 0
207 0 0
208 0 0
207 0 0
203 0 0
201 0 0
205 0 0
207 0 0
205 0 0
211 0 0
203 0 0
206 0 0
208 0 0
207 0 0
207 0 0
209 0 0
204 0 0
204 0 0
211 0 0
207 0 0
210 0 0
205 0 0
210 0 0
206 0 0
208 0 0
205 0 0
211 0 0
206 0 0
213 0 0
208 0 0
207 0 0
212 0 0
214 0 0
215 0 0
208 0 0
212 0 0
212 0 0
214 0 0
210 0 0
207 0 0
209 0 0
212 0 0
210 0 0
210 0 0
208 0 0
211 0 0
209 0 0
209 0 0
213 0 0
210 0 0
209 0 0
211 0 0
213 0 0
213 0 0
214 0 0
208 0 0
212 0 0
208 0 0
210 0 0
207 0 0
210 0 0
213 0 0
212 0 0
213 0 0
212 0 0
211 0 0
211 0 0
211 0 0
213 0 0
212 0 0
209 0 0
212 0 0
214 0 0
215 0 0
211 0 0
211 0 0
209 0 0
214 0 0
213 0 0
213 0 0
213 0 0
213 0 0
212 0 0
210 0 0
210 0 0
210 0 0
214 0 0
213 0 0
214 0 0
212 0 0
210 0 0
215 0 0
213 0 0
212 0 0
212 0 0
213 0 0
209 0 0
213 0 0
217 0 0
212 0 0
216 0 0
212 0 0
213 0 0
214 0 0
213 0 0
214 0 0
215 0 0
211 0 0
216 0 0
212 0 0
215 0 0
214 0 0
0 0 252
0 0 255
0 0 255
0 0 255
0 0 255
0 0 255
0 0 254
0 0 255
0 0 255
0 0 255
0 0 255
0 0 255
0 0 254
0 0 255
0 0 255
0 0 255
0 0 255
0 0 254
0 0 255
0 0 255
0 0 255
0 0 254
0 0 255
0 0 255
0 0 255
0 0 255
0 0 255
0 0 255
0 0 255
0 0 255
0 0 254
0 0 254
0 0 254
0 0 255
0 0 255
0 0 254
0 0 255
0 0 255
0 0 254
0 0 254
0 0 255
0 0 255
0 0 255
0 0 255
0 0 255
0 0 255
0 0 253
0 0 253
0 0 252
0 0 250
0 0 254
0 0 253
0 0 255
0 0 254
0 0 254
0 0 250
0 0 255
0 0 253
0 0 254
0 0 254
0 0 254
0 0 254
0 0 254
0 0 253
0 0 254
0 0 255
0 0 253
0 0 255
0 0 253
0 0 248
0 0 253
0 0 254
0 0 254
0 0 255
0 0 255
0 0 255
0 0 255
0 0 254
0 0 252
0 0 254
0 0 250
0 0 254
0 0 254
0 0 252
0 0 246
0 0 253
0 0 253
0 0 254
0 0 252
0 0 250
0 0 252
0 0 254
0 0 254
0 0 248
0 0 248
0 0 253
0 0 254
0 0 253
0 0 253
0 0 248
0 0 254
0 0 253
0 0 254
0 0 248
0 0 253
0 0 250
0 0 250
0 0 248
0 0 246
0 0 248
0 0 252
0 0 252
0 0 252
0 0 252
0 0 254
0 0 252
0 0 248
0 0 252
0 0 249
0 0 241
0 0 246
0 0 248
0 0 248
0 0 248
0 0 246
0 0 248
0 0 248
0 0 248
0 0 249
0 0 248
0 0 248
0 0 244
0 0 245
0 0 248
0 0 245
0 0 242
0 0 250
0 0 248
0 0 246
0 0 248
0 0 245
0 0 244
0 0 241
0 0 242
0 0 241
0 0 244
0 0 246
0 0 245
0 0 241
0 0 248
0 0 242
0 0 246
0 0 240
0 0 238
0 0 241
0 0 245
0 0 238
0 0 242
0 0 244
0 0 238
0 0 237
83 92 248
192 214 254
201 224 255
201 224 255
201 224 255
201 224 255
201 224 255
201 224 255
201 224 255
201 224 255
201 224 255
201 224 255
201 224 255
200 224 255
200 224 255
200 224 255
200 224 255
200 224 255
200 224 255
200 224 255
200 224 255
200 224 255
200 224 255
200 224 255
200 224 255
200 224 255
200 224 255
200 224 255
200 224 255
200 224 255
200 224 255
200 224 255
200 224 255
200 224 255
200 224 255
200 224 255
200 224 255
200 224 255
200 224 255
200 224 255
200 224 255
200 224 255
200 224 255
200 224 255
200 224 255
200 224 255
200 224 255
200 224 255
200 224 255
200 224 255
200 224 255
200 224 255
200 224 255
200 224 255
200 224 255
200 224 255
200 224 255
200 224 255
200 224 255
200 224 255
200 224 255
200 224 255
200 224 255
200 224 255
200 224 255
201 224 255
201 224 255
201 224 255
201 224 255
201 224 255
201 224 255
201 224 255
201 224 255
201 224 255
201 224 255
201 224 255
199 212 241
193 81 92
194 0 0
195 0 0
191 0 0
193 0 0
188 0 0
189 0 0
203 0 0
199 0 0
193 0 0
191 0 0
198 0 0
192 0 0
193 0 0
197 0 0
199 0 0
201 0 0
201 0 0
194 0 0
201 0 0
205 0 0
198 0 0
195 0 0
202 0 0
205 0 0
199 0 0
199 0 0
200 0 0
206 0 0
204 0 0
200 0 0
208 0 0
209 0 0
206 0 0
200 0 0
206 0 0
200 0 0
207 0 0
206 0 0
201 0 0
197 0 0
205 0 0
203 0 0
204 0 0
201 0 0
203 0 0
207 0 0
203 0 0
203 0 0
206 0 0
203 0 0
208 0 0
210 0 0
207 0 0
203 0 0
205 0 0
211 0 0
205 0 0
207 0 0
207 0 0
204 0 0
211 0 0
205 0 0
209 0 0
208 0 0
204 0 0
205 0 0
208 0 0
212 0 0
206 0 0
212 0 0
209 0 0
210 0 0
205 0 0
207 0 0
204 0 0
211 0 0
208 0 0
211 0 0
208 0 0
211 0 0
211 0 0
210 0 0
212 0 0
213 0 0
213 0 0
210 0 0
209 0 0
212 0 0
210 0 0
213 0 0
210 0 0
209 0 0
208 0 0
212 0 0
207 0 0
209 0 0
213 0 0
212 0 0
211 0 0
213 0 0
213 0 0
212 0 0
210 0 0
211 0 0
212 0 0
213 0 0
213 0 0
207 0 0
211 0 0
212 0 0
214 0 0
212 0 0
211 0 0
209 0 0
212 0 0
211 0 0
211 0 0
212 0 0
213 0 0
214 0 0
211 0 0
211 0 0
210 0 0
212 0 0
213 0 0
213 0 0
211 0 0
212 0 0
214 0 0
210 0 0
210 0 0
213 0 0
212 0 0
213 0 0
211 0 0
212 0 0
210 0 0
213 0 0
212 0 0
211 0 0
212 0 0
210 0 0
213 0 0
214 0 0
218 0 0
210 0 0
214 0 0
210 0 0
212 0 0
209 0 0
213 0 0
216 0 0
213 0 0
213 0 0
213 0 0
215 0 0
210 0 0
212 0 0
213 0 0
216 0 0
214 0 0
0 0 255
0 0 255
0 0 255
0 0 255
0 0 255
0 0 255
0 0 255
0 0 254
0 0 253
0 0 255
0 0 255
0 0 254
0 0 254
0 0 254
0 0 255
0 0 254
0 0 255
0 0 253
0 0 255
0 0 255
0 0 254
0 0 254
0 0 253
0 0 255
0 0 255
0 0 255
0 0 255
0 0 254
0 0 255
0 0 254
0 0 252
0 0 255
0 0 255
0 0 254
0 0 254
0 0 254
0 0 255
0 0 252
0 0 254
0 0 253
0 0 254
0 0 254
0 0 255
0 0 254
0 0 254
0 0 254
0 0 254
0 0 254
0 0 254
0 0 254
0 0 254
0 0 254
0 0 254
0 0 253
0 0 255
0 0 254
0 0 255
0 0 250
0 0 255
0 0 252
0 0 250
0 0 253
0 0 254
0 0 255
0 0 252
0 0 255
0 0 253
0 0 255
0 0 254
0 0 254
0 0 255
0 0 249
0 0 255
0 0 253
0 0 252
0 0 254
0 0 254
0 0 253
0 0 254
0 0 254
0 0 255
0 0 250
0 0 250
0 0 254
0 0 252
0 0 254
0 0 252
0 0 252
0 0 252
0 0 254
0 0 253
0 0 253
0 0 253
0 0 253
0 0 255
0 0 246
0 0 254
0 0 252
0 0 253
0 0 253
0 0 246
0 0 246
0 0 252
0 0 254
0 0 250
0 0 254
0 0 249
0 0 253
0 0 250
0 0 252
0 0 252
0 0 252
0 0 249
0 0 248
0 0 249
0 0 250
0 0 249
0 0 248
0 0 250
0 0 250
0 0 249
0 0 252
0 0 250
0 0 240
0 0 249
0 0 253
0 0 246
0 0 248
0 0 253
0 0 253
0 0 245
0 0 246
0 0 246
0 0 245
0 0 245
0 0 253
0 0 242
0 0 246
0 0 246
0 0 240
0 0 252
0 0 248
0 0 240
0 0 244
0 0 248
0 0 248
0 0 240
0 0 246
0 0 241
0 0 245
0 0 244
0 0 238
0 0 240
0 0 240
0 0 246
0 0 241
0 0 237
0 0 233
0 0 234
0 0 237
0 0 237
0 0 246
40 44 236
180 201 250
201 224 255
201 224 255
201 224 255
201 224 255
201 224 255
201 224 255
201 224 255
201 224 255
201 224 255
201 224 255
201 224 255
201 224 255
201 224 255
201 224 255
201 224 255
201 224 255
201 224 255
201 224 255
200 224 255
200 224 255
200 224 255
200 224 255
200 224 255
200 224 255
200 224 255
200 224 255
200 224 255
200 224 255
200 224 255
200 224 255
200 224 255
200 224 255
200 224 255
200 224 255
200 224 255
200 224 255
200 224 255
200 224 255
200 224 255
200 224 255
200 224 255
200 224 255
200 224 255
200 224 255
200 224 255
200 224 255
200 224 255
200 224 255
200 224 255
200 224 255
200 224 255
200 224 255
200 224 255
200 224 255
201 224 255
201 224 255
201 224 255
201 224 255
201 224 255
201 224 255
201 224 255
201 224 255
201 224 255
201 224 255
201 224 255
201 224 255
201 224 255
201 224 255
201 224 255
201 224 255
201 224 255
201 224 255
198 193 220
187 71 80
189 0 0
188 0 0
191 0 0
187 0 0
193 0 0
188 0 0
191 0 0
190 0 0
194 0 0
194 0 0
201 0 0
190 0 0
196 0 0
193 0 0
194 0 0
197 0 0
193 0 0
198 0 0
197 0 0
196 0 0
204 0 0
199 0 0
194 0 0
199 0 0
200 0 0
199 0 0
199 0 0
207 0 0
196 0 0
199 0 0
203 0 0
204 0 0
202 0 0
205 0 0
204 0 0
203 0 0
204 0 0
202 0 0
203 0 0
202 0 0
206 0 0
202 0 0
203 0 0
201 0 0
202 0 0
200 0 0
204 0 0
204 0 0
201 0 0
206 0 0
207 0 0
204 0 0
204 0 0
205 0 0
207 0 0
208 0 0
208 0 0
200 0 0
207 0 0
207 0 0
211 0 0
207 0 0
206 0 0
210 0 0
211 0 0
207 0 0
213 0 0
209 0 0
210 0 0
208 0 0
208 0 0
208 0 0
202 0 0
211 0 0
210 0 0
204 0 0
206 0 0
207 0 0
212 0 0
209 0 0
210 0 0
212 0 0
212 0 0
209 0 0
212 0 0
210 0 0
211 0 0
211 0 0
207 0 0
209 0 0
212 0 0
210 0 0
205 0 0
210 0 0
210 0 0
209 0 0
207 0 0
212 0 0
212 0 0
213 0 0
210 0 0
208 0 0
210 0 0
208 0 0
214 0 0
214 0 0
212 0 0
212 0 0
212 0 0
213 0 0
216 0 0
209 0 0
210 0 0
212 0 0
206 0 0
214 0 0
213 0 0
212 0 0
209 0 0
211 0 0
215 0 0
215 0 0
209 0 0
211 0 0
214 0 0
211 0 0
213 0 0
214 0 0
213 0 0
214 0 0
215 0 0
215 0 0
213 0 0
211 0 0
210 0 0
214 0 0
211 0 0
210 0 0
212 0 0
213 0 0
213 0 0
214 0 0
214 0 0
214 0 0
214 0 0
216 0 0
209 0 0
213 0 0
213 0 0
215 0 0
214 0 0
212 0 0
214 0 0
214 0 0
214 0 0
214 0 0
211 0 0
214 0 0
213 0 0
211 0 0
214 0 0
213 0 0
0 0 255
0 0 255
0 0 254
0 0 255
0 0 255
0 0 255
0 0 254
0 0 255
0 0 255
0 0 254
0 0 255
0 0 255
0 0 255
0 0 255
0 0 255
0 0 255
0 0 255
0 0 255
0 0 253
0 0 254
0 0 255
0 0 254
0 0 255
0 0 255
0 0 255
0 0 255
0 0 254
0 0 255
0 0 254
0 0 255
0 0 255
0 0 252
0 0 255
0 0 255
0 0 255
0 0 253
0 0 255
0 0 254
0 0 254
0 0 253
0 0 255
0 0 254
0 0 254
0 0 253
0 0 253
0 0 254
0 0 252
0 0 255
0 0 255
0 0 255
0 0 254
0 0 254
0 0 255
0 0 253
0 0 254
0 0 252
0 0 253
0 0 255
0 0 254
0 0 250
0 0 255
0 0 252
0 0 254
0 0 255
0 0 253
0 0 253
0 0 255
0 0 253
0 0 249
0 0 252
0 0 254
0 0 252
0 0 253
0 0 249
0 0 250
0 0 250
0 0 253
0 0 250
0 0 255
0 0 253
0 0 254
0 0 252
0 0 254
0 0 250
0 0 250
0 0 252
0 0 252
0 0 250
0 0 253
0 0 250
0 0 250
0 0 248
0 0 250
0 0 254
0 0 250
0 0 252
0 0 252
0 0 254
0 0 250
0 0 249
0 0 253
0 0 248
0 0 249
0 0 250
0 0 250
0 0 250
0 0 248
0 0 250
0 0 252
0 0 250
0 0 250
0 0 250
0 0 245
0 0 252
0 0 250
0 0 242
0 0 245
0 0 249
0 0 246
0 0 248
0 0 253
0 0 246
0 0 249
0 0 241
0 0 248
0 0 249
0 0 245
0 0 246
0 0 242
0 0 244
0 0 252
0 0 249
0 0 248
0 0 237
0 0 248
0 0 246
0 0 241
0 0 250
0 0 242
0 0 245
0 0 249
0 0 245
0 0 246
0 0 245
0 0 252
0 0 241
0 0 234
0 0 241
0 0 245
0 0 238
0 0 248
0 0 237
0 0 242
0 0 240
0 0 244
0 0 245
0 0 233
0 0 242
0 0 241
0 0 240
0 0 242
0 0 240
0 0 246
20 22 236
152 169 252
201 225 255
201 224 255
201 224 255
201 224 255
201 224 255
201 224 255
201 224 255
201 224 255
201 224 255
201 224 255
201 224 255
201 224 255
201 224 255
201 224 255
201 224 255
201 224 255
201 224 255
201 224 255
201 224 255
201 224 255
201 224 255
201 224 255
201 224 255
201 224 255
201 224 255
201 224 255
201 224 255
201 224 255
201 224 255
201 224 255
201 224 255
201 224 255
201 224 255
201 224 255
201 224 255
201 224 255
201 224 255
201 224 255
201 224 255
201 224 255
201 224 255
201 224 255
201 224 255
201 224 255
201 224 255
201 224 255
201 224 255
201 224 255
201 224 255
201 224 255
201 224 255
201 224 255
201 224 255
201 224 255
201 224 255
201 224 255
201 224 255
201 224 255
201 224 255
201 224 255
201 224 255
201 224 255
201 224 255
201 224 255
201 224 255
201 224 255
201 224 255
201 224 255
201 224 255
201 225 255
201 189 215
190 22 25
189 0 0
191 0 0
194 0 0
189 0 0
184 0 0
193 0 0
195 0 0
195 0 0
191 0 0
191 0 0
194 0 0
194 0 0
196 0 0
194 0 0
194 0 0
195 0 0
201 0 0
191 0 0
192 0 0
200 0 0
189 0 0
203 0 0
200 0 0
198 0 0
200 0 0
199 0 0
205 0 0
204 0 0
199 0 0
205 0 0
201 0 0
207 0 0
204 0 0
206 0 0
202 0 0
205 0 0
202 0 0
206 0 0
203 0 0
201 0 0
205 0 0
205 0 0
202 0 0
204 0 0
203 0 0
207 0 0
208 0 0
206 0 0
205 0 0
202 0 0
206 0 0
206 0 0
202 0 0
203 0 0
206 0 0
208 0 0
204 0 0
204 0 0
204 0 0
205 0 0
209 0 0
203 0 0
209 0 0
208 0 0
213 0 0
211 0 0
209 0 0
211 0 0
210 0 0
210 0 0
207 0 0
212 0 0
212 0 0
211 0 0
211 0 0
204 0 0
208 0 0
210 0 0
208 0 0
208 0 0
208 0 0
209 0 0
210 0 0
210 0 0
208 0 0
204 0 0
211 0 0
213 0 0
210 0 0
210 0 0
209 0 0
207 0 0
210 0 0
208 0 0
211 0 0
210 0 0
212 0 0
213 0 0
210 0 0
211 0 0
213 0 0
210 0 0
213 0 0
213 0 0
210 0 0
214 0 0
211 0 0
212 0 0
215 0 0
213 0 0
211 0 0
207 0 0
208 0 0
211 0 0
212 0 0
211 0 0
212 0 0
214 0 0
214 0 0
214 0 0
211 0 0
213 0 0
211 0 0
209 0 0
214 0 0
212 0 0
212 0 0
212 0 0
211 0 0
213 0 0
211 0 0
213 0 0
212 0 0
212 0 0
210 0 0
212 0 0
210 0 0
214 0 0
215 0 0
211 0 0
212 0 0
213 0 0
209 0 0
210 0 0
212 0 0
211 0 0
211 0 0
214 0 0
214 0 0
213 0 0
215 0 0
214 0 0
214 0 0
214 0 0
214 0 0
214 0 0
214 0 0
216 0 0
215 0 0
216 0 0
211 0 0
213 0 0
211 0 0
0 0 255
0 0 255
0 0 254
0 0 255
0 0 255
0 0 255
0 0 255
0 0 255
0 0 255
0 0 254
0 0 253
0 0 254
0 0 255
0 0 255
0 0 255
0 0 255
0 0 254
0 0 255
0 0 254
0 0 254
0 0 254
0 0 254
0 0 255
0 0 254
0 0 255
0 0 254
0 0 255
0 0 254
0 0 255
0 0 254
0 0 254
0 0 255
0 0 255
0 0 254
0 0 254
0 0 254
0 0 255
0 0 254
0 0 255
0 0 252
0 0 254
0 0 254
0 0 254
0 0 254
0 0 255
0 0 255
0 0 254
0 0 253
0 0 255
0 0 255
0 0 254
0 0 255
0 0 255
0 0 253
0 0 254
0 0 252
0 0 255
0 0 254
0 0 254
0 0 255
0 0 254
0 0 253
0 0 255
0 0 255
0 0 254
0 0 253
0 0 253
0 0 254
0 0 254
0 0 254
0 0 253
0 0 252
0 0 254
0 0 250
0 0 252
0 0 254
0 0 253
0 0 250
0 0 255
0 0 253
0 0 255
0 0 254
0 0 248
0 0 254
0 0 254
0 0 250
0 0 246
0 0 255
0 0 254
0 0 250
0 0 253
0 0 253
0 0 253
0 0 254
0 0 250
0 0 250
0 0 250
0 0 255
0 0 250
0 0 252
0 0 253
0 0 246
0 0 255
0 0 252
0 0 252
0 0 250
0 0 252
0 0 249
0 0 245
0 0 248
0 0 249
0 0 248
0 0 253
0 0 250
0 0 248
0 0 249
0 0 252
0 0 250
0 0 248
0 0 252
0 0 249
0 0 242
0 0 241
0 0 249
0 0 253
0 0 249
0 0 249
0 0 253
0 0 245
0 0 246
0 0 242
0 0 248
0 0 246
0 0 244
0 0 246
0 0 246
0 0 252
0 0 238
0 0 242
0 0 244
0 0 242
0 0 236
0 0 252
0 0 248
0 0 238
0 0 246
0 0 242
0 0 237
0 0 236
0 0 241
0 0 245
0 0 238
0 0 242
0 0 244
0 0 244
0 0 242
0 0 252
0 0 231
0 0 238
0 0 248
0 0 231
0 0 238
0 0 233
0 0 238
20 22 241
160 178 248
201 225 255
201 225 255
201 225 255
201 225 255
201 225 255
201 225 255
201 224 255
201 224 255
201 224 255
201 224 255
201 224 255
201 224 255
201 224 255
201 224 255
201 224 255
201 224 255
201 224 255
201 224 255
201 224 255
201 224 255
201 224 255
201 224 255
201 224 255
201 224 255
201 224 255
201 224 255
201 224 255
201 224 255
201 224 255
201 224 255
201 224 255
201 224 255
201 224 255
201 224 255
201 224 255
201 224 255
201 224 255
201 224 255
201 224 255
201 224 255
201 224 255
201 224 255
201 224 255
201 224 255
201 224 255
201 224 255
201 224 255
201 224 255
201 224 255
201 224 255
201 224 255
201 224 255
201 224 255
201 224 255
201 224 255
201 224 255
201 224 255
201 224 255
201 224 255
201 224 255
201 224 255
201 224 255
201 225 255
201 225 255
201 225 255
201 225 255
201 225 255
201 225 255
192 157 179
186 0 0
191 0 0
190 0 0
183 0 0
192 0 0
194 0 0
190 0 0
190 0 0
191 0 0
198 0 0
200 0 0
197 0 0
192 0 0
194 0 0
192 0 0
198 0 0
192 0 0
197 0 0
192 0 0
191 0 0
198 0 0
194 0 0
196 0 0
192 0 0
201 0 0
197 0 0
204 0 0
199 0 0
201 0 0
197 0 0
201 0 0
200 0 0
200 0 0
200 0 0
200 0 0
204 0 0
203 0 0
203 0 0
205 0 0
203 0 0
205 0 0
206 0 0
207 0 0
205 0 0
205 0 0
209 0 0
199 0 0
205 0 0
202 0 0
207 0 0
202 0 0
206 0 0
203 0 0
202 0 0
206 0 0
205 0 0
204 0 0
205 0 0
205 0 0
209 0 0
209 0 0
209 0 0
210 0 0
209 0 0
208 0 0
205 0 0
207 0 0
210 0 0
206 0 0
211 0 0
210 0 0
214 0 0
205 0 0
210 0 0
208 0 0
209 0 0
209 0 0
209 0 0
210 0 0
205 0 0
212 0 0
213 0 0
214 0 0
204 0 0
208 0 0
211 0 0
208 0 0
208 0 0
214 0 0
212 0 0
217 0 0
213 0 0
211 0 0
206 0 0
211 0 0
210 0 0
211 0 0
210 0 0
213 0 0
210 0 0
213 0 0
207 0 0
211 0 0
208 0 0
212 0 0
212 0 0
209 0 0
217 0 0
210 0 0
209 0 0
214 0 0
215 0 0
210 0 0
208 0 0
209 0 0
210 0 0
208 0 0
209 0 0
214 0 0
215 0 0
212 0 0
212 0 0
210 0 0
214 0 0
215 0 0
211 0 0
216 0 0
213 0 0
212 0 0
210 0 0
213 0 0
212 0 0
212 0 0
215 0 0
209 0 0
210 0 0
213 0 0
214 0 0
213 0 0
215 0 0
214 0 0
211 0 0
211 0 0
210 0 0
214 0 0
206 0 0
211 0 0
213 0 0
209 0 0
214 0 0
215 0 0
215 0 0
213 0 0
211 0 0
213 0 0
213 0 0
212 0 0
214 0 0
212 0 0
213 0 0
213 0 0
215 0 0
216 0 0
216 0 0
213 0 0
0 0 255
0 0 255
0 0 255
0 0 254
0 0 255
0 0 255
0 0 254
0 0 255
0 0 255
0 0 253
0 0 255
0 0 255
0 0 254
0 0 255
0 0 255
0 0 255
0 0 254
0 0 255
0 0 254
0 0 255
0 0 255
0 0 254
0 0 255
0 0 255
0 0 255
0 0 254
0 0 255
0 0 254
0 0 254
0 0 254
0 0 255
0 0 255
0 0 255
0 0 255
0 0 254
0 0 255
0 0 252
0 0 254
0 0 252
0 0 254
0 0 254
0 0 252
0 0 254
0 0 255
0 0 253
0 0 255
0 0 254
0 0 252
0 0 255
0 0 253
0 0 253
0 0 252
0 0 255
0 0 252
0 0 253
0 0 250
0 0 252
0 0 253
0 0 253
0 0 255
0 0 255
0 0 250
0 0 249
0 0 252
0 0 253
0 0 254
0 0 253
0 0 255
0 0 254
0 0 254
0 0 252
0 0 254
0 0 254
0 0 252
0 0 253
0 0 254
0 0 250
0 0 255
0 0 253
0 0 255
0 0 252
0 0 253
0 0 252
0 0 254
0 0 250
0 0 252
0 0 253
0 0 248
0 0 248
0 0 254
0 0 252
0 0 246
0 0 253
0 0 249
0 0 252
0 0 248
0 0 250
0 0 254
0 0 252
0 0 252
0 0 255
0 0 248
0 0 253
0 0 254
0 0 254
0 0 254
0 0 250
0 0 248
0 0 245
0 0 244
0 0 249
0 0 249
0 0 250
0 0 249
0 0 248
0 0 249
0 0 245
0 0 254
0 0 249
0 0 250
0 0 250
0 0 244
0 0 248
0 0 252
0 0 246
0 0 248
0 0 244
0 0 244
0 0 249
0 0 240
0 0 253
0 0 248
0 0 252
0 0 244
0 0 250
0 0 241
0 0 246
0 0 246
0 0 245
0 0 248
0 0 245
0 0 240
0 0 244
0 0 241
0 0 236
0 0 240
0 0 241
0 0 246
0 0 242
0 0 248
0 0 245
0 0 242
0 0 240
0 0 241
0 0 236
0 0 238
0 0 238
0 0 241
0 0 240
0 0 231
0 0 236
0 0 234
0 0 237
0 0 233
0 0 244
0 0 240
142 159 250
202 225 255
202 225 255
202 225 255
201 225 255
201 225 255
201 225 255
201 225 255
201 225 255
201 225 255
201 225 255
201 225 255
201 225 255
201 225 255
201 224 255
201 224 255
201 224 255
201 224 255
201 224 255
201 224 255
201 224 255
201 224 255
201 224 255
201 224 255
201 224 255
201 224 255
201 224 255
201 224 255
201 224 255
201 224 255
201 224 255
201 224 255
201 224 255
201 224 255
201 224 255
201 224 255
201 224 255
201 224 255
201 224 255
201 224 255
201 224 255
201 224 255
201 224 255
201 224 255
201 224 255
201 224 255
201 224 255
201 224 255
201 224 255
201 224 255
201 224 255
201 224 255
201 224 255
201 224 255
201 224 255
201 225 255
201 225 255
201 225 255
201 225 255
201 225 255
201 225 255
201 225 255
201 225 255
201 225 255
201 225 255
202 225 255
201 222 253
199 136 155
188 0 0
185 0 0
181 0 0
185 0 0
191 0 0
186 0 0
190 0 0
193 0 0
197 0 0
195 0 0
190 0 0
193 0 0
194 0 0
194 0 0
188 0 0
193 0 0
193 0 0
194 0 0
201 0 0
199 0 0
198 0 0
200 0 0
199 0 0
204 0 0
201 0 0
203 0 0
204 0 0
206 0 0
190 0 0
193 0 0
196 0 0
197 0 0
202 0 0
204 0 0
199 0 0
197 0 0
203 0 0
207 0 0
205 0 0
208 0 0
203 0 0
208 0 0
200 0 0
204 0 0
207 0 0
208 0 0
201 0 0
203 0 0
203 0 0
206 0 0
203 0 0
207 0 0
204 0 0
204 0 0
204 0 0
212 0 0
211 0 0
206 0 0
209 0 0
207 0 0
206 0 0
207 0 0
202 0 0
206 0 0
209 0 0
205 0 0
211 0 0
208 0 0
210 0 0
208 0 0
204 0 0
211 0 0
210 0 0
209 0 0
210 0 0
210 0 0
210 0 0
211 0 0
211 0 0
212 0 0
208 0 0
209 0 0
210 0 0
212 0 0
209 0 0
212 0 0
210 0 0
215 0 0
209 0 0
208 0 0
213 0 0
210 0 0
211 0 0
209 0 0
209 0 0
202 0 0
212 0 0
209 0 0
213 0 0
213 0 0
208 0 0
209 0 0
215 0 0
212 0 0
211 0 0
210 0 0
210 0 0
209 0 0
213 0 0
212 0 0
214 0 0
210 0 0
215 0 0
214 0 0
209 0 0
214 0 0
216 0 0
212 0 0
212 0 0
214 0 0
213 0 0
214 0 0
214 0 0
213 0 0
213 0 0
214 0 0
212 0 0
212 0 0
216 0 0
209 0 0
213 0 0
211 0 0
214 0 0
210 0 0
211 0 0
213 0 0
216 0 0
215 0 0
214 0 0
213 0 0
215 0 0
210 0 0
214 0 0
211 0 0
216 0 0
212 0 0
214 0 0
213 0 0
212 0 0
216 0 0
212 0 0
211 0 0
214 0 0
214 0 0
213 0 0
214 0 0
214 0 0
217 0 0
215 0 0
213 0 0
212 0 0
211 0 0
215 0 0
211 0 0
212 0 0
214 0 0
0 0 255
0 0 255
0 0 255
0 0 255
0 0 255
0 0 255
0 0 255
0 0 255
0 0 255
0 0 255
0 0 254
0 0 255
0 0 255
0 0 255
0 0 254
0 0 255
0 0 255
0 0 255
0 0 254
0 0 253
0 0 253
0 0 255
0 0 255
0 0 255
0 0 254
0 0 255
0 0 254
0 0 255
0 0 253
0 0 255
0 0 254
0 0 255
0 0 255
0 0 255
0 0 254
0 0 254
0 0 254
0 0 254
0 0 255
0 0 253
0 0 252
0 0 255
0 0 254
0 0 255
0 0 255
0 0 254
0 0 254
0 0 250
0 0 255
0 0 254
0 0 255
0 0 255
0 0 253
0 0 253
0 0 255
0 0 250
0 0 254
0 0 252
0 0 254
0 0 250
0 0 254
0 0 254
0 0 252
0 0 252
0 0 254
0 0 253
0 0 255
0 0 252
0 0 254
0 0 252
0 0 253
0 0 252
0 0 252
0 0 250
0 0 253
0 0 255
0 0 255
0 0 253
0 0 254
0 0 252
0 0 246
0 0 253
0 0 253
0 0 255
0 0 248
0 0 255
0 0 252
0 0 253
0 0 255
0 0 246
0 0 254
0 0 252
0 0 253
0 0 253
0 0 252
0 0 252
0 0 252
0 0 249
0 0 253
0 0 249
0 0 250
0 0 249
0 0 253
0 0 250
0 0 252
0 0 248
0 0 253
0 0 250
0 0 248
0 0 252
0 0 249
0 0 250
0 0 252
0 0 254
0 0 248
0 0 253
0 0 248
0 0 250
0 0 250
0 0 246
0 0 246
0 0 249
0 0 249
0 0 249
0 0 246
0 0 246
0 0 245
0 0 242
0 0 248
0 0 246
0 0 240
0 0 249
0 0 248
0 0 249
0 0 246
0 0 245
0 0 250
0 0 242
0 0 240
0 0 246
0 0 238
0 0 248
0 0 242
0 0 252
0 0 246
0 0 238
0 0 242
0 0 242
0 0 245
0 0 244
0 0 236
0 0 249
0 0 236
0 0 242
0 0 244
0 0 242
0 0 238
0 0 241
0 0 245
0 0 241
0 0 246
0 0 240
0 0 244
0 0 234
0 0 238
0 0 237
0 0 234
117 131 245
201 224 255
202 225 255
202 225 255
202 225 255
202 225 255
202 225 255
202 225 255
202 225 255
202 225 255
202 225 255
201 225 255
201 225 255
201 225 255
201 225 255
201 225 255
201 225 255
201 225 255
201 225 255
201 225 255
201 225 255
201 225 255
201 225 255
201 225 255
201 225 255
201 225 255
201 225 255
201 225 255
201 224 255
201 224 255
201 224 255
201 224 255
201 224 255
201 224 255
201 224 255
201 224 255
201 224 255
201 224 255
201 224 255
201 225 255
201 225 255
201 225 255
201 225 255
201 225 255
201 225 255
201 225 255
201 225 255
201 225 255
201 225 255
201 225 255
201 225 255
201 225 255
201 225 255
201 225 255
201 225 255
201 225 255
202 225 255
202 225 255
202 225 255
202 225 255
202 225 255
202 225 255
202 225 255
202 225 255
202 225 255
188 147 167
193 0 0
188 0 0
192 0 0
189 0 0
183 0 0
188 0 0
190 0 0
194 0 0
197 0 0
195 0 0
193 0 0
188 0 0
193 0 0
190 0 0
192 0 0
185 0 0
196 0 0
194 0 0
196 0 0
195 0 0
198 0 0
194 0 0
196 0 0
198 0 0
201 0 0
193 0 0
198 0 0
196 0 0
202 0 0
202 0 0
194 0 0
196 0 0
201 0 0
201 0 0
203 0 0
202 0 0
201 0 0
193 0 0
205 0 0
203 0 0
203 0 0
202 0 0
202 0 0
208 0 0
202 0 0
204 0 0
201 0 0
199 0 0
206 0 0
204 0 0
203 0 0
207 0 0
209 0 0
209 0 0
205 0 0
201 0 0
209 0 0
207 0 0
202 0 0
207 0 0
205 0 0
204 0 0
207 0 0
205 0 0
201 0 0
208 0 0
203 0 0
205 0 0
208 0 0
203 0 0
206 0 0
210 0 0
206 0 0
212 0 0
207 0 0
206 0 0
212 0 0
209 0 0
212 0 0
204 0 0
209 0 0
213 0 0
213 0 0
211 0 0
210 0 0
209 0 0
216 0 0
211 0 0
209 0 0
211 0 0
210 0 0
213 0 0
207 0 0
210 0 0
211 0 0
205 0 0
213 0 0
212 0 0
210 0 0
208 0 0
211 0 0
207 0 0
210 0 0
211 0 0
213 0 0
214 0 0
213 0 0
211 0 0
210 0 0
211 0 0
212 0 0
209 0 0
210 0 0
209 0 0
214 0 0
214 0 0
214 0 0
212 0 0
215 0 0
215 0 0
211 0 0
209 0 0
214 0 0
206 0 0
212 0 0
210 0 0
212 0 0
215 0 0
210 0 0
212 0 0
215 0 0
208 0 0
218 0 0
207 0 0
213 0 0
215 0 0
216 0 0
212 0 0
215 0 0
215 0 0
211 0 0
210 0 0
211 0 0
213 0 0
209 0 0
211 0 0
214 0 0
214 0 0
211 0 0
216 0 0
214 0 0
214 0 0
212 0 0
211 0 0
214 0 0
214 0 0
216 0 0
215 0 0
213 0 0
212 0 0
211 0 0
213 0 0
216 0 0
214 0 0
211 0 0
214 0 0
215 0 0
0 0 253
0 0 255
0 0 255
0 0 255
0 0 255
0 0 255
0 0 255
0 0 255
0 0 254
0 0 255
0 0 255
0 0 255
0 0 255
0 0 255
0 0 254
0 0 254
0 0 255
0 0 254
0 0 255
0 0 254
0 0 255
0 0 255
0 0 254
0 0 255
0 0 255
0 0 255
0 0 255
0 0 255
0 0 255
0 0 254
0 0 255
0 0 254
0 0 254
0 0 254
0 0 253
0 0 255
0 0 253
0 0 255
0 0 250
0 0 253
0 0 254
0 0 253
0 0 254
0 0 255
0 0 254
0 0 254
0 0 255
0 0 250
0 0 253
0 0 254
0 0 254
0 0 254
0 0 253
0 0 255
0 0 253
0 0 255
0 0 255
0 0 254
0 0 255
0 0 254
0 0 253
0 0 253
0 0 255
0 0 254
0 0 254
0 0 248
0 0 254
0 0 254
0 0 252
0 0 253
0 0 255
0 0 253
0 0 255
0 0 250
0 0 253
0 0 254
0 0 252
0 0 254
0 0 250
0 0 255
0 0 250
0 0 253
0 0 250
0 0 253
0 0 252
0 0 252
0 0 253
0 0 253
0 0 253
0 0 253
0 0 253
0 0 249
0 0 253
0 0 252
0 0 249
0 0 249
0 0 250
0 0 253
0 0 248
0 0 249
0 0 252
0 0 252
0 0 245
0 0 250
0 0 250
0 0 250
0 0 245
0 0 249
0 0 250
0 0 250
0 0 253
0 0 250
0 0 252
0 0 246
0 0 248
0 0 246
0 0 250
0 0 246
0 0 254
0 0 249
0 0 250
0 0 252
0 0 248
0 0 245
0 0 244
0 0 249
0 0 250
0 0 245
0 0 249
0 0 241
0 0 246
0 0 249
0 0 244
0 0 249
0 0 242
0 0 241
0 0 249
0 0 240
0 0 246
0 0 245
0 0 244
0 0 244
0 0 244
0 0 238
0 0 244
0 0 245
0 0 248
0 0 245
0 0 238
0 0 241
0 0 242
0 0 241
0 0 244
0 0 240
0 0 245
0 0 233
0 0 242
0 0 244
0 0 240
0 0 238
0 0 242
0 0 237
0 0 236
0 0 228
0 0 234
0 0 234
0 0 236
0 0 234
112 125 249
201 224 254
202 225 255
202 225 255
202 225 255
202 225 255
202 225 255
202 225 255
202 225 255
202 225 255
202 225 255
202 225 255
202 225 255
202 225 255
202 225 255
202 225 255
202 225 255
202 225 255
202 225 255
202 225 255
202 225 255
201 225 255
201 225 255
201 225 255
201 225 255
201 225 255
201 225 255
201 225 255
201 225 255
201 225 255
201 225 255
201 225 255
201 225 255
201 225 255
201 225 255
201 225 255
201 225 255
201 225 255
201 225 255
201 225 255
201 225 255
201 225 255
201 225 255
202 225 255
202 225 255
202 225 255
202 225 255
202 225 255
202 225 255
202 225 255
202 225 255
202 225 255
202 225 255
202 225 255
202 225 255
202 225 255
202 225 255
202 225 255
202 225 255
202 225 255
202 225 255
202 225 255
202 224 254
189 127 144
188 0 0
187 0 0
192 0 0
188 0 0
192 0 0
192 0 0
191 0 0
196 0 0
195 0 0
193 0 0
191 0 0
197 0 0
200 0 0
200 0 0
198 0 0
197 0 0
193 0 0
194 0 0
193 0 0
198 0 0
199 0 0
198 0 0
196 0 0
197 0 0
198 0 0
200 0 0
195 0 0
201 0 0
204 0 0
203 0 0
205 0 0
204 0 0
201 0 0
201 0 0
205 0 0
202 0 0
195 0 0
200 0 0
204 0 0
195 0 0
201 0 0
204 0 0
203 0 0
201 0 0
204 0 0
206 0 0
203 0 0
209 0 0
209 0 0
205 0 0
207 0 0
206 0 0
200 0 0
208 0 0
208 0 0
212 0 0
206 0 0
203 0 0
207 0 0
213 0 0
200 0 0
204 0 0
203 0 0
204 0 0
209 0 0
204 0 0
210 0 0
209 0 0
208 0 0
210 0 0
210 0 0
208 0 0
205 0 0
210 0 0
209 0 0
211 0 0
207 0 0
211 0 0
208 0 0
209 0 0
209 0 0
208 0 0
204 0 0
210 0 0
218 0 0
211 0 0
205 0 0
210 0 0
209 0 0
206 0 0
215 0 0
209 0 0
207 0 0
208 0 0
214 0 0
211 0 0
208 0 0
209 0 0
213 0 0
214 0 0
209 0 0
212 0 0
215 0 0
213 0 0
210 0 0
207 0 0
210 0 0
213 0 0
211 0 0
213 0 0
214 0 0
213 0 0
212 0 0
211 0 0
212 0 0
214 0 0
212 0 0
212 0 0
208 0 0
210 0 0
212 0 0
212 0 0
215 0 0
214 0 0
216 0 0
216 0 0
215 0 0
217 0 0
213 0 0
216 0 0
214 0 0
209 0 0
207 0 0
213 0 0
215 0 0
214 0 0
211 0 0
212 0 0
212 0 0
211 0 0
215 0 0
214 0 0
214 0 0
216 0 0
211 0 0
217 0 0
216 0 0
215 0 0
211 0 0
214 0 0
213 0 0
214 0 0
214 0 0
214 0 0
211 0 0
214 0 0
216 0 0
216 0 0
216 0 0
212 0 0
215 0 0
217 0 0
214 0 0
214 0 0
213 0 0
214 0 0
217 0 0
217 0 0
0 0 254
0 0 254
0 0 255
0 0 255
0 0 254
0 0 255
0 0 255
0 0 255
0 0 255
0 0 255
0 0 255
0 0 255
0 0 255
0 0 255
0 0 253
0 0 254
0 0 255
0 0 254
0 0 254
0 0 255
0 0 255
0 0 255
0 0 255
0 0 254
0 0 254
0 0 254
0 0 254
0 0 254
0 0 254
0 0 255
0 0 254
0 0 255
0 0 254
0 0 254
0 0 252
0 0 255
0 0 255
0 0 252
0 0 254
0 0 253
0 0 255
0 0 255
0 0 253
0 0 254
0 0 253
0 0 255
0 0 254
0 0 253
0 0 255
0 0 255
0 0 255
0 0 255
0 0 254
0 0 253
0 0 253
0 0 252
0 0 252
0 0 254
0 0 255
0 0 254
0 0 252
0 0 254
0 0 254
0 0 253
0 0 255
0 0 252
0 0 250
0 0 254
0 0 250
0 0 248
0 0 253
0 0 254
0 0 253
0 0 250
0 0 253
0 0 253
0 0 250
0 0 252
0 0 250
0 0 252
0 0 255
0 0 253
0 0 252
0 0 248
0 0 253
0 0 252
0 0 252
0 0 249
0 0 252
0 0 253
0 0 255
0 0 249
0 0 248
0 0 253
0 0 249
0 0 249
0 0 253
0 0 253
0 0 246
0 0 248
0 0 249
0 0 246
0 0 250
0 0 248
0 0 246
0 0 250
0 0 252
0 0 241
0 0 250
0 0 250
0 0 245
0 0 246
0 0 250
0 0 250
0 0 248
0 0 253
0 0 252
0 0 249
0 0 240
0 0 250
0 0 249
0 0 249
0 0 253
0 0 249
0 0 241
0 0 242
0 0 250
0 0 246
0 0 252
0 0 250
0 0 249
0 0 244
0 0 242
0 0 242
0 0 246
0 0 254
0 0 252
0 0 241
0 0 248
0 0 241
0 0 246
0 0 244
0 0 246
0 0 244
0 0 244
0 0 241
0 0 245
0 0 244
0 0 240
0 0 241
0 0 244
0 0 237
0 0 241
0 0 238
0 0 238
0 0 242
0 0 246
0 0 233
0 0 244
0 0 236
0 0 238
0 0 234
0 0 234
0 0 237
0 0 240
0 0 246
0 0 248
0 0 233
0 0 228
105 117 245
198 220 254
202 225 255
202 225 255
202 225 255
202 225 255
202 225 255
202 225 255
202 225 255
202 225 255
202 225 255
202 225 255
202 225 255
202 225 255
202 225 255
202 225 255
202 225 255
202 225 255
202 225 255
202 225 255
202 225 255
202 225 255
202 225 255
202 225 255
202 225 255
202 225 255
202 225 255
202 225 255
202 225 255
202 225 255
202 225 255
202 225 255
202 225 255
202 225 255
202 225 255
202 225 255
202 225 255
202 225 255
202 225 255
202 225 255
202 225 255
202 225 255
202 225 255
202 225 255
202 225 255
202 225 255
202 225 255
202 225 255
202 225 255
202 225 255
202 225 255
202 225 255
202 225 255
202 225 255
202 225 255
202 225 255
202 225 255
202 225 255
202 225 255
202 225 255
202 224 254
191 123 140
186 0 0
191 0 0
188 0 0
188 0 0
192 0 0
185 0 0
188 0 0
192 0 0
189 0 0
195 0 0
194 0 0
193 0 0
197 0 0
189 0 0
192 0 0
193 0 0
196 0 0
193 0 0
195 0 0
195 0 0
197 0 0
199 0 0
200 0 0
192 0 0
192 0 0
201 0 0
203 0 0
201 0 0
198 0 0
195 0 0
196 0 0
202 0 0
204 0 0
195 0 0
196 0 0
198 0 0
199 0 0
204 0 0
192 0 0
199 0 0
200 0 0
199 0 0
203 0 0
202 0 0
210 0 0
201 0 0
207 0 0
204 0 0
200 0 0
204 0 0
205 0 0
203 0 0
205 0 0
207 0 0
203 0 0
203 0 0
205 0 0
207 0 0
204 0 0
209 0 0
206 0 0
204 0 0
205 0 0
207 0 0
209 0 0
207 0 0
207 0 0
207 0 0
212 0 0
205 0 0
207 0 0
208 0 0
210 0 0
209 0 0
209 0 0
208 0 0
208 0 0
207 0 0
204 0 0
205 0 0
210 0 0
209 0 0
205 0 0
210 0 0
212 0 0
214 0 0
212 0 0
210 0 0
211 0 0
210 0 0
211 0 0
210 0 0
213 0 0
208 0 0
212 0 0
210 0 0
214 0 0
209 0 0
210 0 0
215 0 0
205 0 0
211 0 0
213 0 0
210 0 0
210 0 0
207 0 0
207 0 0
213 0 0
212 0 0
211 0 0
215 0 0
210 0 0
212 0 0
214 0 0
213 0 0
213 0 0
213 0 0
213 0 0
212 0 0
212 0 0
214 0 0
210 0 0
214 0 0
214 0 0
212 0 0
215 0 0
210 0 0
212 0 0
216 0 0
212 0 0
212 0 0
210 0 0
214 0 0
214 0 0
214 0 0
216 0 0
214 0 0
213 0 0
214 0 0
213 0 0
213 0 0
212 0 0
213 0 0
216 0 0
213 0 0
214 0 0
214 0 0
216 0 0
215 0 0
214 0 0
214 0 0
216 0 0
212 0 0
213 0 0
214 0 0
215 0 0
211 0 0
217 0 0
216 0 0
213 0 0
212 0 0
214 0 0
215 0 0
213 0 0
212 0 0
214 0 0
212 0 0
212 0 0
215 0 0
0 0 255
0 0 253
0 0 254
0 0 255
0 0 255
0 0 255
0 0 255
0 0 254
0 0 255
0 0 255
0 0 255
0 0 255
0 0 255
0 0 255
0 0 255
0 0 255
0 0 254
0 0 255
0 0 255
0 0 255
0 0 255
0 0 254
0 0 255
0 0 255
0 0 254
0 0 255
0 0 255
0 0 254
0 0 254
0 0 255
0 0 252
0 0 255
0 0 254
0 0 253
0 0 255
0 0 254
0 0 254
0 0 255
0 0 255
0 0 252
0 0 254
0 0 255
0 0 254
0 0 252
0 0 253
0 0 255
0 0 253
0 0 254
0 0 255
0 0 254
0 0 254
0 0 255
0 0 254
0 0 253
0 0 253
0 0 252
0 0 255
0 0 255
0 0 254
0 0 254
0 0 253
0 0 255
0 0 252
0 0 254
0 0 250
0 0 254
0 0 255
0 0 252
0 0 255
0 0 250
0 0 254
0 0 253
0 0 253
0 0 252
0 0 253
0 0 255
0 0 252
0 0 252
0 0 254
0 0 253
0 0 253
0 0 254
0 0 254
0 0 253
0 0 252
0 0 252
0 0 255
0 0 253
0 0 250
0 0 250
0 0 252
0 0 252
0 0 254
0 0 252
0 0 253
0 0 252
0 0 253
0 0 250
0 0 249
0 0 249
0 0 252
0 0 254
0 0 252
0 0 253
0 0 246
0 0 250
0 0 253
0 0 250
0 0 249
0 0 240
0 0 249
0 0 245
0 0 254
0 0 252
0 0 252
0 0 250
0 0 246
0 0 248
0 0 249
0 0 253
0 0 245
0 0 248
0 0 250
0 0 253
0 0 249
0 0 248
0 0 246
0 0 249
0 0 246
0 0 244
0 0 252
0 0 245
0 0 241
0 0 242
0 0 248
0 0 250
0 0 249
0 0 242
0 0 246
0 0 241
0 0 242
0 0 248
0 0 241
0 0 244
0 0 245
0 0 244
0 0 238
0 0 237
0 0 244
0 0 248
0 0 245
0 0 237
0 0 237
0 0 237
0 0 234
0 0 241
0 0 242
0 0 242
0 0 236
0 0 244
0 0 231
0 0 237
0 0 234
0 0 237
0 0 237
0 0 231
0 0 227
0 0 240
0 0 237
0 0 244
121 135 249
196 218 254
202 225 255
202 225 255
202 225 255
202 225 255
202 225 255
202 225 255
202 225 255
202 225 255
202 225 255
202 225 255
202 225 255
202 225 255
202 225 255
202 225 255
202 225 255
202 225 255
202 225 255
202 225 255
202 225 255
202 225 255
202 225 255
202 225 255
202 225 255
202 225 255
202 225 255
202 225 255
202 225 255
202 225 255
202 225 255
202 225 255
202 225 255
202 225 255
202 225 255
202 225 255
202 225 255
202 225 255
202 225 255
202 225 255
202 225 255
202 225 255
202 225 255
202 225 255
202 225 255
202 225 255
202 225 255
202 225 255
202 225 255
202 225 255
202 225 255
202 225 255
202 225 255
202 225 255
202 225 255
202 225 255
202 225 255
202 225 255
202 223 253
189 115 130
181 0 0
188 0 0
184 0 0
187 0 0
195 0 0
181 0 0
182 0 0
188 0 0
197 0 0
191 0 0
193 0 0
195 0 0
187 0 0
193 0 0
185 0 0
197 0 0
195 0 0
192 0 0
194 0 0
199 0 0
191 0 0
200 0 0
192 0 0
195 0 0
192 0 0
204 0 0
194 0 0
204 0 0
195 0 0
192 0 0
200 0 0
197 0 0
198 0 0
198 0 0
200 0 0
192 0 0
204 0 0
202 0 0
205 0 0
204 0 0
200 0 0
207 0 0
197 0 0
210 0 0
202 0 0
205 0 0
201 0 0
209 0 0
198 0 0
201 0 0
210 0 0
206 0 0
203 0 0
211 0 0
206 0 0
207 0 0
204 0 0
210 0 0
206 0 0
206 0 0
207 0 0
206 0 0
210 0 0
201 0 0
206 0 0
209 0 0
209 0 0
212 0 0
208 0 0
207 0 0
206 0 0
209 0 0
205 0 0
210 0 0
208 0 0
208 0 0
205 0 0
208 0 0
210 0 0
210 0 0
214 0 0
209 0 0
210 0 0
210 0 0
206 0 0
208 0 0
203 0 0
211 0 0
208 0 0
209 0 0
209 0 0
210 0 0
211 0 0
210 0 0
214 0 0
207 0 0
210 0 0
213 0 0
213 0 0
211 0 0
214 0 0
210 0 0
212 0 0
210 0 0
210 0 0
210 0 0
215 0 0
211 0 0
210 0 0
213 0 0
211 0 0
210 0 0
211 0 0
215 0 0
208 0 0
213 0 0
209 0 0
211 0 0
213 0 0
216 0 0
214 0 0
214 0 0
216 0 0
210 0 0
217 0 0
213 0 0
209 0 0
213 0 0
213 0 0
212 0 0
212 0 0
212 0 0
212 0 0
214 0 0
212 0 0
215 0 0
214 0 0
213 0 0
214 0 0
215 0 0
210 0 0
217 0 0
215 0 0
211 0 0
214 0 0
213 0 0
214 0 0
214 0 0
215 0 0
215 0 0
213 0 0
213 0 0
217 0 0
215 0 0
212 0 0
214 0 0
214 0 0
211 0 0
215 0 0
213 0 0
211 0 0
216 0 0
212 0 0
217 0 0
218 0 0
216 0 0
215 0 0
213 0 0
214 0 0
212 0 0
0 0 254
0 0 254
0 0 254
0 0 255
0 0 254
0 0 255
0 0 255
0 0 254
0 0 254
0 0 255
0 0 255
0 0 255
0 0 255
0 0 255
0 0 253
0 0 255
0 0 254
0 0 254
0 0 255
0 0 255
0 0 255
0 0 255
0 0 255
0 0 253
0 0 255
0 0 255
0 0 254
0 0 254
0 0 255
0 0 254
0 0 254
0 0 255
0 0 254
0 0 255
0 0 254
0 0 253
0 0 254
0 0 255
0 0 254
0 0 254
0 0 253
0 0 254
0 0 255
0 0 255
0 0 254
0 0 254
0 0 254
0 0 254
0 0 255
0 0 253
0 0 253
0 0 254
0 0 255
0 0 255
0 0 252
0 0 254
0 0 255
0 0 255
0 0 252
0 0 255
0 0 254
0 0 255
0 0 253
0 0 254
0 0 254
0 0 253
0 0 253
0 0 250
0 0 253
0 0 253
0 0 254
0 0 255
0 0 254
0 0 252
0 0 253
0 0 252
0 0 252
0 0 252
0 0 254
0 0 254
0 0 254
0 0 254
0 0 253
0 0 252
0 0 252
0 0 253
0 0 252
0 0 248
0 0 253
0 0 250
0 0 254
0 0 253
0 0 253
0 0 252
0 0 253
0 0 250
0 0 250
0 0 252
0 0 248
0 0 253
0 0 252
0 0 253
0 0 246
0 0 253
0 0 250
0 0 253
0 0 252
0 0 244
0 0 246
0 0 246
0 0 250
0 0 253
0 0 246
0 0 246
0 0 246
0 0 248
0 0 252
0 0 250
0 0 254
0 0 245
0 0 252
0 0 246
0 0 242
0 0 252
0 0 252
0 0 249
0 0 248
0 0 248
0 0 246
0 0 245
0 0 248
0 0 249
0 0 244
0 0 246
0 0 242
0 0 249
0 0 246
0 0 244
0 0 241
0 0 241
0 0 241
0 0 248
0 0 238
0 0 242
0 0 241
0 0 245
0 0 241
0 0 240
0 0 236
0 0 242
0 0 240
0 0 246
0 0 242
0 0 240
0 0 237
0 0 238
0 0 237
0 0 234
0 0 234
0 0 234
0 0 231
0 0 233
0 0 242
0 0 244
0 0 242
0 0 237
0 0 228
0 0 248
0 0 233
0 0 231
0 0 233
121 135 244
198 221 255
203 225 255
202 225 255
202 225 255
202 225 255
202 225 255
202 225 255
202 225 255
202 225 255
202 225 255
202 225 255
202 225 255
202 225 255
202 225 255
202 225 255
202 225 255
202 225 255
202 225 255
202 225 255
202 225 255
202 225 255
202 225 255
202 225 255
202 225 255
202 225 255
202 225 255
202 225 255
202 225 255
202 225 255
202 225 255
202 225 255
202 225 255
202 225 255
202 225 255
202 225 255
202 225 255
202 225 255
202 225 255
202 225 255
202 225 255
202 225 255
202 225 255
202 225 255
202 225 255
202 225 255
202 225 255
202 225 255
202 225 255
202 225 255
202 225 255
202 225 255
202 225 255
202 225 255
202 225 255
203 225 255
202 220 249
191 119 135
186 0 0
190 0 0
188 0 0
183 0 0
193 0 0
194 0 0
184 0 0
192 0 0
183 0 0
190 0 0
189 0 0
185 0 0
191 0 0
189 0 0
196 0 0
188 0 0
195 0 0
200 0 0
193 0 0
199 0 0
198 0 0
190 0 0
193 0 0
198 0 0
195 0 0
210 0 0
196 0 0
198 0 0
201 0 0
201 0 0
199 0 0
196 0 0
193 0 0
205 0 0
197 0 0
198 0 0
200 0 0
203 0 0
206 0 0
203 0 0
206 0 0
199 0 0
203 0 0
212 0 0
205 0 0
201 0 0
201 0 0
207 0 0
205 0 0
204 0 0
207 0 0
203 0 0
207 0 0
207 0 0
203 0 0
203 0 0
205 0 0
206 0 0
207 0 0
210 0 0
206 0 0
210 0 0
208 0 0
208 0 0
201 0 0
209 0 0
210 0 0
211 0 0
206 0 0
206 0 0
206 0 0
209 0 0
211 0 0
209 0 0
209 0 0
213 0 0
205 0 0
206 0 0
206 0 0
209 0 0
211 0 0
210 0 0
212 0 0
207 0 0
208 0 0
213 0 0
210 0 0
212 0 0
211 0 0
210 0 0
215 0 0
211 0 0
212 0 0
210 0 0
210 0 0
208 0 0
212 0 0
211 0 0
214 0 0
207 0 0
212 0 0
209 0 0
211 0 0
210 0 0
215 0 0
215 0 0
209 0 0
215 0 0
213 0 0
213 0 0
210 0 0
211 0 0
211 0 0
210 0 0
211 0 0
213 0 0
209 0 0
209 0 0
213 0 0
210 0 0
211 0 0
213 0 0
213 0 0
214 0 0
210 0 0
212 0 0
218 0 0
214 0 0
210 0 0
213 0 0
212 0 0
212 0 0
211 0 0
212 0 0
215 0 0
211 0 0
213 0 0
214 0 0
212 0 0
212 0 0
212 0 0
213 0 0
214 0 0
213 0 0
214 0 0
214 0 0
212 0 0
215 0 0
215 0 0
213 0 0
213 0 0
216 0 0
213 0 0
213 0 0
215 0 0
215 0 0
216 0 0
216 0 0
216 0 0
215 0 0
215 0 0
218 0 0
211 0 0
216 0 0
215 0 0
214 0 0
212 0 0
215 0 0
214 0 0
212 0 0
217 0 0
0 0 255
0 0 254
0 0 254
0 0 255
0 0 255
0 0 254
0 0 254
0 0 254
0 0 255
0 0 254
0 0 255
0 0 255
0 0 255
0 0 254
0 0 255
0 0 255
0 0 255
0 0 255
0 0 255
0 0 255
0 0 255
0 0 254
0 0 254
0 0 254
0 0 255
0 0 255
0 0 254
0 0 255
0 0 255
0 0 255
0 0 255
0 0 253
0 0 255
0 0 255
0 0 255
0 0 255
0 0 253
0 0 254
0 0 254
0 0 253
0 0 254
0 0 254
0 0 250
0 0 255
0 0 255
0 0 253
0 0 255
0 0 255
0 0 254
0 0 255
0 0 254
0 0 252
0 0 255
0 0 252
0 0 254
0 0 253
0 0 255
0 0 254
0 0 254
0 0 253
0 0 254
0 0 250
0 0 252
0 0 249
0 0 254
0 0 253
0 0 253
0 0 254
0 0 252
0 0 252
0 0 255
0 0 250
0 0 254
0 0 255
0 0 253
0 0 252
0 0 250
0 0 253
0 0 254
0 0 253
0 0 252
0 0 252
0 0 250
0 0 254
0 0 250
0 0 253
0 0 253
0 0 253
0 0 254
0 0 252
0 0 252
0 0 249
0 0 253
0 0 248
0 0 250
0 0 250
0 0 249
0 0 246
0 0 249
0 0 250
0 0 253
0 0 250
0 0 249
0 0 250
0 0 253
0 0 249
0 0 249
0 0 250
0 0 250
0 0 246
0 0 250
0 0 249
0 0 249
0 0 250
0 0 253
0 0 246
0 0 249
0 0 245
0 0 246
0 0 254
0 0 246
0 0 244
0 0 250
0 0 249
0 0 246
0 0 244
0 0 249
0 0 246
0 0 244
0 0 248
0 0 248
0 0 248
0 0 245
0 0 244
0 0 245
0 0 248
0 0 250
0 0 242
0 0 249
0 0 248
0 0 241
0 0 250
0 0 244
0 0 238
0 0 240
0 0 246
0 0 245
0 0 231
0 0 238
0 0 241
0 0 246
0 0 241
0 0 231
0 0 249
0 0 237
0 0 242
0 0 240
0 0 236
0 0 242
0 0 234
0 0 238
0 0 244
0 0 242
0 0 231
0 0 230
0 0 233
0 0 231
0 0 236
0 0 233
0 0 236
0 0 224
0 0 231
111 123 242
202 224 255
203 225 255
203 225 255
203 225 255
203 225 255
203 225 255
203 225 255
203 225 255
203 225 255
203 225 255
203 225 255
202 225 255
202 225 255
202 225 255
202 225 255
202 225 255
202 225 255
202 225 255
202 225 255
202 225 255
202 225 255
202 225 255
202 225 255
202 225 255
202 225 255
202 225 255
202 225 255
202 225 255
202 225 255
202 225 255
202 225 255
202 225 255
202 225 255
202 225 255
202 225 255
202 225 255
202 225 255
202 225 255
202 225 255
202 225 255
202 225 255
202 225 255
202 225 255
203 225 255
203 225 255
203 225 255
203 225 255
203 225 255
203 225 255
203 225 255
203 225 255
203 225 255
203 225 255
203 223 253
189 131 149
187 0 0
183 0 0
181 0 0
181 0 0
192 0 0
189 0 0
183 0 0
187 0 0
198 0 0
190 0 0
184 0 0
187 0 0
197 0 0
188 0 0
189 0 0
188 0 0
197 0 0
185 0 0
190 0 0
198 0 0
197 0 0
200 0 0
193 0 0
191 0 0
199 0 0
188 0 0
194 0 0
197 0 0
194 0 0
193 0 0
197 0 0
199 0 0
204 0 0
204 0 0
205 0 0
202 0 0
203 0 0
198 0 0
204 0 0
200 0 0
203 0 0
205 0 0
204 0 0
207 0 0
201 0 0
206 0 0
205 0 0
205 0 0
205 0 0
203 0 0
204 0 0
200 0 0
203 0 0
203 0 0
205 0 0
202 0 0
210 0 0
208 0 0
206 0 0
205 0 0
207 0 0
204 0 0
210 0 0
211 0 0
206 0 0
207 0 0
207 0 0
209 0 0
209 0 0
209 0 0
205 0 0
209 0 0
213 0 0
205 0 0
208 0 0
206 0 0
205 0 0
209 0 0
212 0 0
212 0 0
209 0 0
203 0 0
209 0 0
213 0 0
209 0 0
207 0 0
211 0 0
210 0 0
211 0 0
210 0 0
205 0 0
212 0 0
205 0 0
210 0 0
211 0 0
212 0 0
215 0 0
210 0 0
209 0 0
212 0 0
211 0 0
211 0 0
215 0 0
208 0 0
212 0 0
210 0 0
212 0 0
215 0 0
211 0 0
210 0 0
214 0 0
209 0 0
217 0 0
210 0 0
211 0 0
211 0 0
214 0 0
214 0 0
213 0 0
212 0 0
215 0 0
212 0 0
216 0 0
213 0 0
212 0 0
214 0 0
212 0 0
210 0 0
214 0 0
209 0 0
211 0 0
215 0 0
209 0 0
210 0 0
211 0 0
214 0 0
211 0 0
214 0 0
217 0 0
214 0 0
214 0 0
215 0 0
210 0 0
213 0 0
216 0 0
213 0 0
217 0 0
215 0 0
216 0 0
210 0 0
214 0 0
214 0 0
213 0 0
214 0 0
217 0 0
214 0 0
215 0 0
213 0 0
215 0 0
217 0 0
211 0 0
214 0 0
211 0 0
217 0 0
215 0 0
214 0 0
214 0 0
216 0 0
213 0 0
210 0 0
216 0 0
213 0 0
0 0 254
0 0 255
0 0 254
0 0 255
0 0 255
0 0 255
0 0 254
0 0 254
0 0 255
0 0 255
0 0 255
0 0 255
0 0 255
0 0 255
0 0 254
0 0 255
0 0 254
0 0 253
0 0 255
0 0 252
0 0 255
0 0 254
0 0 255
0 0 254
0 0 255
0 0 255
0 0 254
0 0 255
0 0 255
0 0 255
0 0 252
0 0 255
0 0 254
0 0 255
0 0 255
0 0 254
0 0 254
0 0 254
0 0 255
0 0 254
0 0 254
0 0 254
0 0 254
0 0 252
0 0 254
0 0 254
0 0 254
0 0 253
0 0 252
0 0 254
0 0 253
0 0 252
0 0 254
0 0 249
0 0 254
0 0 253
0 0 255
0 0 255
0 0 252
0 0 254
0 0 255
0 0 254
0 0 255
0 0 250
0 0 255
0 0 254
0 0 255
0 0 254
0 0 250
0 0 253
0 0 246
0 0 253
0 0 252
0 0 252
0 0 250
0 0 249
0 0 250
0 0 253
0 0 254
0 0 253
0 0 254
0 0 253
0 0 250
0 0 252
0 0 253
0 0 250
0 0 249
0 0 255
0 0 255
0 0 250
0 0 249
0 0 250
0 0 253
0 0 253
0 0 252
0 0 253
0 0 248
0 0 253
0 0 249
0 0 254
0 0 249
0 0 252
0 0 254
0 0 249
0 0 252
0 0 245
0 0 246
0 0 250
0 0 248
0 0 252
0 0 248
0 0 252
0 0 249
0 0 254
0 0 254
0 0 249
0 0 246
0 0 244
0 0 244
0 0 245
0 0 248
0 0 248
0 0 248
0 0 244
0 0 249
0 0 241
0 0 246
0 0 249
0 0 245
0 0 244
0 0 246
0 0 242
0 0 248
0 0 246
0 0 246
0 0 242
0 0 242
0 0 249
0 0 241
0 0 237
0 0 250
0 0 248
0 0 240
0 0 246
0 0 240
0 0 238
0 0 246
0 0 238
0 0 241
0 0 242
0 0 238
0 0 241
0 0 249
0 0 242
0 0 241
0 0 237
0 0 240
0 0 241
0 0 230
0 0 240
0 0 236
0 0 238
0 0 237
0 0 237
0 0 226
0 0 231
0 0 227
0 0 241
0 0 236
0 0 238
0 0 245
0 0 230
0 0 238
123 137 236
203 225 255
203 225 255
203 225 255
203 225 255
203 225 255
203 225 255
203 225 255
203 225 255
203 225 255
203 225 255
203 225 255
203 225 255
203 225 255
203 225 255
203 225 255
203 225 255
203 225 255
203 225 255
203 225 255
203 225 255
203 225 255
203 225 255
203 225 255
203 225 255
203 225 255
203 225 255
203 225 255
203 225 255
203 225 255
203 225 255
203 225 255
203 225 255
203 225 255
203 225 255
203 225 255
203 225 255
203 225 255
203 225 255
203 225 255
203 225 255
203 225 255
203 225 255
203 225 255
203 225 255
203 225 255
203 225 255
203 225 255
203 225 255
203 225 255
203 225 255
203 225 255
203 225 255
188 133 151
184 0 0
189 0 0
180 0 0
181 0 0
176 0 0
187 0 0
184 0 0
188 0 0
180 0 0
193 0 0
194 0 0
188 0 0
190 0 0
191 0 0
195 0 0
197 0 0
195 0 0
196 0 0
195 0 0
199 0 0
196 0 0
196 0 0
199 0 0
204 0 0
192 0 0
191 0 0
194 0 0
194 0 0
198 0 0
197 0 0
196 0 0
202 0 0
201 0 0
206 0 0
204 0 0
202 0 0
206 0 0
207 0 0
206 0 0
201 0 0
198 0 0
203 0 0
200 0 0
204 0 0
204 0 0
208 0 0
206 0 0
202 0 0
204 0 0
209 0 0
204 0 0
206 0 0
207 0 0
204 0 0
201 0 0
206 0 0
208 0 0
202 0 0
206 0 0
208 0 0
206 0 0
208 0 0
204 0 0
205 0 0
204 0 0
207 0 0
211 0 0
207 0 0
203 0 0
214 0 0
206 0 0
205 0 0
211 0 0
210 0 0
210 0 0
207 0 0
211 0 0
209 0 0
210 0 0
208 0 0
210 0 0
213 0 0
205 0 0
212 0 0
206 0 0
210 0 0
205 0 0
210 0 0
205 0 0
212 0 0
209 0 0
210 0 0
212 0 0
206 0 0
205 0 0
211 0 0
211 0 0
210 0 0
211 0 0
212 0 0
210 0 0
210 0 0
214 0 0
216 0 0
214 0 0
212 0 0
212 0 0
207 0 0
213 0 0
211 0 0
211 0 0
208 0 0
217 0 0
212 0 0
215 0 0
208 0 0
209 0 0
214 0 0
211 0 0
214 0 0
210 0 0
211 0 0
212 0 0
212 0 0
215 0 0
215 0 0
214 0 0
211 0 0
215 0 0
215 0 0
214 0 0
212 0 0
214 0 0
213 0 0
214 0 0
212 0 0
213 0 0
212 0 0
214 0 0
217 0 0
212 0 0
214 0 0
215 0 0
213 0 0
215 0 0
214 0 0
212 0 0
211 0 0
216 0 0
214 0 0
209 0 0
215 0 0
214 0 0
215 0 0
213 0 0
214 0 0
214 0 0
214 0 0
213 0 0
218 0 0
210 0 0
217 0 0
216 0 0
214 0 0
213 0 0
212 0 0
215 0 0
215 0 0
214 0 0
218 0 0
217 0 0
218 0 0
214 0 0
0 0 255
0 0 255
0 0 255
0 0 255
0 0 255
0 0 255
0 0 255
0 0 255
0 0 254
0 0 255
0 0 254
0 0 255
0 0 255
0 0 255
0 0 255
0 0 254
0 0 255
0 0 255
0 0 255
0 0 255
0 0 253
0 0 255
0 0 254
0 0 253
0 0 254
0 0 255
0 0 255
0 0 255
0 0 255
0 0 255
0 0 254
0 0 255
0 0 255
0 0 255
0 0 254
0 0 254
0 0 255
0 0 253
0 0 254
0 0 255
0 0 255
0 0 253
0 0 255
0 0 254
0 0 253
0 0 254
0 0 252
0 0 254
0 0 255
0 0 254
0 0 254
0 0 255
0 0 254
0 0 254
0 0 253
0 0 253
0 0 252
0 0 254
0 0 253
0 0 253
0 0 253
0 0 253
0 0 250
0 0 253
0 0 253
0 0 253
0 0 252
0 0 253
0 0 253
0 0 255
0 0 254
0 0 253
0 0 254
0 0 250
0 0 252
0 0 254
0 0 252
0 0 250
0 0 252
0 0 253
0 0 254
0 0 253
0 0 249
0 0 254
0 0 252
0 0 246
0 0 250
0 0 250
0 0 253
0 0 253
0 0 249
0 0 248
0 0 250
0 0 253
0 0 253
0 0 250
0 0 249
0 0 252
0 0 250
0 0 252
0 0 250
0 0 246
0 0 245
0 0 253
0 0 246
0 0 253
0 0 254
0 0 249
0 0 252
0 0 252
0 0 250
0 0 249
0 0 248
0 0 252
0 0 250
0 0 245
0 0 253
0 0 253
0 0 250
0 0 250
0 0 249
0 0 252
0 0 244
0 0 248
0 0 252
0 0 246
0 0 252
0 0 246
0 0 248
0 0 242
0 0 246
0 0 252
0 0 238
0 0 249
0 0 248
0 0 250
0 0 241
0 0 241
0 0 249
0 0 244
0 0 241
0 0 244
0 0 236
0 0 236
0 0 226
0 0 246
0 0 244
0 0 238
0 0 238
0 0 241
0 0 240
0 0 245
0 0 241
0 0 242
0 0 241
0 0 233
0 0 240
0 0 240
0 0 228
0 0 237
0 0 237
0 0 240
0 0 231
0 0 231
0 0 244
0 0 240
0 0 228
0 0 234
0 0 237
0 0 238
0 0 231
0 0 227
0 0 226
0 0 227
136 151 245
203 226 255
203 226 255
203 226 255
203 226 255
203 225 255
203 225 255
203 225 255
203 225 255
203 225 255
203 225 255
203 225 255
203 225 255
203 225 255
203 225 255
203 225 255
203 225 255
203 225 255
203 225 255
203 225 255
203 225 255
203 225 255
203 225 255
203 225 255
203 225 255
203 225 255
203 225 255
203 225 255
203 225 255
203 225 255
203 225 255
203 225 255
203 225 255
203 225 255
203 225 255
203 225 255
203 225 255
203 225 255
203 225 255
203 225 255
203 225 255
203 225 255
203 225 255
203 225 255
203 225 255
203 225 255
203 226 255
203 226 255
203 226 255
203 226 255
203 226 255
184 139 157
175 0 0
189 0 0
185 0 0
174 0 0
180 0 0
189 0 0
181 0 0
185 0 0
185 0 0
180 0 0
191 0 0
176 0 0
192 0 0
193 0 0
190 0 0
199 0 0
193 0 0
187 0 0
187 0 0
192 0 0
202 0 0
198 0 0
196 0 0
189 0 0
202 0 0
189 0 0
202 0 0
198 0 0
191 0 0
202 0 0
198 0 0
206 0 0
198 0 0
197 0 0
199 0 0
198 0 0
199 0 0
207 0 0
207 0 0
198 0 0
204 0 0
202 0 0
200 0 0
206 0 0
210 0 0
210 0 0
201 0 0
206 0 0
205 0 0
203 0 0
204 0 0
210 0 0
205 0 0
203 0 0
206 0 0
205 0 0
208 0 0
208 0 0
201 0 0
210 0 0
208 0 0
201 0 0
205 0 0
207 0 0
214 0 0
211 0 0
209 0 0
207 0 0
211 0 0
203 0 0
214 0 0
209 0 0
208 0 0
207 0 0
211 0 0
208 0 0
208 0 0
211 0 0
211 0 0
210 0 0
206 0 0
208 0 0
212 0 0
209 0 0
211 0 0
202 0 0
214 0 0
209 0 0
209 0 0
211 0 0
206 0 0
209 0 0
212 0 0
212 0 0
211 0 0
209 0 0
209 0 0
212 0 0
210 0 0
209 0 0
211 0 0
213 0 0
212 0 0
215 0 0
211 0 0
210 0 0
210 0 0
212 0 0
215 0 0
212 0 0
209 0 0
209 0 0
214 0 0
212 0 0
211 0 0
212 0 0
208 0 0
214 0 0
212 0 0
213 0 0
209 0 0
208 0 0
212 0 0
217 0 0
214 0 0
218 0 0
212 0 0
212 0 0
215 0 0
213 0 0
213 0 0
213 0 0
212 0 0
213 0 0
212 0 0
215 0 0
215 0 0
215 0 0
213 0 0
213 0 0
214 0 0
212 0 0
218 0 0
215 0 0
212 0 0
209 0 0
214 0 0
215 0 0
215 0 0
212 0 0
212 0 0
211 0 0
218 0 0
218 0 0
213 0 0
215 0 0
214 0 0
216 0 0
213 0 0
214 0 0
212 0 0
213 0 0
212 0 0
218 0 0
215 0 0
214 0 0
216 0 0
215 0 0
214 0 0
215 0 0
213 0 0
215 0 0
216 0 0
217 0 0
0 0 255
0 0 255
0 0 254
0 0 255
0 0 255
0 0 255
0 0 255
0 0 255
0 0 254
0 0 255
0 0 254
0 0 255
0 0 255
0 0 253
0 0 255
0 0 254
0 0 255
0 0 254
0 0 254
0 0 254
0 0 252
0 0 254
0 0 255
0 0 255
0 0 254
0 0 254
0 0 254
0 0 254
0 0 253
0 0 254
0 0 255
0 0 254
0 0 254
0 0 254
0 0 254
0 0 255
0 0 255
0 0 254
0 0 252
0 0 253
0 0 255
0 0 253
0 0 252
0 0 254
0 0 252
0 0 255
0 0 253
0 0 254
0 0 253
0 0 255
0 0 255
0 0 253
0 0 253
0 0 252
0 0 255
0 0 254
0 0 254
0 0 254
0 0 253
0 0 252
0 0 255
0 0 252
0 0 254
0 0 255
0 0 249
0 0 253
0 0 254
0 0 254
0 0 255
0 0 252
0 0 253
0 0 254
0 0 253
0 0 255
0 0 255
0 0 255
0 0 255
0 0 252
0 0 254
0 0 254
0 0 255
0 0 249
0 0 253
0 0 252
0 0 253
0 0 255
0 0 254
0 0 254
0 0 254
0 0 252
0 0 255
0 0 254
0 0 252
0 0 248
0 0 253
0 0 248
0 0 250
0 0 252
0 0 252
0 0 245
0 0 250
0 0 250
0 0 253
0 0 248
0 0 248
0 0 244
0 0 252
0 0 253
0 0 245
0 0 244
0 0 246
0 0 252
0 0 248
0 0 242
0 0 252
0 0 246
0 0 249
0 0 246
0 0 253
0 0 249
0 0 252
0 0 242
0 0 245
0 0 238
0 0 245
0 0 246
0 0 245
0 0 248
0 0 250
0 0 246
0 0 249
0 0 240
0 0 248
0 0 250
0 0 246
0 0 242
0 0 248
0 0 244
0 0 246
0 0 245
0 0 245
0 0 248
0 0 238
0 0 242
0 0 245
0 0 244
0 0 236
0 0 236
0 0 241
0 0 242
0 0 241
0 0 240
0 0 242
0 0 223
0 0 241
0 0 244
0 0 236
0 0 240
0 0 238
0 0 236
0 0 234
0 0 236
0 0 240
0 0 234
0 0 224
0 0 236
0 0 226
0 0 224
0 0 228
0 0 233
0 0 230
0 0 230
0 0 228
0 0 231
0 0 234
155 172 236
203 226 255
203 226 255
203 226 255
203 226 255
203 226 255
203 226 255
203 226 255
203 226 255
203 226 255
203 226 255
203 226 255
203 226 255
203 226 255
203 226 255
203 226 255
203 226 255
203 226 255
203 226 255
203 226 255
203 226 255
203 226 255
203 226 255
203 226 255
203 226 255
203 226 255
203 226 255
203 226 255
203 226 255
203 226 255
203 226 255
203 226 255
203 226 255
203 226 255
203 226 255
203 226 255
203 226 255
203 226 255
203 226 255
203 226 255
203 226 255
203 226 255
203 226 255
203 226 255
203 226 255
203 226 255
203 226 255
203 226 255
203 226 255
190 166 188
174 0 0
184 0 0
181 0 0
190 0 0
181 0 0
181 0 0
185 0 0
186 0 0
188 0 0
190 0 0
187 0 0
193 0 0
186 0 0
192 0 0
190 0 0
192 0 0
197 0 0
182 0 0
186 0 0
196 0 0
188 0 0
198 0 0
194 0 0
200 0 0
205 0 0
193 0 0
196 0 0
200 0 0
199 0 0
196 0 0
199 0 0
201 0 0
202 0 0
206 0 0
195 0 0
201 0 0
198 0 0
202 0 0
205 0 0
200 0 0
208 0 0
204 0 0
203 0 0
199 0 0
203 0 0
194 0 0
204 0 0
202 0 0
205 0 0
202 0 0
208 0 0
202 0 0
202 0 0
202 0 0
204 0 0
206 0 0
209 0 0
210 0 0
208 0 0
208 0 0
211 0 0
207 0 0
205 0 0
213 0 0
207 0 0
210 0 0
204 0 0
211 0 0
204 0 0
212 0 0
207 0 0
208 0 0
201 0 0
211 0 0
215 0 0
210 0 0
206 0 0
208 0 0
205 0 0
211 0 0
206 0 0
207 0 0
212 0 0
211 0 0
211 0 0
212 0 0
205 0 0
208 0 0
213 0 0
211 0 0
218 0 0
208 0 0
214 0 0
213 0 0
210 0 0
213 0 0
206 0 0
207 0 0
212 0 0
212 0 0
210 0 0
212 0 0
209 0 0
211 0 0
216 0 0
210 0 0
209 0 0
213 0 0
212 0 0
212 0 0
212 0 0
217 0 0
216 0 0
213 0 0
216 0 0
212 0 0
210 0 0
217 0 0
213 0 0
216 0 0
211 0 0
212 0 0
212 0 0
213 0 0
209 0 0
215 0 0
215 0 0
214 0 0
212 0 0
213 0 0
212 0 0
215 0 0
213 0 0
212 0 0
215 0 0
209 0 0
213 0 0
213 0 0
216 0 0
210 0 0
212 0 0
214 0 0
217 0 0
214 0 0
218 0 0
214 0 0
214 0 0
213 0 0
213 0 0
210 0 0
216 0 0
215 0 0
212 0 0
212 0 0
213 0 0
215 0 0
217 0 0
216 0 0
215 0 0
216 0 0
212 0 0
212 0 0
216 0 0
215 0 0
213 0 0
214 0 0
212 0 0
217 0 0
214 0 0
213 0 0
211 0 0
217 0 0
215 0 0
211 0 0
213 0 0
0 0 255
0 0 255
0 0 254
0 0 255
0 0 255
0 0 255
0 0 255
0 0 253
0 0 253
0 0 255
0 0 255
0 0 255
0 0 255
0 0 254
0 0 254
0 0 254
0 0 255
0 0 254
0 0 254
0 0 254
0 0 255
0 0 255
0 0 254
0 0 254
0 0 254
0 0 254
0 0 254
0 0 254
0 0 255
0 0 252
0 0 254
0 0 254
0 0 254
0 0 254
0 0 254
0 0 254
0 0 254
0 0 255
0 0 252
0 0 250
0 0 255
0 0 253
0 0 255
0 0 254
0 0 254
0 0 254
0 0 254
0 0 252
0 0 253
0 0 254
0 0 255
0 0 255
0 0 254
0 0 254
0 0 254
0 0 253
0 0 253
0 0 252
0 0 253
0 0 255
0 0 250
0 0 253
0 0 254
0 0 253
0 0 252
0 0 254
0 0 250
0 0 255
0 0 250
0 0 252
0 0 255
0 0 252
0 0 255
0 0 254
0 0 255
0 0 252
0 0 250
0 0 252
0 0 252
0 0 252
0 0 255
0 0 253
0 0 246
0 0 248
0 0 254
0 0 250
0 0 252
0 0 250
0 0 253
0 0 253
0 0 254
0 0 252
0 0 253
0 0 249
0 0 252
0 0 253
0 0 248
0 0 248
0 0 250
0 0 250
0 0 252
0 0 250
0 0 248
0 0 253
0 0 253
0 0 248
0 0 253
0 0 248
0 0 250
0 0 253
0 0 245
0 0 253
0 0 252
0 0 249
0 0 249
0 0 246
0 0 246
0 0 250
0 0 250
0 0 248
0 0 246
0 0 246
0 0 248
0 0 244
0 0 250
0 0 242
0 0 248
0 0 248
0 0 244
0 0 241
0 0 249
0 0 246
0 0 245
0 0 250
0 0 240
0 0 248
0 0 249
0 0 250
0 0 244
0 0 244
0 0 242
0 0 242
0 0 241
0 0 250
0 0 250
0 0 242
0 0 238
0 0 245
0 0 237
0 0 241
0 0 240
0 0 246
0 0 237
0 0 248
0 0 237
0 0 248
0 0 244
0 0 241
0 0 230
0 0 234
0 0 233
0 0 240
0 0 236
0 0 228
0 0 234
0 0 223
0 0 228
0 0 233
0 0 230
0 0 238
0 0 230
0 0 224
0 0 233
0 0 233
0 0 233
0 0 233
158 175 240
204 226 255
204 226 255
204 226 255
204 226 255
204 226 255
204 226 255
203 226 255
203 226 255
203 226 255
203 226 255
203 226 255
203 226 255
203 226 255
203 226 255
203 226 255
203 226 255
203 226 255
203 226 255
203 226 255
203 226 255
203 226 255
203 226 255
203 226 255
203 226 255
203 226 255
203 226 255
203 226 255
203 226 255
203 226 255
203 226 255
203 226 255
203 226 255
203 226 255
203 226 255
203 226 255
203 226 255
203 226 255
203 226 255
203 226 255
203 226 255
203 226 255
204 226 255
204 226 255
204 226 255
204 226 255
204 226 255
195 192 217
183 22 25
187 0 0
178 0 0
184 0 0
176 0 0
186 0 0
191 0 0
190 0 0
182 0 0
188 0 0
191 0 0
181 0 0
185 0 0
184 0 0
188 0 0
195 0 0
189 0 0
193 0 0
192 0 0
194 0 0
194 0 0
197 0 0
197 0 0
191 0 0
201 0 0
194 0 0
198 0 0
195 0 0
200 0 0
203 0 0
203 0 0
194 0 0
195 0 0
198 0 0
202 0 0
194 0 0
201 0 0
201 0 0
205 0 0
203 0 0
200 0 0
207 0 0
203 0 0
203 0 0
201 0 0
206 0 0
199 0 0
205 0 0
206 0 0
203 0 0
199 0 0
204 0 0
208 0 0
206 0 0
202 0 0
203 0 0
202 0 0
208 0 0
204 0 0
211 0 0
203 0 0
206 0 0
201 0 0
207 0 0
205 0 0
204 0 0
209 0 0
207 0 0
208 0 0
209 0 0
211 0 0
208 0 0
209 0 0
205 0 0
206 0 0
210 0 0
208 0 0
212 0 0
206 0 0
214 0 0
212 0 0
204 0 0
215 0 0
214 0 0
212 0 0
211 0 0
213 0 0
207 0 0
216 0 0
210 0 0
210 0 0
209 0 0
211 0 0
208 0 0
212 0 0
211 0 0
215 0 0
211 0 0
211 0 0
214 0 0
210 0 0
206 0 0
216 0 0
212 0 0
214 0 0
212 0 0
212 0 0
213 0 0
212 0 0
212 0 0
209 0 0
206 0 0
214 0 0
214 0 0
211 0 0
215 0 0
213 0 0
212 0 0
216 0 0
217 0 0
209 0 0
213 0 0
213 0 0
216 0 0
212 0 0
215 0 0
212 0 0
213 0 0
216 0 0
213 0 0
214 0 0
214 0 0
212 0 0
217 0 0
210 0 0
212 0 0
213 0 0
216 0 0
217 0 0
213 0 0
212 0 0
211 0 0
214 0 0
214 0 0
216 0 0
214 0 0
218 0 0
214 0 0
216 0 0
214 0 0
212 0 0
213 0 0
218 0 0
216 0 0
215 0 0
218 0 0
214 0 0
214 0 0
217 0 0
212 0 0
215 0 0
211 0 0
217 0 0
212 0 0
214 0 0
213 0 0
215 0 0
215 0 0
212 0 0
215 0 0
215 0 0
213 0 0
212 0 0
213 0 0
217 0 0
218 0 0
0 0 255
0 0 255
0 0 255
0 0 255
0 0 255
0 0 255
0 0 255
0 0 252
0 0 255
0 0 255
0 0 255
0 0 255
0 0 255
0 0 255
0 0 253
0 0 255
0 0 255
0 0 255
0 0 255
0 0 255
0 0 253
0 0 255
0 0 254
0 0 255
0 0 253
0 0 253
0 0 255
0 0 255
0 0 254
0 0 254
0 0 255
0 0 254
0 0 254
0 0 254
0 0 255
0 0 255
0 0 254
0 0 255
0 0 255
0 0 255
0 0 254
0 0 250
0 0 253
0 0 255
0 0 255
0 0 254
0 0 253
0 0 254
0 0 255
0 0 255
0 0 254
0 0 254
0 0 253
0 0 255
0 0 254
0 0 255
0 0 254
0 0 255
0 0 255
0 0 254
0 0 253
0 0 253
0 0 253
0 0 253
0 0 254
0 0 252
0 0 254
0 0 253
0 0 254
0 0 252
0 0 255
0 0 252
0 0 250
0 0 252
0 0 250
0 0 253
0 0 253
0 0 254
0 0 248
0 0 254
0 0 253
0 0 254
0 0 252
0 0 253
0 0 250
0 0 252
0 0 253
0 0 246
0 0 250
0 0 249
0 0 249
0 0 250
0 0 250
0 0 253
0 0 248
0 0 242
0 0 252
0 0 252
0 0 252
0 0 248
0 0 250
0 0 252
0 0 248
0 0 250
0 0 244
0 0 246
0 0 250
0 0 253
0 0 253
0 0 254
0 0 248
0 0 248
0 0 249
0 0 245
0 0 252
0 0 246
0 0 244
0 0 245
0 0 244
0 0 241
0 0 244
0 0 242
0 0 253
0 0 245
0 0 242
0 0 249
0 0 248
0 0 241
0 0 244
0 0 242
0 0 248
0 0 249
0 0 245
0 0 246
0 0 240
0 0 250
0 0 240
0 0 245
0 0 249
0 0 244
0 0 241
0 0 245
0 0 246
0 0 236
0 0 241
0 0 237
0 0 241
0 0 240
0 0 244
0 0 252
0 0 234
0 0 241
0 0 245
0 0 238
0 0 237
0 0 246
0 0 248
0 0 234
0 0 237
0 0 240
0 0 238
0 0 228
0 0 237
0 0 237
0 0 236
0 0 236
0 0 236
0 0 226
0 0 233
0 0 226
0 0 234
0 0 237
0 0 226
0 0 220
0 0 236
0 0 233
35 39 231
180 199 250
204 226 255
204 226 255
204 226 255
204 226 255
204 226 255
204 226 255
204 226 255
204 226 255
204 226 255
204 226 255
204 226 255
204 226 255
204 226 255
204 226 255
204 226 255
204 226 255
204 226 255
204 226 255
204 226 255
204 226 255
204 226 255
204 226 255
204 226 255
204 226 255
204 226 255
204 226 255
204 226 255
204 226 255
204 226 255
204 226 255
204 226 255
204 226 255
204 226 255
204 226 255
204 226 255
204 226 255
204 226 255
204 226 255
204 226 255
204 226 255
204 226 255
204 226 255
204 226 255
204 226 255
200 194 220
179 39 44
175 0 0
181 0 0
177 0 0
176 0 0
188 0 0
176 0 0
182 0 0
188 0 0
184 0 0
190 0 0
187 0 0
191 0 0
197 0 0
192 0 0
199 0 0
184 0 0
190 0 0
186 0 0
195 0 0
193 0 0
193 0 0
197 0 0
203 0 0
196 0 0
202 0 0
195 0 0
198 0 0
195 0 0
199 0 0
207 0 0
204 0 0
190 0 0
205 0 0
197 0 0
203 0 0
196 0 0
208 0 0
205 0 0
195 0 0
200 0 0
205 0 0
195 0 0
208 0 0
204 0 0
196 0 0
202 0 0
203 0 0
201 0 0
209 0 0
201 0 0
206 0 0
199 0 0
202 0 0
198 0 0
210 0 0
208 0 0
203 0 0
200 0 0
205 0 0
208 0 0
201 0 0
207 0 0
206 0 0
209 0 0
210 0 0
208 0 0
209 0 0
204 0 0
206 0 0
208 0 0
204 0 0
208 0 0
210 0 0
207 0 0
202 0 0
208 0 0
209 0 0
207 0 0
208 0 0
212 0 0
211 0 0
207 0 0
212 0 0
208 0 0
205 0 0
214 0 0
211 0 0
211 0 0
209 0 0
215 0 0
213 0 0
209 0 0
206 0 0
210 0 0
212 0 0
210 0 0
205 0 0
213 0 0
212 0 0
208 0 0
210 0 0
213 0 0
215 0 0
213 0 0
214 0 0
212 0 0
205 0 0
214 0 0
213 0 0
212 0 0
213 0 0
215 0 0
211 0 0
206 0 0
212 0 0
217 0 0
211 0 0
213 0 0
215 0 0
209 0 0
212 0 0
212 0 0
210 0 0
211 0 0
212 0 0
215 0 0
218 0 0
215 0 0
214 0 0
215 0 0
216 0 0
215 0 0
216 0 0
213 0 0
216 0 0
210 0 0
214 0 0
215 0 0
213 0 0
215 0 0
211 0 0
217 0 0
215 0 0
216 0 0
211 0 0
213 0 0
213 0 0
209 0 0
212 0 0
211 0 0
213 0 0
211 0 0
213 0 0
218 0 0
213 0 0
215 0 0
213 0 0
215 0 0
214 0 0
212 0 0
213 0 0
214 0 0
215 0 0
218 0 0
216 0 0
216 0 0
215 0 0
213 0 0
214 0 0
214 0 0
220 0 0
217 0 0
217 0 0
216 0 0
214 0 0
216 0 0
0 0 255
0 0 255
0 0 255
0 0 255
0 0 255
0 0 254
0 0 254
0 0 254
0 0 255
0 0 255
0 0 254
0 0 255
0 0 254
0 0 255
0 0 254
0 0 255
0 0 253
0 0 255
0 0 255
0 0 255
0 0 255
0 0 255
0 0 255
0 0 254
0 0 255
0 0 253
0 0 255
0 0 255
0 0 254
0 0 254
0 0 255
0 0 255
0 0 255
0 0 254
0 0 254
0 0 255
0 0 254
0 0 254
0 0 255
0 0 253
0 0 253
0 0 255
0 0 255
0 0 255
0 0 255
0 0 254
0 0 255
0 0 255
0 0 255
0 0 254
0 0 255
0 0 255
0 0 252
0 0 252
0 0 252
0 0 255
0 0 253
0 0 253
0 0 253
0 0 255
0 0 253
0 0 254
0 0 253
0 0 252
0 0 252
0 0 254
0 0 254
0 0 250
0 0 254
0 0 253
0 0 252
0 0 249
0 0 253
0 0 252
0 0 249
0 0 252
0 0 249
0 0 255
0 0 249
0 0 252
0 0 250
0 0 252
0 0 252
0 0 249
0 0 254
0 0 252
0 0 248
0 0 252
0 0 255
0 0 250
0 0 249
0 0 250
0 0 250
0 0 253
0 0 248
0 0 253
0 0 250
0 0 250
0 0 254
0 0 250
0 0 248
0 0 252
0 0 249
0 0 252
0 0 252
0 0 249
0 0 249
0 0 252
0 0 249
0 0 250
0 0 248
0 0 253
0 0 248
0 0 245
0 0 248
0 0 249
0 0 248
0 0 246
0 0 248
0 0 252
0 0 248
0 0 249
0 0 248
0 0 244
0 0 246
0 0 248
0 0 248
0 0 238
0 0 249
0 0 244
0 0 246
0 0 245
0 0 246
0 0 246
0 0 248
0 0 238
0 0 252
0 0 246
0 0 246
0 0 246
0 0 246
0 0 249
0 0 241
0 0 242
0 0 241
0 0 242
0 0 238
0 0 237
0 0 240
0 0 230
0 0 238
0 0 241
0 0 237
0 0 236
0 0 242
0 0 240
0 0 233
0 0 240
0 0 231
0 0 242
0 0 236
0 0 236
0 0 234
0 0 238
0 0 234
0 0 228
0 0 236
0 0 238
0 0 237
0 0 233
0 0 234
0 0 237
0 0 238
0 0 226
0 0 218
0 0 223
0 0 231
57 64 236
188 208 253
204 226 255
204 226 255
204 226 255
204 226 255
204 226 255
204 226 255
204 226 255
204 226 255
204 226 255
204 226 255
204 226 255
204 226 255
204 226 255
204 226 255
204 226 255
204 226 255
204 226 255
204 226 255
204 226 255
204 226 255
204 226 255
204 226 255
204 226 255
204 226 255
204 226 255
204 226 255
204 226 255
204 226 255
204 226 255
204 226 255
204 226 255
204 226 255
204 226 255
204 226 255
204 226 255
204 226 255
204 226 255
204 226 255
204 226 255
204 226 255
204 226 255
204 226 255
199 212 240
177 50 57
177 0 0
185 0 0
169 0 0
193 0 0
178 0 0
179 0 0
180 0 0
185 0 0
188 0 0
189 0 0
197 0 0
180 0 0
191 0 0
191 0 0
195 0 0
196 0 0
195 0 0
189 0 0
191 0 0
194 0 0
197 0 0
195 0 0
194 0 0
191 0 0
197 0 0
193 0 0
202 0 0
196 0 0
201 0 0
194 0 0
201 0 0
200 0 0
197 0 0
200 0 0
201 0 0
199 0 0
198 0 0
201 0 0
199 0 0
205 0 0
204 0 0
202 0 0
199 0 0
210 0 0
198 0 0
203 0 0
203 0 0
207 0 0
208 0 0
206 0 0
199 0 0
208 0 0
210 0 0
202 0 0
206 0 0
209 0 0
208 0 0
205 0 0
204 0 0
203 0 0
209 0 0
205 0 0
207 0 0
207 0 0
210 0 0
205 0 0
208 0 0
204 0 0
206 0 0
206 0 0
202 0 0
209 0 0
209 0 0
210 0 0
208 0 0
210 0 0
208 0 0
205 0 0
212 0 0
205 0 0
205 0 0
211 0 0
207 0 0
208 0 0
211 0 0
207 0 0
210 0 0
214 0 0
211 0 0
213 0 0
207 0 0
212 0 0
211 0 0
215 0 0
214 0 0
209 0 0
209 0 0
211 0 0
211 0 0
209 0 0
210 0 0
214 0 0
213 0 0
212 0 0
214 0 0
209 0 0
210 0 0
210 0 0
212 0 0
210 0 0
213 0 0
214 0 0
214 0 0
215 0 0
209 0 0
215 0 0
214 0 0
212 0 0
210 0 0
213 0 0
213 0 0
216 0 0
215 0 0
215 0 0
213 0 0
214 0 0
208 0 0
211 0 0
214 0 0
212 0 0
213 0 0
211 0 0
215 0 0
209 0 0
212 0 0
214 0 0
213 0 0
215 0 0
214 0 0
216 0 0
215 0 0
217 0 0
215 0 0
218 0 0
212 0 0
212 0 0
215 0 0
216 0 0
217 0 0
218 0 0
218 0 0
215 0 0
211 0 0
214 0 0
215 0 0
213 0 0
212 0 0
216 0 0
213 0 0
214 0 0
214 0 0
212 0 0
216 0 0
212 0 0
216 0 0
214 0 0
214 0 0
220 0 0
215 0 0
217 0 0
217 0 0
212 0 0
217 0 0
216 0 0
215 0 0
215 0 0
212 0 0
0 0 255
0 0 255
0 0 254
0 0 255
0 0 253
0 0 255
0 0 255
0 0 255
0 0 255
0 0 255
0 0 255
0 0 255
0 0 254
0 0 254
0 0 254
0 0 255
0 0 254
0 0 254
0 0 255
0 0 255
0 0 254
0 0 255
0 0 255
0 0 254
0 0 254
0 0 254
0 0 253
0 0 254
0 0 255
0 0 253
0 0 255
0 0 255
0 0 254
0 0 254
0 0 255
0 0 254
0 0 254
0 0 254
0 0 255
0 0 255
0 0 254
0 0 254
0 0 255
0 0 254
0 0 252
0 0 253
0 0 255
0 0 255
0 0 255
0 0 255
0 0 253
0 0 255
0 0 253
0 0 253
0 0 254
0 0 254
0 0 254
0 0 253
0 0 255
0 0 254
0 0 254
0 0 254
0 0 250
0 0 255
0 0 253
0 0 253
0 0 250
0 0 254
0 0 253
0 0 252
0 0 250
0 0 252
0 0 249
0 0 249
0 0 254
0 0 252
0 0 254
0 0 252
0 0 252
0 0 249
0 0 250
0 0 254
0 0 248
0 0 253
0 0 253
0 0 253
0 0 246
0 0 248
0 0 254
0 0 252
0 0 249
0 0 252
0 0 253
0 0 250
0 0 248
0 0 253
0 0 253
0 0 252
0 0 249
0 0 249
0 0 249
0 0 252
0 0 249
0 0 250
0 0 252
0 0 248
0 0 253
0 0 252
0 0 246
0 0 248
0 0 249
0 0 245
0 0 250
0 0 244
0 0 249
0 0 248
0 0 253
0 0 254
0 0 249
0 0 245
0 0 253
0 0 241
0 0 245
0 0 249
0 0 246
0 0 242
0 0 245
0 0 244
0 0 246
0 0 238
0 0 249
0 0 238
0 0 244
0 0 248
0 0 237
0 0 244
0 0 241
0 0 248
0 0 244
0 0 248
0 0 248
0 0 244
0 0 248
0 0 245
0 0 245
0 0 238
0 0 241
0 0 248
0 0 241
0 0 240
0 0 242
0 0 246
0 0 230
0 0 241
0 0 240
0 0 246
0 0 237
0 0 241
0 0 234
0 0 233
0 0 238
0 0 234
0 0 240
0 0 238
0 0 236
0 0 238
0 0 238
0 0 230
0 0 228
0 0 236
0 0 218
0 0 227
0 0 234
0 0 226
0 0 227
0 0 230
0 0 223
0 0 234
79 87 224
201 223 254
204 226 255
204 226 255
204 226 255
204 226 255
204 226 255
204 226 255
204 226 255
204 226 255
204 226 255
204 226 255
204 226 255
204 226 255
204 226 255
204 226 255
204 226 255
204 226 255
204 226 255
204 226 255
204 226 255
204 226 255
204 226 255
204 226 255
204 226 255
204 226 255
204 226 255
204 226 255
204 226 255
204 226 255
204 226 255
204 226 255
204 226 255
204 226 255
204 226 255
204 226 255
204 226 255
204 226 255
204 226 255
204 226 255
204 226 255
204 226 255
203 216 244
177 96 108
173 0 0
175 0 0
180 0 0
180 0 0
193 0 0
185 0 0
180 0 0
178 0 0
193 0 0
195 0 0
192 0 0
183 0 0
190 0 0
185 0 0
191 0 0
189 0 0
184 0 0
193 0 0
191 0 0
197 0 0
191 0 0
180 0 0
197 0 0
197 0 0
194 0 0
196 0 0
191 0 0
198 0 0
193 0 0
207 0 0
204 0 0
193 0 0
192 0 0
194 0 0
204 0 0
203 0 0
190 0 0
204 0 0
200 0 0
203 0 0
207 0 0
199 0 0
204 0 0
199 0 0
193 0 0
209 0 0
203 0 0
201 0 0
202 0 0
200 0 0
205 0 0
204 0 0
204 0 0
208 0 0
199 0 0
204 0 0
208 0 0
204 0 0
209 0 0
209 0 0
205 0 0
213 0 0
210 0 0
209 0 0
203 0 0
203 0 0
209 0 0
210 0 0
212 0 0
209 0 0
205 0 0
209 0 0
209 0 0
203 0 0
211 0 0
210 0 0
204 0 0
208 0 0
206 0 0
216 0 0
213 0 0
207 0 0
212 0 0
212 0 0
213 0 0
212 0 0
211 0 0
210 0 0
211 0 0
211 0 0
209 0 0
207 0 0
211 0 0
208 0 0
213 0 0
213 0 0
213 0 0
212 0 0
212 0 0
210 0 0
208 0 0
211 0 0
209 0 0
216 0 0
212 0 0
213 0 0
212 0 0
213 0 0
215 0 0
214 0 0
209 0 0
216 0 0
215 0 0
215 0 0
214 0 0
206 0 0
213 0 0
213 0 0
208 0 0
211 0 0
213 0 0
215 0 0
212 0 0
213 0 0
214 0 0
216 0 0
215 0 0
213 0 0
214 0 0
217 0 0
212 0 0
214 0 0
216 0 0
211 0 0
216 0 0
212 0 0
218 0 0
214 0 0
212 0 0
212 0 0
216 0 0
211 0 0
215 0 0
212 0 0
214 0 0
214 0 0
216 0 0
214 0 0
216 0 0
211 0 0
214 0 0
215 0 0
217 0 0
215 0 0
209 0 0
212 0 0
215 0 0
217 0 0
216 0 0
215 0 0
215 0 0
213 0 0
212 0 0
214 0 0
216 0 0
216 0 0
217 0 0
218 0 0
218 0 0
214 0 0
218 0 0
216 0 0
216 0 0
218 0 0
215 0 0
219 0 0
215 0 0
213 0 0
0 0 255
0 0 255
0 0 254
0 0 255
0 0 255
0 0 254
0 0 255
0 0 254
0 0 255
0 0 255
0 0 255
0 0 255
0 0 254
0 0 255
0 0 254
0 0 253
0 0 255
0 0 253
0 0 255
0 0 255
0 0 255
0 0 255
0 0 254
0 0 255
0 0 253
0 0 254
0 0 254
0 0 254
0 0 255
0 0 255
0 0 254
0 0 255
0 0 255
0 0 255
0 0 253
0 0 254
0 0 254
0 0 255
0 0 254
0 0 255
0 0 255
0 0 255
0 0 254
0 0 252
0 0 253
0 0 254
0 0 254
0 0 252
0 0 253
0 0 255
0 0 253
0 0 255
0 0 253
0 0 255
0 0 255
0 0 253
0 0 249
0 0 250
0 0 253
0 0 255
0 0 250
0 0 250
0 0 252
0 0 255
0 0 254
0 0 254
0 0 254
0 0 255
0 0 254
0 0 254
0 0 252
0 0 254
0 0 254
0 0 253
0 0 252
0 0 252
0 0 253
0 0 254
0 0 252
0 0 255
0 0 253
0 0 252
0 0 249
0 0 249
0 0 246
0 0 254
0 0 250
0 0 248
0 0 253
0 0 253
0 0 249
0 0 244
0 0 253
0 0 253
0 0 250
0 0 252
0 0 250
0 0 248
0 0 248
0 0 252
0 0 253
0 0 252
0 0 248
0 0 252
0 0 252
0 0 250
0 0 253
0 0 246
0 0 245
0 0 252
0 0 245
0 0 250
0 0 248
0 0 245
0 0 245
0 0 252
0 0 253
0 0 248
0 0 246
0 0 245
0 0 252
0 0 244
0 0 245
0 0 245
0 0 248
0 0 245
0 0 248
0 0 246
0 0 241
0 0 240
0 0 246
0 0 244
0 0 244
0 0 250
0 0 237
0 0 246
0 0 242
0 0 249
0 0 245
0 0 242
0 0 246
0 0 246
0 0 244
0 0 241
0 0 244
0 0 242
0 0 244
0 0 246
0 0 241
0 0 240
0 0 242
0 0 236
0 0 249
0 0 234
0 0 244
0 0 241
0 0 237
0 0 233
0 0 237
0 0 234
0 0 237
0 0 240
0 0 234
0 0 234
0 0 231
0 0 224
0 0 237
0 0 233
0 0 234
0 0 237
0 0 227
0 0 231
0 0 224
0 0 214
0 0 226
0 0 230
0 0 224
0 0 214
0 0 226
98 108 236
204 225 255
205 226 255
204 226 255
204 226 255
204 226 255
204 226 255
204 226 255
204 226 255
204 226 255
204 226 255
204 226 255
204 226 255
204 226 255
204 226 255
204 226 255
204 226 255
204 226 255
204 226 255
204 226 255
204 226 255
204 226 255
204 226 255
204 226 255
204 226 255
204 226 255
204 226 255
204 226 255
204 226 255
204 226 255
204 226 255
204 226 255
204 226 255
204 226 255
204 226 255
204 226 255
204 226 255
204 226 255
204 226 255
205 226 255
205 226 255
184 134 151
184 0 0
175 0 0
176 0 0
178 0 0
184 0 0
183 0 0
187 0 0
190 0 0
176 0 0
179 0 0
196 0 0
179 0 0
191 0 0
187 0 0
186 0 0
193 0 0
193 0 0
190 0 0
187 0 0
192 0 0
192 0 0
193 0 0
190 0 0
190 0 0
192 0 0
197 0 0
198 0 0
201 0 0
192 0 0
199 0 0
202 0 0
201 0 0
191 0 0
200 0 0
202 0 0
200 0 0
199 0 0
198 0 0
199 0 0
206 0 0
201 0 0
202 0 0
198 0 0
201 0 0
204 0 0
200 0 0
208 0 0
196 0 0
203 0 0
206 0 0
200 0 0
206 0 0
205 0 0
208 0 0
206 0 0
206 0 0
207 0 0
206 0 0
205 0 0
208 0 0
203 0 0
208 0 0
211 0 0
208 0 0
206 0 0
200 0 0
210 0 0
201 0 0
208 0 0
212 0 0
212 0 0
210 0 0
205 0 0
209 0 0
206 0 0
211 0 0
208 0 0
212 0 0
208 0 0
212 0 0
204 0 0
211 0 0
211 0 0
210 0 0
213 0 0
208 0 0
200 0 0
210 0 0
215 0 0
211 0 0
203 0 0
210 0 0
207 0 0
211 0 0
210 0 0
207 0 0
211 0 0
217 0 0
214 0 0
211 0 0
213 0 0
211 0 0
212 0 0
207 0 0
210 0 0
212 0 0
214 0 0
210 0 0
214 0 0
212 0 0
211 0 0
214 0 0
216 0 0
212 0 0
216 0 0
213 0 0
210 0 0
209 0 0
216 0 0
210 0 0
213 0 0
209 0 0
211 0 0
218 0 0
212 0 0
213 0 0
217 0 0
212 0 0
214 0 0
215 0 0
214 0 0
217 0 0
217 0 0
214 0 0
215 0 0
213 0 0
216 0 0
215 0 0
209 0 0
212 0 0
212 0 0
212 0 0
213 0 0
215 0 0
215 0 0
214 0 0
220 0 0
213 0 0
214 0 0
216 0 0
215 0 0
213 0 0
211 0 0
215 0 0
212 0 0
214 0 0
213 0 0
211 0 0
212 0 0
215 0 0
217 0 0
216 0 0
214 0 0
218 0 0
216 0 0
213 0 0
216 0 0
215 0 0
217 0 0
213 0 0
217 0 0
216 0 0
213 0 0
214 0 0
217 0 0
217 0 0
215 0 0
214 0 0
215 0 0
0 0 255
0 0 254
0 0 255
0 0 255
0 0 255
0 0 254
0 0 255
0 0 255
0 0 254
0 0 254
0 0 254
0 0 254
0 0 254
0 0 255
0 0 255
0 0 254
0 0 255
0 0 254
0 0 254
0 0 255
0 0 254
0 0 254
0 0 255
0 0 254
0 0 254
0 0 255
0 0 254
0 0 254
0 0 255
0 0 254
0 0 255
0 0 254
0 0 253
0 0 254
0 0 254
0 0 255
0 0 254
0 0 254
0 0 254
0 0 255
0 0 255
0 0 252
0 0 255
0 0 252
0 0 254
0 0 253
0 0 253
0 0 253
0 0 255
0 0 254
0 0 254
0 0 255
0 0 254
0 0 254
0 0 255
0 0 255
0 0 254
0 0 253
0 0 255
0 0 250
0 0 253
0 0 255
0 0 252
0 0 250
0 0 253
0 0 250
0 0 255
0 0 254
0 0 250
0 0 250
0 0 254
0 0 250
0 0 249
0 0 254
0 0 250
0 0 252
0 0 253
0 0 250
0 0 250
0 0 253
0 0 250
0 0 254
0 0 250
0 0 250
0 0 252
0 0 254
0 0 249
0 0 254
0 0 252
0 0 254
0 0 245
0 0 249
0 0 250
0 0 242
0 0 250
0 0 252
0 0 250
0 0 254
0 0 248
0 0 253
0 0 250
0 0 249
0 0 253
0 0 249
0 0 250
0 0 249
0 0 250
0 0 253
0 0 252
0 0 249
0 0 244
0 0 248
0 0 248
0 0 244
0 0 252
0 0 250
0 0 246
0 0 244
0 0 245
0 0 249
0 0 248
0 0 248
0 0 252
0 0 242
0 0 249
0 0 246
0 0 246
0 0 246
0 0 248
0 0 245
0 0 240
0 0 249
0 0 242
0 0 249
0 0 242
0 0 240
0 0 249
0 0 248
0 0 246
0 0 248
0 0 244
0 0 241
0 0 244
0 0 246
0 0 242
0 0 245
0 0 241
0 0 240
0 0 246
0 0 246
0 0 238
0 0 241
0 0 241
0 0 236
0 0 244
0 0 237
0 0 238
0 0 237
0 0 228
0 0 224
0 0 234
0 0 227
0 0 231
0 0 227
0 0 224
0 0 238
0 0 233
0 0 237
0 0 231
0 0 230
0 0 227
0 0 226
0 0 234
0 0 236
0 0 234
0 0 218
0 0 224
0 0 228
0 0 218
0 0 228
157 174 241
205 226 255
205 226 255
205 226 255
205 226 255
205 226 255
205 226 255
205 226 255
205 226 255
205 226 255
205 226 255
205 226 255
205 226 255
205 226 255
205 226 255
205 226 255
205 226 255
205 226 255
205 226 255
205 226 255
205 226 255
205 226 255
205 226 255
205 226 255
205 226 255
205 226 255
205 226 255
205 226 255
205 226 255
205 226 255
205 226 255
205 226 255
205 226 255
205 226 255
205 226 255
205 226 255
205 226 255
205 226 255
205 226 255
186 168 189
167 0 0
172 0 0
168 0 0
183 0 0
183 0 0
177 0 0
174 0 0
181 0 0
186 0 0
178 0 0
188 0 0
192 0 0
185 0 0
192 0 0
186 0 0
186 0 0
195 0 0
193 0 0
200 0 0
193 0 0
188 0 0
188 0 0
188 0 0
197 0 0
199 0 0
199 0 0
195 0 0
199 0 0
196 0 0
192 0 0
196 0 0
195 0 0
196 0 0
201 0 0
201 0 0
197 0 0
197 0 0
197 0 0
198 0 0
203 0 0
200 0 0
202 0 0
197 0 0
199 0 0
203 0 0
199 0 0
200 0 0
201 0 0
202 0 0
208 0 0
200 0 0
206 0 0
203 0 0
207 0 0
206 0 0
203 0 0
205 0 0
207 0 0
203 0 0
203 0 0
207 0 0
200 0 0
204 0 0
206 0 0
201 0 0
210 0 0
203 0 0
206 0 0
197 0 0
209 0 0
209 0 0
209 0 0
206 0 0
203 0 0
209 0 0
208 0 0
211 0 0
207 0 0
204 0 0
208 0 0
209 0 0
208 0 0
212 0 0
212 0 0
206 0 0
210 0 0
212 0 0
211 0 0
214 0 0
210 0 0
213 0 0
213 0 0
214 0 0
212 0 0
214 0 0
211 0 0
211 0 0
214 0 0
213 0 0
210 0 0
214 0 0
211 0 0
211 0 0
215 0 0
212 0 0
210 0 0
214 0 0
212 0 0
213 0 0
210 0 0
212 0 0
211 0 0
211 0 0
209 0 0
215 0 0
212 0 0
212 0 0
210 0 0
217 0 0
212 0 0
212 0 0
211 0 0
213 0 0
216 0 0
210 0 0
215 0 0
218 0 0
211 0 0
215 0 0
213 0 0
214 0 0
217 0 0
217 0 0
211 0 0
213 0 0
217 0 0
214 0 0
217 0 0
213 0 0
214 0 0
212 0 0
213 0 0
214 0 0
213 0 0
212 0 0
211 0 0
214 0 0
215 0 0
216 0 0
213 0 0
214 0 0
217 0 0
214 0 0
216 0 0
213 0 0
215 0 0
215 0 0
217 0 0
216 0 0
212 0 0
217 0 0
214 0 0
216 0 0
213 0 0
218 0 0
215 0 0
213 0 0
215 0 0
216 0 0
214 0 0
214 0 0
213 0 0
216 0 0
214 0 0
215 0 0
216 0 0
212 0 0
214 0 0
216 0 0
213 0 0
0 0 255
0 0 255
0 0 255
0 0 255
0 0 254
0 0 255
0 0 255
0 0 255
0 0 255
0 0 255
0 0 255
0 0 255
0 0 255
0 0 255
0 0 255
0 0 254
0 0 253
0 0 254
0 0 254
0 0 255
0 0 253
0 0 254
0 0 253
0 0 255
0 0 254
0 0 253
0 0 254
0 0 254
0 0 255
0 0 253
0 0 253
0 0 255
0 0 255
0 0 254
0 0 253
0 0 255
0 0 253
0 0 255
0 0 253
0 0 255
0 0 255
0 0 254
0 0 254
0 0 254
0 0 253
0 0 255
0 0 255
0 0 252
0 0 255
0 0 253
0 0 252
0 0 255
0 0 253
0 0 250
0 0 255
0 0 255
0 0 254
0 0 255
0 0 253
0 0 253
0 0 250
0 0 253
0 0 254
0 0 254
0 0 253
0 0 255
0 0 255
0 0 255
0 0 255
0 0 254
0 0 250
0 0 252
0 0 253
0 0 254
0 0 253
0 0 254
0 0 252
0 0 252
0 0 253
0 0 250
0 0 250
0 0 254
0 0 253
0 0 249
0 0 253
0 0 253
0 0 250
0 0 254
0 0 249
0 0 254
0 0 253
0 0 253
0 0 252
0 0 250
0 0 254
0 0 252
0 0 252
0 0 254
0 0 253
0 0 248
0 0 254
0 0 248
0 0 245
0 0 250
0 0 249
0 0 248
0 0 248
0 0 249
0 0 253
0 0 248
0 0 254
0 0 244
0 0 246
0 0 244
0 0 248
0 0 252
0 0 246
0 0 249
0 0 249
0 0 253
0 0 246
0 0 250
0 0 248
0 0 245
0 0 248
0 0 242
0 0 245
0 0 241
0 0 242
0 0 249
0 0 242
0 0 244
0 0 240
0 0 242
0 0 246
0 0 242
0 0 245
0 0 245
0 0 245
0 0 246
0 0 249
0 0 241
0 0 246
0 0 240
0 0 242
0 0 244
0 0 241
0 0 231
0 0 238
0 0 240
0 0 240
0 0 228
0 0 238
0 0 242
0 0 237
0 0 233
0 0 230
0 0 240
0 0 240
0 0 240
0 0 236
0 0 241
0 0 223
0 0 230
0 0 234
0 0 220
0 0 231
0 0 230
0 0 228
0 0 230
0 0 228
0 0 224
0 0 221
0 0 227
0 0 214
0 0 207
0 0 212
0 0 226
0 0 223
0 0 211
35 39 215
179 197 248
205 227 255
205 227 255
205 227 255
205 227 255
205 227 255
205 227 255
205 227 255
205 226 255
205 226 255
205 226 255
205 226 255
205 226 255
205 226 255
205 226 255
205 226 255
205 226 255
205 226 255
205 226 255
205 226 255
205 226 255
205 226 255
205 226 255
205 226 255
205 226 255
205 226 255
205 226 255
205 226 255
205 226 255
205 227 255
205 227 255
205 227 255
205 227 255
205 227 255
205 227 255
205 227 255
205 227 255
198 189 214
173 45 51
174 0 0
179 0 0
185 0 0
173 0 0
180 0 0
180 0 0
177 0 0
173 0 0
177 0 0
184 0 0
187 0 0
182 0 0
184 0 0
184 0 0
185 0 0
191 0 0
196 0 0
191 0 0
184 0 0
184 0 0
192 0 0
194 0 0
192 0 0
198 0 0
194 0 0
191 0 0
194 0 0
202 0 0
193 0 0
201 0 0
196 0 0
195 0 0
198 0 0
201 0 0
196 0 0
198 0 0
201 0 0
197 0 0
198 0 0
204 0 0
200 0 0
200 0 0
204 0 0
200 0 0
202 0 0
199 0 0
202 0 0
203 0 0
206 0 0
202 0 0
198 0 0
201 0 0
206 0 0
209 0 0
205 0 0
211 0 0
207 0 0
205 0 0
204 0 0
203 0 0
203 0 0
208 0 0
213 0 0
203 0 0
201 0 0
207 0 0
200 0 0
211 0 0
211 0 0
207 0 0
208 0 0
208 0 0
206 0 0
209 0 0
202 0 0
209 0 0
212 0 0
211 0 0
206 0 0
210 0 0
213 0 0
206 0 0
210 0 0
206 0 0
206 0 0
213 0 0
209 0 0
206 0 0
213 0 0
210 0 0
214 0 0
209 0 0
212 0 0
215 0 0
207 0 0
206 0 0
212 0 0
214 0 0
207 0 0
210 0 0
213 0 0
214 0 0
213 0 0
213 0 0
210 0 0
210 0 0
213 0 0
212 0 0
211 0 0
210 0 0
215 0 0
208 0 0
216 0 0
211 0 0
211 0 0
212 0 0
215 0 0
214 0 0
214 0 0
210 0 0
216 0 0
215 0 0
215 0 0
211 0 0
209 0 0
216 0 0
211 0 0
218 0 0
216 0 0
213 0 0
208 0 0
212 0 0
215 0 0
211 0 0
216 0 0
213 0 0
212 0 0
216 0 0
215 0 0
214 0 0
214 0 0
213 0 0
211 0 0
216 0 0
213 0 0
214 0 0
216 0 0
213 0 0
216 0 0
214 0 0
212 0 0
218 0 0
215 0 0
215 0 0
216 0 0
214 0 0
213 0 0
215 0 0
212 0 0
213 0 0
214 0 0
211 0 0
213 0 0
215 0 0
214 0 0
217 0 0
217 0 0
219 0 0
212 0 0
213 0 0
217 0 0
216 0 0
212 0 0
218 0 0
217 0 0
217 0 0
217 0 0
215 0 0
212 0 0
218 0 0
0 0 255
0 0 253
0 0 255
0 0 255
0 0 255
0 0 255
0 0 255
0 0 255
0 0 255
0 0 255
0 0 255
0 0 255
0 0 255
0 0 254
0 0 254
0 0 255
0 0 255
0 0 253
0 0 254
0 0 255
0 0 254
0 0 253
0 0 254
0 0 253
0 0 255
0 0 254
0 0 255
0 0 255
0 0 254
0 0 255
0 0 253
0 0 255
0 0 250
0 0 252
0 0 254
0 0 254
0 0 255
0 0 254
0 0 254
0 0 254
0 0 254
0 0 254
0 0 255
0 0 253
0 0 254
0 0 254
0 0 254
0 0 253
0 0 252
0 0 253
0 0 254
0 0 253
0 0 254
0 0 253
0 0 254
0 0 254
0 0 254
0 0 252
0 0 253
0 0 254
0 0 248
0 0 253
0 0 253
0 0 254
0 0 254
0 0 248
0 0 252
0 0 254
0 0 255
0 0 255
0 0 252
0 0 254
0 0 254
0 0 254
0 0 254
0 0 253
0 0 249
0 0 254
0 0 253
0 0 253
0 0 254
0 0 252
0 0 252
0 0 252
0 0 250
0 0 250
0 0 254
0 0 245
0 0 248
0 0 252
0 0 246
0 0 248
0 0 252
0 0 248
0 0 250
0 0 253
0 0 252
0 0 249
0 0 252
0 0 248
0 0 250
0 0 255
0 0 249
0 0 244
0 0 248
0 0 252
0 0 253
0 0 245
0 0 250
0 0 249
0 0 245
0 0 246
0 0 249
0 0 253
0 0 249
0 0 250
0 0 252
0 0 242
0 0 244
0 0 248
0 0 249
0 0 245
0 0 245
0 0 245
0 0 249
0 0 246
0 0 246
0 0 246
0 0 245
0 0 249
0 0 244
0 0 245
0 0 244
0 0 242
0 0 245
0 0 244
0 0 241
0 0 238
0 0 246
0 0 234
0 0 236
0 0 238
0 0 236
0 0 238
0 0 245
0 0 244
0 0 227
0 0 242
0 0 237
0 0 240
0 0 241
0 0 234
0 0 238
0 0 231
0 0 231
0 0 236
0 0 240
0 0 238
0 0 234
0 0 234
0 0 230
0 0 234
0 0 240
0 0 236
0 0 230
0 0 233
0 0 221
0 0 238
0 0 223
0 0 227
0 0 215
0 0 230
0 0 223
0 0 224
0 0 231
0 0 220
0 0 214
0 0 230
0 0 217
0 0 212
0 0 220
65 71 223
199 220 253
205 227 255
205 227 255
205 227 255
205 227 255
205 227 255
205 227 255
205 227 255
205 227 255
205 227 255
205 227 255
205 227 255
205 227 255
205 227 255
205 227 255
205 227 255
205 227 255
205 227 255
205 227 255
205 227 255
205 227 255
205 227 255
205 227 255
205 227 255
205 227 255
205 227 255
205 227 255
205 227 255
205 227 255
205 227 255
205 227 255
205 227 255
205 227 255
205 227 255
205 227 255
203 217 245
172 68 76
168 0 0
179 0 0
184 0 0
173 0 0
184 0 0
172 0 0
185 0 0
177 0 0
183 0 0
181 0 0
185 0 0
177 0 0
176 0 0
192 0 0
188 0 0
196 0 0
192 0 0
185 0 0
187 0 0
196 0 0
193 0 0
186 0 0
191 0 0
198 0 0
190 0 0
194 0 0
195 0 0
187 0 0
200 0 0
196 0 0
199 0 0
190 0 0
199 0 0
199 0 0
198 0 0
200 0 0
204 0 0
200 0 0
199 0 0
203 0 0
193 0 0
199 0 0
201 0 0
205 0 0
209 0 0
207 0 0
190 0 0
205 0 0
201 0 0
204 0 0
208 0 0
203 0 0
208 0 0
205 0 0
200 0 0
210 0 0
207 0 0
207 0 0
212 0 0
206 0 0
209 0 0
205 0 0
206 0 0
208 0 0
209 0 0
208 0 0
206 0 0
203 0 0
211 0 0
208 0 0
205 0 0
213 0 0
208 0 0
209 0 0
209 0 0
210 0 0
207 0 0
215 0 0
212 0 0
212 0 0
210 0 0
211 0 0
206 0 0
204 0 0
206 0 0
214 0 0
213 0 0
208 0 0
212 0 0
215 0 0
213 0 0
211 0 0
211 0 0
213 0 0
210 0 0
210 0 0
214 0 0
217 0 0
214 0 0
211 0 0
210 0 0
211 0 0
208 0 0
209 0 0
212 0 0
214 0 0
208 0 0
213 0 0
211 0 0
216 0 0
214 0 0
215 0 0
212 0 0
210 0 0
214 0 0
214 0 0
213 0 0
211 0 0
209 0 0
216 0 0
211 0 0
216 0 0
219 0 0
214 0 0
218 0 0
209 0 0
214 0 0
218 0 0
213 0 0
216 0 0
211 0 0
213 0 0
213 0 0
210 0 0
213 0 0
212 0 0
214 0 0
212 0 0
214 0 0
212 0 0
214 0 0
214 0 0
218 0 0
214 0 0
214 0 0
215 0 0
212 0 0
217 0 0
214 0 0
212 0 0
216 0 0
216 0 0
215 0 0
211 0 0
212 0 0
215 0 0
215 0 0
217 0 0
213 0 0
211 0 0
213 0 0
214 0 0
218 0 0
213 0 0
216 0 0
215 0 0
218 0 0
215 0 0
216 0 0
209 0 0
217 0 0
213 0 0
218 0 0
214 0 0
218 0 0
217 0 0
215 0 0
215 0 0
220 0 0
217 0 0
211 0 0
0 0 255
0 0 255
0 0 255
0 0 255
0 0 255
0 0 255
0 0 255
0 0 255
0 0 254
0 0 255
0 0 255
0 0 255
0 0 254
0 0 255
0 0 252
0 0 254
0 0 254
0 0 255
0 0 255
0 0 255
0 0 253
0 0 253
0 0 255
0 0 255
0 0 255
0 0 255
0 0 253
0 0 255
0 0 255
0 0 255
0 0 255
0 0 255
0 0 255
0 0 254
0 0 254
0 0 254
0 0 250
0 0 254
0 0 252
0 0 249
0 0 254
0 0 255
0 0 253
0 0 255
0 0 252
0 0 254
0 0 254
0 0 255
0 0 254
0 0 255
0 0 254
0 0 250
0 0 253
0 0 254
0 0 255
0 0 254
0 0 254
0 0 252
0 0 253
0 0 254
0 0 254
0 0 254
0 0 254
0 0 249
0 0 253
0 0 254
0 0 254
0 0 253
0 0 252
0 0 249
0 0 252
0 0 253
0 0 254
0 0 249
0 0 248
0 0 252
0 0 250
0 0 254
0 0 250
0 0 254
0 0 253
0 0 250
0 0 250
0 0 250
0 0 253
0 0 253
0 0 248
0 0 252
0 0 253
0 0 246
0 0 249
0 0 253
0 0 252
0 0 248
0 0 253
0 0 254
0 0 250
0 0 252
0 0 252
0 0 249
0 0 252
0 0 246
0 0 249
0 0 248
0 0 248
0 0 250
0 0 249
0 0 252
0 0 250
0 0 252
0 0 248
0 0 253
0 0 249
0 0 252
0 0 250
0 0 252
0 0 254
0 0 241
0 0 245
0 0 249
0 0 246
0 0 250
0 0 249
0 0 244
0 0 246
0 0 248
0 0 244
0 0 246
0 0 249
0 0 246
0 0 250
0 0 244
0 0 245
0 0 248
0 0 248
0 0 248
0 0 250
0 0 244
0 0 242
0 0 249
0 0 245
0 0 242
0 0 240
0 0 241
0 0 241
0 0 244
0 0 241
0 0 240
0 0 238
0 0 238
0 0 238
0 0 237
0 0 245
0 0 248
0 0 240
0 0 237
0 0 238
0 0 237
0 0 230
0 0 236
0 0 227
0 0 234
0 0 238
0 0 233
0 0 234
0 0 241
0 0 230
0 0 227
0 0 223
0 0 223
0 0 226
0 0 217
0 0 228
0 0 228
0 0 220
0 0 221
0 0 209
0 0 221
0 0 226
0 0 218
0 0 230
0 0 212
110 122 223
205 226 255
206 227 255
205 227 255
205 227 255
205 227 255
205 227 255
205 227 255
205 227 255
205 227 255
205 227 255
205 227 255
205 227 255
205 227 255
205 227 255
205 227 255
205 227 255
205 227 255
205 227 255
205 227 255
205 227 255
205 227 255
205 227 255
205 227 255
205 227 255
205 227 255
205 227 255
205 227 255
205 227 255
205 227 255
205 227 255
205 227 255
205 227 255
206 227 255
206 226 254
175 124 140
171 0 0
176 0 0
178 0 0
164 0 0
176 0 0
180 0 0
184 0 0
185 0 0
170 0 0
187 0 0
193 0 0
183 0 0
183 0 0
179 0 0
186 0 0
189 0 0
180 0 0
183 0 0
191 0 0
187 0 0
187 0 0
191 0 0
194 0 0
192 0 0
189 0 0
192 0 0
194 0 0
201 0 0
200 0 0
200 0 0
193 0 0
198 0 0
203 0 0
195 0 0
193 0 0
197 0 0
196 0 0
198 0 0
195 0 0
196 0 0
207 0 0
201 0 0
208 0 0
201 0 0
199 0 0
203 0 0
202 0 0
203 0 0
207 0 0
207 0 0
203 0 0
208 0 0
203 0 0
209 0 0
204 0 0
206 0 0
211 0 0
212 0 0
208 0 0
213 0 0
211 0 0
201 0 0
201 0 0
210 0 0
209 0 0
210 0 0
205 0 0
209 0 0
209 0 0
210 0 0
214 0 0
213 0 0
210 0 0
203 0 0
208 0 0
215 0 0
210 0 0
208 0 0
205 0 0
208 0 0
205 0 0
211 0 0
210 0 0
209 0 0
207 0 0
207 0 0
208 0 0
214 0 0
208 0 0
207 0 0
212 0 0
211 0 0
211 0 0
209 0 0
211 0 0
210 0 0
215 0 0
206 0 0
212 0 0
213 0 0
209 0 0
215 0 0
214 0 0
211 0 0
213 0 0
210 0 0
217 0 0
212 0 0
211 0 0
212 0 0
213 0 0
217 0 0
210 0 0
209 0 0
213 0 0
213 0 0
213 0 0
213 0 0
209 0 0
213 0 0
210 0 0
215 0 0
213 0 0
211 0 0
217 0 0
210 0 0
218 0 0
217 0 0
217 0 0
214 0 0
215 0 0
213 0 0
214 0 0
211 0 0
212 0 0
213 0 0
213 0 0
215 0 0
215 0 0
213 0 0
215 0 0
212 0 0
218 0 0
214 0 0
212 0 0
213 0 0
215 0 0
218 0 0
215 0 0
221 0 0
213 0 0
215 0 0
216 0 0
215 0 0
217 0 0
213 0 0
214 0 0
213 0 0
212 0 0
214 0 0
219 0 0
214 0 0
213 0 0
219 0 0
215 0 0
219 0 0
217 0 0
219 0 0
215 0 0
218 0 0
216 0 0
217 0 0
213 0 0
214 0 0
216 0 0
214 0 0
216 0 0
216 0 0
214 0 0
216 0 0
215 0 0
218 0 0
0 0 255
0 0 255
0 0 254
0 0 255
0 0 254
0 0 255
0 0 254
0 0 255
0 0 255
0 0 255
0 0 255
0 0 255
0 0 255
0 0 253
0 0 253
0 0 254
0 0 255
0 0 254
0 0 255
0 0 255
0 0 252
0 0 255
0 0 254
0 0 255
0 0 254
0 0 255
0 0 253
0 0 255
0 0 254
0 0 254
0 0 254
0 0 253
0 0 255
0 0 254
0 0 255
0 0 255
0 0 252
0 0 253
0 0 255
0 0 254
0 0 250
0 0 255
0 0 255
0 0 253
0 0 255
0 0 253
0 0 252
0 0 253
0 0 254
0 0 254
0 0 255
0 0 255
0 0 255
0 0 254
0 0 254
0 0 252
0 0 254
0 0 250
0 0 254
0 0 252
0 0 255
0 0 254
0 0 255
0 0 254
0 0 254
0 0 253
0 0 252
0 0 250
0 0 255
0 0 253
0 0 254
0 0 252
0 0 254
0 0 254
0 0 254
0 0 249
0 0 252
0 0 254
0 0 245
0 0 252
0 0 252
0 0 254
0 0 252
0 0 250
0 0 252
0 0 245
0 0 250
0 0 250
0 0 248
0 0 249
0 0 254
0 0 250
0 0 248
0 0 253
0 0 250
0 0 249
0 0 250
0 0 252
0 0 250
0 0 250
0 0 250
0 0 250
0 0 252
0 0 248
0 0 249
0 0 254
0 0 248
0 0 252
0 0 252
0 0 246
0 0 249
0 0 242
0 0 250
0 0 248
0 0 246
0 0 246
0 0 250
0 0 252
0 0 253
0 0 246
0 0 252
0 0 248
0 0 248
0 0 249
0 0 245
0 0 248
0 0 241
0 0 248
0 0 241
0 0 248
0 0 241
0 0 248
0 0 240
0 0 244
0 0 250
0 0 246
0 0 248
0 0 244
0 0 242
0 0 240
0 0 246
0 0 244
0 0 246
0 0 234
0 0 242
0 0 237
0 0 238
0 0 244
0 0 234
0 0 244
0 0 236
0 0 241
0 0 236
0 0 241
0 0 236
0 0 230
0 0 233
0 0 236
0 0 223
0 0 234
0 0 238
0 0 231
0 0 238
0 0 226
0 0 234
0 0 236
0 0 221
0 0 241
0 0 228
0 0 226
0 0 224
0 0 226
0 0 218
0 0 233
0 0 226
0 0 220
0 0 221
0 0 227
0 0 230
0 0 221
0 0 228
0 0 206
0 0 215
151 167 242
206 227 255
206 227 255
206 227 255
206 227 255
206 227 255
206 227 255
206 227 255
206 227 255
206 227 255
206 227 255
206 227 255
206 227 255
206 227 255
206 227 255
206 227 255
206 227 255
206 227 255
206 227 255
206 227 255
206 227 255
206 227 255
206 227 255
206 227 255
206 227 255
206 227 255
206 227 255
206 227 255
206 227 255
206 227 255
206 227 255
206 227 255
206 227 255
183 176 198
171 0 0
173 0 0
170 0 0
179 0 0
175 0 0
173 0 0
181 0 0
171 0 0
181 0 0
176 0 0
180 0 0
185 0 0
185 0 0
188 0 0
186 0 0
185 0 0
186 0 0
189 0 0
177 0 0
193 0 0
186 0 0
187 0 0
194 0 0
196 0 0
192 0 0
200 0 0
192 0 0
194 0 0
201 0 0
200 0 0
193 0 0
195 0 0
203 0 0
195 0 0
197 0 0
197 0 0
202 0 0
198 0 0
202 0 0
196 0 0
202 0 0
206 0 0
201 0 0
206 0 0
204 0 0
203 0 0
201 0 0
203 0 0
208 0 0
207 0 0
199 0 0
195 0 0
203 0 0
207 0 0
206 0 0
201 0 0
208 0 0
206 0 0
206 0 0
199 0 0
205 0 0
205 0 0
212 0 0
206 0 0
212 0 0
208 0 0
212 0 0
210 0 0
207 0 0
205 0 0
205 0 0
209 0 0
212 0 0
209 0 0
210 0 0
206 0 0
210 0 0
212 0 0
201 0 0
204 0 0
213 0 0
216 0 0
207 0 0
205 0 0
210 0 0
208 0 0
211 0 0
209 0 0
208 0 0
212 0 0
215 0 0
211 0 0
211 0 0
212 0 0
211 0 0
208 0 0
205 0 0
213 0 0
214 0 0
210 0 0
210 0 0
212 0 0
212 0 0
211 0 0
207 0 0
213 0 0
215 0 0
212 0 0
211 0 0
212 0 0
211 0 0
210 0 0
214 0 0
212 0 0
214 0 0
216 0 0
215 0 0
205 0 0
214 0 0
213 0 0
214 0 0
212 0 0
217 0 0
217 0 0
215 0 0
215 0 0
215 0 0
213 0 0
215 0 0
218 0 0
213 0 0
211 0 0
213 0 0
217 0 0
215 0 0
214 0 0
215 0 0
217 0 0
217 0 0
213 0 0
214 0 0
207 0 0
217 0 0
215 0 0
217 0 0
216 0 0
216 0 0
217 0 0
215 0 0
213 0 0
217 0 0
216 0 0
216 0 0
214 0 0
215 0 0
211 0 0
214 0 0
213 0 0
215 0 0
214 0 0
214 0 0
217 0 0
220 0 0
217 0 0
213 0 0
213 0 0
215 0 0
217 0 0
217 0 0
217 0 0
215 0 0
219 0 0
216 0 0
214 0 0
216 0 0
218 0 0
215 0 0
217 0 0
213 0 0
217 0 0
218 0 0
216 0 0
218 0 0
0 0 255
0 0 255
0 0 255
0 0 255
0 0 254
0 0 254
0 0 255
0 0 255
0 0 255
0 0 255
0 0 255
0 0 254
0 0 255
0 0 255
0 0 254
0 0 253
0 0 254
0 0 255
0 0 253
0 0 255
0 0 254
0 0 253
0 0 253
0 0 255
0 0 254
0 0 254
0 0 254
0 0 254
0 0 254
0 0 253
0 0 255
0 0 255
0 0 255
0 0 253
0 0 255
0 0 252
0 0 254
0 0 255
0 0 253
0 0 254
0 0 254
0 0 253
0 0 254
0 0 253
0 0 253
0 0 253
0 0 254
0 0 255
0 0 253
0 0 255
0 0 255
0 0 254
0 0 255
0 0 254
0 0 255
0 0 253
0 0 254
0 0 253
0 0 253
0 0 253
0 0 253
0 0 253
0 0 254
0 0 254
0 0 252
0 0 254
0 0 254
0 0 254
0 0 254
0 0 250
0 0 253
0 0 254
0 0 249
0 0 253
0 0 253
0 0 254
0 0 254
0 0 253
0 0 249
0 0 249
0 0 249
0 0 253
0 0 253
0 0 244
0 0 252
0 0 252
0 0 249
0 0 253
0 0 252
0 0 249
0 0 249
0 0 248
0 0 246
0 0 250
0 0 249
0 0 253
0 0 253
0 0 252
0 0 250
0 0 249
0 0 250
0 0 248
0 0 249
0 0 250
0 0 250
0 0 252
0 0 250
0 0 250
0 0 249
0 0 250
0 0 249
0 0 250
0 0 250
0 0 249
0 0 254
0 0 250
0 0 250
0 0 242
0 0 241
0 0 246
0 0 248
0 0 249
0 0 245
0 0 248
0 0 246
0 0 252
0 0 245
0 0 249
0 0 242
0 0 240
0 0 242
0 0 242
0 0 245
0 0 244
0 0 246
0 0 244
0 0 248
0 0 241
0 0 245
0 0 234
0 0 241
0 0 238
0 0 245
0 0 238
0 0 237
0 0 237
0 0 238
0 0 240
0 0 244
0 0 241
0 0 244
0 0 245
0 0 241
0 0 245
0 0 245
0 0 244
0 0 228
0 0 223
0 0 246
0 0 233
0 0 237
0 0 236
0 0 236
0 0 241
0 0 223
0 0 238
0 0 231
0 0 227
0 0 236
0 0 233
0 0 227
0 0 228
0 0 221
0 0 217
0 0 230
0 0 227
0 0 214
0 0 218
0 0 207
0 0 211
0 0 226
0 0 211
0 0 212
46 50 215
190 209 252
206 227 255
206 227 255
206 227 255
206 227 255
206 227 255
206 227 255
206 227 255
206 227 255
206 227 255
206 227 255
206 227 255
206 227 255
206 227 255
206 227 255
206 227 255
206 227 255
206 227 255
206 227 255
206 227 255
206 227 255
206 227 255
206 227 255
206 227 255
206 227 255
206 227 255
206 227 255
206 227 255
206 227 255
206 227 255
206 227 255
203 211 237
176 64 72
175 0 0
174 0 0
158 0 0
175 0 0
182 0 0
179 0 0
172 0 0
178 0 0
184 0 0
189 0 0
168 0 0
178 0 0
187 0 0
189 0 0
179 0 0
191 0 0
174 0 0
183 0 0
195 0 0
196 0 0
191 0 0
189 0 0
190 0 0
198 0 0
197 0 0
194 0 0
195 0 0
203 0 0
190 0 0
189 0 0
202 0 0
201 0 0
201 0 0
194 0 0
197 0 0
197 0 0
204 0 0
201 0 0
204 0 0
203 0 0
205 0 0
200 0 0
202 0 0
203 0 0
198 0 0
204 0 0
201 0 0
207 0 0
207 0 0
205 0 0
204 0 0
209 0 0
207 0 0
208 0 0
204 0 0
199 0 0
204 0 0
209 0 0
207 0 0
203 0 0
208 0 0
207 0 0
210 0 0
207 0 0
205 0 0
208 0 0
208 0 0
202 0 0
205 0 0
203 0 0
203 0 0
208 0 0
208 0 0
209 0 0
206 0 0
211 0 0
211 0 0
210 0 0
211 0 0
210 0 0
208 0 0
211 0 0
217 0 0
212 0 0
216 0 0
209 0 0
213 0 0
208 0 0
213 0 0
210 0 0
211 0 0
209 0 0
212 0 0
214 0 0
210 0 0
208 0 0
205 0 0
214 0 0
212 0 0
211 0 0
213 0 0
216 0 0
217 0 0
216 0 0
215 0 0
212 0 0
210 0 0
212 0 0
216 0 0
215 0 0
216 0 0
209 0 0
214 0 0
214 0 0
211 0 0
213 0 0
213 0 0
211 0 0
215 0 0
212 0 0
211 0 0
210 0 0
212 0 0
214 0 0
216 0 0
213 0 0
211 0 0
215 0 0
213 0 0
212 0 0
212 0 0
218 0 0
213 0 0
216 0 0
211 0 0
217 0 0
210 0 0
211 0 0
216 0 0
213 0 0
216 0 0
216 0 0
212 0 0
214 0 0
213 0 0
215 0 0
213 0 0
219 0 0
218 0 0
217 0 0
215 0 0
217 0 0
219 0 0
217 0 0
213 0 0
216 0 0
213 0 0
214 0 0
219 0 0
216 0 0
214 0 0
216 0 0
216 0 0
215 0 0
215 0 0
219 0 0
215 0 0
214 0 0
213 0 0
216 0 0
214 0 0
218 0 0
218 0 0
216 0 0
216 0 0
214 0 0
213 0 0
217 0 0
218 0 0
215 0 0
216 0 0
215 0 0
217 0 0
0 0 255
0 0 255
0 0 255
0 0 255
0 0 255
0 0 255
0 0 255
0 0 255
0 0 255
0 0 254
0 0 255
0 0 255
0 0 255
0 0 254
0 0 254
0 0 255
0 0 255
0 0 252
0 0 254
0 0 255
0 0 255
0 0 254
0 0 254
0 0 255
0 0 255
0 0 255
0 0 253
0 0 255
0 0 255
0 0 252
0 0 253
0 0 255
0 0 254
0 0 255
0 0 254
0 0 255
0 0 253
0 0 254
0 0 254
0 0 254
0 0 250
0 0 255
0 0 255
0 0 254
0 0 254
0 0 254
0 0 255
0 0 253
0 0 254
0 0 253
0 0 254
0 0 255
0 0 253
0 0 254
0 0 255
0 0 254
0 0 253
0 0 255
0 0 252
0 0 250
0 0 255
0 0 253
0 0 253
0 0 252
0 0 253
0 0 254
0 0 253
0 0 252
0 0 250
0 0 253
0 0 254
0 0 252
0 0 252
0 0 253
0 0 252
0 0 248
0 0 254
0 0 252
0 0 254
0 0 254
0 0 249
0 0 255
0 0 253
0 0 254
0 0 255
0 0 253
0 0 253
0 0 252
0 0 253
0 0 250
0 0 248
0 0 253
0 0 249
0 0 252
0 0 248
0 0 250
0 0 252
0 0 248
0 0 249
0 0 248
0 0 252
0 0 248
0 0 254
0 0 252
0 0 254
0 0 246
0 0 245
0 0 245
0 0 252
0 0 253
0 0 249
0 0 238
0 0 252
0 0 254
0 0 248
0 0 249
0 0 246
0 0 253
0 0 249
0 0 248
0 0 248
0 0 246
0 0 245
0 0 253
0 0 249
0 0 252
0 0 244
0 0 245
0 0 241
0 0 249
0 0 244
0 0 240
0 0 238
0 0 246
0 0 236
0 0 242
0 0 246
0 0 242
0 0 244
0 0 242
0 0 238
0 0 238
0 0 241
0 0 238
0 0 241
0 0 241
0 0 240
0 0 242
0 0 241
0 0 238
0 0 242
0 0 233
0 0 241
0 0 231
0 0 233
0 0 227
0 0 237
0 0 231
0 0 237
0 0 241
0 0 231
0 0 237
0 0 230
0 0 231
0 0 230
0 0 218
0 0 228
0 0 234
0 0 236
0 0 228
0 0 226
0 0 230
0 0 231
0 0 221
0 0 214
0 0 223
0 0 211
0 0 218
0 0 212
0 0 203
0 0 217
0 0 212
0 0 206
0 0 214
101 111 228
202 223 253
206 227 255
206 227 255
206 227 255
206 227 255
206 227 255
206 227 255
206 227 255
206 227 255
206 227 255
206 227 255
206 227 255
206 227 255
206 227 255
206 227 255
206 227 255
206 227 255
206 227 255
206 227 255
206 227 255
206 227 255
206 227 255
206 227 255
206 227 255
206 227 255
206 227 255
206 227 255
206 227 255
206 227 255
206 226 254
170 104 117
163 0 0
170 0 0
166 0 0
175 0 0
176 0 0
173 0 0
180 0 0
179 0 0
182 0 0
179 0 0
182 0 0
185 0 0
187 0 0
186 0 0
191 0 0
185 0 0
189 0 0
186 0 0
187 0 0
187 0 0
197 0 0
186 0 0
187 0 0
192 0 0
197 0 0
198 0 0
194 0 0
199 0 0
193 0 0
192 0 0
198 0 0
193 0 0
196 0 0
196 0 0
201 0 0
203 0 0
202 0 0
200 0 0
196 0 0
204 0 0
202 0 0
193 0 0
200 0 0
201 0 0
204 0 0
203 0 0
205 0 0
201 0 0
203 0 0
209 0 0
210 0 0
206 0 0
205 0 0
195 0 0
204 0 0
210 0 0
207 0 0
198 0 0
202 0 0
203 0 0
203 0 0
210 0 0
213 0 0
204 0 0
206 0 0
214 0 0
210 0 0
204 0 0
209 0 0
203 0 0
211 0 0
207 0 0
212 0 0
211 0 0
211 0 0
208 0 0
205 0 0
206 0 0
209 0 0
204 0 0
209 0 0
212 0 0
209 0 0
208 0 0
208 0 0
211 0 0
209 0 0
215 0 0
209 0 0
213 0 0
206 0 0
208 0 0
214 0 0
212 0 0
214 0 0
205 0 0
209 0 0
208 0 0
213 0 0
207 0 0
214 0 0
212 0 0
209 0 0
217 0 0
214 0 0
210 0 0
213 0 0
208 0 0
216 0 0
207 0 0
207 0 0
217 0 0
213 0 0
215 0 0
209 0 0
216 0 0
215 0 0
215 0 0
210 0 0
212 0 0
214 0 0
214 0 0
216 0 0
213 0 0
214 0 0
218 0 0
215 0 0
214 0 0
211 0 0
218 0 0
215 0 0
216 0 0
214 0 0
215 0 0
215 0 0
216 0 0
211 0 0
213 0 0
216 0 0
210 0 0
214 0 0
214 0 0
212 0 0
221 0 0
215 0 0
216 0 0
213 0 0
213 0 0
213 0 0
217 0 0
216 0 0
214 0 0
212 0 0
213 0 0
217 0 0
214 0 0
214 0 0
215 0 0
216 0 0
220 0 0
216 0 0
215 0 0
216 0 0
217 0 0
215 0 0
217 0 0
213 0 0
216 0 0
220 0 0
210 0 0
215 0 0
216 0 0
217 0 0
217 0 0
217 0 0
219 0 0
216 0 0
218 0 0
217 0 0
213 0 0
213 0 0
218 0 0
216 0 0
215 0 0
0 0 255
0 0 254
0 0 255
0 0 255
0 0 255
0 0 254
0 0 255
0 0 254
0 0 255
0 0 255
0 0 254
0 0 254
0 0 255
0 0 254
0 0 255
0 0 255
0 0 253
0 0 255
0 0 254
0 0 253
0 0 255
0 0 255
0 0 255
0 0 254
0 0 255
0 0 254
0 0 252
0 0 253
0 0 254
0 0 254
0 0 255
0 0 255
0 0 254
0 0 253
0 0 255
0 0 255
0 0 254
0 0 255
0 0 250
0 0 254
0 0 255
0 0 255
0 0 255
0 0 255
0 0 254
0 0 254
0 0 253
0 0 255
0 0 250
0 0 254
0 0 252
0 0 254
0 0 254
0 0 254
0 0 254
0 0 253
0 0 253
0 0 254
0 0 254
0 0 253
0 0 252
0 0 252
0 0 253
0 0 255
0 0 253
0 0 252
0 0 252
0 0 253
0 0 254
0 0 253
0 0 250
0 0 254
0 0 249
0 0 254
0 0 250
0 0 254
0 0 254
0 0 250
0 0 249
0 0 249
0 0 246
0 0 254
0 0 254
0 0 250
0 0 250
0 0 250
0 0 249
0 0 245
0 0 249
0 0 250
0 0 254
0 0 254
0 0 253
0 0 250
0 0 252
0 0 252
0 0 255
0 0 253
0 0 252
0 0 248
0 0 250
0 0 250
0 0 250
0 0 248
0 0 254
0 0 249
0 0 249
0 0 248
0 0 249
0 0 250
0 0 241
0 0 246
0 0 244
0 0 242
0 0 248
0 0 249
0 0 248
0 0 245
0 0 253
0 0 244
0 0 253
0 0 249
0 0 250
0 0 253
0 0 250
0 0 245
0 0 250
0 0 249
0 0 249
0 0 244
0 0 245
0 0 244
0 0 246
0 0 241
0 0 245
0 0 246
0 0 238
0 0 249
0 0 241
0 0 242
0 0 244
0 0 236
0 0 234
0 0 248
0 0 244
0 0 244
0 0 240
0 0 242
0 0 240
0 0 236
0 0 240
0 0 249
0 0 238
0 0 237
0 0 241
0 0 231
0 0 228
0 0 234
0 0 233
0 0 244
0 0 240
0 0 231
0 0 223
0 0 227
0 0 230
0 0 237
0 0 233
0 0 221
0 0 212
0 0 238
0 0 217
0 0 223
0 0 226
0 0 221
0 0 230
0 0 217
0 0 215
0 0 231
0 0 214
0 0 220
0 0 207
0 0 223
0 0 209
0 0 203
0 0 209
152 167 240
207 227 255
207 227 255
207 227 255
207 227 255
207 227 255
207 227 255
206 227 255
206 227 255
206 227 255
206 227 255
206 227 255
206 227 255
206 227 255
206 227 255
206 227 255
206 227 255
206 227 255
206 227 255
206 227 255
206 227 255
206 227 255
207 227 255
207 227 255
207 227 255
207 227 255
207 227 255
207 227 255
207 227 255
194 192 215
165 0 0
153 0 0
173 0 0
162 0 0
178 0 0
178 0 0
181 0 0
173 0 0
183 0 0
186 0 0
187 0 0
181 0 0
177 0 0
187 0 0
187 0 0
188 0 0
196 0 0
196 0 0
188 0 0
181 0 0
191 0 0
187 0 0
193 0 0
187 0 0
191 0 0
197 0 0
191 0 0
193 0 0
197 0 0
194 0 0
200 0 0
197 0 0
197 0 0
198 0 0
196 0 0
202 0 0
195 0 0
201 0 0
198 0 0
196 0 0
197 0 0
203 0 0
202 0 0
196 0 0
204 0 0
197 0 0
206 0 0
203 0 0
209 0 0
204 0 0
205 0 0
211 0 0
197 0 0
213 0 0
207 0 0
207 0 0
204 0 0
206 0 0
204 0 0
208 0 0
208 0 0
206 0 0
208 0 0
208 0 0
210 0 0
203 0 0
206 0 0
211 0 0
211 0 0
204 0 0
207 0 0
207 0 0
211 0 0
204 0 0
212 0 0
210 0 0
209 0 0
213 0 0
209 0 0
208 0 0
212 0 0
210 0 0
210 0 0
211 0 0
210 0 0
211 0 0
212 0 0
214 0 0
211 0 0
212 0 0
207 0 0
215 0 0
212 0 0
210 0 0
212 0 0
215 0 0
213 0 0
209 0 0
213 0 0
211 0 0
209 0 0
211 0 0
212 0 0
211 0 0
213 0 0
211 0 0
210 0 0
214 0 0
212 0 0
216 0 0
212 0 0
213 0 0
210 0 0
213 0 0
210 0 0
215 0 0
213 0 0
213 0 0
215 0 0
214 0 0
215 0 0
214 0 0
214 0 0
214 0 0
217 0 0
212 0 0
216 0 0
218 0 0
217 0 0
215 0 0
216 0 0
215 0 0
213 0 0
216 0 0
217 0 0
213 0 0
218 0 0
214 0 0
217 0 0
213 0 0
213 0 0
212 0 0
214 0 0
215 0 0
217 0 0
213 0 0
219 0 0
217 0 0
214 0 0
217 0 0
213 0 0
217 0 0
212 0 0
216 0 0
216 0 0
215 0 0
213 0 0
215 0 0
214 0 0
217 0 0
216 0 0
216 0 0
217 0 0
214 0 0
217 0 0
214 0 0
217 0 0
215 0 0
214 0 0
215 0 0
218 0 0
216 0 0
213 0 0
218 0 0
217 0 0
217 0 0
218 0 0
215 0 0
215 0 0
216 0 0
214 0 0
216 0 0
216 0 0
214 0 0
214 0 0
0 0 254
0 0 254
0 0 255
0 0 255
0 0 255
0 0 255
0 0 255
0 0 254
0 0 254
0 0 254
0 0 255
0 0 254
0 0 255
0 0 254
0 0 253
0 0 255
0 0 255
0 0 255
0 0 253
0 0 252
0 0 253
0 0 255
0 0 255
0 0 253
0 0 255
0 0 255
0 0 255
0 0 254
0 0 253
0 0 255
0 0 254
0 0 254
0 0 255
0 0 254
0 0 253
0 0 255
0 0 255
0 0 254
0 0 254
0 0 253
0 0 252
0 0 252
0 0 255
0 0 253
0 0 255
0 0 254
0 0 254
0 0 254
0 0 254
0 0 254
0 0 253
0 0 254
0 0 252
0 0 253
0 0 254
0 0 252
0 0 252
0 0 255
0 0 254
0 0 252
0 0 254
0 0 253
0 0 252
0 0 255
0 0 255
0 0 255
0 0 253
0 0 248
0 0 255
0 0 252
0 0 253
0 0 252
0 0 249
0 0 254
0 0 253
0 0 254
0 0 250
0 0 254
0 0 248
0 0 249
0 0 252
0 0 252
0 0 252
0 0 252
0 0 246
0 0 254
0 0 254
0 0 252
0 0 252
0 0 249
0 0 248
0 0 252
0 0 253
0 0 252
0 0 248
0 0 250
0 0 252
0 0 252
0 0 252
0 0 254
0 0 253
0 0 249
0 0 249
0 0 246
0 0 249
0 0 253
0 0 253
0 0 246
0 0 240
0 0 249
0 0 248
0 0 249
0 0 250
0 0 253
0 0 248
0 0 252
0 0 249
0 0 249
0 0 249
0 0 249
0 0 240
0 0 246
0 0 238
0 0 241
0 0 242
0 0 249
0 0 240
0 0 241
0 0 248
0 0 248
0 0 245
0 0 246
0 0 237
0 0 246
0 0 241
0 0 240
0 0 248
0 0 246
0 0 244
0 0 244
0 0 248
0 0 249
0 0 241
0 0 240
0 0 237
0 0 240
0 0 244
0 0 238
0 0 231
0 0 240
0 0 241
0 0 233
0 0 241
0 0 238
0 0 236
0 0 238
0 0 236
0 0 237
0 0 248
0 0 240
0 0 237
0 0 231
0 0 224
0 0 238
0 0 237
0 0 231
0 0 223
0 0 234
0 0 230
0 0 237
0 0 233
0 0 230
0 0 227
0 0 221
0 0 221
0 0 227
0 0 215
0 0 209
0 0 211
0 0 218
0 0 206
0 0 207
0 0 217
0 0 212
0 0 214
50 55 220
198 218 253
207 228 255
207 228 255
207 228 255
207 228 255
207 228 255
207 228 255
207 228 255
207 228 255
207 228 255
207 228 255
207 228 255
207 228 255
207 227 255
207 228 255
207 228 255
207 228 255
207 228 255
207 228 255
207 228 255
207 228 255
207 228 255
207 228 255
207 228 255
207 228 255
207 228 255
207 228 255
204 217 244
164 32 36
164 0 0
163 0 0
174 0 0
174 0 0
176 0 0
175 0 0
174 0 0
174 0 0
178 0 0
183 0 0
181 0 0
180 0 0
186 0 0
173 0 0
189 0 0
185 0 0
189 0 0
177 0 0
184 0 0
189 0 0
179 0 0
193 0 0
195 0 0
195 0 0
186 0 0
192 0 0
194 0 0
195 0 0
190 0 0
197 0 0
199 0 0
199 0 0
199 0 0
193 0 0
191 0 0
200 0 0
199 0 0
194 0 0
204 0 0
197 0 0
195 0 0
199 0 0
203 0 0
204 0 0
202 0 0
209 0 0
201 0 0
206 0 0
197 0 0
207 0 0
201 0 0
200 0 0
205 0 0
205 0 0
202 0 0
209 0 0
211 0 0
208 0 0
211 0 0
210 0 0
203 0 0
210 0 0
202 0 0
204 0 0
203 0 0
212 0 0
207 0 0
205 0 0
201 0 0
204 0 0
204 0 0
207 0 0
202 0 0
212 0 0
213 0 0
205 0 0
206 0 0
204 0 0
211 0 0
208 0 0
210 0 0
209 0 0
210 0 0
212 0 0
206 0 0
208 0 0
210 0 0
206 0 0
216 0 0
216 0 0
214 0 0
209 0 0
212 0 0
211 0 0
208 0 0
217 0 0
219 0 0
214 0 0
211 0 0
213 0 0
211 0 0
214 0 0
213 0 0
214 0 0
211 0 0
211 0 0
216 0 0
215 0 0
210 0 0
216 0 0
217 0 0
214 0 0
215 0 0
217 0 0
213 0 0
209 0 0
212 0 0
212 0 0
214 0 0
207 0 0
215 0 0
214 0 0
212 0 0
208 0 0
216 0 0
217 0 0
216 0 0
213 0 0
213 0 0
213 0 0
211 0 0
212 0 0
216 0 0
218 0 0
214 0 0
215 0 0
217 0 0
215 0 0
213 0 0
216 0 0
212 0 0
213 0 0
217 0 0
213 0 0
212 0 0
213 0 0
216 0 0
216 0 0
216 0 0
215 0 0
213 0 0
216 0 0
214 0 0
213 0 0
215 0 0
213 0 0
215 0 0
215 0 0
214 0 0
218 0 0
215 0 0
216 0 0
215 0 0
215 0 0
213 0 0
212 0 0
217 0 0
216 0 0
218 0 0
211 0 0
214 0 0
217 0 0
218 0 0
219 0 0
217 0 0
218 0 0
216 0 0
216 0 0
215 0 0
216 0 0
219 0 0
217 0 0
218 0 0
217 0 0
219 0 0
0 0 254
0 0 255
0 0 254
0 0 254
0 0 255
0 0 254
0 0 254
0 0 255
0 0 255
0 0 255
0 0 254
0 0 254
0 0 252
0 0 254
0 0 255
0 0 255
0 0 255
0 0 255
0 0 255
0 0 253
0 0 252
0 0 255
0 0 254
0 0 254
0 0 255
0 0 255
0 0 254
0 0 252
0 0 253
0 0 254
0 0 254
0 0 255
0 0 255
0 0 254
0 0 252
0 0 253
0 0 254
0 0 253
0 0 255
0 0 254
0 0 255
0 0 254
0 0 254
0 0 254
0 0 254
0 0 253
0 0 254
0 0 252
0 0 250
0 0 250
0 0 254
0 0 254
0 0 255
0 0 253
0 0 252
0 0 252
0 0 255
0 0 253
0 0 250
0 0 253
0 0 254
0 0 254
0 0 253
0 0 253
0 0 252
0 0 253
0 0 253
0 0 254
0 0 253
0 0 254
0 0 252
0 0 252
0 0 253
0 0 255
0 0 254
0 0 252
0 0 254
0 0 253
0 0 254
0 0 253
0 0 250
0 0 250
0 0 254
0 0 250
0 0 254
0 0 248
0 0 254
0 0 249
0 0 252
0 0 249
0 0 253
0 0 250
0 0 254
0 0 248
0 0 253
0 0 254
0 0 250
0 0 245
0 0 253
0 0 249
0 0 253
0 0 248
0 0 250
0 0 248
0 0 252
0 0 252
0 0 250
0 0 250
0 0 246
0 0 250
0 0 249
0 0 252
0 0 245
0 0 246
0 0 248
0 0 246
0 0 242
0 0 246
0 0 252
0 0 248
0 0 248
0 0 248
0 0 246
0 0 240
0 0 246
0 0 242
0 0 241
0 0 248
0 0 244
0 0 245
0 0 245
0 0 246
0 0 248
0 0 245
0 0 245
0 0 246
0 0 241
0 0 236
0 0 249
0 0 241
0 0 245
0 0 236
0 0 238
0 0 245
0 0 231
0 0 245
0 0 237
0 0 240
0 0 242
0 0 245
0 0 242
0 0 237
0 0 240
0 0 242
0 0 237
0 0 228
0 0 237
0 0 240
0 0 223
0 0 241
0 0 237
0 0 231
0 0 238
0 0 220
0 0 237
0 0 227
0 0 233
0 0 233
0 0 231
0 0 223
0 0 220
0 0 223
0 0 226
0 0 220
0 0 221
0 0 218
0 0 227
0 0 217
0 0 201
0 0 215
0 0 221
0 0 217
0 0 226
0 0 206
0 0 204
0 0 191
107 118 223
207 228 255
207 228 255
207 228 255
207 228 255
207 228 255
207 228 255
207 228 255
207 228 255
207 228 255
207 228 255
207 228 255
207 228 255
207 228 255
207 228 255
207 228 255
207 228 255
207 228 255
207 228 255
207 228 255
207 228 255
207 228 255
207 228 255
207 228 255
207 228 255
207 228 255
207 228 255
184 134 151
161 0 0
163 0 0
163 0 0
158 0 0
165 0 0
174 0 0
169 0 0
176 0 0
175 0 0
179 0 0
178 0 0
188 0 0
187 0 0
174 0 0
179 0 0
185 0 0
177 0 0
187 0 0
193 0 0
199 0 0
188 0 0
183 0 0
197 0 0
180 0 0
196 0 0
200 0 0
190 0 0
201 0 0
196 0 0
194 0 0
202 0 0
200 0 0
194 0 0
200 0 0
193 0 0
190 0 0
202 0 0
198 0 0
199 0 0
198 0 0
199 0 0
209 0 0
193 0 0
205 0 0
199 0 0
198 0 0
201 0 0
203 0 0
202 0 0
203 0 0
202 0 0
196 0 0
205 0 0
206 0 0
207 0 0
204 0 0
201 0 0
207 0 0
204 0 0
202 0 0
208 0 0
211 0 0
200 0 0
208 0 0
210 0 0
207 0 0
213 0 0
204 0 0
209 0 0
205 0 0
210 0 0
205 0 0
211 0 0
211 0 0
208 0 0
211 0 0
209 0 0
212 0 0
213 0 0
207 0 0
211 0 0
204 0 0
207 0 0
215 0 0
213 0 0
209 0 0
211 0 0
215 0 0
211 0 0
212 0 0
208 0 0
211 0 0
214 0 0
215 0 0
212 0 0
214 0 0
213 0 0
211 0 0
210 0 0
214 0 0
212 0 0
210 0 0
215 0 0
217 0 0
214 0 0
210 0 0
216 0 0
214 0 0
212 0 0
211 0 0
214 0 0
208 0 0
214 0 0
218 0 0
213 0 0
213 0 0
213 0 0
215 0 0
209 0 0
213 0 0
212 0 0
209 0 0
217 0 0
216 0 0
214 0 0
215 0 0
212 0 0
210 0 0
211 0 0
212 0 0
213 0 0
213 0 0
215 0 0
215 0 0
215 0 0
217 0 0
217 0 0
216 0 0
214 0 0
217 0 0
217 0 0
216 0 0
213 0 0
212 0 0
216 0 0
211 0 0
212 0 0
216 0 0
216 0 0
212 0 0
214 0 0
217 0 0
214 0 0
214 0 0
215 0 0
215 0 0
215 0 0
217 0 0
215 0 0
217 0 0
211 0 0
211 0 0
213 0 0
215 0 0
214 0 0
214 0 0
214 0 0
217 0 0
219 0 0
217 0 0
215 0 0
217 0 0
215 0 0
217 0 0
216 0 0
218 0 0
216 0 0
216 0 0
215 0 0
214 0 0
217 0 0
216 0 0
216 0 0
213 0 0
218 0 0
216 0 0
0 0 255
0 0 255
0 0 254
0 0 254
0 0 255
0 0 254
0 0 255
0 0 255
0 0 255
0 0 255
0 0 253
0 0 255
0 0 253
0 0 254
0 0 255
0 0 255
0 0 254
0 0 254
0 0 254
0 0 253
0 0 253
0 0 255
0 0 255
0 0 255
0 0 255
0 0 255
0 0 254
0 0 255
0 0 254
0 0 252
0 0 255
0 0 253
0 0 253
0 0 254
0 0 255
0 0 253
0 0 254
0 0 254
0 0 255
0 0 255
0 0 254
0 0 254
0 0 254
0 0 255
0 0 255
0 0 252
0 0 253
0 0 253
0 0 254
0 0 255
0 0 253
0 0 252
0 0 253
0 0 253
0 0 253
0 0 254
0 0 253
0 0 250
0 0 254
0 0 253
0 0 255
0 0 250
0 0 254
0 0 254
0 0 254
0 0 250
0 0 253
0 0 252
0 0 254
0 0 253
0 0 252
0 0 254
0 0 250
0 0 254
0 0 253
0 0 253
0 0 255
0 0 253
0 0 253
0 0 253
0 0 252
0 0 252
0 0 250
0 0 255
0 0 250
0 0 250
0 0 252
0 0 254
0 0 249
0 0 249
0 0 253
0 0 254
0 0 254
0 0 254
0 0 250
0 0 249
0 0 252
0 0 248
0 0 249
0 0 250
0 0 250
0 0 253
0 0 244
0 0 250
0 0 250
0 0 248
0 0 250
0 0 250
0 0 252
0 0 245
0 0 244
0 0 250
0 0 246
0 0 249
0 0 242
0 0 250
0 0 244
0 0 249
0 0 252
0 0 250
0 0 246
0 0 242
0 0 242
0 0 248
0 0 245
0 0 244
0 0 241
0 0 238
0 0 245
0 0 240
0 0 253
0 0 249
0 0 238
0 0 248
0 0 242
0 0 241
0 0 246
0 0 240
0 0 250
0 0 248
0 0 245
0 0 237
0 0 245
0 0 244
0 0 250
0 0 238
0 0 241
0 0 228
0 0 244
0 0 233
0 0 236
0 0 238
0 0 234
0 0 231
0 0 244
0 0 231
0 0 241
0 0 231
0 0 234
0 0 231
0 0 238
0 0 234
0 0 230
0 0 228
0 0 231
0 0 231
0 0 226
0 0 223
0 0 228
0 0 230
0 0 226
0 0 236
0 0 228
0 0 226
0 0 209
0 0 223
0 0 211
0 0 224
0 0 226
0 0 211
0 0 207
0 0 217
0 0 203
0 0 212
0 0 201
0 0 204
0 0 201
171 188 242
207 228 255
207 228 255
207 228 255
207 228 255
207 228 255
207 228 255
207 228 255
207 228 255
207 228 255
207 228 255
207 228 255
207 228 255
207 228 255
207 228 255
207 228 255
207 228 255
207 228 255
207 228 255
207 228 255
207 228 255
207 228 255
207 228 255
207 228 255
207 228 255
191 178 199
158 0 0
163 0 0
163 0 0
164 0 0
162 0 0
172 0 0
164 0 0
170 0 0
169 0 0
163 0 0
179 0 0
170 0 0
177 0 0
182 0 0
188 0 0
175 0 0
193 0 0
188 0 0
189 0 0
182 0 0
194 0 0
183 0 0
191 0 0
191 0 0
185 0 0
192 0 0
196 0 0
189 0 0
188 0 0
194 0 0
196 0 0
201 0 0
201 0 0
188 0 0
195 0 0
185 0 0
202 0 0
198 0 0
194 0 0
204 0 0
197 0 0
198 0 0
195 0 0
206 0 0
197 0 0
199 0 0
199 0 0
196 0 0
205 0 0
204 0 0
204 0 0
204 0 0
207 0 0
204 0 0
201 0 0
202 0 0
205 0 0
200 0 0
204 0 0
202 0 0
207 0 0
203 0 0
208 0 0
206 0 0
207 0 0
210 0 0
208 0 0
209 0 0
208 0 0
208 0 0
205 0 0
206 0 0
214 0 0
211 0 0
205 0 0
207 0 0
208 0 0
210 0 0
212 0 0
213 0 0
214 0 0
209 0 0
211 0 0
216 0 0
206 0 0
209 0 0
208 0 0
212 0 0
209 0 0
210 0 0
209 0 0
214 0 0
212 0 0
210 0 0
215 0 0
209 0 0
211 0 0
214 0 0
213 0 0
214 0 0
210 0 0
214 0 0
212 0 0
211 0 0
216 0 0
207 0 0
211 0 0
211 0 0
213 0 0
213 0 0
213 0 0
213 0 0
213 0 0
214 0 0
214 0 0
213 0 0
215 0 0
213 0 0
209 0 0
209 0 0
214 0 0
208 0 0
216 0 0
215 0 0
215 0 0
216 0 0
216 0 0
217 0 0
213 0 0
214 0 0
214 0 0
213 0 0
216 0 0
218 0 0
213 0 0
216 0 0
214 0 0
213 0 0
214 0 0
217 0 0
216 0 0
215 0 0
211 0 0
216 0 0
214 0 0
216 0 0
215 0 0
213 0 0
216 0 0
215 0 0
213 0 0
216 0 0
216 0 0
217 0 0
211 0 0
220 0 0
217 0 0
219 0 0
215 0 0
216 0 0
218 0 0
217 0 0
215 0 0
214 0 0
216 0 0
219 0 0
215 0 0
217 0 0
214 0 0
218 0 0
216 0 0
218 0 0
213 0 0
218 0 0
213 0 0
218 0 0
216 0 0
217 0 0
217 0 0
214 0 0
214 0 0
219 0 0
215 0 0
213 0 0
217 0 0
216 0 0
217 0 0
0 0 255
0 0 255
0 0 255
0 0 255
0 0 255
0 0 255
0 0 254
0 0 254
0 0 255
0 0 255
0 0 253
0 0 253
0 0 253
0 0 255
0 0 254
0 0 255
0 0 255
0 0 255
0 0 255
0 0 255
0 0 253
0 0 255
0 0 255
0 0 255
0 0 255
0 0 254
0 0 254
0 0 254
0 0 255
0 0 255
0 0 255
0 0 255
0 0 254
0 0 252
0 0 254
0 0 254
0 0 253
0 0 254
0 0 253
0 0 255
0 0 254
0 0 252
0 0 255
0 0 254
0 0 254
0 0 254
0 0 255
0 0 254
0 0 254
0 0 254
0 0 255
0 0 253
0 0 254
0 0 254
0 0 253
0 0 253
0 0 253
0 0 253
0 0 249
0 0 253
0 0 253
0 0 254
0 0 254
0 0 252
0 0 253
0 0 252
0 0 252
0 0 253
0 0 252
0 0 253
0 0 253
0 0 252
0 0 253
0 0 252
0 0 255
0 0 254
0 0 253
0 0 252
0 0 252
0 0 253
0 0 254
0 0 255
0 0 252
0 0 253
0 0 252
0 0 249
0 0 254
0 0 252
0 0 254
0 0 248
0 0 253
0 0 250
0 0 249
0 0 250
0 0 254
0 0 250
0 0 249
0 0 244
0 0 250
0 0 248
0 0 254
0 0 252
0 0 249
0 0 252
0 0 250
0 0 248
0 0 253
0 0 242
0 0 246
0 0 248
0 0 248
0 0 245
0 0 246
0 0 244
0 0 246
0 0 242
0 0 252
0 0 248
0 0 249
0 0 249
0 0 248
0 0 238
0 0 246
0 0 249
0 0 245
0 0 249
0 0 246
0 0 248
0 0 246
0 0 240
0 0 238
0 0 244
0 0 246
0 0 244
0 0 248
0 0 246
0 0 242
0 0 240
0 0 242
0 0 237
0 0 241
0 0 236
0 0 244
0 0 237
0 0 234
0 0 238
0 0 231
0 0 237
0 0 238
0 0 242
0 0 240
0 0 240
0 0 230
0 0 231
0 0 242
0 0 242
0 0 241
0 0 234
0 0 236
0 0 228
0 0 236
0 0 228
0 0 228
0 0 228
0 0 218
0 0 227
0 0 230
0 0 227
0 0 217
0 0 226
0 0 230
0 0 227
0 0 227
0 0 224
0 0 228
0 0 215
0 0 209
0 0 218
0 0 217
0 0 211
0 0 221
0 0 217
0 0 211
0 0 199
0 0 206
0 0 194
0 0 188
62 68 198
203 223 253
208 228 255
208 228 255
208 228 255
208 228 255
208 228 255
208 228 255
208 228 255
208 228 255
208 228 255
208 228 255
208 228 255
208 228 255
208 228 255
208 228 255
208 228 255
208 228 255
208 228 255
208 228 255
208 228 255
208 228 255
208 228 255
208 228 255
206 222 249
175 94 105
160 0 0
157 0 0
159 0 0
160 0 0
173 0 0
155 0 0
182 0 0
175 0 0
175 0 0
177 0 0
180 0 0
177 0 0
178 0 0
180 0 0
182 0 0
180 0 0
192 0 0
186 0 0
180 0 0
190 0 0
190 0 0
190 0 0
185 0 0
196 0 0
182 0 0
194 0 0
190 0 0
198 0 0
194 0 0
195 0 0
193 0 0
203 0 0
206 0 0
193 0 0
193 0 0
195 0 0
206 0 0
190 0 0
205 0 0
200 0 0
189 0 0
200 0 0
202 0 0
203 0 0
194 0 0
205 0 0
207 0 0
201 0 0
200 0 0
203 0 0
193 0 0
205 0 0
202 0 0
201 0 0
204 0 0
204 0 0
202 0 0
210 0 0
207 0 0
202 0 0
209 0 0
207 0 0
207 0 0
211 0 0
203 0 0
206 0 0
205 0 0
210 0 0
200 0 0
205 0 0
204 0 0
205 0 0
210 0 0
212 0 0
206 0 0
212 0 0
211 0 0
206 0 0
214 0 0
204 0 0
205 0 0
213 0 0
208 0 0
209 0 0
210 0 0
210 0 0
213 0 0
211 0 0
207 0 0
213 0 0
206 0 0
209 0 0
211 0 0
210 0 0
213 0 0
215 0 0
213 0 0
209 0 0
212 0 0
214 0 0
213 0 0
207 0 0
209 0 0
214 0 0
209 0 0
215 0 0
211 0 0
216 0 0
210 0 0
212 0 0
213 0 0
213 0 0
210 0 0
213 0 0
215 0 0
213 0 0
213 0 0
212 0 0
216 0 0
208 0 0
217 0 0
212 0 0
211 0 0
212 0 0
213 0 0
214 0 0
212 0 0
215 0 0
215 0 0
211 0 0
215 0 0
219 0 0
214 0 0
213 0 0
214 0 0
213 0 0
214 0 0
216 0 0
215 0 0
219 0 0
216 0 0
215 0 0
217 0 0
218 0 0
217 0 0
213 0 0
217 0 0
211 0 0
215 0 0
216 0 0
210 0 0
216 0 0
217 0 0
214 0 0
214 0 0
216 0 0
216 0 0
214 0 0
216 0 0
215 0 0
215 0 0
215 0 0
215 0 0
216 0 0
211 0 0
212 0 0
214 0 0
216 0 0
214 0 0
218 0 0
216 0 0
219 0 0
217 0 0
218 0 0
216 0 0
213 0 0
220 0 0
216 0 0
213 0 0
218 0 0
219 0 0
218 0 0
220 0 0
218 0 0
215 0 0
220 0 0
216 0 0
0 0 255
0 0 253
0 0 255
0 0 255
0 0 255
0 0 255
0 0 255
0 0 255
0 0 255
0 0 255
0 0 255
0 0 255
0 0 255
0 0 255
0 0 255
0 0 254
0 0 255
0 0 255
0 0 254
0 0 254
0 0 255
0 0 255
0 0 255
0 0 255
0 0 255
0 0 254
0 0 253
0 0 253
0 0 253
0 0 253
0 0 255
0 0 255
0 0 254
0 0 254
0 0 254
0 0 255
0 0 255
0 0 254
0 0 254
0 0 255
0 0 254
0 0 254
0 0 253
0 0 254
0 0 255
0 0 255
0 0 253
0 0 255
0 0 252
0 0 254
0 0 254
0 0 254
0 0 255
0 0 255
0 0 254
0 0 253
0 0 250
0 0 255
0 0 253
0 0 255
0 0 250
0 0 253
0 0 252
0 0 253
0 0 253
0 0 253
0 0 250
0 0 252
0 0 254
0 0 253
0 0 254
0 0 249
0 0 252
0 0 250
0 0 252
0 0 252
0 0 249
0 0 253
0 0 252
0 0 253
0 0 253
0 0 252
0 0 250
0 0 248
0 0 250
0 0 252
0 0 254
0 0 255
0 0 249
0 0 249
0 0 252
0 0 253
0 0 252
0 0 250
0 0 250
0 0 253
0 0 249
0 0 252
0 0 249
0 0 253
0 0 249
0 0 253
0 0 250
0 0 250
0 0 245
0 0 253
0 0 248
0 0 246
0 0 250
0 0 252
0 0 250
0 0 244
0 0 250
0 0 252
0 0 250
0 0 249
0 0 249
0 0 248
0 0 248
0 0 246
0 0 248
0 0 248
0 0 249
0 0 248
0 0 240
0 0 245
0 0 246
0 0 246
0 0 246
0 0 252
0 0 245
0 0 248
0 0 237
0 0 250
0 0 245
0 0 245
0 0 241
0 0 249
0 0 245
0 0 241
0 0 241
0 0 241
0 0 238
0 0 244
0 0 242
0 0 241
0 0 234
0 0 234
0 0 241
0 0 237
0 0 233
0 0 241
0 0 237
0 0 233
0 0 224
0 0 237
0 0 236
0 0 231
0 0 233
0 0 233
0 0 224
0 0 226
0 0 228
0 0 224
0 0 234
0 0 228
0 0 226
0 0 226
0 0 215
0 0 228
0 0 227
0 0 230
0 0 214
0 0 221
0 0 191
0 0 226
0 0 212
0 0 221
0 0 215
0 0 207
0 0 217
0 0 209
0 0 198
0 0 206
0 0 211
0 0 199
0 0 204
0 0 207
154 169 220
208 228 255
208 228 255
208 228 255
208 228 255
208 228 255
208 228 255
208 228 255
208 228 255
208 228 255
208 228 255
208 228 255
208 228 255
208 228 255
208 228 255
208 228 255
208 228 255
208 228 255
208 228 255
208 228 255
208 228 255
208 228 255
208 228 255
187 174 194
156 0 0
152 0 0
152 0 0
164 0 0
167 0 0
168 0 0
154 0 0
177 0 0
175 0 0
175 0 0
185 0 0
175 0 0
177 0 0
183 0 0
180 0 0
178 0 0
181 0 0
183 0 0
190 0 0
188 0 0
190 0 0
193 0 0
188 0 0
178 0 0
182 0 0
193 0 0
186 0 0
202 0 0
191 0 0
194 0 0
195 0 0
200 0 0
197 0 0
188 0 0
198 0 0
193 0 0
201 0 0
200 0 0
203 0 0
202 0 0
197 0 0
200 0 0
199 0 0
196 0 0
206 0 0
203 0 0
203 0 0
193 0 0
203 0 0
201 0 0
201 0 0
206 0 0
204 0 0
202 0 0
202 0 0
204 0 0
204 0 0
207 0 0
207 0 0
213 0 0
206 0 0
207 0 0
209 0 0
205 0 0
208 0 0
204 0 0
211 0 0
211 0 0
204 0 0
205 0 0
206 0 0
211 0 0
206 0 0
208 0 0
210 0 0
210 0 0
211 0 0
207 0 0
211 0 0
208 0 0
212 0 0
210 0 0
211 0 0
209 0 0
212 0 0
216 0 0
210 0 0
211 0 0
209 0 0
208 0 0
210 0 0
212 0 0
212 0 0
212 0 0
214 0 0
214 0 0
211 0 0
215 0 0
209 0 0
213 0 0
211 0 0
211 0 0
211 0 0
212 0 0
216 0 0
215 0 0
208 0 0
215 0 0
213 0 0
214 0 0
212 0 0
211 0 0
213 0 0
213 0 0
213 0 0
213 0 0
213 0 0
210 0 0
213 0 0
216 0 0
217 0 0
214 0 0
217 0 0
214 0 0
214 0 0
214 0 0
212 0 0
213 0 0
215 0 0
216 0 0
208 0 0
212 0 0
213 0 0
213 0 0
212 0 0
216 0 0
214 0 0
214 0 0
213 0 0
216 0 0
209 0 0
213 0 0
220 0 0
216 0 0
215 0 0
219 0 0
216 0 0
215 0 0
216 0 0
215 0 0
215 0 0
214 0 0
215 0 0
220 0 0
216 0 0
216 0 0
218 0 0
215 0 0
219 0 0
216 0 0
215 0 0
216 0 0
216 0 0
217 0 0
219 0 0
221 0 0
217 0 0
218 0 0
219 0 0
209 0 0
216 0 0
215 0 0
216 0 0
216 0 0
217 0 0
220 0 0
215 0 0
216 0 0
215 0 0
215 0 0
216 0 0
219 0 0
215 0 0
216 0 0
219 0 0
217 0 0
214 0 0
218 0 0
0 0 254
0 0 255
0 0 255
0 0 255
0 0 255
0 0 253
0 0 254
0 0 254
0 0 254
0 0 254
0 0 254
0 0 255
0 0 253
0 0 252
0 0 254
0 0 255
0 0 255
0 0 254
0 0 254
0 0 253
0 0 255
0 0 254
0 0 254
0 0 255
0 0 252
0 0 255
0 0 255
0 0 255
0 0 254
0 0 254
0 0 255
0 0 254
0 0 252
0 0 255
0 0 255
0 0 255
0 0 255
0 0 255
0 0 253
0 0 255
0 0 255
0 0 253
0 0 254
0 0 254
0 0 253
0 0 252
0 0 255
0 0 252
0 0 253
0 0 250
0 0 250
0 0 254
0 0 252
0 0 255
0 0 254
0 0 255
0 0 253
0 0 254
0 0 254
0 0 250
0 0 252
0 0 254
0 0 252
0 0 254
0 0 250
0 0 252
0 0 253
0 0 253
0 0 252
0 0 250
0 0 252
0 0 255
0 0 253
0 0 250
0 0 254
0 0 250
0 0 252
0 0 249
0 0 254
0 0 254
0 0 252
0 0 252
0 0 253
0 0 248
0 0 250
0 0 249
0 0 252
0 0 252
0 0 248
0 0 250
0 0 240
0 0 249
0 0 255
0 0 248
0 0 254
0 0 253
0 0 250
0 0 248
0 0 250
0 0 249
0 0 253
0 0 248
0 0 250
0 0 246
0 0 246
0 0 245
0 0 252
0 0 246
0 0 249
0 0 246
0 0 253
0 0 248
0 0 245
0 0 240
0 0 250
0 0 244
0 0 252
0 0 248
0 0 252
0 0 246
0 0 245
0 0 248
0 0 249
0 0 244
0 0 246
0 0 246
0 0 241
0 0 250
0 0 249
0 0 242
0 0 242
0 0 238
0 0 245
0 0 246
0 0 249
0 0 241
0 0 249
0 0 246
0 0 236
0 0 242
0 0 242
0 0 240
0 0 248
0 0 241
0 0 236
0 0 234
0 0 236
0 0 236
0 0 233
0 0 245
0 0 238
0 0 246
0 0 234
0 0 231
0 0 234
0 0 237
0 0 228
0 0 237
0 0 241
0 0 233
0 0 236
0 0 231
0 0 221
0 0 228
0 0 237
0 0 234
0 0 234
0 0 226
0 0 230
0 0 224
0 0 236
0 0 236
0 0 227
0 0 218
0 0 228
0 0 218
0 0 221
0 0 212
0 0 215
0 0 201
0 0 212
0 0 204
0 0 214
0 0 201
0 0 207
0 0 206
0 0 203
0 0 194
46 51 199
197 217 249
208 228 255
208 228 255
208 228 255
208 228 255
208 228 255
208 228 255
208 228 255
208 228 255
208 228 255
208 228 255
208 228 255
208 228 255
208 228 255
208 228 255
208 228 255
208 228 255
208 228 255
208 228 255
208 228 255
208 228 255
205 218 244
148 39 44
163 0 0
157 0 0
156 0 0
162 0 0
164 0 0
165 0 0
165 0 0
175 0 0
173 0 0
171 0 0
179 0 0
169 0 0
176 0 0
179 0 0
187 0 0
162 0 0
188 0 0
185 0 0
187 0 0
173 0 0
196 0 0
183 0 0
186 0 0
193 0 0
202 0 0
192 0 0
190 0 0
192 0 0
193 0 0
192 0 0
193 0 0
189 0 0
200 0 0
196 0 0
194 0 0
194 0 0
203 0 0
200 0 0
197 0 0
192 0 0
196 0 0
206 0 0
206 0 0
199 0 0
195 0 0
196 0 0
203 0 0
201 0 0
198 0 0
202 0 0
207 0 0
206 0 0
199 0 0
202 0 0
209 0 0
211 0 0
208 0 0
204 0 0
210 0 0
202 0 0
202 0 0
206 0 0
206 0 0
207 0 0
204 0 0
210 0 0
207 0 0
211 0 0
198 0 0
212 0 0
204 0 0
206 0 0
205 0 0
207 0 0
216 0 0
206 0 0
207 0 0
211 0 0
213 0 0
205 0 0
206 0 0
201 0 0
207 0 0
213 0 0
214 0 0
207 0 0
212 0 0
212 0 0
214 0 0
209 0 0
216 0 0
212 0 0
212 0 0
210 0 0
215 0 0
211 0 0
214 0 0
211 0 0
211 0 0
211 0 0
214 0 0
205 0 0
211 0 0
209 0 0
216 0 0
216 0 0
213 0 0
212 0 0
214 0 0
217 0 0
213 0 0
208 0 0
216 0 0
213 0 0
211 0 0
217 0 0
214 0 0
214 0 0
216 0 0
211 0 0
213 0 0
214 0 0
214 0 0
216 0 0
215 0 0
212 0 0
217 0 0
215 0 0
214 0 0
218 0 0
214 0 0
216 0 0
214 0 0
217 0 0
216 0 0
215 0 0
210 0 0
216 0 0
214 0 0
213 0 0
214 0 0
212 0 0
212 0 0
214 0 0
213 0 0
217 0 0
215 0 0
213 0 0
216 0 0
215 0 0
217 0 0
215 0 0
217 0 0
215 0 0
216 0 0
217 0 0
215 0 0
215 0 0
215 0 0
218 0 0
219 0 0
218 0 0
215 0 0
216 0 0
217 0 0
218 0 0
218 0 0
215 0 0
221 0 0
216 0 0
211 0 0
220 0 0
219 0 0
218 0 0
216 0 0
218 0 0
214 0 0
218 0 0
220 0 0
218 0 0
215 0 0
215 0 0
220 0 0
220 0 0
214 0 0
216 0 0
216 0 0
219 0 0
0 0 255
0 0 253
0 0 255
0 0 255
0 0 255
0 0 255
0 0 255
0 0 254
0 0 255
0 0 255
0 0 254
0 0 255
0 0 254
0 0 254
0 0 255
0 0 254
0 0 255
0 0 254
0 0 255
0 0 254
0 0 254
0 0 255
0 0 255
0 0 255
0 0 255
0 0 254
0 0 254
0 0 255
0 0 254
0 0 254
0 0 254
0 0 254
0 0 252
0 0 255
0 0 255
0 0 254
0 0 254
0 0 255
0 0 255
0 0 255
0 0 255
0 0 254
0 0 255
0 0 255
0 0 254
0 0 250
0 0 255
0 0 254
0 0 255
0 0 255
0 0 255
0 0 255
0 0 250
0 0 250
0 0 255
0 0 255
0 0 253
0 0 252
0 0 254
0 0 254
0 0 254
0 0 252
0 0 254
0 0 255
0 0 253
0 0 254
0 0 252
0 0 253
0 0 250
0 0 252
0 0 250
0 0 253
0 0 253
0 0 252
0 0 252
0 0 254
0 0 250
0 0 255
0 0 254
0 0 250
0 0 250
0 0 252
0 0 248
0 0 254
0 0 253
0 0 250
0 0 249
0 0 250
0 0 253
0 0 255
0 0 252
0 0 253
0 0 249
0 0 245
0 0 245
0 0 253
0 0 244
0 0 245
0 0 250
0 0 250
0 0 250
0 0 248
0 0 250
0 0 250
0 0 245
0 0 246
0 0 250
0 0 245
0 0 246
0 0 248
0 0 250
0 0 249
0 0 245
0 0 244
0 0 246
0 0 245
0 0 246
0 0 248
0 0 249
0 0 249
0 0 242
0 0 241
0 0 250
0 0 245
0 0 245
0 0 238
0 0 249
0 0 245
0 0 246
0 0 248
0 0 245
0 0 250
0 0 246
0 0 244
0 0 238
0 0 249
0 0 245
0 0 244
0 0 238
0 0 241
0 0 236
0 0 245
0 0 244
0 0 231
0 0 238
0 0 240
0 0 231
0 0 236
0 0 233
0 0 245
0 0 230
0 0 241
0 0 246
0 0 231
0 0 227
0 0 228
0 0 231
0 0 238
0 0 240
0 0 226
0 0 230
0 0 236
0 0 223
0 0 224
0 0 237
0 0 233
0 0 238
0 0 209
0 0 223
0 0 218
0 0 227
0 0 218
0 0 231
0 0 226
0 0 223
0 0 212
0 0 221
0 0 218
0 0 207
0 0 218
0 0 212
0 0 193
0 0 206
0 0 203
0 0 207
0 0 211
0 0 194
0 0 196
0 0 184
114 125 207
209 228 255
208 228 255
208 228 255
208 228 255
208 228 255
208 228 255
208 228 255
208 228 255
208 228 255
208 228 255
208 228 255
208 228 255
208 228 255
208 228 255
208 228 255
208 228 255
208 228 255
208 228 255
208 228 255
209 228 255
176 158 177
154 0 0
144 0 0
153 0 0
151 0 0
161 0 0
167 0 0
168 0 0
169 0 0
169 0 0
168 0 0
154 0 0
180 0 0
173 0 0
181 0 0
188 0 0
176 0 0
191 0 0
180 0 0
192 0 0
175 0 0
185 0 0
187 0 0
186 0 0
197 0 0
192 0 0
197 0 0
194 0 0
187 0 0
194 0 0
187 0 0
199 0 0
189 0 0
200 0 0
200 0 0
196 0 0
196 0 0
206 0 0
196 0 0
200 0 0
197 0 0
195 0 0
207 0 0
199 0 0
202 0 0
204 0 0
198 0 0
205 0 0
205 0 0
196 0 0
206 0 0
200 0 0
202 0 0
205 0 0
206 0 0
207 0 0
207 0 0
206 0 0
209 0 0
207 0 0
205 0 0
205 0 0
204 0 0
194 0 0
210 0 0
204 0 0
202 0 0
201 0 0
207 0 0
210 0 0
206 0 0
205 0 0
209 0 0
206 0 0
212 0 0
215 0 0
205 0 0
208 0 0
206 0 0
211 0 0
211 0 0
203 0 0
204 0 0
211 0 0
206 0 0
215 0 0
212 0 0
208 0 0
214 0 0
209 0 0
212 0 0
212 0 0
210 0 0
217 0 0
207 0 0
213 0 0
209 0 0
216 0 0
215 0 0
212 0 0
216 0 0
209 0 0
212 0 0
212 0 0
218 0 0
211 0 0
212 0 0
214 0 0
219 0 0
206 0 0
214 0 0
210 0 0
212 0 0
216 0 0
218 0 0
220 0 0
212 0 0
214 0 0
212 0 0
220 0 0
213 0 0
216 0 0
209 0 0
218 0 0
211 0 0
214 0 0
213 0 0
215 0 0
212 0 0
215 0 0
216 0 0
215 0 0
214 0 0
216 0 0
216 0 0
213 0 0
213 0 0
214 0 0
215 0 0
215 0 0
215 0 0
216 0 0
212 0 0
218 0 0
214 0 0
215 0 0
216 0 0
215 0 0
212 0 0
217 0 0
215 0 0
217 0 0
214 0 0
218 0 0
212 0 0
214 0 0
215 0 0
215 0 0
221 0 0
219 0 0
216 0 0
217 0 0
218 0 0
215 0 0
218 0 0
215 0 0
219 0 0
216 0 0
214 0 0
217 0 0
219 0 0
218 0 0
217 0 0
220 0 0
215 0 0
219 0 0
216 0 0
217 0 0
217 0 0
216 0 0
218 0 0
217 0 0
215 0 0
214 0 0
219 0 0
219 0 0
218 0 0
216 0 0
221 0 0
220 0 0
0 0 255
0 0 254
0 0 255
0 0 255
0 0 255
0 0 255
0 0 255
0 0 255
0 0 255
0 0 254
0 0 255
0 0 254
0 0 253
0 0 255
0 0 255
0 0 254
0 0 255
0 0 253
0 0 253
0 0 255
0 0 255
0 0 255
0 0 254
0 0 254
0 0 254
0 0 254
0 0 254
0 0 254
0 0 254
0 0 255
0 0 252
0 0 254
0 0 254
0 0 254
0 0 255
0 0 254
0 0 254
0 0 254
0 0 252
0 0 254
0 0 254
0 0 254
0 0 255
0 0 255
0 0 255
0 0 254
0 0 255
0 0 255
0 0 250
0 0 255
0 0 253
0 0 254
0 0 252
0 0 254
0 0 254
0 0 253
0 0 253
0 0 249
0 0 253
0 0 250
0 0 254
0 0 252
0 0 252
0 0 253
0 0 254
0 0 252
0 0 254
0 0 253
0 0 250
0 0 250
0 0 248
0 0 252
0 0 252
0 0 250
0 0 252
0 0 253
0 0 254
0 0 249
0 0 252
0 0 252
0 0 253
0 0 252
0 0 252
0 0 253
0 0 253
0 0 254
0 0 252
0 0 249
0 0 250
0 0 250
0 0 252
0 0 250
0 0 249
0 0 248
0 0 249
0 0 249
0 0 248
0 0 249
0 0 249
0 0 246
0 0 246
0 0 250
0 0 250
0 0 250
0 0 250
0 0 242
0 0 252
0 0 248
0 0 246
0 0 246
0 0 250
0 0 250
0 0 248
0 0 249
0 0 240
0 0 245
0 0 244
0 0 252
0 0 250
0 0 246
0 0 250
0 0 250
0 0 246
0 0 248
0 0 246
0 0 240
0 0 245
0 0 244
0 0 245
0 0 245
0 0 246
0 0 248
0 0 241
0 0 246
0 0 240
0 0 246
0 0 244
0 0 245
0 0 238
0 0 238
0 0 241
0 0 240
0 0 234
0 0 245
0 0 240
0 0 237
0 0 241
0 0 240
0 0 233
0 0 236
0 0 236
0 0 236
0 0 230
0 0 234
0 0 240
0 0 231
0 0 242
0 0 238
0 0 238
0 0 234
0 0 234
0 0 231
0 0 230
0 0 230
0 0 233
0 0 230
0 0 231
0 0 228
0 0 233
0 0 212
0 0 224
0 0 230
0 0 220
0 0 224
0 0 231
0 0 204
0 0 218
0 0 211
0 0 215
0 0 212
0 0 201
0 0 209
0 0 211
0 0 199
0 0 203
0 0 186
0 0 215
0 0 189
0 0 193
29 32 179
188 206 242
209 229 255
209 229 255
209 229 255
209 229 255
209 229 255
209 229 255
209 229 255
209 229 255
209 229 255
209 229 255
209 229 255
209 229 255
209 229 255
209 229 255
209 229 255
209 229 255
209 229 255
209 229 255
200 207 231
135 0 0
151 0 0
154 0 0
161 0 0
162 0 0
161 0 0
171 0 0
167 0 0
179 0 0
166 0 0
182 0 0
181 0 0
188 0 0
165 0 0
182 0 0
172 0 0
182 0 0
189 0 0
178 0 0
180 0 0
180 0 0
183 0 0
189 0 0
192 0 0
189 0 0
192 0 0
197 0 0
191 0 0
191 0 0
190 0 0
196 0 0
198 0 0
190 0 0
200 0 0
192 0 0
198 0 0
201 0 0
202 0 0
197 0 0
191 0 0
199 0 0
206 0 0
203 0 0
205 0 0
200 0 0
199 0 0
202 0 0
201 0 0
204 0 0
201 0 0
206 0 0
201 0 0
209 0 0
203 0 0
201 0 0
202 0 0
205 0 0
203 0 0
203 0 0
205 0 0
206 0 0
201 0 0
208 0 0
205 0 0
209 0 0
208 0 0
207 0 0
206 0 0
213 0 0
209 0 0
208 0 0
211 0 0
206 0 0
213 0 0
213 0 0
212 0 0
212 0 0
213 0 0
212 0 0
213 0 0
212 0 0
207 0 0
207 0 0
209 0 0
210 0 0
210 0 0
211 0 0
210 0 0
211 0 0
210 0 0
213 0 0
214 0 0
215 0 0
212 0 0
216 0 0
207 0 0
218 0 0
211 0 0
210 0 0
213 0 0
215 0 0
213 0 0
218 0 0
214 0 0
215 0 0
217 0 0
214 0 0
218 0 0
215 0 0
211 0 0
211 0 0
207 0 0
217 0 0
215 0 0
216 0 0
213 0 0
214 0 0
212 0 0
214 0 0
214 0 0
217 0 0
215 0 0
217 0 0
214 0 0
217 0 0
212 0 0
220 0 0
213 0 0
216 0 0
218 0 0
219 0 0
215 0 0
215 0 0
215 0 0
218 0 0
215 0 0
215 0 0
221 0 0
215 0 0
212 0 0
214 0 0
219 0 0
216 0 0
215 0 0
219 0 0
217 0 0
221 0 0
215 0 0
215 0 0
217 0 0
220 0 0
214 0 0
213 0 0
211 0 0
217 0 0
217 0 0
218 0 0
220 0 0
218 0 0
215 0 0
218 0 0
215 0 0
216 0 0
218 0 0
216 0 0
217 0 0
216 0 0
212 0 0
219 0 0
213 0 0
217 0 0
216 0 0
213 0 0
220 0 0
216 0 0
217 0 0
212 0 0
217 0 0
215 0 0
221 0 0
221 0 0
217 0 0
221 0 0
217 0 0
217 0 0
217 0 0
217 0 0
217 0 0
215 0 0
216 0 0
0 0 255
0 0 255
0 0 255
0 0 254
0 0 254
0 0 253
0 0 254
0 0 254
0 0 255
0 0 255
0 0 255
0 0 253
0 0 255
0 0 255
0 0 254
0 0 254
0 0 254
0 0 255
0 0 255
0 0 255
0 0 255
0 0 255
0 0 254
0 0 254
0 0 254
0 0 255
0 0 254
0 0 255
0 0 255
0 0 254
0 0 254
0 0 255
0 0 254
0 0 255
0 0 254
0 0 253
0 0 254
0 0 254
0 0 254
0 0 254
0 0 254
0 0 255
0 0 254
0 0 254
0 0 255
0 0 254
0 0 254
0 0 254
0 0 254
0 0 253
0 0 254
0 0 255
0 0 253
0 0 252
0 0 255
0 0 255
0 0 252
0 0 252
0 0 253
0 0 255
0 0 250
0 0 254
0 0 255
0 0 253
0 0 253
0 0 254
0 0 253
0 0 250
0 0 254
0 0 255
0 0 250
0 0 253
0 0 252
0 0 249
0 0 253
0 0 254
0 0 255
0 0 255
0 0 250
0 0 254
0 0 252
0 0 254
0 0 253
0 0 249
0 0 249
0 0 253
0 0 255
0 0 252
0 0 253
0 0 250
0 0 252
0 0 252
0 0 249
0 0 252
0 0 249
0 0 250
0 0 250
0 0 246
0 0 250
0 0 253
0 0 249
0 0 253
0 0 246
0 0 246
0 0 250
0 0 250
0 0 249
0 0 250
0 0 252
0 0 245
0 0 249
0 0 246
0 0 252
0 0 240
0 0 244
0 0 249
0 0 246
0 0 245
0 0 241
0 0 245
0 0 245
0 0 246
0 0 246
0 0 250
0 0 242
0 0 242
0 0 242
0 0 246
0 0 245
0 0 246
0 0 241
0 0 244
0 0 245
0 0 246
0 0 249
0 0 249
0 0 244
0 0 240
0 0 248
0 0 240
0 0 241
0 0 238
0 0 244
0 0 241
0 0 238
0 0 236
0 0 233
0 0 237
0 0 242
0 0 234
0 0 242
0 0 245
0 0 244
0 0 231
0 0 228
0 0 234
0 0 237
0 0 227
0 0 236
0 0 226
0 0 223
0 0 228
0 0 223
0 0 233
0 0 227
0 0 230
0 0 228
0 0 230
0 0 230
0 0 215
0 0 230
0 0 223
0 0 226
0 0 227
0 0 228
0 0 207
0 0 221
0 0 224
0 0 218
0 0 214
0 0 224
0 0 217
0 0 212
0 0 209
0 0 199
0 0 193
0 0 189
0 0 184
0 0 191
0 0 191
123 135 217
209 229 255
209 229 255
209 229 255
209 229 255
209 229 255
209 229 255
209 229 255
209 229 255
209 229 255
209 229 255
209 229 255
209 229 255
209 229 255
209 229 255
209 229 255
209 229 255
209 229 255
209 229 255
177 143 159
152 0 0
162 0 0
156 0 0
160 0 0
173 0 0
150 0 0
167 0 0
171 0 0
162 0 0
176 0 0
172 0 0
170 0 0
167 0 0
172 0 0
182 0 0
175 0 0
171 0 0
182 0 0
190 0 0
181 0 0
186 0 0
176 0 0
191 0 0
183 0 0
183 0 0
195 0 0
198 0 0
185 0 0
192 0 0
191 0 0
204 0 0
196 0 0
192 0 0
197 0 0
195 0 0
196 0 0
193 0 0
198 0 0
204 0 0
202 0 0
202 0 0
197 0 0
206 0 0
203 0 0
200 0 0
208 0 0
195 0 0
204 0 0
203 0 0
209 0 0
206 0 0
195 0 0
204 0 0
201 0 0
205 0 0
202 0 0
199 0 0
201 0 0
204 0 0
200 0 0
210 0 0
208 0 0
207 0 0
211 0 0
202 0 0
204 0 0
209 0 0
212 0 0
205 0 0
204 0 0
204 0 0
203 0 0
207 0 0
211 0 0
203 0 0
211 0 0
210 0 0
213 0 0
210 0 0
204 0 0
218 0 0
212 0 0
206 0 0
209 0 0
212 0 0
210 0 0
211 0 0
210 0 0
210 0 0
209 0 0
213 0 0
215 0 0
212 0 0
214 0 0
209 0 0
215 0 0
213 0 0
217 0 0
210 0 0
213 0 0
212 0 0
214 0 0
218 0 0
207 0 0
214 0 0
217 0 0
214 0 0
215 0 0
215 0 0
213 0 0
213 0 0
214 0 0
216 0 0
212 0 0
211 0 0
216 0 0
211 0 0
218 0 0
218 0 0
211 0 0
216 0 0
212 0 0
218 0 0
210 0 0
215 0 0
215 0 0
214 0 0
214 0 0
216 0 0
218 0 0
218 0 0
213 0 0
217 0 0
219 0 0
216 0 0
214 0 0
217 0 0
216 0 0
211 0 0
216 0 0
217 0 0
217 0 0
217 0 0
213 0 0
217 0 0
212 0 0
218 0 0
215 0 0
216 0 0
216 0 0
219 0 0
216 0 0
216 0 0
220 0 0
217 0 0
213 0 0
217 0 0
215 0 0
219 0 0
215 0 0
216 0 0
218 0 0
218 0 0
219 0 0
218 0 0
217 0 0
212 0 0
215 0 0
219 0 0
211 0 0
220 0 0
216 0 0
218 0 0
217 0 0
219 0 0
219 0 0
218 0 0
218 0 0
218 0 0
218 0 0
221 0 0
214 0 0
220 0 0
216 0 0
214 0 0
217 0 0
214 0 0
214 0 0
220 0 0
219 0 0
0 0 254
0 0 255
0 0 255
0 0 255
0 0 255
0 0 255
0 0 255
0 0 254
0 0 254
0 0 252
0 0 255
0 0 254
0 0 255
0 0 254
0 0 254
0 0 255
0 0 254
0 0 255
0 0 255
0 0 250
0 0 254
0 0 254
0 0 254
0 0 253
0 0 254
0 0 254
0 0 255
0 0 254
0 0 254
0 0 253
0 0 255
0 0 254
0 0 255
0 0 254
0 0 254
0 0 254
0 0 255
0 0 254
0 0 253
0 0 253
0 0 255
0 0 255
0 0 254
0 0 255
0 0 255
0 0 254
0 0 254
0 0 253
0 0 253
0 0 253
0 0 255
0 0 252
0 0 255
0 0 253
0 0 252
0 0 254
0 0 250
0 0 255
0 0 254
0 0 253
0 0 253
0 0 254
0 0 252
0 0 254
0 0 253
0 0 252
0 0 253
0 0 254
0 0 252
0 0 254
0 0 252
0 0 253
0 0 250
0 0 254
0 0 246
0 0 252
0 0 253
0 0 252
0 0 248
0 0 252
0 0 250
0 0 255
0 0 250
0 0 254
0 0 250
0 0 253
0 0 253
0 0 253
0 0 253
0 0 252
0 0 252
0 0 250
0 0 253
0 0 249
0 0 248
0 0 244
0 0 250
0 0 250
0 0 252
0 0 248
0 0 249
0 0 252
0 0 253
0 0 248
0 0 249
0 0 253
0 0 244
0 0 245
0 0 245
0 0 250
0 0 252
0 0 253
0 0 248
0 0 246
0 0 248
0 0 246
0 0 253
0 0 254
0 0 240
0 0 248
0 0 248
0 0 240
0 0 241
0 0 246
0 0 241
0 0 241
0 0 237
0 0 241
0 0 244
0 0 245
0 0 250
0 0 241
0 0 248
0 0 237
0 0 242
0 0 237
0 0 240
0 0 245
0 0 240
0 0 242
0 0 234
0 0 240
0 0 241
0 0 244
0 0 240
0 0 242
0 0 240
0 0 238
0 0 231
0 0 241
0 0 246
0 0 238
0 0 246
0 0 231
0 0 236
0 0 234
0 0 238
0 0 240
0 0 242
0 0 236
0 0 237
0 0 237
0 0 230
0 0 226
0 0 220
0 0 226
0 0 230
0 0 231
0 0 233
0 0 212
0 0 230
0 0 220
0 0 220
0 0 217
0 0 226
0 0 218
0 0 220
0 0 223
0 0 198
0 0 212
0 0 198
0 0 211
0 0 203
0 0 209
0 0 191
0 0 211
0 0 182
0 0 171
0 0 194
0 0 182
36 39 171
191 209 245
209 229 255
209 229 255
209 229 255
209 229 255
209 229 255
209 229 255
209 229 255
209 229 255
209 229 255
209 229 255
209 229 255
209 229 255
209 229 255
209 229 255
209 229 255
209 229 255
194 202 226
147 0 0
133 0 0
152 0 0
164 0 0
156 0 0
146 0 0
160 0 0
168 0 0
155 0 0
160 0 0
180 0 0
180 0 0
181 0 0
174 0 0
174 0 0
179 0 0
180 0 0
177 0 0
188 0 0
172 0 0
181 0 0
185 0 0
183 0 0
186 0 0
185 0 0
194 0 0
188 0 0
189 0 0
187 0 0
195 0 0
201 0 0
187 0 0
186 0 0
195 0 0
200 0 0
189 0 0
193 0 0
198 0 0
199 0 0
198 0 0
192 0 0
198 0 0
205 0 0
198 0 0
208 0 0
201 0 0
203 0 0
207 0 0
199 0 0
206 0 0
192 0 0
200 0 0
201 0 0
203 0 0
201 0 0
205 0 0
210 0 0
204 0 0
203 0 0
205 0 0
210 0 0
211 0 0
204 0 0
206 0 0
210 0 0
210 0 0
204 0 0
201 0 0
208 0 0
210 0 0
214 0 0
208 0 0
203 0 0
206 0 0
211 0 0
206 0 0
205 0 0
206 0 0
211 0 0
211 0 0
216 0 0
206 0 0
203 0 0
210 0 0
213 0 0
212 0 0
210 0 0
210 0 0
211 0 0
211 0 0
214 0 0
212 0 0
205 0 0
213 0 0
211 0 0
213 0 0
210 0 0
214 0 0
210 0 0
213 0 0
209 0 0
212 0 0
219 0 0
203 0 0
214 0 0
213 0 0
215 0 0
216 0 0
212 0 0
214 0 0
217 0 0
217 0 0
219 0 0
210 0 0
217 0 0
212 0 0
215 0 0
213 0 0
218 0 0
212 0 0
212 0 0
218 0 0
214 0 0
210 0 0
216 0 0
215 0 0
210 0 0
214 0 0
213 0 0
215 0 0
214 0 0
212 0 0
215 0 0
215 0 0
215 0 0
216 0 0
214 0 0
213 0 0
215 0 0
216 0 0
217 0 0
217 0 0
215 0 0
217 0 0
214 0 0
217 0 0
216 0 0
215 0 0
217 0 0
217 0 0
220 0 0
218 0 0
214 0 0
221 0 0
214 0 0
217 0 0
217 0 0
214 0 0
215 0 0
218 0 0
217 0 0
217 0 0
215 0 0
215 0 0
219 0 0
216 0 0
219 0 0
217 0 0
216 0 0
218 0 0
216 0 0
222 0 0
219 0 0
217 0 0
214 0 0
213 0 0
214 0 0
218 0 0
216 0 0
216 0 0
218 0 0
216 0 0
220 0 0
217 0 0
218 0 0
221 0 0
220 0 0
216 0 0
215 0 0
217 0 0
222 0 0
0 0 255
0 0 254
0 0 255
0 0 255
0 0 255
0 0 255
0 0 255
0 0 255
0 0 255
0 0 255
0 0 253
0 0 255
0 0 253
0 0 253
0 0 255
0 0 255
0 0 255
0 0 255
0 0 254
0 0 255
0 0 255
0 0 255
0 0 255
0 0 253
0 0 255
0 0 255
0 0 253
0 0 254
0 0 253
0 0 253
0 0 254
0 0 253
0 0 254
0 0 254
0 0 253
0 0 254
0 0 250
0 0 255
0 0 254
0 0 254
0 0 254
0 0 253
0 0 253
0 0 254
0 0 255
0 0 255
0 0 254
0 0 254
0 0 252
0 0 253
0 0 254
0 0 254
0 0 255
0 0 255
0 0 250
0 0 252
0 0 252
0 0 253
0 0 254
0 0 248
0 0 255
0 0 254
0 0 253
0 0 252
0 0 255
0 0 250
0 0 250
0 0 255
0 0 253
0 0 254
0 0 254
0 0 254
0 0 249
0 0 252
0 0 254
0 0 254
0 0 253
0 0 250
0 0 253
0 0 249
0 0 255
0 0 252
0 0 252
0 0 250
0 0 246
0 0 253
0 0 255
0 0 250
0 0 249
0 0 254
0 0 252
0 0 250
0 0 248
0 0 250
0 0 249
0 0 246
0 0 252
0 0 250
0 0 253
0 0 248
0 0 252
0 0 252
0 0 242
0 0 252
0 0 248
0 0 250
0 0 252
0 0 253
0 0 253
0 0 250
0 0 253
0 0 245
0 0 250
0 0 250
0 0 244
0 0 246
0 0 242
0 0 242
0 0 248
0 0 242
0 0 250
0 0 240
0 0 244
0 0 245
0 0 244
0 0 244
0 0 246
0 0 246
0 0 246
0 0 248
0 0 244
0 0 245
0 0 246
0 0 244
0 0 241
0 0 240
0 0 249
0 0 246
0 0 240
0 0 248
0 0 242
0 0 245
0 0 236
0 0 245
0 0 245
0 0 242
0 0 241
0 0 241
0 0 237
0 0 249
0 0 242
0 0 227
0 0 242
0 0 237
0 0 238
0 0 236
0 0 231
0 0 230
0 0 230
0 0 241
0 0 231
0 0 230
0 0 231
0 0 238
0 0 234
0 0 218
0 0 224
0 0 221
0 0 220
0 0 217
0 0 218
0 0 223
0 0 217
0 0 211
0 0 221
0 0 217
0 0 214
0 0 196
0 0 207
0 0 206
0 0 218
0 0 207
0 0 201
0 0 207
0 0 201
0 0 182
0 0 199
0 0 182
0 0 199
0 0 171
0 0 184
134 147 215
210 229 255
210 229 255
210 229 255
210 229 255
210 229 255
210 229 255
210 229 255
210 229 255
210 229 255
210 229 255
210 229 255
210 229 255
210 229 255
210 229 255
210 229 255
210 229 255
165 135 151
140 0 0
158 0 0
153 0 0
164 0 0
152 0 0
166 0 0
167 0 0
165 0 0
161 0 0
164 0 0
173 0 0
164 0 0
172 0 0
177 0 0
181 0 0
180 0 0
182 0 0
181 0 0
190 0 0
200 0 0
182 0 0
183 0 0
195 0 0
185 0 0
183 0 0
183 0 0
187 0 0
190 0 0
193 0 0
197 0 0
192 0 0
193 0 0
194 0 0
195 0 0
193 0 0
202 0 0
198 0 0
195 0 0
189 0 0
191 0 0
202 0 0
204 0 0
197 0 0
202 0 0
198 0 0
199 0 0
205 0 0
208 0 0
201 0 0
202 0 0
199 0 0
202 0 0
194 0 0
205 0 0
208 0 0
205 0 0
211 0 0
203 0 0
204 0 0
208 0 0
213 0 0
204 0 0
207 0 0
215 0 0
207 0 0
210 0 0
201 0 0
207 0 0
207 0 0
210 0 0
207 0 0
209 0 0
209 0 0
207 0 0
210 0 0
207 0 0
200 0 0
208 0 0
212 0 0
204 0 0
205 0 0
208 0 0
213 0 0
214 0 0
210 0 0
205 0 0
213 0 0
212 0 0
211 0 0
217 0 0
206 0 0
208 0 0
215 0 0
210 0 0
215 0 0
214 0 0
213 0 0
212 0 0
216 0 0
216 0 0
213 0 0
211 0 0
214 0 0
214 0 0
205 0 0
211 0 0
217 0 0
213 0 0
215 0 0
218 0 0
214 0 0
214 0 0
213 0 0
214 0 0
217 0 0
214 0 0
215 0 0
209 0 0
216 0 0
213 0 0
212 0 0
212 0 0
212 0 0
218 0 0
217 0 0
218 0 0
214 0 0
216 0 0
215 0 0
214 0 0
214 0 0
215 0 0
216 0 0
214 0 0
215 0 0
215 0 0
213 0 0
214 0 0
213 0 0
213 0 0
215 0 0
214 0 0
217 0 0
218 0 0
219 0 0
214 0 0
219 0 0
214 0 0
215 0 0
217 0 0
219 0 0
215 0 0
219 0 0
218 0 0
217 0 0
215 0 0
216 0 0
218 0 0
216 0 0
218 0 0
217 0 0
217 0 0
219 0 0
216 0 0
214 0 0
215 0 0
219 0 0
216 0 0
223 0 0
218 0 0
216 0 0
221 0 0
216 0 0
215 0 0
220 0 0
214 0 0
215 0 0
216 0 0
217 0 0
221 0 0
215 0 0
217 0 0
217 0 0
216 0 0
215 0 0
219 0 0
217 0 0
216 0 0
216 0 0
217 0 0
216 0 0
0 0 254
0 0 255
0 0 254
0 0 255
0 0 255
0 0 255
0 0 255
0 0 255
0 0 255
0 0 255
0 0 255
0 0 252
0 0 254
0 0 253
0 0 255
0 0 254
0 0 253
0 0 255
0 0 253
0 0 255
0 0 255
0 0 254
0 0 255
0 0 252
0 0 254
0 0 253
0 0 252
0 0 253
0 0 255
0 0 254
0 0 254
0 0 255
0 0 255
0 0 255
0 0 252
0 0 255
0 0 250
0 0 252
0 0 253
0 0 254
0 0 252
0 0 253
0 0 254
0 0 252
0 0 253
0 0 253
0 0 254
0 0 254
0 0 255
0 0 254
0 0 252
0 0 252
0 0 252
0 0 254
0 0 253
0 0 253
0 0 252
0 0 249
0 0 255
0 0 253
0 0 252
0 0 254
0 0 254
0 0 255
0 0 253
0 0 253
0 0 252
0 0 253
0 0 254
0 0 249
0 0 253
0 0 253
0 0 252
0 0 255
0 0 253
0 0 255
0 0 253
0 0 252
0 0 254
0 0 253
0 0 249
0 0 253
0 0 249
0 0 255
0 0 252
0 0 254
0 0 252
0 0 250
0 0 253
0 0 246
0 0 249
0 0 250
0 0 253
0 0 250
0 0 250
0 0 252
0 0 248
0 0 249
0 0 252
0 0 250
0 0 252
0 0 250
0 0 249
0 0 250
0 0 249
0 0 248
0 0 248
0 0 248
0 0 246
0 0 246
0 0 250
0 0 254
0 0 242
0 0 244
0 0 242
0 0 248
0 0 246
0 0 246
0 0 245
0 0 244
0 0 245
0 0 249
0 0 245
0 0 244
0 0 244
0 0 244
0 0 246
0 0 242
0 0 244
0 0 249
0 0 246
0 0 249
0 0 241
0 0 245
0 0 244
0 0 240
0 0 237
0 0 242
0 0 248
0 0 248
0 0 241
0 0 237
0 0 236
0 0 236
0 0 238
0 0 241
0 0 242
0 0 242
0 0 236
0 0 233
0 0 231
0 0 236
0 0 242
0 0 244
0 0 237
0 0 227
0 0 238
0 0 228
0 0 227
0 0 244
0 0 231
0 0 226
0 0 209
0 0 236
0 0 227
0 0 234
0 0 220
0 0 231
0 0 231
0 0 226
0 0 221
0 0 224
0 0 224
0 0 223
0 0 217
0 0 215
0 0 215
0 0 220
0 0 203
0 0 209
0 0 207
0 0 220
0 0 204
0 0 199
0 0 209
0 0 206
0 0 199
0 0 196
0 0 184
0 0 188
0 0 186
21 22 179
201 220 253
210 229 255
210 229 255
210 229 255
210 229 255
210 229 255
210 229 255
210 229 255
210 229 255
210 229 255
210 229 255
210 229 255
210 229 255
210 229 255
210 229 255
200 214 238
145 0 0
153 0 0
153 0 0
147 0 0
157 0 0
154 0 0
156 0 0
161 0 0
160 0 0
162 0 0
167 0 0
160 0 0
168 0 0
173 0 0
187 0 0
184 0 0
181 0 0
196 0 0
176 0 0
179 0 0
185 0 0
188 0 0
191 0 0
187 0 0
187 0 0
184 0 0
196 0 0
195 0 0
189 0 0
198 0 0
195 0 0
197 0 0
195 0 0
193 0 0
194 0 0
199 0 0
203 0 0
198 0 0
201 0 0
198 0 0
199 0 0
202 0 0
203 0 0
201 0 0
201 0 0
197 0 0
203 0 0
197 0 0
200 0 0
201 0 0
200 0 0
202 0 0
205 0 0
209 0 0
195 0 0
202 0 0
209 0 0
199 0 0
208 0 0
209 0 0
199 0 0
212 0 0
206 0 0
204 0 0
208 0 0
196 0 0
210 0 0
210 0 0
208 0 0
206 0 0
211 0 0
213 0 0
203 0 0
209 0 0
210 0 0
213 0 0
210 0 0
204 0 0
207 0 0
214 0 0
215 0 0
213 0 0
213 0 0
215 0 0
212 0 0
207 0 0
212 0 0
214 0 0
208 0 0
212 0 0
206 0 0
200 0 0
208 0 0
214 0 0
214 0 0
207 0 0
209 0 0
210 0 0
209 0 0
215 0 0
209 0 0
214 0 0
211 0 0
211 0 0
213 0 0
215 0 0
214 0 0
213 0 0
215 0 0
212 0 0
210 0 0
214 0 0
210 0 0
219 0 0
216 0 0
214 0 0
213 0 0
213 0 0
214 0 0
212 0 0
213 0 0
212 0 0
211 0 0
213 0 0
215 0 0
215 0 0
220 0 0
214 0 0
214 0 0
216 0 0
217 0 0
217 0 0
211 0 0
213 0 0
215 0 0
216 0 0
213 0 0
218 0 0
215 0 0
216 0 0
216 0 0
218 0 0
215 0 0
213 0 0
214 0 0
211 0 0
213 0 0
216 0 0
213 0 0
216 0 0
218 0 0
217 0 0
219 0 0
218 0 0
213 0 0
219 0 0
218 0 0
215 0 0
213 0 0
214 0 0
214 0 0
214 0 0
219 0 0
215 0 0
216 0 0
217 0 0
218 0 0
212 0 0
218 0 0
218 0 0
215 0 0
214 0 0
218 0 0
213 0 0
219 0 0
219 0 0
217 0 0
214 0 0
215 0 0
221 0 0
217 0 0
219 0 0
215 0 0
214 0 0
217 0 0
216 0 0
215 0 0
216 0 0
214 0 0
216 0 0
217 0 0
216 0 0
0 0 255
0 0 255
0 0 254
0 0 255
0 0 255
0 0 255
0 0 255
0 0 255
0 0 255
0 0 254
0 0 255
0 0 254
0 0 255
0 0 252
0 0 254
0 0 253
0 0 255
0 0 255
0 0 253
0 0 254
0 0 255
0 0 255
0 0 254
0 0 253
0 0 254
0 0 255
0 0 254
0 0 252
0 0 255
0 0 255
0 0 254
0 0 253
0 0 252
0 0 254
0 0 253
0 0 253
0 0 254
0 0 253
0 0 254
0 0 252
0 0 255
0 0 254
0 0 254
0 0 253
0 0 254
0 0 255
0 0 254
0 0 252
0 0 255
0 0 252
0 0 253
0 0 250
0 0 254
0 0 254
0 0 252
0 0 254
0 0 252
0 0 253
0 0 254
0 0 250
0 0 250
0 0 255
0 0 250
0 0 254
0 0 252
0 0 250
0 0 253
0 0 253
0 0 255
0 0 254
0 0 253
0 0 253
0 0 253
0 0 250
0 0 250
0 0 254
0 0 254
0 0 253
0 0 252
0 0 254
0 0 250
0 0 254
0 0 253
0 0 253
0 0 248
0 0 252
0 0 249
0 0 249
0 0 248
0 0 252
0 0 249
0 0 246
0 0 254
0 0 245
0 0 250
0 0 252
0 0 242
0 0 250
0 0 249
0 0 250
0 0 249
0 0 253
0 0 249
0 0 253
0 0 248
0 0 244
0 0 249
0 0 248
0 0 250
0 0 248
0 0 240
0 0 245
0 0 249
0 0 248
0 0 249
0 0 244
0 0 252
0 0 248
0 0 250
0 0 244
0 0 246
0 0 246
0 0 246
0 0 245
0 0 248
0 0 245
0 0 242
0 0 244
0 0 244
0 0 248
0 0 238
0 0 248
0 0 245
0 0 241
0 0 244
0 0 246
0 0 238
0 0 244
0 0 240
0 0 241
0 0 240
0 0 249
0 0 236
0 0 238
0 0 241
0 0 245
0 0 242
0 0 234
0 0 237
0 0 230
0 0 237
0 0 234
0 0 231
0 0 236
0 0 241
0 0 237
0 0 238
0 0 234
0 0 231
0 0 231
0 0 227
0 0 234
0 0 228
0 0 231
0 0 226
0 0 237
0 0 228
0 0 227
0 0 230
0 0 236
0 0 233
0 0 218
0 0 227
0 0 218
0 0 227
0 0 214
0 0 217
0 0 215
0 0 203
0 0 207
0 0 201
0 0 186
0 0 217
0 0 196
0 0 204
0 0 198
0 0 201
0 0 177
0 0 189
0 0 181
0 0 167
0 0 184
133 145 206
210 229 255
210 229 255
210 229 255
210 229 255
210 229 255
210 229 255
210 229 255
210 229 255
210 229 255
210 229 255
210 229 255
210 229 255
210 229 255
210 229 255
175 160 179
130 0 0
156 0 0
127 0 0
156 0 0
142 0 0
165 0 0
146 0 0
158 0 0
168 0 0
173 0 0
164 0 0
167 0 0
182 0 0
172 0 0
180 0 0
188 0 0
183 0 0
172 0 0
168 0 0
188 0 0
178 0 0
198 0 0
189 0 0
183 0 0
192 0 0
198 0 0
194 0 0
189 0 0
194 0 0
187 0 0
196 0 0
193 0 0
190 0 0
196 0 0
187 0 0
198 0 0
197 0 0
200 0 0
198 0 0
198 0 0
190 0 0
198 0 0
204 0 0
199 0 0
202 0 0
208 0 0
203 0 0
207 0 0
201 0 0
204 0 0
198 0 0
204 0 0
198 0 0
207 0 0
197 0 0
204 0 0
207 0 0
206 0 0
206 0 0
198 0 0
204 0 0
203 0 0
200 0 0
212 0 0
207 0 0
203 0 0
212 0 0
206 0 0
209 0 0
205 0 0
209 0 0
210 0 0
208 0 0
212 0 0
215 0 0
210 0 0
207 0 0
212 0 0
207 0 0
213 0 0
209 0 0
214 0 0
210 0 0
209 0 0
208 0 0
214 0 0
209 0 0
215 0 0
207 0 0
210 0 0
212 0 0
212 0 0
210 0 0
211 0 0
212 0 0
210 0 0
212 0 0
215 0 0
210 0 0
210 0 0
211 0 0
213 0 0
212 0 0
212 0 0
213 0 0
212 0 0
211 0 0
216 0 0
218 0 0
208 0 0
208 0 0
213 0 0
206 0 0
215 0 0
213 0 0
214 0 0
212 0 0
217 0 0
215 0 0
214 0 0
216 0 0
220 0 0
218 0 0
211 0 0
217 0 0
213 0 0
213 0 0
214 0 0
207 0 0
215 0 0
218 0 0
215 0 0
214 0 0
216 0 0
215 0 0
216 0 0
219 0 0
220 0 0
216 0 0
214 0 0
215 0 0
220 0 0
216 0 0
215 0 0
214 0 0
218 0 0
219 0 0
212 0 0
221 0 0
216 0 0
214 0 0
218 0 0
217 0 0
218 0 0
217 0 0
219 0 0
217 0 0
213 0 0
212 0 0
221 0 0
222 0 0
218 0 0
217 0 0
216 0 0
218 0 0
214 0 0
219 0 0
212 0 0
218 0 0
218 0 0
214 0 0
214 0 0
220 0 0
218 0 0
216 0 0
215 0 0
214 0 0
218 0 0
218 0 0
217 0 0
220 0 0
217 0 0
217 0 0
218 0 0
218 0 0
214 0 0
215 0 0
214 0 0
219 0 0
218 0 0
216 0 0
215 0 0
0 0 255
0 0 254
0 0 255
0 0 255
0 0 255
0 0 255
0 0 254
0 0 253
0 0 255
0 0 254
0 0 255
0 0 253
0 0 255
0 0 253
0 0 255
0 0 253
0 0 255
0 0 255
0 0 255
0 0 255
0 0 255
0 0 255
0 0 254
0 0 253
0 0 253
0 0 254
0 0 253
0 0 254
0 0 255
0 0 255
0 0 255
0 0 254
0 0 254
0 0 255
0 0 255
0 0 255
0 0 255
0 0 255
0 0 255
0 0 254
0 0 254
0 0 255
0 0 250
0 0 254
0 0 254
0 0 254
0 0 255
0 0 254
0 0 254
0 0 254
0 0 254
0 0 254
0 0 253
0 0 252
0 0 252
0 0 254
0 0 254
0 0 250
0 0 254
0 0 252
0 0 255
0 0 252
0 0 252
0 0 252
0 0 253
0 0 253
0 0 250
0 0 254
0 0 254
0 0 254
0 0 252
0 0 255
0 0 255
0 0 250
0 0 252
0 0 253
0 0 253
0 0 253
0 0 252
0 0 249
0 0 249
0 0 253
0 0 252
0 0 252
0 0 248
0 0 254
0 0 250
0 0 252
0 0 254
0 0 252
0 0 252
0 0 248
0 0 246
0 0 252
0 0 250
0 0 246
0 0 246
0 0 246
0 0 253
0 0 250
0 0 248
0 0 248
0 0 245
0 0 246
0 0 249
0 0 252
0 0 242
0 0 252
0 0 252
0 0 250
0 0 249
0 0 248
0 0 241
0 0 249
0 0 253
0 0 245
0 0 242
0 0 244
0 0 249
0 0 250
0 0 244
0 0 244
0 0 246
0 0 240
0 0 240
0 0 249
0 0 245
0 0 246
0 0 242
0 0 249
0 0 244
0 0 241
0 0 238
0 0 246
0 0 246
0 0 245
0 0 236
0 0 242
0 0 245
0 0 241
0 0 248
0 0 237
0 0 241
0 0 238
0 0 242
0 0 241
0 0 237
0 0 244
0 0 238
0 0 241
0 0 233
0 0 228
0 0 242
0 0 244
0 0 233
0 0 233
0 0 236
0 0 237
0 0 227
0 0 228
0 0 230
0 0 228
0 0 233
0 0 241
0 0 223
0 0 234
0 0 238
0 0 221
0 0 233
0 0 228
0 0 231
0 0 221
0 0 227
0 0 217
0 0 211
0 0 221
0 0 223
0 0 226
0 0 209
0 0 217
0 0 206
0 0 206
0 0 214
0 0 199
0 0 212
0 0 199
0 0 181
0 0 189
0 0 186
0 0 173
0 0 161
0 0 181
36 39 151
205 224 252
211 230 255
211 230 255
211 230 255
211 230 255
211 230 255
211 230 255
211 230 255
211 230 255
211 230 255
211 230 255
211 230 255
211 230 255
203 221 246
134 32 36
135 0 0
145 0 0
148 0 0
138 0 0
152 0 0
158 0 0
154 0 0
160 0 0
165 0 0
165 0 0
155 0 0
173 0 0
155 0 0
167 0 0
173 0 0
179 0 0
180 0 0
182 0 0
178 0 0
174 0 0
191 0 0
182 0 0
188 0 0
187 0 0
190 0 0
195 0 0
194 0 0
190 0 0
185 0 0
189 0 0
188 0 0
189 0 0
196 0 0
191 0 0
201 0 0
198 0 0
190 0 0
202 0 0
197 0 0
199 0 0
204 0 0
200 0 0
200 0 0
201 0 0
200 0 0
202 0 0
204 0 0
206 0 0
200 0 0
200 0 0
208 0 0
207 0 0
206 0 0
210 0 0
201 0 0
205 0 0
210 0 0
205 0 0
203 0 0
206 0 0
214 0 0
206 0 0
198 0 0
205 0 0
211 0 0
211 0 0
205 0 0
209 0 0
203 0 0
210 0 0
207 0 0
210 0 0
206 0 0
203 0 0
221 0 0
208 0 0
208 0 0
207 0 0
211 0 0
211 0 0
207 0 0
215 0 0
211 0 0
210 0 0
217 0 0
210 0 0
210 0 0
214 0 0
212 0 0
217 0 0
208 0 0
213 0 0
213 0 0
215 0 0
209 0 0
215 0 0
212 0 0
211 0 0
216 0 0
215 0 0
212 0 0
211 0 0
209 0 0
212 0 0
216 0 0
215 0 0
214 0 0
214 0 0
210 0 0
212 0 0
210 0 0
213 0 0
215 0 0
211 0 0
218 0 0
215 0 0
219 0 0
212 0 0
216 0 0
219 0 0
214 0 0
214 0 0
215 0 0
214 0 0
214 0 0
211 0 0
216 0 0
212 0 0
215 0 0
215 0 0
211 0 0
210 0 0
219 0 0
218 0 0
217 0 0
216 0 0
213 0 0
219 0 0
215 0 0
214 0 0
214 0 0
218 0 0
217 0 0
217 0 0
214 0 0
217 0 0
216 0 0
219 0 0
216 0 0
222 0 0
215 0 0
215 0 0
217 0 0
219 0 0
216 0 0
218 0 0
212 0 0
220 0 0
216 0 0
217 0 0
216 0 0
219 0 0
218 0 0
216 0 0
214 0 0
217 0 0
220 0 0
221 0 0
220 0 0
220 0 0
218 0 0
217 0 0
216 0 0
215 0 0
212 0 0
218 0 0
220 0 0
218 0 0
217 0 0
214 0 0
222 0 0
219 0 0
218 0 0
220 0 0
214 0 0
219 0 0
220 0 0
218 0 0
218 0 0
217 0 0
217 0 0
219 0 0
0 0 254
0 0 253
0 0 254
0 0 252
0 0 254
0 0 255
0 0 255
0 0 254
0 0 255
0 0 254
0 0 255
0 0 255
0 0 255
0 0 255
0 0 255
0 0 255
0 0 253
0 0 255
0 0 254
0 0 255
0 0 254
0 0 254
0 0 253
0 0 255
0 0 254
0 0 254
0 0 254
0 0 252
0 0 254
0 0 255
0 0 253
0 0 255
0 0 253
0 0 255
0 0 253
0 0 255
0 0 254
0 0 252
0 0 254
0 0 253
0 0 255
0 0 255
0 0 254
0 0 253
0 0 255
0 0 255
0 0 253
0 0 252
0 0 254
0 0 255
0 0 254
0 0 254
0 0 254
0 0 254
0 0 250
0 0 252
0 0 253
0 0 254
0 0 255
0 0 255
0 0 252
0 0 253
0 0 255
0 0 254
0 0 253
0 0 252
0 0 254
0 0 252
0 0 248
0 0 253
0 0 254
0 0 254
0 0 252
0 0 253
0 0 253
0 0 249
0 0 254
0 0 252
0 0 253
0 0 253
0 0 253
0 0 246
0 0 248
0 0 253
0 0 250
0 0 252
0 0 253
0 0 252
0 0 245
0 0 252
0 0 253
0 0 248
0 0 248
0 0 254
0 0 245
0 0 248
0 0 250
0 0 250
0 0 249
0 0 252
0 0 249
0 0 253
0 0 249
0 0 249
0 0 246
0 0 248
0 0 253
0 0 246
0 0 250
0 0 244
0 0 249
0 0 245
0 0 252
0 0 245
0 0 249
0 0 248
0 0 242
0 0 245
0 0 245
0 0 248
0 0 245
0 0 246
0 0 245
0 0 237
0 0 241
0 0 246
0 0 242
0 0 241
0 0 240
0 0 236
0 0 248
0 0 244
0 0 244
0 0 241
0 0 238
0 0 238
0 0 244
0 0 248
0 0 237
0 0 241
0 0 240
0 0 244
0 0 242
0 0 248
0 0 236
0 0 240
0 0 244
0 0 244
0 0 241
0 0 238
0 0 236
0 0 237
0 0 231
0 0 242
0 0 230
0 0 230
0 0 242
0 0 226
0 0 244
0 0 228
0 0 231
0 0 237
0 0 224
0 0 240
0 0 227
0 0 236
0 0 221
0 0 233
0 0 221
0 0 227
0 0 221
0 0 223
0 0 221
0 0 236
0 0 215
0 0 221
0 0 215
0 0 223
0 0 220
0 0 201
0 0 214
0 0 206
0 0 199
0 0 196
0 0 207
0 0 211
0 0 186
0 0 179
0 0 191
0 0 191
0 0 155
0 0 179
0 0 175
162 176 224
211 230 255
211 230 255
211 230 255
211 230 255
211 230 255
211 230 255
211 230 255
211 230 255
211 230 255
211 230 255
211 230 255
211 230 255
176 172 191
117 0 0
126 0 0
151 0 0
139 0 0
158 0 0
150 0 0
163 0 0
146 0 0
163 0 0
157 0 0
162 0 0
172 0 0
171 0 0
178 0 0
170 0 0
178 0 0
175 0 0
180 0 0
181 0 0
181 0 0
188 0 0
190 0 0
189 0 0
183 0 0
191 0 0
192 0 0
175 0 0
187 0 0
194 0 0
185 0 0
192 0 0
193 0 0
197 0 0
193 0 0
195 0 0
192 0 0
203 0 0
201 0 0
203 0 0
202 0 0
198 0 0
188 0 0
203 0 0
206 0 0
202 0 0
200 0 0
202 0 0
205 0 0
202 0 0
205 0 0
209 0 0
210 0 0
200 0 0
208 0 0
197 0 0
208 0 0
206 0 0
208 0 0
201 0 0
201 0 0
201 0 0
203 0 0
197 0 0
208 0 0
200 0 0
204 0 0
207 0 0
207 0 0
206 0 0
214 0 0
197 0 0
208 0 0
208 0 0
211 0 0
218 0 0
209 0 0
210 0 0
211 0 0
203 0 0
211 0 0
210 0 0
213 0 0
213 0 0
212 0 0
210 0 0
214 0 0
213 0 0
212 0 0
207 0 0
209 0 0
209 0 0
211 0 0
210 0 0
212 0 0
216 0 0
214 0 0
214 0 0
215 0 0
212 0 0
209 0 0
215 0 0
208 0 0
213 0 0
214 0 0
208 0 0
208 0 0
214 0 0
213 0 0
213 0 0
213 0 0
212 0 0
214 0 0
215 0 0
214 0 0
213 0 0
216 0 0
215 0 0
214 0 0
214 0 0
214 0 0
213 0 0
210 0 0
218 0 0
219 0 0
213 0 0
216 0 0
214 0 0
218 0 0
217 0 0
215 0 0
217 0 0
213 0 0
216 0 0
215 0 0
216 0 0
216 0 0
219 0 0
215 0 0
215 0 0
219 0 0
215 0 0
213 0 0
213 0 0
215 0 0
219 0 0
218 0 0
215 0 0
214 0 0
216 0 0
215 0 0
216 0 0
221 0 0
219 0 0
214 0 0
216 0 0
218 0 0
217 0 0
218 0 0
215 0 0
218 0 0
217 0 0
221 0 0
217 0 0
215 0 0
215 0 0
213 0 0
217 0 0
216 0 0
218 0 0
219 0 0
220 0 0
217 0 0
216 0 0
220 0 0
219 0 0
217 0 0
218 0 0
219 0 0
219 0 0
219 0 0
223 0 0
215 0 0
218 0 0
220 0 0
215 0 0
219 0 0
219 0 0
216 0 0
215 0 0
217 0 0
217 0 0
222 0 0
216 0 0
0 0 253
0 0 255
0 0 255
0 0 255
0 0 255
0 0 255
0 0 255
0 0 255
0 0 255
0 0 255
0 0 255
0 0 255
0 0 254
0 0 254
0 0 255
0 0 255
0 0 255
0 0 254
0 0 254
0 0 255
0 0 254
0 0 252
0 0 253
0 0 253
0 0 255
0 0 254
0 0 252
0 0 254
0 0 254
0 0 254
0 0 254
0 0 253
0 0 254
0 0 254
0 0 255
0 0 254
0 0 254
0 0 255
0 0 252
0 0 255
0 0 255
0 0 254
0 0 253
0 0 254
0 0 254
0 0 254
0 0 253
0 0 254
0 0 253
0 0 254
0 0 253
0 0 254
0 0 252
0 0 254
0 0 254
0 0 250
0 0 253
0 0 255
0 0 255
0 0 254
0 0 255
0 0 253
0 0 253
0 0 254
0 0 253
0 0 254
0 0 253
0 0 250
0 0 254
0 0 249
0 0 250
0 0 249
0 0 254
0 0 255
0 0 252
0 0 254
0 0 254
0 0 250
0 0 253
0 0 249
0 0 248
0 0 249
0 0 252
0 0 254
0 0 252
0 0 255
0 0 252
0 0 250
0 0 253
0 0 246
0 0 250
0 0 250
0 0 249
0 0 250
0 0 250
0 0 242
0 0 245
0 0 253
0 0 246
0 0 250
0 0 246
0 0 246
0 0 250
0 0 246
0 0 255
0 0 252
0 0 246
0 0 244
0 0 248
0 0 244
0 0 252
0 0 250
0 0 248
0 0 246
0 0 249
0 0 245
0 0 246
0 0 242
0 0 244
0 0 245
0 0 246
0 0 242
0 0 250
0 0 248
0 0 245
0 0 241
0 0 248
0 0 246
0 0 242
0 0 246
0 0 246
0 0 249
0 0 242
0 0 241
0 0 237
0 0 242
0 0 244
0 0 241
0 0 241
0 0 234
0 0 238
0 0 236
0 0 237
0 0 248
0 0 238
0 0 244
0 0 236
0 0 242
0 0 238
0 0 234
0 0 238
0 0 233
0 0 234
0 0 241
0 0 233
0 0 241
0 0 244
0 0 244
0 0 237
0 0 236
0 0 230
0 0 231
0 0 236
0 0 227
0 0 226
0 0 221
0 0 212
0 0 231
0 0 220
0 0 226
0 0 212
0 0 230
0 0 234
0 0 221
0 0 212
0 0 215
0 0 214
0 0 196
0 0 215
0 0 204
0 0 212
0 0 203
0 0 204
0 0 198
0 0 196
0 0 204
0 0 188
0 0 204
0 0 188
0 0 188
0 0 182
0 0 163
0 0 169
89 97 181
211 230 255
211 230 255
211 230 255
211 230 255
211 230 255
211 230 255
211 230 255
211 230 255
211 230 255
211 230 255
211 230 255
211 230 255
143 97 108
124 0 0
131 0 0
135 0 0
141 0 0
155 0 0
156 0 0
166 0 0
170 0 0
160 0 0
164 0 0
157 0 0
176 0 0
162 0 0
169 0 0
173 0 0
172 0 0
180 0 0
187 0 0
171 0 0
175 0 0
186 0 0
187 0 0
185 0 0
190 0 0
188 0 0
192 0 0
193 0 0
201 0 0
191 0 0
197 0 0
192 0 0
188 0 0
191 0 0
194 0 0
196 0 0
199 0 0
198 0 0
197 0 0
199 0 0
207 0 0
194 0 0
193 0 0
199 0 0
196 0 0
206 0 0
202 0 0
213 0 0
206 0 0
194 0 0
208 0 0
206 0 0
205 0 0
198 0 0
201 0 0
211 0 0
207 0 0
200 0 0
206 0 0
208 0 0
208 0 0
203 0 0
206 0 0
202 0 0
203 0 0
208 0 0
201 0 0
205 0 0
211 0 0
206 0 0
208 0 0
211 0 0
213 0 0
211 0 0
209 0 0
205 0 0
205 0 0
214 0 0
206 0 0
205 0 0
211 0 0
210 0 0
209 0 0
210 0 0
213 0 0
213 0 0
216 0 0
208 0 0
208 0 0
215 0 0
214 0 0
212 0 0
211 0 0
212 0 0
212 0 0
209 0 0
212 0 0
213 0 0
215 0 0
212 0 0
212 0 0
211 0 0
215 0 0
212 0 0
215 0 0
219 0 0
215 0 0
215 0 0
209 0 0
210 0 0
218 0 0
215 0 0
213 0 0
215 0 0
212 0 0
212 0 0
213 0 0
217 0 0
211 0 0
220 0 0
216 0 0
212 0 0
217 0 0
218 0 0
216 0 0
215 0 0
217 0 0
212 0 0
216 0 0
214 0 0
214 0 0
215 0 0
215 0 0
213 0 0
216 0 0
212 0 0
216 0 0
219 0 0
215 0 0
215 0 0
214 0 0
216 0 0
217 0 0
217 0 0
215 0 0
218 0 0
218 0 0
219 0 0
217 0 0
219 0 0
210 0 0
218 0 0
216 0 0
216 0 0
216 0 0
219 0 0
218 0 0
217 0 0
216 0 0
216 0 0
215 0 0
216 0 0
215 0 0
217 0 0
218 0 0
219 0 0
217 0 0
217 0 0
216 0 0
218 0 0
217 0 0
218 0 0
216 0 0
218 0 0
219 0 0
217 0 0
215 0 0
218 0 0
216 0 0
215 0 0
214 0 0
220 0 0
217 0 0
223 0 0
215 0 0
216 0 0
216 0 0
216 0 0
214 0 0
217 0 0
215 0 0
220 0 0
216 0 0
218 0 0
0 0 255
0 0 255
0 0 254
0 0 254
0 0 253
0 0 255
0 0 254
0 0 255
0 0 254
0 0 252
0 0 255
0 0 255
0 0 254
0 0 254
0 0 255
0 0 255
0 0 253
0 0 252
0 0 254
0 0 254
0 0 253
0 0 255
0 0 254
0 0 255
0 0 255
0 0 255
0 0 254
0 0 254
0 0 252
0 0 255
0 0 253
0 0 254
0 0 254
0 0 253
0 0 254
0 0 254
0 0 254
0 0 254
0 0 255
0 0 255
0 0 253
0 0 252
0 0 255
0 0 254
0 0 252
0 0 254
0 0 252
0 0 254
0 0 254
0 0 254
0 0 254
0 0 255
0 0 254
0 0 253
0 0 250
0 0 253
0 0 255
0 0 254
0 0 252
0 0 245
0 0 253
0 0 253
0 0 250
0 0 255
0 0 252
0 0 254
0 0 252
0 0 252
0 0 252
0 0 252
0 0 252
0 0 255
0 0 250
0 0 249
0 0 253
0 0 250
0 0 250
0 0 252
0 0 252
0 0 250
0 0 249
0 0 253
0 0 253
0 0 250
0 0 248
0 0 253
0 0 252
0 0 252
0 0 250
0 0 250
0 0 252
0 0 253
0 0 254
0 0 248
0 0 246
0 0 253
0 0 252
0 0 249
0 0 248
0 0 248
0 0 248
0 0 249
0 0 242
0 0 248
0 0 250
0 0 245
0 0 248
0 0 246
0 0 248
0 0 249
0 0 250
0 0 252
0 0 249
0 0 250
0 0 249
0 0 246
0 0 248
0 0 245
0 0 241
0 0 244
0 0 248
0 0 248
0 0 252
0 0 245
0 0 240
0 0 237
0 0 249
0 0 244
0 0 241
0 0 248
0 0 242
0 0 242
0 0 246
0 0 246
0 0 248
0 0 236
0 0 248
0 0 240
0 0 242
0 0 240
0 0 237
0 0 244
0 0 244
0 0 242
0 0 248
0 0 242
0 0 240
0 0 228
0 0 237
0 0 233
0 0 242
0 0 227
0 0 242
0 0 237
0 0 230
0 0 227
0 0 244
0 0 234
0 0 220
0 0 233
0 0 221
0 0 227
0 0 227
0 0 228
0 0 226
0 0 234
0 0 227
0 0 230
0 0 217
0 0 230
0 0 223
0 0 217
0 0 214
0 0 226
0 0 221
0 0 204
0 0 215
0 0 226
0 0 220
0 0 199
0 0 207
0 0 211
0 0 204
0 0 191
0 0 204
0 0 196
0 0 196
0 0 196
0 0 182
0 0 177
0 0 167
0 0 188
0 0 157
0 0 153
184 201 237
211 230 255
211 230 255
211 230 255
211 230 255
211 230 255
211 230 255
211 230 255
211 230 255
211 230 255
211 230 255
198 210 233
124 0 0
116 0 0
124 0 0
141 0 0
160 0 0
147 0 0
151 0 0
162 0 0
168 0 0
168 0 0
165 0 0
171 0 0
175 0 0
173 0 0
183 0 0
177 0 0
184 0 0
188 0 0
173 0 0
181 0 0
186 0 0
182 0 0
195 0 0
181 0 0
183 0 0
190 0 0
189 0 0
191 0 0
192 0 0
199 0 0
193 0 0
180 0 0
199 0 0
186 0 0
195 0 0
191 0 0
198 0 0
194 0 0
208 0 0
201 0 0
202 0 0
198 0 0
195 0 0
204 0 0
200 0 0
200 0 0
203 0 0
193 0 0
199 0 0
204 0 0
202 0 0
212 0 0
200 0 0
198 0 0
204 0 0
206 0 0
209 0 0
206 0 0
204 0 0
203 0 0
208 0 0
204 0 0
211 0 0
205 0 0
199 0 0
202 0 0
209 0 0
208 0 0
207 0 0
208 0 0
201 0 0
214 0 0
213 0 0
209 0 0
208 0 0
208 0 0
208 0 0
212 0 0
214 0 0
209 0 0
211 0 0
210 0 0
213 0 0
211 0 0
208 0 0
211 0 0
213 0 0
212 0 0
214 0 0
212 0 0
209 0 0
213 0 0
206 0 0
215 0 0
215 0 0
218 0 0
212 0 0
207 0 0
209 0 0
214 0 0
216 0 0
216 0 0
212 0 0
210 0 0
213 0 0
213 0 0
211 0 0
216 0 0
214 0 0
213 0 0
213 0 0
219 0 0
216 0 0
216 0 0
217 0 0
214 0 0
214 0 0
217 0 0
213 0 0
215 0 0
212 0 0
215 0 0
213 0 0
212 0 0
217 0 0
211 0 0
217 0 0
216 0 0
215 0 0
214 0 0
215 0 0
218 0 0
216 0 0
217 0 0
217 0 0
214 0 0
217 0 0
210 0 0
216 0 0
219 0 0
212 0 0
217 0 0
213 0 0
217 0 0
214 0 0
220 0 0
215 0 0
215 0 0
217 0 0
215 0 0
218 0 0
217 0 0
210 0 0
218 0 0
214 0 0
217 0 0
218 0 0
217 0 0
220 0 0
218 0 0
217 0 0
218 0 0
217 0 0
219 0 0
219 0 0
219 0 0
217 0 0
219 0 0
218 0 0
216 0 0
216 0 0
218 0 0
220 0 0
218 0 0
220 0 0
218 0 0
217 0 0
217 0 0
219 0 0
219 0 0
215 0 0
214 0 0
219 0 0
219 0 0
215 0 0
219 0 0
219 0 0
213 0 0
219 0 0
220 0 0
216 0 0
222 0 0
215 0 0
221 0 0
0 0 255
0 0 253
0 0 255
0 0 255
0 0 255
0 0 253
0 0 255
0 0 255
0 0 255
0 0 254
0 0 255
0 0 255
0 0 253
0 0 255
0 0 255
0 0 254
0 0 255
0 0 255
0 0 254
0 0 254
0 0 254
0 0 255
0 0 254
0 0 254
0 0 254
0 0 253
0 0 252
0 0 253
0 0 253
0 0 253
0 0 254
0 0 254
0 0 254
0 0 255
0 0 254
0 0 255
0 0 254
0 0 254
0 0 255
0 0 255
0 0 254
0 0 255
0 0 254
0 0 253
0 0 254
0 0 253
0 0 252
0 0 255
0 0 255
0 0 253
0 0 250
0 0 253
0 0 252
0 0 254
0 0 252
0 0 254
0 0 255
0 0 253
0 0 254
0 0 254
0 0 254
0 0 253
0 0 252
0 0 252
0 0 252
0 0 252
0 0 253
0 0 252
0 0 254
0 0 254
0 0 253
0 0 252
0 0 252
0 0 249
0 0 252
0 0 246
0 0 253
0 0 254
0 0 253
0 0 253
0 0 254
0 0 253
0 0 252
0 0 252
0 0 250
0 0 252
0 0 252
0 0 250
0 0 253
0 0 250
0 0 249
0 0 252
0 0 249
0 0 252
0 0 250
0 0 248
0 0 250
0 0 250
0 0 254
0 0 252
0 0 248
0 0 252
0 0 249
0 0 248
0 0 249
0 0 253
0 0 242
0 0 250
0 0 250
0 0 249
0 0 252
0 0 244
0 0 246
0 0 240
0 0 248
0 0 246
0 0 246
0 0 248
0 0 245
0 0 253
0 0 241
0 0 249
0 0 246
0 0 245
0 0 242
0 0 249
0 0 249
0 0 248
0 0 244
0 0 242
0 0 244
0 0 244
0 0 246
0 0 248
0 0 234
0 0 244
0 0 245
0 0 238
0 0 245
0 0 241
0 0 231
0 0 245
0 0 244
0 0 237
0 0 233
0 0 234
0 0 240
0 0 236
0 0 240
0 0 248
0 0 241
0 0 242
0 0 236
0 0 234
0 0 228
0 0 237
0 0 238
0 0 227
0 0 227
0 0 223
0 0 217
0 0 231
0 0 212
0 0 223
0 0 237
0 0 228
0 0 220
0 0 231
0 0 224
0 0 226
0 0 224
0 0 220
0 0 226
0 0 221
0 0 228
0 0 212
0 0 218
0 0 218
0 0 209
0 0 207
0 0 214
0 0 199
0 0 211
0 0 196
0 0 212
0 0 206
0 0 193
0 0 196
0 0 194
0 0 182
0 0 194
0 0 177
0 0 161
0 0 169
129 140 214
212 230 255
212 230 255
212 230 255
212 230 255
212 230 255
212 230 255
212 230 255
212 230 255
212 230 255
212 230 255
169 153 169
120 0 0
138 0 0
143 0 0
145 0 0
152 0 0
162 0 0
138 0 0
142 0 0
155 0 0
165 0 0
175 0 0
164 0 0
167 0 0
165 0 0
185 0 0
168 0 0
178 0 0
173 0 0
186 0 0
161 0 0
181 0 0
181 0 0
178 0 0
181 0 0
192 0 0
182 0 0
184 0 0
188 0 0
194 0 0
196 0 0
193 0 0
199 0 0
196 0 0
192 0 0
194 0 0
196 0 0
197 0 0
194 0 0
199 0 0
199 0 0
199 0 0
192 0 0
205 0 0
201 0 0
200 0 0
202 0 0
204 0 0
196 0 0
200 0 0
202 0 0
189 0 0
200 0 0
205 0 0
200 0 0
212 0 0
200 0 0
200 0 0
213 0 0
203 0 0
206 0 0
204 0 0
205 0 0
213 0 0
204 0 0
210 0 0
212 0 0
208 0 0
213 0 0
210 0 0
210 0 0
212 0 0
209 0 0
213 0 0
202 0 0
202 0 0
210 0 0
214 0 0
212 0 0
211 0 0
217 0 0
208 0 0
216 0 0
210 0 0
211 0 0
212 0 0
213 0 0
212 0 0
214 0 0
211 0 0
212 0 0
210 0 0
207 0 0
216 0 0
218 0 0
213 0 0
213 0 0
217 0 0
211 0 0
211 0 0
215 0 0
213 0 0
212 0 0
216 0 0
217 0 0
211 0 0
217 0 0
217 0 0
216 0 0
212 0 0
213 0 0
218 0 0
213 0 0
215 0 0
214 0 0
215 0 0
220 0 0
218 0 0
214 0 0
216 0 0
216 0 0
215 0 0
215 0 0
209 0 0
218 0 0
217 0 0
217 0 0
216 0 0
217 0 0
219 0 0
212 0 0
214 0 0
217 0 0
213 0 0
219 0 0
219 0 0
216 0 0
210 0 0
214 0 0
213 0 0
214 0 0
220 0 0
216 0 0
217 0 0
216 0 0
220 0 0
214 0 0
216 0 0
220 0 0
211 0 0
217 0 0
221 0 0
215 0 0
212 0 0
211 0 0
218 0 0
214 0 0
218 0 0
221 0 0
217 0 0
217 0 0
213 0 0
218 0 0
216 0 0
216 0 0
218 0 0
219 0 0
218 0 0
214 0 0
215 0 0
217 0 0
217 0 0
217 0 0
217 0 0
217 0 0
218 0 0
217 0 0
222 0 0
216 0 0
217 0 0
220 0 0
218 0 0
218 0 0
216 0 0
216 0 0
214 0 0
219 0 0
216 0 0
216 0 0
218 0 0
219 0 0
217 0 0
218 0 0
217 0 0
219 0 0
0 0 255
0 0 255
0 0 255
0 0 253
0 0 255
0 0 254
0 0 254
0 0 255
0 0 254
0 0 254
0 0 255
0 0 255
0 0 253
0 0 254
0 0 255
0 0 254
0 0 253
0 0 254
0 0 255
0 0 255
0 0 255
0 0 254
0 0 254
0 0 254
0 0 255
0 0 255
0 0 255
0 0 253
0 0 253
0 0 254
0 0 254
0 0 253
0 0 254
0 0 253
0 0 253
0 0 253
0 0 254
0 0 255
0 0 254
0 0 255
0 0 253
0 0 254
0 0 255
0 0 250
0 0 252
0 0 253
0 0 254
0 0 255
0 0 255
0 0 254
0 0 254
0 0 255
0 0 253
0 0 254
0 0 254
0 0 253
0 0 254
0 0 252
0 0 254
0 0 254
0 0 250
0 0 250
0 0 253
0 0 254
0 0 254
0 0 252
0 0 253
0 0 253
0 0 255
0 0 253
0 0 253
0 0 254
0 0 252
0 0 252
0 0 252
0 0 252
0 0 252
0 0 252
0 0 249
0 0 254
0 0 250
0 0 250
0 0 249
0 0 252
0 0 252
0 0 249
0 0 249
0 0 248
0 0 253
0 0 252
0 0 252
0 0 250
0 0 250
0 0 253
0 0 244
0 0 250
0 0 252
0 0 252
0 0 253
0 0 252
0 0 242
0 0 244
0 0 246
0 0 244
0 0 250
0 0 245
0 0 245
0 0 252
0 0 250
0 0 248
0 0 254
0 0 245
0 0 252
0 0 253
0 0 249
0 0 241
0 0 250
0 0 250
0 0 248
0 0 244
0 0 249
0 0 244
0 0 244
0 0 249
0 0 238
0 0 246
0 0 249
0 0 241
0 0 242
0 0 237
0 0 244
0 0 240
0 0 237
0 0 244
0 0 238
0 0 250
0 0 242
0 0 240
0 0 246
0 0 238
0 0 242
0 0 242
0 0 242
0 0 234
0 0 242
0 0 231
0 0 230
0 0 240
0 0 236
0 0 231
0 0 240
0 0 244
0 0 242
0 0 236
0 0 237
0 0 223
0 0 242
0 0 236
0 0 226
0 0 230
0 0 233
0 0 224
0 0 233
0 0 237
0 0 221
0 0 242
0 0 233
0 0 221
0 0 231
0 0 217
0 0 231
0 0 217
0 0 224
0 0 218
0 0 218
0 0 206
0 0 214
0 0 231
0 0 212
0 0 199
0 0 207
0 0 212
0 0 204
0 0 193
0 0 201
0 0 193
0 0 188
0 0 191
0 0 179
0 0 194
0 0 173
0 0 163
0 0 173
0 0 155
36 39 175
210 228 253
212 230 255
212 230 255
212 230 255
212 230 255
212 230 255
212 230 255
212 230 255
212 230 255
209 225 249
128 39 44
128 0 0
132 0 0
150 0 0
153 0 0
154 0 0
165 0 0
147 0 0
173 0 0
159 0 0
159 0 0
172 0 0
168 0 0
176 0 0
160 0 0
172 0 0
172 0 0
166 0 0
175 0 0
188 0 0
175 0 0
180 0 0
187 0 0
175 0 0
181 0 0
194 0 0
185 0 0
185 0 0
194 0 0
190 0 0
175 0 0
192 0 0
197 0 0
193 0 0
201 0 0
200 0 0
186 0 0
201 0 0
189 0 0
201 0 0
200 0 0
191 0 0
197 0 0
199 0 0
194 0 0
201 0 0
194 0 0
207 0 0
200 0 0
208 0 0
199 0 0
203 0 0
197 0 0
205 0 0
205 0 0
208 0 0
211 0 0
207 0 0
203 0 0
206 0 0
202 0 0
203 0 0
206 0 0
203 0 0
209 0 0
203 0 0
204 0 0
205 0 0
207 0 0
206 0 0
201 0 0
204 0 0
210 0 0
208 0 0
210 0 0
213 0 0
216 0 0
217 0 0
207 0 0
210 0 0
215 0 0
210 0 0
210 0 0
213 0 0
211 0 0
216 0 0
217 0 0
207 0 0
214 0 0
212 0 0
214 0 0
210 0 0
212 0 0
213 0 0
217 0 0
210 0 0
213 0 0
215 0 0
217 0 0
213 0 0
212 0 0
213 0 0
215 0 0
210 0 0
215 0 0
214 0 0
211 0 0
213 0 0
215 0 0
216 0 0
212 0 0
215 0 0
212 0 0
211 0 0
213 0 0
210 0 0
216 0 0
213 0 0
217 0 0
216 0 0
219 0 0
212 0 0
215 0 0
212 0 0
217 0 0
216 0 0
219 0 0
213 0 0
217 0 0
213 0 0
214 0 0
215 0 0
216 0 0
216 0 0
218 0 0
215 0 0
213 0 0
212 0 0
218 0 0
214 0 0
212 0 0
215 0 0
217 0 0
216 0 0
218 0 0
216 0 0
216 0 0
217 0 0
218 0 0
214 0 0
217 0 0
217 0 0
219 0 0
215 0 0
219 0 0
215 0 0
218 0 0
215 0 0
221 0 0
220 0 0
218 0 0
217 0 0
218 0 0
215 0 0
217 0 0
217 0 0
220 0 0
218 0 0
217 0 0
215 0 0
215 0 0
216 0 0
216 0 0
219 0 0
218 0 0
218 0 0
215 0 0
219 0 0
215 0 0
215 0 0
219 0 0
216 0 0
218 0 0
218 0 0
210 0 0
217 0 0
219 0 0
214 0 0
215 0 0
219 0 0
219 0 0
220 0 0
219 0 0
215 0 0
215 0 0
0 0 255
0 0 255
0 0 254
0 0 253
0 0 253
0 0 254
0 0 255
0 0 255
0 0 255
0 0 252
0 0 255
0 0 254
0 0 253
0 0 254
0 0 254
0 0 254
0 0 254
0 0 255
0 0 255
0 0 255
0 0 253
0 0 252
0 0 255
0 0 255
0 0 255
0 0 255
0 0 253
0 0 253
0 0 253
0 0 254
0 0 255
0 0 254
0 0 255
0 0 252
0 0 255
0 0 254
0 0 250
0 0 255
0 0 250
0 0 254
0 0 255
0 0 253
0 0 254
0 0 254
0 0 252
0 0 250
0 0 253
0 0 252
0 0 249
0 0 253
0 0 254
0 0 254
0 0 252
0 0 253
0 0 255
0 0 255
0 0 255
0 0 254
0 0 254
0 0 254
0 0 252
0 0 250
0 0 255
0 0 254
0 0 254
0 0 249
0 0 252
0 0 255
0 0 253
0 0 252
0 0 252
0 0 254
0 0 253
0 0 254
0 0 252
0 0 250
0 0 250
0 0 253
0 0 249
0 0 254
0 0 253
0 0 250
0 0 252
0 0 249
0 0 253
0 0 252
0 0 249
0 0 249
0 0 253
0 0 252
0 0 249
0 0 250
0 0 255
0 0 249
0 0 252
0 0 246
0 0 250
0 0 252
0 0 245
0 0 252
0 0 246
0 0 248
0 0 244
0 0 252
0 0 246
0 0 246
0 0 250
0 0 245
0 0 250
0 0 248
0 0 249
0 0 245
0 0 246
0 0 245
0 0 248
0 0 238
0 0 241
0 0 231
0 0 249
0 0 249
0 0 245
0 0 248
0 0 242
0 0 237
0 0 249
0 0 248
0 0 244
0 0 245
0 0 245
0 0 245
0 0 245
0 0 246
0 0 238
0 0 244
0 0 241
0 0 249
0 0 244
0 0 240
0 0 237
0 0 241
0 0 242
0 0 240
0 0 242
0 0 246
0 0 238
0 0 245
0 0 236
0 0 233
0 0 241
0 0 231
0 0 242
0 0 244
0 0 233
0 0 226
0 0 231
0 0 231
0 0 236
0 0 230
0 0 234
0 0 230
0 0 233
0 0 237
0 0 234
0 0 218
0 0 231
0 0 218
0 0 230
0 0 230
0 0 223
0 0 221
0 0 230
0 0 221
0 0 223
0 0 221
0 0 221
0 0 207
0 0 231
0 0 220
0 0 226
0 0 211
0 0 214
0 0 209
0 0 198
0 0 201
0 0 211
0 0 207
0 0 196
0 0 189
0 0 181
0 0 201
0 0 167
0 0 181
0 0 163
0 0 165
0 0 153
166 180 226
212 231 255
212 231 255
212 231 255
212 231 255
212 231 255
212 231 255
212 231 255
212 231 255
181 183 203
114 0 0
130 0 0
125 0 0
143 0 0
154 0 0
153 0 0
150 0 0
158 0 0
162 0 0
160 0 0
157 0 0
169 0 0
162 0 0
164 0 0
177 0 0
170 0 0
174 0 0
172 0 0
189 0 0
183 0 0
176 0 0
186 0 0
189 0 0
175 0 0
192 0 0
180 0 0
189 0 0
174 0 0
182 0 0
186 0 0
188 0 0
184 0 0
192 0 0
197 0 0
190 0 0
192 0 0
199 0 0
192 0 0
196 0 0
202 0 0
193 0 0
198 0 0
193 0 0
206 0 0
201 0 0
200 0 0
198 0 0
199 0 0
199 0 0
200 0 0
197 0 0
206 0 0
199 0 0
196 0 0
205 0 0
201 0 0
207 0 0
205 0 0
208 0 0
199 0 0
209 0 0
206 0 0
210 0 0
205 0 0
207 0 0
207 0 0
207 0 0
207 0 0
212 0 0
203 0 0
209 0 0
211 0 0
214 0 0
216 0 0
213 0 0
208 0 0
213 0 0
213 0 0
211 0 0
206 0 0
207 0 0
208 0 0
212 0 0
209 0 0
213 0 0
210 0 0
211 0 0
212 0 0
213 0 0
217 0 0
208 0 0
213 0 0
212 0 0
216 0 0
210 0 0
214 0 0
214 0 0
210 0 0
211 0 0
211 0 0
214 0 0
216 0 0
212 0 0
214 0 0
212 0 0
215 0 0
215 0 0
209 0 0
216 0 0
215 0 0
214 0 0
215 0 0
217 0 0
218 0 0
214 0 0
216 0 0
209 0 0
218 0 0
218 0 0
213 0 0
218 0 0
220 0 0
220 0 0
216 0 0
220 0 0
216 0 0
217 0 0
216 0 0
221 0 0
211 0 0
214 0 0
215 0 0
216 0 0
217 0 0
215 0 0
218 0 0
219 0 0
219 0 0
216 0 0
213 0 0
213 0 0
219 0 0
214 0 0
214 0 0
216 0 0
218 0 0
215 0 0
217 0 0
219 0 0
219 0 0
214 0 0
222 0 0
213 0 0
216 0 0
215 0 0
212 0 0
220 0 0
214 0 0
217 0 0
216 0 0
215 0 0
219 0 0
214 0 0
218 0 0
216 0 0
220 0 0
214 0 0
217 0 0
217 0 0
214 0 0
217 0 0
219 0 0
217 0 0
215 0 0
221 0 0
214 0 0
217 0 0
216 0 0
217 0 0
219 0 0
218 0 0
216 0 0
216 0 0
219 0 0
214 0 0
216 0 0
214 0 0
218 0 0
217 0 0
213 0 0
219 0 0
216 0 0
220 0 0
220 0 0
220 0 0
0 0 254
0 0 255
0 0 255
0 0 254
0 0 255
0 0 255
0 0 254
0 0 255
0 0 253
0 0 253
0 0 254
0 0 255
0 0 253
0 0 254
0 0 255
0 0 255
0 0 254
0 0 254
0 0 254
0 0 255
0 0 255
0 0 253
0 0 255
0 0 252
0 0 254
0 0 255
0 0 250
0 0 255
0 0 255
0 0 255
0 0 254
0 0 253
0 0 253
0 0 255
0 0 255
0 0 254
0 0 253
0 0 254
0 0 255
0 0 254
0 0 255
0 0 255
0 0 252
0 0 253
0 0 253
0 0 255
0 0 254
0 0 255
0 0 255
0 0 254
0 0 252
0 0 254
0 0 253
0 0 250
0 0 254
0 0 253
0 0 253
0 0 253
0 0 250
0 0 254
0 0 253
0 0 252
0 0 248
0 0 249
0 0 252
0 0 249
0 0 253
0 0 253
0 0 253
0 0 254
0 0 250
0 0 253
0 0 250
0 0 250
0 0 252
0 0 249
0 0 254
0 0 250
0 0 250
0 0 252
0 0 252
0 0 252
0 0 250
0 0 246
0 0 249
0 0 249
0 0 249
0 0 246
0 0 245
0 0 248
0 0 250
0 0 248
0 0 252
0 0 250
0 0 248
0 0 252
0 0 252
0 0 249
0 0 254
0 0 252
0 0 250
0 0 245
0 0 249
0 0 248
0 0 252
0 0 245
0 0 241
0 0 250
0 0 249
0 0 248
0 0 250
0 0 245
0 0 252
0 0 246
0 0 245
0 0 246
0 0 252
0 0 248
0 0 248
0 0 249
0 0 244
0 0 241
0 0 236
0 0 245
0 0 250
0 0 242
0 0 246
0 0 245
0 0 249
0 0 246
0 0 248
0 0 234
0 0 240
0 0 240
0 0 240
0 0 234
0 0 248
0 0 238
0 0 245
0 0 240
0 0 241
0 0 231
0 0 248
0 0 234
0 0 241
0 0 240
0 0 240
0 0 234
0 0 236
0 0 234
0 0 238
0 0 238
0 0 233
0 0 227
0 0 237
0 0 233
0 0 237
0 0 231
0 0 236
0 0 231
0 0 223
0 0 231
0 0 236
0 0 236
0 0 228
0 0 233
0 0 221
0 0 217
0 0 224
0 0 228
0 0 223
0 0 220
0 0 218
0 0 224
0 0 218
0 0 215
0 0 218
0 0 203
0 0 209
0 0 212
0 0 207
0 0 211
0 0 203
0 0 198
0 0 196
0 0 196
0 0 193
0 0 198
0 0 179
0 0 191
0 0 137
0 0 173
0 0 177
0 0 163
0 0 153
120 130 182
213 231 255
213 231 255
213 231 255
213 231 255
213 231 255
213 231 255
213 231 255
213 231 255
154 140 155
134 0 0
129 0 0
140 0 0
138 0 0
143 0 0
152 0 0
158 0 0
158 0 0
164 0 0
153 0 0
163 0 0
169 0 0
169 0 0
164 0 0
177 0 0
182 0 0
174 0 0
185 0 0
183 0 0
187 0 0
191 0 0
179 0 0
190 0 0
174 0 0
192 0 0
195 0 0
198 0 0
195 0 0
194 0 0
185 0 0
199 0 0
193 0 0
186 0 0
199 0 0
189 0 0
198 0 0
201 0 0
204 0 0
204 0 0
201 0 0
198 0 0
201 0 0
203 0 0
199 0 0
206 0 0
198 0 0
203 0 0
203 0 0
199 0 0
199 0 0
204 0 0
208 0 0
197 0 0
204 0 0
197 0 0
197 0 0
201 0 0
210 0 0
202 0 0
204 0 0
203 0 0
199 0 0
196 0 0
215 0 0
204 0 0
209 0 0
207 0 0
212 0 0
209 0 0
211 0 0
209 0 0
209 0 0
211 0 0
209 0 0
209 0 0
210 0 0
210 0 0
210 0 0
210 0 0
213 0 0
218 0 0
209 0 0
212 0 0
212 0 0
210 0 0
212 0 0
213 0 0
212 0 0
209 0 0
214 0 0
213 0 0
213 0 0
214 0 0
215 0 0
211 0 0
207 0 0
215 0 0
210 0 0
215 0 0
211 0 0
216 0 0
215 0 0
213 0 0
212 0 0
215 0 0
213 0 0
213 0 0
217 0 0
213 0 0
219 0 0
215 0 0
216 0 0
208 0 0
216 0 0
217 0 0
218 0 0
210 0 0
214 0 0
216 0 0
216 0 0
213 0 0
213 0 0
218 0 0
217 0 0
215 0 0
212 0 0
215 0 0
217 0 0
212 0 0
210 0 0
212 0 0
216 0 0
220 0 0
218 0 0
216 0 0
216 0 0
216 0 0
220 0 0
215 0 0
216 0 0
218 0 0
218 0 0
213 0 0
217 0 0
215 0 0
216 0 0
220 0 0
218 0 0
220 0 0
218 0 0
217 0 0
216 0 0
219 0 0
220 0 0
215 0 0
218 0 0
216 0 0
215 0 0
218 0 0
219 0 0
218 0 0
217 0 0
217 0 0
219 0 0
213 0 0
218 0 0
219 0 0
217 0 0
215 0 0
219 0 0
219 0 0
219 0 0
212 0 0
218 0 0
220 0 0
218 0 0
219 0 0
216 0 0
216 0 0
216 0 0
216 0 0
219 0 0
214 0 0
221 0 0
223 0 0
217 0 0
221 0 0
217 0 0
221 0 0
212 0 0
217 0 0
221 0 0
214 0 0
218 0 0
216 0 0
0 0 255
0 0 254
0 0 255
0 0 254
0 0 253
0 0 255
0 0 255
0 0 255
0 0 255
0 0 255
0 0 254
0 0 254
0 0 255
0 0 255
0 0 255
0 0 253
0 0 255
0 0 255
0 0 253
0 0 255
0 0 254
0 0 254
0 0 255
0 0 254
0 0 253
0 0 255
0 0 255
0 0 250
0 0 254
0 0 254
0 0 254
0 0 254
0 0 254
0 0 254
0 0 254
0 0 254
0 0 254
0 0 254
0 0 254
0 0 253
0 0 255
0 0 254
0 0 254
0 0 254
0 0 252
0 0 255
0 0 252
0 0 255
0 0 254
0 0 255
0 0 254
0 0 253
0 0 253
0 0 252
0 0 254
0 0 253
0 0 255
0 0 254
0 0 254
0 0 255
0 0 253
0 0 248
0 0 252
0 0 254
0 0 254
0 0 255
0 0 254
0 0 253
0 0 254
0 0 253
0 0 253
0 0 254
0 0 250
0 0 250
0 0 252
0 0 248
0 0 249
0 0 250
0 0 246
0 0 250
0 0 250
0 0 253
0 0 249
0 0 249
0 0 252
0 0 252
0 0 253
0 0 252
0 0 245
0 0 253
0 0 248
0 0 250
0 0 248
0 0 250
0 0 246
0 0 252
0 0 249
0 0 245
0 0 250
0 0 250
0 0 248
0 0 252
0 0 249
0 0 248
0 0 252
0 0 246
0 0 249
0 0 249
0 0 242
0 0 240
0 0 244
0 0 249
0 0 246
0 0 246
0 0 244
0 0 246
0 0 246
0 0 253
0 0 248
0 0 249
0 0 246
0 0 244
0 0 244
0 0 245
0 0 248
0 0 249
0 0 248
0 0 242
0 0 245
0 0 248
0 0 246
0 0 245
0 0 249
0 0 241
0 0 240
0 0 246
0 0 246
0 0 246
0 0 238
0 0 249
0 0 242
0 0 244
0 0 241
0 0 244
0 0 233
0 0 240
0 0 242
0 0 242
0 0 236
0 0 233
0 0 240
0 0 242
0 0 241
0 0 240
0 0 230
0 0 244
0 0 242
0 0 245
0 0 233
0 0 228
0 0 237
0 0 227
0 0 240
0 0 237
0 0 238
0 0 230
0 0 227
0 0 223
0 0 226
0 0 231
0 0 231
0 0 228
0 0 228
0 0 218
0 0 217
0 0 214
0 0 217
0 0 221
0 0 198
0 0 201
0 0 206
0 0 201
0 0 198
0 0 204
0 0 211
0 0 198
0 0 193
0 0 193
0 0 188
0 0 179
0 0 167
0 0 155
0 0 177
0 0 161
0 0 151
42 46 130
209 226 253
213 231 255
213 231 255
213 231 255
213 231 255
213 231 255
213 231 255
210 227 252
125 46 51
116 0 0
137 0 0
135 0 0
140 0 0
155 0 0
146 0 0
137 0 0
150 0 0
150 0 0
163 0 0
164 0 0
165 0 0
159 0 0
169 0 0
171 0 0
168 0 0
173 0 0
174 0 0
177 0 0
174 0 0
176 0 0
180 0 0
192 0 0
183 0 0
191 0 0
188 0 0
190 0 0
196 0 0
199 0 0
178 0 0
192 0 0
188 0 0
192 0 0
200 0 0
198 0 0
189 0 0
192 0 0
192 0 0
197 0 0
203 0 0
200 0 0
201 0 0
191 0 0
195 0 0
201 0 0
199 0 0
203 0 0
209 0 0
204 0 0
206 0 0
210 0 0
199 0 0
204 0 0
209 0 0
207 0 0
204 0 0
211 0 0
205 0 0
196 0 0
202 0 0
205 0 0
205 0 0
205 0 0
212 0 0
209 0 0
206 0 0
208 0 0
198 0 0
203 0 0
211 0 0
212 0 0
205 0 0
210 0 0
207 0 0
206 0 0
208 0 0
212 0 0
214 0 0
210 0 0
213 0 0
207 0 0
215 0 0
212 0 0
213 0 0
212 0 0
212 0 0
210 0 0
210 0 0
212 0 0
217 0 0
207 0 0
211 0 0
214 0 0
217 0 0
213 0 0
215 0 0
216 0 0
211 0 0
211 0 0
212 0 0
215 0 0
216 0 0
220 0 0
212 0 0
211 0 0
217 0 0
218 0 0
215 0 0
214 0 0
209 0 0
208 0 0
213 0 0
220 0 0
216 0 0
216 0 0
217 0 0
218 0 0
216 0 0
219 0 0
217 0 0
216 0 0
215 0 0
212 0 0
217 0 0
215 0 0
214 0 0
217 0 0
216 0 0
211 0 0
215 0 0
215 0 0
217 0 0
216 0 0
215 0 0
217 0 0
212 0 0
219 0 0
213 0 0
215 0 0
215 0 0
218 0 0
218 0 0
218 0 0
215 0 0
216 0 0
218 0 0
216 0 0
214 0 0
215 0 0
219 0 0
213 0 0
215 0 0
215 0 0
218 0 0
218 0 0
217 0 0
219 0 0
217 0 0
218 0 0
220 0 0
219 0 0
218 0 0
215 0 0
216 0 0
219 0 0
216 0 0
217 0 0
217 0 0
221 0 0
219 0 0
217 0 0
220 0 0
214 0 0
214 0 0
215 0 0
217 0 0
220 0 0
219 0 0
220 0 0
218 0 0
219 0 0
216 0 0
216 0 0
218 0 0
217 0 0
219 0 0
219 0 0
216 0 0
216 0 0
219 0 0
218 0 0
215 0 0
218 0 0
218 0 0
218 0 0
0 0 255
0 0 255
0 0 254
0 0 255
0 0 255
0 0 255
0 0 255
0 0 255
0 0 254
0 0 254
0 0 253
0 0 253
0 0 255
0 0 255
0 0 254
0 0 254
0 0 255
0 0 252
0 0 255
0 0 253
0 0 253
0 0 255
0 0 255
0 0 255
0 0 254
0 0 253
0 0 254
0 0 254
0 0 254
0 0 255
0 0 252
0 0 252
0 0 252
0 0 255
0 0 254
0 0 255
0 0 255
0 0 253
0 0 252
0 0 252
0 0 255
0 0 255
0 0 254
0 0 249
0 0 252
0 0 254
0 0 254
0 0 253
0 0 254
0 0 253
0 0 253
0 0 254
0 0 254
0 0 252
0 0 253
0 0 255
0 0 253
0 0 253
0 0 252
0 0 254
0 0 253
0 0 253
0 0 248
0 0 250
0 0 249
0 0 252
0 0 254
0 0 254
0 0 250
0 0 249
0 0 250
0 0 254
0 0 253
0 0 249
0 0 254
0 0 253
0 0 254
0 0 253
0 0 254
0 0 252
0 0 252
0 0 252
0 0 250
0 0 248
0 0 253
0 0 255
0 0 254
0 0 254
0 0 248
0 0 248
0 0 253
0 0 245
0 0 254
0 0 250
0 0 253
0 0 253
0 0 252
0 0 252
0 0 249
0 0 252
0 0 249
0 0 248
0 0 252
0 0 248
0 0 253
0 0 246
0 0 250
0 0 248
0 0 252
0 0 241
0 0 249
0 0 244
0 0 252
0 0 248
0 0 248
0 0 244
0 0 241
0 0 249
0 0 250
0 0 242
0 0 242
0 0 248
0 0 249
0 0 250
0 0 246
0 0 244
0 0 241
0 0 245
0 0 244
0 0 246
0 0 249
0 0 240
0 0 249
0 0 246
0 0 244
0 0 242
0 0 241
0 0 248
0 0 244
0 0 241
0 0 237
0 0 246
0 0 244
0 0 237
0 0 242
0 0 237
0 0 233
0 0 240
0 0 241
0 0 241
0 0 241
0 0 233
0 0 236
0 0 244
0 0 241
0 0 230
0 0 238
0 0 238
0 0 230
0 0 238
0 0 238
0 0 231
0 0 228
0 0 234
0 0 228
0 0 224
0 0 224
0 0 227
0 0 230
0 0 226
0 0 215
0 0 218
0 0 220
0 0 224
0 0 209
0 0 203
0 0 212
0 0 215
0 0 198
0 0 217
0 0 207
0 0 214
0 0 211
0 0 189
0 0 207
0 0 206
0 0 186
0 0 184
0 0 189
0 0 173
0 0 171
0 0 169
0 0 151
0 0 163
0 0 157
0 0 130
169 183 218
213 231 255
213 231 255
213 231 255
213 231 255
213 231 255
213 231 255
174 177 196
113 0 0
128 0 0
111 0 0
150 0 0
123 0 0
162 0 0
135 0 0
143 0 0
150 0 0
151 0 0
166 0 0
159 0 0
161 0 0
176 0 0
173 0 0
164 0 0
173 0 0
172 0 0
169 0 0
174 0 0
178 0 0
184 0 0
163 0 0
184 0 0
181 0 0
190 0 0
183 0 0
186 0 0
187 0 0
186 0 0
194 0 0
190 0 0
183 0 0
193 0 0
200 0 0
193 0 0
195 0 0
194 0 0
193 0 0
196 0 0
193 0 0
203 0 0
200 0 0
200 0 0
199 0 0
205 0 0
201 0 0
197 0 0
201 0 0
203 0 0
205 0 0
209 0 0
208 0 0
208 0 0
205 0 0
204 0 0
204 0 0
213 0 0
207 0 0
209 0 0
203 0 0
206 0 0
209 0 0
209 0 0
213 0 0
208 0 0
204 0 0
206 0 0
209 0 0
203 0 0
209 0 0
211 0 0
210 0 0
212 0 0
213 0 0
212 0 0
214 0 0
205 0 0
212 0 0
213 0 0
214 0 0
206 0 0
212 0 0
212 0 0
209 0 0
207 0 0
218 0 0
210 0 0
207 0 0
208 0 0
215 0 0
211 0 0
212 0 0
212 0 0
211 0 0
213 0 0
215 0 0
207 0 0
213 0 0
216 0 0
209 0 0
209 0 0
211 0 0
219 0 0
215 0 0
215 0 0
216 0 0
212 0 0
214 0 0
215 0 0
214 0 0
218 0 0
212 0 0
219 0 0
218 0 0
217 0 0
220 0 0
217 0 0
213 0 0
218 0 0
212 0 0
214 0 0
216 0 0
213 0 0
218 0 0
215 0 0
213 0 0
216 0 0
219 0 0
218 0 0
220 0 0
213 0 0
214 0 0
216 0 0
217 0 0
219 0 0
215 0 0
221 0 0
217 0 0
210 0 0
218 0 0
212 0 0
217 0 0
218 0 0
217 0 0
218 0 0
217 0 0
215 0 0
217 0 0
215 0 0
218 0 0
221 0 0
215 0 0
217 0 0
220 0 0
213 0 0
220 0 0
220 0 0
217 0 0
215 0 0
217 0 0
215 0 0
216 0 0
217 0 0
219 0 0
219 0 0
220 0 0
219 0 0
216 0 0
217 0 0
216 0 0
218 0 0
220 0 0
217 0 0
217 0 0
220 0 0
221 0 0
217 0 0
217 0 0
214 0 0
220 0 0
216 0 0
218 0 0
217 0 0
222 0 0
214 0 0
216 0 0
218 0 0
216 0 0
218 0 0
214 0 0
220 0 0
217 0 0
214 0 0
220 0 0
220 0 0
0 0 254
0 0 255
0 0 255
0 0 254
0 0 254
0 0 255
0 0 255
0 0 255
0 0 254
0 0 255
0 0 255
0 0 254
0 0 254
0 0 253
0 0 255
0 0 255
0 0 255
0 0 253
0 0 253
0 0 254
0 0 254
0 0 253
0 0 254
0 0 254
0 0 254
0 0 249
0 0 254
0 0 254
0 0 254
0 0 254
0 0 255
0 0 255
0 0 255
0 0 254
0 0 255
0 0 253
0 0 255
0 0 254
0 0 254
0 0 253
0 0 255
0 0 255
0 0 254
0 0 254
0 0 254
0 0 252
0 0 252
0 0 254
0 0 255
0 0 253
0 0 254
0 0 253
0 0 254
0 0 254
0 0 253
0 0 253
0 0 253
0 0 255
0 0 254
0 0 253
0 0 248
0 0 253
0 0 253
0 0 254
0 0 254
0 0 252
0 0 250
0 0 248
0 0 252
0 0 252
0 0 252
0 0 250
0 0 252
0 0 250
0 0 249
0 0 252
0 0 252
0 0 248
0 0 253
0 0 252
0 0 249
0 0 254
0 0 253
0 0 250
0 0 244
0 0 250
0 0 250
0 0 250
0 0 252
0 0 253
0 0 250
0 0 249
0 0 252
0 0 255
0 0 248
0 0 244
0 0 248
0 0 250
0 0 252
0 0 250
0 0 249
0 0 252
0 0 248
0 0 252
0 0 248
0 0 244
0 0 249
0 0 248
0 0 252
0 0 246
0 0 249
0 0 252
0 0 249
0 0 253
0 0 245
0 0 245
0 0 248
0 0 248
0 0 245
0 0 245
0 0 250
0 0 248
0 0 242
0 0 248
0 0 238
0 0 246
0 0 244
0 0 246
0 0 252
0 0 241
0 0 246
0 0 242
0 0 245
0 0 248
0 0 250
0 0 245
0 0 240
0 0 241
0 0 244
0 0 242
0 0 236
0 0 230
0 0 238
0 0 246
0 0 242
0 0 245
0 0 242
0 0 238
0 0 238
0 0 233
0 0 244
0 0 233
0 0 237
0 0 231
0 0 231
0 0 227
0 0 228
0 0 237
0 0 223
0 0 236
0 0 238
0 0 228
0 0 238
0 0 226
0 0 227
0 0 215
0 0 228
0 0 214
0 0 217
0 0 233
0 0 221
0 0 227
0 0 215
0 0 223
0 0 214
0 0 220
0 0 223
0 0 207
0 0 217
0 0 214
0 0 204
0 0 201
0 0 203
0 0 196
0 0 184
0 0 193
0 0 188
0 0 196
0 0 179
0 0 181
0 0 177
0 0 167
0 0 144
0 0 157
0 0 147
0 0 147
121 131 186
214 231 255
214 231 255
214 231 255
214 231 255
214 231 255
214 231 255
155 131 144
116 0 0
110 0 0
116 0 0
133 0 0
147 0 0
151 0 0
147 0 0
168 0 0
158 0 0
155 0 0
154 0 0
163 0 0
163 0 0
161 0 0
175 0 0
181 0 0
173 0 0
183 0 0
176 0 0
169 0 0
180 0 0
172 0 0
185 0 0
191 0 0
180 0 0
182 0 0
185 0 0
193 0 0
185 0 0
192 0 0
199 0 0
199 0 0
194 0 0
194 0 0
197 0 0
200 0 0
185 0 0
194 0 0
195 0 0
192 0 0
192 0 0
198 0 0
200 0 0
200 0 0
201 0 0
201 0 0
203 0 0
191 0 0
208 0 0
199 0 0
199 0 0
197 0 0
208 0 0
204 0 0
202 0 0
199 0 0
205 0 0
212 0 0
208 0 0
203 0 0
203 0 0
209 0 0
208 0 0
203 0 0
206 0 0
213 0 0
210 0 0
205 0 0
208 0 0
209 0 0
208 0 0
207 0 0
212 0 0
207 0 0
211 0 0
211 0 0
213 0 0
214 0 0
214 0 0
213 0 0
206 0 0
211 0 0
210 0 0
212 0 0
214 0 0
216 0 0
208 0 0
215 0 0
208 0 0
206 0 0
208 0 0
213 0 0
218 0 0
216 0 0
210 0 0
208 0 0
217 0 0
212 0 0
211 0 0
217 0 0
209 0 0
210 0 0
217 0 0
215 0 0
210 0 0
216 0 0
215 0 0
212 0 0
211 0 0
215 0 0
215 0 0
217 0 0
217 0 0
217 0 0
216 0 0
214 0 0
211 0 0
213 0 0
215 0 0
219 0 0
217 0 0
214 0 0
220 0 0
222 0 0
215 0 0
219 0 0
209 0 0
220 0 0
214 0 0
215 0 0
215 0 0
219 0 0
217 0 0
212 0 0
212 0 0
216 0 0
214 0 0
217 0 0
216 0 0
222 0 0
214 0 0
219 0 0
213 0 0
219 0 0
218 0 0
218 0 0
217 0 0
215 0 0
216 0 0
219 0 0
215 0 0
212 0 0
218 0 0
216 0 0
217 0 0
217 0 0
215 0 0
221 0 0
220 0 0
217 0 0
218 0 0
219 0 0
218 0 0
221 0 0
217 0 0
216 0 0
217 0 0
219 0 0
217 0 0
213 0 0
216 0 0
217 0 0
218 0 0
223 0 0
219 0 0
220 0 0
219 0 0
214 0 0
218 0 0
218 0 0
223 0 0
216 0 0
217 0 0
216 0 0
219 0 0
216 0 0
217 0 0
220 0 0
219 0 0
217 0 0
222 0 0
217 0 0
217 0 0
219 0 0
218 0 0
217 0 0
0 0 254
0 0 254
0 0 255
0 0 255
0 0 254
0 0 255
0 0 254
0 0 255
0 0 255
0 0 255
0 0 254
0 0 254
0 0 255
0 0 255
0 0 255
0 0 255
0 0 255
0 0 254
0 0 254
0 0 254
0 0 255
0 0 255
0 0 255
0 0 255
0 0 254
0 0 254
0 0 253
0 0 253
0 0 253
0 0 254
0 0 255
0 0 255
0 0 254
0 0 253
0 0 253
0 0 254
0 0 255
0 0 255
0 0 254
0 0 255
0 0 253
0 0 255
0 0 252
0 0 254
0 0 254
0 0 254
0 0 254
0 0 250
0 0 253
0 0 252
0 0 252
0 0 252
0 0 254
0 0 255
0 0 255
0 0 253
0 0 248
0 0 252
0 0 253
0 0 254
0 0 252
0 0 254
0 0 254
0 0 254
0 0 253
0 0 248
0 0 254
0 0 253
0 0 254
0 0 254
0 0 248
0 0 250
0 0 254
0 0 254
0 0 250
0 0 253
0 0 253
0 0 250
0 0 254
0 0 252
0 0 250
0 0 252
0 0 253
0 0 255
0 0 253
0 0 253
0 0 253
0 0 255
0 0 253
0 0 250
0 0 250
0 0 250
0 0 249
0 0 252
0 0 250
0 0 252
0 0 253
0 0 249
0 0 249
0 0 249
0 0 246
0 0 250
0 0 241
0 0 248
0 0 248
0 0 250
0 0 240
0 0 252
0 0 252
0 0 244
0 0 252
0 0 254
0 0 242
0 0 252
0 0 250
0 0 250
0 0 246
0 0 245
0 0 246
0 0 245
0 0 240
0 0 245
0 0 241
0 0 246
0 0 245
0 0 248
0 0 241
0 0 248
0 0 245
0 0 249
0 0 250
0 0 242
0 0 244
0 0 244
0 0 242
0 0 231
0 0 237
0 0 249
0 0 240
0 0 249
0 0 241
0 0 238
0 0 236
0 0 233
0 0 246
0 0 231
0 0 242
0 0 234
0 0 242
0 0 236
0 0 238
0 0 245
0 0 240
0 0 244
0 0 231
0 0 228
0 0 228
0 0 233
0 0 237
0 0 237
0 0 234
0 0 236
0 0 226
0 0 228
0 0 226
0 0 237
0 0 237
0 0 227
0 0 227
0 0 226
0 0 209
0 0 218
0 0 217
0 0 203
0 0 215
0 0 215
0 0 207
0 0 220
0 0 211
0 0 211
0 0 206
0 0 212
0 0 206
0 0 179
0 0 181
0 0 193
0 0 188
0 0 182
0 0 191
0 0 186
0 0 175
0 0 169
0 0 181
0 0 159
0 0 165
0 0 144
60 65 137
214 231 255
214 231 255
214 231 255
214 231 255
214 231 255
214 230 254
116 69 76
106 0 0
116 0 0
119 0 0
137 0 0
136 0 0
152 0 0
156 0 0
155 0 0
141 0 0
157 0 0
173 0 0
168 0 0
168 0 0
177 0 0
187 0 0
177 0 0
182 0 0
182 0 0
173 0 0
185 0 0
178 0 0
197 0 0
186 0 0
189 0 0
199 0 0
189 0 0
194 0 0
199 0 0
181 0 0
193 0 0
188 0 0
198 0 0
189 0 0
198 0 0
196 0 0
197 0 0
198 0 0
194 0 0
199 0 0
198 0 0
199 0 0
206 0 0
203 0 0
207 0 0
191 0 0
202 0 0
205 0 0
207 0 0
214 0 0
205 0 0
210 0 0
200 0 0
208 0 0
199 0 0
206 0 0
206 0 0
201 0 0
199 0 0
207 0 0
209 0 0
207 0 0
206 0 0
206 0 0
199 0 0
210 0 0
206 0 0
198 0 0
203 0 0
207 0 0
206 0 0
214 0 0
200 0 0
213 0 0
205 0 0
204 0 0
211 0 0
207 0 0
215 0 0
210 0 0
213 0 0
207 0 0
211 0 0
214 0 0
205 0 0
207 0 0
211 0 0
213 0 0
216 0 0
207 0 0
216 0 0
205 0 0
214 0 0
212 0 0
211 0 0
209 0 0
209 0 0
206 0 0
208 0 0
214 0 0
216 0 0
215 0 0
214 0 0
210 0 0
220 0 0
215 0 0
218 0 0
219 0 0
216 0 0
217 0 0
212 0 0
217 0 0
212 0 0
214 0 0
216 0 0
216 0 0
215 0 0
217 0 0
213 0 0
217 0 0
211 0 0
217 0 0
213 0 0
212 0 0
215 0 0
216 0 0
215 0 0
212 0 0
216 0 0
218 0 0
219 0 0
216 0 0
217 0 0
212 0 0
219 0 0
215 0 0
219 0 0
220 0 0
219 0 0
213 0 0
218 0 0
218 0 0
215 0 0
215 0 0
220 0 0
217 0 0
220 0 0
216 0 0
215 0 0
219 0 0
216 0 0
217 0 0
216 0 0
213 0 0
218 0 0
217 0 0
220 0 0
215 0 0
218 0 0
218 0 0
218 0 0
216 0 0
220 0 0
219 0 0
219 0 0
221 0 0
219 0 0
215 0 0
216 0 0
213 0 0
216 0 0
216 0 0
214 0 0
221 0 0
219 0 0
219 0 0
219 0 0
216 0 0
222 0 0
219 0 0
218 0 0
219 0 0
220 0 0
219 0 0
216 0 0
218 0 0
216 0 0
221 0 0
221 0 0
220 0 0
218 0 0
220 0 0
217 0 0
222 0 0
221 0 0
216 0 0
218 0 0
0 0 254
0 0 254
0 0 254
0 0 255
0 0 255
0 0 255
0 0 255
0 0 250
0 0 255
0 0 254
0 0 255
0 0 254
0 0 254
0 0 254
0 0 253
0 0 255
0 0 254
0 0 255
0 0 255
0 0 254
0 0 253
0 0 254
0 0 255
0 0 253
0 0 254
0 0 255
0 0 255
0 0 254
0 0 255
0 0 254
0 0 253
0 0 253
0 0 255
0 0 254
0 0 254
0 0 253
0 0 254
0 0 255
0 0 254
0 0 254
0 0 254
0 0 255
0 0 253
0 0 253
0 0 254
0 0 255
0 0 253
0 0 255
0 0 253
0 0 253
0 0 255
0 0 253
0 0 250
0 0 255
0 0 255
0 0 250
0 0 254
0 0 254
0 0 250
0 0 253
0 0 253
0 0 253
0 0 253
0 0 253
0 0 254
0 0 255
0 0 252
0 0 248
0 0 252
0 0 252
0 0 248
0 0 254
0 0 254
0 0 252
0 0 252
0 0 254
0 0 252
0 0 249
0 0 250
0 0 252
0 0 252
0 0 253
0 0 253
0 0 248
0 0 245
0 0 253
0 0 252
0 0 253
0 0 246
0 0 252
0 0 249
0 0 249
0 0 246
0 0 253
0 0 250
0 0 252
0 0 253
0 0 248
0 0 248
0 0 244
0 0 253
0 0 248
0 0 248
0 0 246
0 0 253
0 0 250
0 0 248
0 0 252
0 0 249
0 0 248
0 0 252
0 0 245
0 0 245
0 0 246
0 0 244
0 0 246
0 0 242
0 0 250
0 0 244
0 0 245
0 0 245
0 0 246
0 0 249
0 0 250
0 0 242
0 0 245
0 0 245
0 0 234
0 0 242
0 0 249
0 0 238
0 0 245
0 0 246
0 0 244
0 0 245
0 0 248
0 0 241
0 0 240
0 0 245
0 0 240
0 0 236
0 0 240
0 0 246
0 0 241
0 0 242
0 0 240
0 0 240
0 0 240
0 0 240
0 0 241
0 0 234
0 0 215
0 0 240
0 0 238
0 0 238
0 0 230
0 0 241
0 0 227
0 0 237
0 0 227
0 0 228
0 0 237
0 0 236
0 0 240
0 0 226
0 0 221
0 0 220
0 0 218
0 0 220
0 0 221
0 0 215
0 0 223
0 0 212
0 0 218
0 0 214
0 0 228
0 0 214
0 0 218
0 0 196
0 0 223
0 0 207
0 0 201
0 0 194
0 0 203
0 0 204
0 0 206
0 0 194
0 0 209
0 0 179
0 0 171
0 0 186
0 0 173
0 0 163
0 0 171
0 0 165
0 0 130
0 0 133
196 212 237
214 232 255
214 232 255
214 232 255
214 232 255
199 212 234
97 0 0
106 0 0
106 0 0
143 0 0
146 0 0
137 0 0
140 0 0
147 0 0
150 0 0
159 0 0
167 0 0
158 0 0
176 0 0
170 0 0
168 0 0
170 0 0
180 0 0
169 0 0
179 0 0
175 0 0
181 0 0
176 0 0
184 0 0
190 0 0
177 0 0
187 0 0
195 0 0
189 0 0
191 0 0
192 0 0
188 0 0
185 0 0
188 0 0
189 0 0
190 0 0
190 0 0
194 0 0
201 0 0
200 0 0
202 0 0
194 0 0
202 0 0
198 0 0
196 0 0
208 0 0
193 0 0
195 0 0
212 0 0
209 0 0
207 0 0
205 0 0
203 0 0
206 0 0
205 0 0
203 0 0
204 0 0
203 0 0
208 0 0
210 0 0
207 0 0
213 0 0
210 0 0
209 0 0
210 0 0
217 0 0
201 0 0
208 0 0
210 0 0
205 0 0
205 0 0
207 0 0
213 0 0
208 0 0
209 0 0
214 0 0
206 0 0
212 0 0
213 0 0
203 0 0
207 0 0
212 0 0
206 0 0
214 0 0
208 0 0
212 0 0
205 0 0
213 0 0
206 0 0
213 0 0
216 0 0
212 0 0
208 0 0
210 0 0
213 0 0
213 0 0
219 0 0
214 0 0
214 0 0
210 0 0
215 0 0
213 0 0
217 0 0
211 0 0
214 0 0
217 0 0
222 0 0
213 0 0
215 0 0
217 0 0
214 0 0
217 0 0
211 0 0
213 0 0
220 0 0
216 0 0
213 0 0
213 0 0
216 0 0
213 0 0
215 0 0
218 0 0
217 0 0
212 0 0
217 0 0
213 0 0
219 0 0
218 0 0
216 0 0
220 0 0
219 0 0
220 0 0
216 0 0
214 0 0
216 0 0
220 0 0
214 0 0
219 0 0
221 0 0
217 0 0
220 0 0
218 0 0
219 0 0
219 0 0
216 0 0
220 0 0
217 0 0
218 0 0
219 0 0
217 0 0
214 0 0
218 0 0
216 0 0
217 0 0
219 0 0
215 0 0
215 0 0
211 0 0
221 0 0
219 0 0
217 0 0
221 0 0
219 0 0
218 0 0
219 0 0
217 0 0
219 0 0
216 0 0
215 0 0
217 0 0
220 0 0
219 0 0
217 0 0
220 0 0
214 0 0
221 0 0
216 0 0
219 0 0
222 0 0
217 0 0
223 0 0
218 0 0
222 0 0
217 0 0
221 0 0
219 0 0
220 0 0
218 0 0
218 0 0
218 0 0
219 0 0
220 0 0
220 0 0
219 0 0
218 0 0
219 0 0
217 0 0
222 0 0
0 0 254
0 0 254
0 0 255
0 0 254
0 0 255
0 0 255
0 0 253
0 0 255
0 0 255
0 0 253
0 0 255
0 0 255
0 0 254
0 0 255
0 0 255
0 0 250
0 0 253
0 0 255
0 0 255
0 0 255
0 0 255
0 0 254
0 0 253
0 0 254
0 0 254
0 0 255
0 0 254
0 0 254
0 0 254
0 0 254
0 0 253
0 0 255
0 0 252
0 0 255
0 0 254
0 0 254
0 0 254
0 0 254
0 0 254
0 0 253
0 0 253
0 0 254
0 0 255
0 0 253
0 0 252
0 0 255
0 0 254
0 0 253
0 0 255
0 0 253
0 0 255
0 0 254
0 0 255
0 0 253
0 0 250
0 0 254
0 0 253
0 0 252
0 0 254
0 0 254
0 0 255
0 0 253
0 0 250
0 0 255
0 0 254
0 0 252
0 0 254
0 0 253
0 0 252
0 0 250
0 0 254
0 0 250
0 0 250
0 0 248
0 0 253
0 0 254
0 0 249
0 0 253
0 0 253
0 0 252
0 0 252
0 0 254
0 0 252
0 0 252
0 0 252
0 0 255
0 0 252
0 0 253
0 0 250
0 0 253
0 0 252
0 0 250
0 0 250
0 0 250
0 0 252
0 0 252
0 0 252
0 0 246
0 0 249
0 0 246
0 0 246
0 0 250
0 0 246
0 0 248
0 0 244
0 0 249
0 0 254
0 0 254
0 0 248
0 0 250
0 0 250
0 0 248
0 0 248
0 0 240
0 0 249
0 0 248
0 0 245
0 0 249
0 0 246
0 0 245
0 0 248
0 0 249
0 0 248
0 0 245
0 0 240
0 0 249
0 0 238
0 0 241
0 0 244
0 0 237
0 0 237
0 0 246
0 0 242
0 0 237
0 0 241
0 0 250
0 0 240
0 0 248
0 0 241
0 0 242
0 0 242
0 0 241
0 0 245
0 0 241
0 0 237
0 0 244
0 0 240
0 0 238
0 0 248
0 0 237
0 0 234
0 0 241
0 0 230
0 0 236
0 0 238
0 0 233
0 0 242
0 0 244
0 0 234
0 0 236
0 0 224
0 0 231
0 0 237
0 0 217
0 0 236
0 0 226
0 0 217
0 0 215
0 0 231
0 0 228
0 0 214
0 0 226
0 0 224
0 0 217
0 0 221
0 0 226
0 0 207
0 0 212
0 0 203
0 0 212
0 0 215
0 0 212
0 0 194
0 0 198
0 0 191
0 0 193
0 0 203
0 0 203
0 0 193
0 0 196
0 0 186
0 0 179
0 0 159
0 0 155
0 0 144
0 0 147
0 0 108
159 172 204
215 232 255
215 232 255
215 232 255
215 232 255
161 154 169
106 0 0
118 0 0
122 0 0
128 0 0
136 0 0
139 0 0
150 0 0
145 0 0
149 0 0
156 0 0
162 0 0
148 0 0
168 0 0
170 0 0
161 0 0
170 0 0
171 0 0
184 0 0
178 0 0
184 0 0
178 0 0
169 0 0
181 0 0
182 0 0
186 0 0
188 0 0
188 0 0
197 0 0
177 0 0
196 0 0
191 0 0
185 0 0
198 0 0
193 0 0
197 0 0
197 0 0
189 0 0
195 0 0
191 0 0
199 0 0
199 0 0
201 0 0
206 0 0
185 0 0
198 0 0
198 0 0
199 0 0
205 0 0
199 0 0
210 0 0
205 0 0
209 0 0
204 0 0
200 0 0
208 0 0
204 0 0
206 0 0
197 0 0
213 0 0
207 0 0
200 0 0
211 0 0
205 0 0
203 0 0
208 0 0
208 0 0
205 0 0
201 0 0
211 0 0
211 0 0
212 0 0
207 0 0
207 0 0
213 0 0
209 0 0
211 0 0
212 0 0
197 0 0
211 0 0
214 0 0
212 0 0
213 0 0
211 0 0
215 0 0
209 0 0
214 0 0
215 0 0
222 0 0
209 0 0
207 0 0
206 0 0
216 0 0
213 0 0
218 0 0
219 0 0
211 0 0
213 0 0
212 0 0
213 0 0
215 0 0
216 0 0
219 0 0
212 0 0
208 0 0
216 0 0
213 0 0
213 0 0
218 0 0
215 0 0
211 0 0
211 0 0
218 0 0
214 0 0
216 0 0
217 0 0
218 0 0
211 0 0
217 0 0
220 0 0
211 0 0
212 0 0
207 0 0
213 0 0
213 0 0
221 0 0
221 0 0
213 0 0
218 0 0
213 0 0
214 0 0
213 0 0
216 0 0
217 0 0
217 0 0
222 0 0
213 0 0
215 0 0
215 0 0
215 0 0
215 0 0
214 0 0
220 0 0
221 0 0
219 0 0
218 0 0
209 0 0
217 0 0
219 0 0
217 0 0
215 0 0
219 0 0
220 0 0
213 0 0
215 0 0
217 0 0
218 0 0
218 0 0
217 0 0
218 0 0
216 0 0
218 0 0
218 0 0
218 0 0
216 0 0
219 0 0
220 0 0
218 0 0
217 0 0
215 0 0
219 0 0
220 0 0
220 0 0
217 0 0
222 0 0
220 0 0
221 0 0
217 0 0
219 0 0
216 0 0
218 0 0
219 0 0
217 0 0
219 0 0
218 0 0
217 0 0
219 0 0
222 0 0
221 0 0
224 0 0
219 0 0
222 0 0
223 0 0
218 0 0
219 0 0
218 0 0
220 0 0
219 0 0
0 0 254
0 0 255
0 0 255
0 0 255
0 0 255
0 0 255
0 0 255
0 0 255
0 0 255
0 0 255
0 0 255
0 0 254
0 0 255
0 0 254
0 0 255
0 0 255
0 0 255
0 0 255
0 0 255
0 0 254
0 0 255
0 0 254
0 0 254
0 0 254
0 0 253
0 0 255
0 0 255
0 0 254
0 0 255
0 0 255
0 0 254
0 0 253
0 0 253
0 0 255
0 0 252
0 0 255
0 0 252
0 0 255
0 0 254
0 0 255
0 0 254
0 0 254
0 0 253
0 0 254
0 0 253
0 0 252
0 0 255
0 0 252
0 0 254
0 0 254
0 0 254
0 0 253
0 0 250
0 0 254
0 0 250
0 0 250
0 0 252
0 0 250
0 0 253
0 0 254
0 0 254
0 0 250
0 0 254
0 0 253
0 0 253
0 0 253
0 0 249
0 0 255
0 0 249
0 0 254
0 0 252
0 0 253
0 0 248
0 0 250
0 0 253
0 0 245
0 0 250
0 0 253
0 0 253
0 0 250
0 0 252
0 0 252
0 0 252
0 0 252
0 0 252
0 0 254
0 0 253
0 0 254
0 0 252
0 0 248
0 0 252
0 0 250
0 0 252
0 0 242
0 0 252
0 0 246
0 0 249
0 0 245
0 0 252
0 0 250
0 0 250
0 0 245
0 0 249
0 0 249
0 0 249
0 0 253
0 0 245
0 0 250
0 0 237
0 0 250
0 0 245
0 0 248
0 0 249
0 0 246
0 0 246
0 0 248
0 0 245
0 0 248
0 0 244
0 0 250
0 0 242
0 0 244
0 0 252
0 0 250
0 0 246
0 0 248
0 0 252
0 0 244
0 0 248
0 0 252
0 0 237
0 0 244
0 0 246
0 0 238
0 0 242
0 0 242
0 0 245
0 0 240
0 0 240
0 0 238
0 0 241
0 0 242
0 0 237
0 0 236
0 0 238
0 0 241
0 0 240
0 0 233
0 0 234
0 0 237
0 0 238
0 0 234
0 0 237
0 0 231
0 0 237
0 0 238
0 0 228
0 0 242
0 0 228
0 0 231
0 0 237
0 0 228
0 0 234
0 0 221
0 0 223
0 0 223
0 0 228
0 0 230
0 0 227
0 0 215
0 0 217
0 0 218
0 0 218
0 0 215
0 0 220
0 0 215
0 0 201
0 0 204
0 0 189
0 0 204
0 0 217
0 0 209
0 0 217
0 0 193
0 0 204
0 0 191
0 0 193
0 0 198
0 0 173
0 0 167
0 0 193
0 0 182
0 0 163
0 0 157
0 0 147
0 0 133
0 0 142
121 131 175
215 232 255
215 232 255
215 232 255
215 232 255
139 123 135
109 0 0
97 0 0
126 0 0
117 0 0
129 0 0
137 0 0
146 0 0
160 0 0
152 0 0
153 0 0
140 0 0
151 0 0
162 0 0
164 0 0
154 0 0
164 0 0
163 0 0
178 0 0
180 0 0
177 0 0
169 0 0
177 0 0
189 0 0
183 0 0
189 0 0
182 0 0
190 0 0
195 0 0
179 0 0
187 0 0
193 0 0
199 0 0
195 0 0
193 0 0
198 0 0
193 0 0
196 0 0
202 0 0
200 0 0
193 0 0
191 0 0
198 0 0
201 0 0
200 0 0
196 0 0
200 0 0
206 0 0
202 0 0
197 0 0
198 0 0
205 0 0
205 0 0
200 0 0
209 0 0
206 0 0
209 0 0
203 0 0
209 0 0
206 0 0
212 0 0
206 0 0
207 0 0
209 0 0
212 0 0
205 0 0
212 0 0
206 0 0
209 0 0
207 0 0
207 0 0
208 0 0
214 0 0
207 0 0
209 0 0
206 0 0
209 0 0
210 0 0
216 0 0
212 0 0
210 0 0
211 0 0
208 0 0
215 0 0
212 0 0
211 0 0
207 0 0
207 0 0
210 0 0
217 0 0
210 0 0
214 0 0
212 0 0
209 0 0
218 0 0
217 0 0
211 0 0
213 0 0
218 0 0
217 0 0
212 0 0
214 0 0
215 0 0
216 0 0
209 0 0
212 0 0
210 0 0
218 0 0
216 0 0
217 0 0
218 0 0
213 0 0
218 0 0
214 0 0
217 0 0
217 0 0
217 0 0
219 0 0
220 0 0
216 0 0
216 0 0
218 0 0
212 0 0
216 0 0
216 0 0
215 0 0
218 0 0
220 0 0
219 0 0
219 0 0
216 0 0
216 0 0
216 0 0
216 0 0
217 0 0
219 0 0
219 0 0
217 0 0
216 0 0
216 0 0
213 0 0
215 0 0
215 0 0
215 0 0
222 0 0
215 0 0
218 0 0
220 0 0
217 0 0
216 0 0
217 0 0
216 0 0
221 0 0
210 0 0
215 0 0
219 0 0
219 0 0
217 0 0
218 0 0
219 0 0
219 0 0
219 0 0
219 0 0
214 0 0
216 0 0
221 0 0
222 0 0
214 0 0
218 0 0
214 0 0
212 0 0
221 0 0
217 0 0
218 0 0
214 0 0
214 0 0
216 0 0
217 0 0
217 0 0
222 0 0
217 0 0
219 0 0
218 0 0
217 0 0
218 0 0
214 0 0
222 0 0
218 0 0
218 0 0
220 0 0
219 0 0
220 0 0
220 0 0
222 0 0
220 0 0
220 0 0
215 0 0
218 0 0
0 0 255
0 0 254
0 0 255
0 0 253
0 0 254
0 0 255
0 0 255
0 0 255
0 0 253
0 0 255
0 0 254
0 0 253
0 0 255
0 0 255
0 0 254
0 0 253
0 0 254
0 0 255
0 0 255
0 0 254
0 0 255
0 0 255
0 0 254
0 0 254
0 0 254
0 0 255
0 0 253
0 0 254
0 0 253
0 0 255
0 0 254
0 0 254
0 0 253
0 0 255
0 0 254
0 0 254
0 0 255
0 0 253
0 0 253
0 0 253
0 0 255
0 0 254
0 0 255
0 0 253
0 0 252
0 0 254
0 0 252
0 0 249
0 0 254
0 0 255
0 0 254
0 0 254
0 0 254
0 0 255
0 0 255
0 0 254
0 0 255
0 0 255
0 0 254
0 0 250
0 0 255
0 0 253
0 0 253
0 0 252
0 0 252
0 0 248
0 0 252
0 0 252
0 0 253
0 0 254
0 0 250
0 0 252
0 0 252
0 0 249
0 0 255
0 0 252
0 0 250
0 0 248
0 0 249
0 0 252
0 0 252
0 0 248
0 0 250
0 0 249
0 0 252
0 0 252
0 0 253
0 0 249
0 0 254
0 0 250
0 0 249
0 0 254
0 0 254
0 0 248
0 0 252
0 0 248
0 0 250
0 0 250
0 0 248
0 0 249
0 0 248
0 0 252
0 0 249
0 0 252
0 0 253
0 0 246
0 0 244
0 0 252
0 0 253
0 0 242
0 0 248
0 0 245
0 0 249
0 0 244
0 0 252
0 0 248
0 0 254
0 0 246
0 0 250
0 0 249
0 0 245
0 0 249
0 0 250
0 0 238
0 0 244
0 0 248
0 0 240
0 0 242
0 0 240
0 0 246
0 0 242
0 0 242
0 0 250
0 0 245
0 0 241
0 0 242
0 0 244
0 0 241
0 0 246
0 0 244
0 0 238
0 0 242
0 0 238
0 0 236
0 0 238
0 0 238
0 0 238
0 0 237
0 0 241
0 0 240
0 0 241
0 0 233
0 0 237
0 0 240
0 0 231
0 0 224
0 0 228
0 0 228
0 0 233
0 0 238
0 0 233
0 0 221
0 0 221
0 0 223
0 0 231
0 0 234
0 0 236
0 0 226
0 0 230
0 0 217
0 0 223
0 0 212
0 0 221
0 0 221
0 0 215
0 0 211
0 0 211
0 0 212
0 0 221
0 0 221
0 0 209
0 0 203
0 0 203
0 0 184
0 0 189
0 0 198
0 0 209
0 0 186
0 0 186
0 0 181
0 0 173
0 0 173
0 0 159
0 0 173
0 0 122
0 0 128
0 0 140
43 46 122
215 232 255
215 232 255
215 232 255
215 232 255
101 65 72
104 0 0
113 0 0
114 0 0
123 0 0
130 0 0
145 0 0
149 0 0
143 0 0
138 0 0
165 0 0
164 0 0
171 0 0
164 0 0
169 0 0
176 0 0
170 0 0
176 0 0
179 0 0
178 0 0
169 0 0
185 0 0
184 0 0
183 0 0
171 0 0
181 0 0
191 0 0
183 0 0
192 0 0
194 0 0
188 0 0
195 0 0
196 0 0
199 0 0
197 0 0
200 0 0
196 0 0
190 0 0
198 0 0
199 0 0
197 0 0
203 0 0
198 0 0
203 0 0
205 0 0
203 0 0
203 0 0
195 0 0
203 0 0
201 0 0
209 0 0
201 0 0
205 0 0
210 0 0
205 0 0
210 0 0
209 0 0
206 0 0
205 0 0
209 0 0
207 0 0
204 0 0
208 0 0
203 0 0
211 0 0
208 0 0
201 0 0
214 0 0
207 0 0
203 0 0
207 0 0
210 0 0
213 0 0
213 0 0
208 0 0
211 0 0
215 0 0
210 0 0
211 0 0
216 0 0
216 0 0
208 0 0
213 0 0
212 0 0
213 0 0
208 0 0
209 0 0
209 0 0
213 0 0
216 0 0
206 0 0
220 0 0
221 0 0
213 0 0
213 0 0
210 0 0
215 0 0
212 0 0
212 0 0
213 0 0
218 0 0
213 0 0
213 0 0
211 0 0
214 0 0
216 0 0
215 0 0
214 0 0
213 0 0
214 0 0
209 0 0
216 0 0
220 0 0
209 0 0
215 0 0
218 0 0
215 0 0
221 0 0
217 0 0
216 0 0
216 0 0
215 0 0
219 0 0
218 0 0
215 0 0
216 0 0
217 0 0
217 0 0
216 0 0
215 0 0
216 0 0
216 0 0
217 0 0
214 0 0
212 0 0
218 0 0
218 0 0
217 0 0
216 0 0
212 0 0
219 0 0
215 0 0
216 0 0
217 0 0
219 0 0
211 0 0
219 0 0
219 0 0
218 0 0
215 0 0
217 0 0
219 0 0
219 0 0
217 0 0
217 0 0
216 0 0
220 0 0
217 0 0
218 0 0
220 0 0
219 0 0
217 0 0
215 0 0
220 0 0
223 0 0
224 0 0
216 0 0
219 0 0
217 0 0
218 0 0
220 0 0
216 0 0
214 0 0
222 0 0
219 0 0
218 0 0
214 0 0
220 0 0
219 0 0
217 0 0
221 0 0
219 0 0
217 0 0
217 0 0
220 0 0
224 0 0
216 0 0
218 0 0
216 0 0
215 0 0
220 0 0
220 0 0
216 0 0
223 0 0
220 0 0
217 0 0
219 0 0
220 0 0
0 0 255
0 0 254
0 0 255
0 0 255
0 0 254
0 0 255
0 0 254
0 0 254
0 0 253
0 0 254
0 0 254
0 0 255
0 0 255
0 0 255
0 0 255
0 0 255
0 0 253
0 0 254
0 0 255
0 0 250
0 0 255
0 0 255
0 0 255
0 0 255
0 0 255
0 0 255
0 0 255
0 0 254
0 0 253
0 0 252
0 0 255
0 0 255
0 0 255
0 0 253
0 0 254
0 0 254
0 0 254
0 0 255
0 0 254
0 0 254
0 0 254
0 0 254
0 0 250
0 0 252
0 0 255
0 0 253
0 0 254
0 0 254
0 0 254
0 0 255
0 0 254
0 0 252
0 0 253
0 0 255
0 0 250
0 0 253
0 0 254
0 0 252
0 0 253
0 0 254
0 0 252
0 0 253
0 0 255
0 0 254
0 0 252
0 0 255
0 0 252
0 0 253
0 0 254
0 0 253
0 0 253
0 0 252
0 0 254
0 0 254
0 0 250
0 0 253
0 0 253
0 0 253
0 0 253
0 0 250
0 0 252
0 0 254
0 0 255
0 0 253
0 0 252
0 0 253
0 0 254
0 0 249
0 0 254
0 0 253
0 0 252
0 0 252
0 0 253
0 0 248
0 0 252
0 0 250
0 0 250
0 0 248
0 0 253
0 0 248
0 0 244
0 0 250
0 0 253
0 0 246
0 0 249
0 0 246
0 0 249
0 0 241
0 0 252
0 0 249
0 0 252
0 0 248
0 0 244
0 0 246
0 0 242
0 0 237
0 0 252
0 0 242
0 0 242
0 0 240
0 0 248
0 0 244
0 0 245
0 0 249
0 0 246
0 0 249
0 0 249
0 0 244
0 0 245
0 0 245
0 0 238
0 0 248
0 0 245
0 0 245
0 0 242
0 0 241
0 0 245
0 0 244
0 0 245
0 0 237
0 0 242
0 0 231
0 0 248
0 0 246
0 0 236
0 0 240
0 0 241
0 0 240
0 0 238
0 0 233
0 0 237
0 0 228
0 0 236
0 0 238
0 0 236
0 0 230
0 0 234
0 0 236
0 0 238
0 0 221
0 0 224
0 0 221
0 0 234
0 0 221
0 0 226
0 0 224
0 0 234
0 0 226
0 0 217
0 0 223
0 0 223
0 0 227
0 0 221
0 0 220
0 0 223
0 0 211
0 0 198
0 0 209
0 0 203
0 0 215
0 0 220
0 0 212
0 0 182
0 0 193
0 0 199
0 0 189
0 0 194
0 0 194
0 0 177
0 0 182
0 0 182
0 0 159
0 0 153
0 0 153
0 0 167
0 0 128
0 0 130
0 0 122
192 206 234
216 232 255
216 232 255
204 215 237
88 0 0
97 0 0
119 0 0
136 0 0
132 0 0
128 0 0
146 0 0
135 0 0
150 0 0
159 0 0
164 0 0
158 0 0
167 0 0
165 0 0
173 0 0
176 0 0
176 0 0
178 0 0
183 0 0
183 0 0
178 0 0
193 0 0
178 0 0
186 0 0
181 0 0
184 0 0
185 0 0
184 0 0
187 0 0
187 0 0
194 0 0
191 0 0
189 0 0
200 0 0
195 0 0
198 0 0
191 0 0
199 0 0
198 0 0
199 0 0
197 0 0
197 0 0
194 0 0
199 0 0
201 0 0
206 0 0
197 0 0
205 0 0
203 0 0
197 0 0
204 0 0
200 0 0
201 0 0
204 0 0
210 0 0
201 0 0
205 0 0
203 0 0
211 0 0
212 0 0
208 0 0
209 0 0
208 0 0
206 0 0
198 0 0
209 0 0
209 0 0
214 0 0
207 0 0
208 0 0
206 0 0
214 0 0
209 0 0
209 0 0
214 0 0
208 0 0
212 0 0
207 0 0
200 0 0
209 0 0
211 0 0
208 0 0
209 0 0
218 0 0
218 0 0
204 0 0
215 0 0
217 0 0
204 0 0
211 0 0
210 0 0
209 0 0
211 0 0
218 0 0
209 0 0
215 0 0
219 0 0
214 0 0
214 0 0
216 0 0
214 0 0
221 0 0
212 0 0
210 0 0
213 0 0
219 0 0
212 0 0
214 0 0
213 0 0
216 0 0
215 0 0
215 0 0
218 0 0
213 0 0
214 0 0
216 0 0
218 0 0
215 0 0
214 0 0
212 0 0
214 0 0
220 0 0
219 0 0
215 0 0
215 0 0
218 0 0
216 0 0
216 0 0
218 0 0
216 0 0
215 0 0
217 0 0
213 0 0
217 0 0
218 0 0
214 0 0
214 0 0
217 0 0
219 0 0
214 0 0
218 0 0
216 0 0
215 0 0
216 0 0
214 0 0
221 0 0
219 0 0
218 0 0
221 0 0
217 0 0
218 0 0
218 0 0
211 0 0
219 0 0
216 0 0
221 0 0
218 0 0
220 0 0
217 0 0
220 0 0
215 0 0
221 0 0
217 0 0
219 0 0
218 0 0
218 0 0
215 0 0
217 0 0
215 0 0
219 0 0
220 0 0
213 0 0
218 0 0
216 0 0
217 0 0
219 0 0
223 0 0
218 0 0
220 0 0
219 0 0
220 0 0
220 0 0
217 0 0
220 0 0
222 0 0
217 0 0
220 0 0
222 0 0
222 0 0
216 0 0
218 0 0
216 0 0
217 0 0
219 0 0
221 0 0
218 0 0
219 0 0
217 0 0
0 0 255
0 0 255
0 0 255
0 0 254
0 0 255
0 0 255
0 0 255
0 0 255
0 0 255
0 0 255
0 0 255
0 0 254
0 0 253
0 0 255
0 0 254
0 0 254
0 0 255
0 0 255
0 0 255
0 0 254
0 0 254
0 0 254
0 0 253
0 0 252
0 0 254
0 0 253
0 0 254
0 0 255
0 0 254
0 0 254
0 0 253
0 0 255
0 0 252
0 0 253
0 0 255
0 0 254
0 0 252
0 0 254
0 0 254
0 0 250
0 0 250
0 0 254
0 0 252
0 0 253
0 0 255
0 0 253
0 0 254
0 0 250
0 0 253
0 0 250
0 0 254
0 0 250
0 0 253
0 0 255
0 0 253
0 0 253
0 0 252
0 0 252
0 0 253
0 0 254
0 0 253
0 0 252
0 0 253
0 0 250
0 0 254
0 0 253
0 0 252
0 0 254
0 0 252
0 0 249
0 0 249
0 0 252
0 0 255
0 0 253
0 0 253
0 0 253
0 0 252
0 0 252
0 0 250
0 0 249
0 0 252
0 0 249
0 0 254
0 0 253
0 0 254
0 0 250
0 0 255
0 0 252
0 0 249
0 0 250
0 0 252
0 0 246
0 0 252
0 0 252
0 0 252
0 0 254
0 0 250
0 0 244
0 0 249
0 0 246
0 0 250
0 0 249
0 0 246
0 0 249
0 0 249
0 0 249
0 0 252
0 0 245
0 0 249
0 0 242
0 0 248
0 0 249
0 0 248
0 0 238
0 0 246
0 0 241
0 0 246
0 0 245
0 0 244
0 0 242
0 0 241
0 0 244
0 0 249
0 0 244
0 0 246
0 0 242
0 0 245
0 0 244
0 0 245
0 0 245
0 0 238
0 0 238
0 0 238
0 0 249
0 0 246
0 0 245
0 0 234
0 0 242
0 0 238
0 0 241
0 0 245
0 0 242
0 0 244
0 0 242
0 0 244
0 0 224
0 0 231
0 0 236
0 0 234
0 0 234
0 0 238
0 0 241
0 0 234
0 0 230
0 0 240
0 0 244
0 0 236
0 0 231
0 0 227
0 0 234
0 0 236
0 0 220
0 0 226
0 0 228
0 0 223
0 0 227
0 0 220
0 0 228
0 0 224
0 0 223
0 0 220
0 0 224
0 0 217
0 0 218
0 0 214
0 0 215
0 0 215
0 0 215
0 0 206
0 0 201
0 0 194
0 0 198
0 0 199
0 0 204
0 0 201
0 0 209
0 0 186
0 0 181
0 0 186
0 0 179
0 0 169
0 0 155
0 0 163
0 0 144
0 0 144
0 0 151
0 0 125
0 0 108
160 172 203
216 233 255
216 233 255
178 184 203
92 0 0
111 0 0
127 0 0
141 0 0
129 0 0
126 0 0
153 0 0
148 0 0
140 0 0
148 0 0
168 0 0
150 0 0
162 0 0
169 0 0
171 0 0
166 0 0
189 0 0
175 0 0
164 0 0
169 0 0
180 0 0
185 0 0
188 0 0
185 0 0
179 0 0
186 0 0
187 0 0
189 0 0
190 0 0
185 0 0
189 0 0
196 0 0
183 0 0
193 0 0
192 0 0
195 0 0
191 0 0
196 0 0
197 0 0
191 0 0
198 0 0
200 0 0
194 0 0
202 0 0
202 0 0
202 0 0
206 0 0
198 0 0
204 0 0
192 0 0
204 0 0
203 0 0
202 0 0
205 0 0
207 0 0
200 0 0
206 0 0
200 0 0
207 0 0
206 0 0
215 0 0
206 0 0
209 0 0
212 0 0
207 0 0
214 0 0
213 0 0
210 0 0
211 0 0
205 0 0
212 0 0
215 0 0
206 0 0
209 0 0
213 0 0
213 0 0
213 0 0
216 0 0
214 0 0
207 0 0
207 0 0
217 0 0
214 0 0
206 0 0
212 0 0
213 0 0
211 0 0
211 0 0
214 0 0
211 0 0
215 0 0
217 0 0
214 0 0
212 0 0
211 0 0
216 0 0
213 0 0
214 0 0
215 0 0
213 0 0
215 0 0
217 0 0
214 0 0
215 0 0
217 0 0
214 0 0
219 0 0
211 0 0
219 0 0
213 0 0
214 0 0
219 0 0
219 0 0
215 0 0
214 0 0
218 0 0
220 0 0
213 0 0
216 0 0
216 0 0
215 0 0
216 0 0
214 0 0
216 0 0
219 0 0
218 0 0
220 0 0
216 0 0
214 0 0
212 0 0
215 0 0
218 0 0
217 0 0
219 0 0
221 0 0
220 0 0
213 0 0
221 0 0
221 0 0
217 0 0
215 0 0
217 0 0
217 0 0
216 0 0
221 0 0
215 0 0
217 0 0
215 0 0
212 0 0
214 0 0
220 0 0
219 0 0
218 0 0
218 0 0
220 0 0
218 0 0
220 0 0
217 0 0
214 0 0
217 0 0
213 0 0
218 0 0
220 0 0
219 0 0
217 0 0
218 0 0
220 0 0
222 0 0
217 0 0
219 0 0
219 0 0
218 0 0
219 0 0
222 0 0
221 0 0
221 0 0
217 0 0
216 0 0
220 0 0
217 0 0
220 0 0
220 0 0
219 0 0
218 0 0
218 0 0
221 0 0
220 0 0
215 0 0
218 0 0
219 0 0
218 0 0
216 0 0
215 0 0
221 0 0
216 0 0
213 0 0
217 0 0
225 0 0
0 0 255
0 0 255
0 0 254
0 0 255
0 0 254
0 0 254
0 0 254
0 0 255
0 0 255
0 0 255
0 0 255
0 0 255
0 0 255
0 0 249
0 0 255
0 0 255
0 0 255
0 0 255
0 0 255
0 0 255
0 0 252
0 0 255
0 0 254
0 0 254
0 0 255
0 0 254
0 0 252
0 0 255
0 0 255
0 0 254
0 0 255
0 0 254
0 0 255
0 0 255
0 0 255
0 0 254
0 0 254
0 0 254
0 0 255
0 0 255
0 0 253
0 0 253
0 0 254
0 0 253
0 0 254
0 0 252
0 0 249
0 0 254
0 0 253
0 0 250
0 0 253
0 0 253
0 0 254
0 0 254
0 0 255
0 0 255
0 0 254
0 0 252
0 0 254
0 0 250
0 0 253
0 0 253
0 0 249
0 0 254
0 0 250
0 0 253
0 0 253
0 0 253
0 0 250
0 0 250
0 0 252
0 0 254
0 0 250
0 0 252
0 0 252
0 0 255
0 0 250
0 0 252
0 0 248
0 0 255
0 0 250
0 0 254
0 0 245
0 0 254
0 0 250
0 0 252
0 0 250
0 0 248
0 0 249
0 0 249
0 0 250
0 0 246
0 0 249
0 0 252
0 0 250
0 0 250
0 0 249
0 0 250
0 0 244
0 0 252
0 0 253
0 0 249
0 0 250
0 0 250
0 0 250
0 0 244
0 0 250
0 0 249
0 0 245
0 0 249
0 0 241
0 0 248
0 0 246
0 0 252
0 0 246
0 0 248
0 0 249
0 0 244
0 0 250
0 0 245
0 0 244
0 0 249
0 0 249
0 0 245
0 0 248
0 0 248
0 0 244
0 0 245
0 0 248
0 0 244
0 0 237
0 0 240
0 0 242
0 0 242
0 0 238
0 0 238
0 0 236
0 0 244
0 0 238
0 0 242
0 0 234
0 0 246
0 0 242
0 0 244
0 0 234
0 0 238
0 0 240
0 0 242
0 0 236
0 0 237
0 0 230
0 0 240
0 0 234
0 0 237
0 0 240
0 0 240
0 0 234
0 0 218
0 0 236
0 0 231
0 0 226
0 0 241
0 0 236
0 0 228
0 0 223
0 0 224
0 0 230
0 0 233
0 0 221
0 0 224
0 0 227
0 0 215
0 0 206
0 0 209
0 0 212
0 0 221
0 0 214
0 0 211
0 0 198
0 0 199
0 0 209
0 0 214
0 0 206
0 0 211
0 0 196
0 0 191
0 0 188
0 0 199
0 0 169
0 0 175
0 0 182
0 0 165
0 0 149
0 0 155
0 0 149
0 0 144
0 0 105
0 0 92
137 147 179
216 233 255
216 233 255
153 154 169
90 0 0
93 0 0
126 0 0
121 0 0
140 0 0
144 0 0
140 0 0
144 0 0
156 0 0
158 0 0
157 0 0
145 0 0
156 0 0
159 0 0
160 0 0
185 0 0
188 0 0
169 0 0
172 0 0
173 0 0
188 0 0
181 0 0
185 0 0
185 0 0
189 0 0
185 0 0
192 0 0
187 0 0
191 0 0
189 0 0
194 0 0
189 0 0
190 0 0
188 0 0
194 0 0
193 0 0
204 0 0
199 0 0
204 0 0
201 0 0
196 0 0
190 0 0
213 0 0
196 0 0
190 0 0
206 0 0
202 0 0
191 0 0
200 0 0
212 0 0
195 0 0
204 0 0
203 0 0
208 0 0
201 0 0
206 0 0
195 0 0
207 0 0
202 0 0
205 0 0
206 0 0
205 0 0
209 0 0
211 0 0
210 0 0
214 0 0
213 0 0
208 0 0
210 0 0
207 0 0
206 0 0
212 0 0
203 0 0
210 0 0
210 0 0
206 0 0
212 0 0
211 0 0
210 0 0
210 0 0
206 0 0
211 0 0
208 0 0
208 0 0
219 0 0
216 0 0
211 0 0
216 0 0
209 0 0
213 0 0
216 0 0
211 0 0
214 0 0
216 0 0
213 0 0
218 0 0
213 0 0
210 0 0
214 0 0
214 0 0
216 0 0
218 0 0
216 0 0
213 0 0
218 0 0
216 0 0
215 0 0
216 0 0
211 0 0
213 0 0
216 0 0
216 0 0
217 0 0
212 0 0
211 0 0
216 0 0
221 0 0
208 0 0
213 0 0
215 0 0
214 0 0
215 0 0
218 0 0
212 0 0
216 0 0
213 0 0
218 0 0
213 0 0
217 0 0
218 0 0
221 0 0
213 0 0
220 0 0
217 0 0
218 0 0
221 0 0
215 0 0
221 0 0
213 0 0
215 0 0
222 0 0
220 0 0
218 0 0
216 0 0
215 0 0
217 0 0
217 0 0
216 0 0
222 0 0
220 0 0
217 0 0
219 0 0
217 0 0
218 0 0
218 0 0
220 0 0
220 0 0
217 0 0
221 0 0
219 0 0
222 0 0
220 0 0
218 0 0
219 0 0
219 0 0
221 0 0
215 0 0
221 0 0
217 0 0
220 0 0
221 0 0
220 0 0
220 0 0
219 0 0
221 0 0
218 0 0
218 0 0
221 0 0
218 0 0
221 0 0
220 0 0
220 0 0
222 0 0
220 0 0
222 0 0
217 0 0
217 0 0
213 0 0
220 0 0
222 0 0
220 0 0
222 0 0
216 0 0
222 0 0
217 0 0
219 0 0
220 0 0
220 0 0
0 0 255
0 0 253
0 0 254
0 0 255
0 0 254
0 0 255
0 0 254
0 0 255
0 0 255
0 0 253
0 0 253
0 0 253
0 0 255
0 0 254
0 0 254
0 0 255
0 0 254
0 0 255
0 0 255
0 0 254
0 0 255
0 0 255
0 0 255
0 0 255
0 0 255
0 0 255
0 0 254
0 0 255
0 0 255
0 0 255
0 0 254
0 0 253
0 0 253
0 0 254
0 0 254
0 0 254
0 0 255
0 0 253
0 0 255
0 0 254
0 0 250
0 0 254
0 0 254
0 0 254
0 0 253
0 0 254
0 0 250
0 0 252
0 0 254
0 0 252
0 0 254
0 0 252
0 0 250
0 0 254
0 0 254
0 0 253
0 0 254
0 0 254
0 0 255
0 0 250
0 0 255
0 0 253
0 0 253
0 0 255
0 0 253
0 0 253
0 0 254
0 0 252
0 0 253
0 0 254
0 0 250
0 0 250
0 0 254
0 0 252
0 0 248
0 0 250
0 0 250
0 0 250
0 0 252
0 0 248
0 0 246
0 0 253
0 0 250
0 0 255
0 0 253
0 0 252
0 0 253
0 0 249
0 0 253
0 0 252
0 0 250
0 0 250
0 0 253
0 0 250
0 0 252
0 0 249
0 0 245
0 0 252
0 0 244
0 0 250
0 0 252
0 0 252
0 0 249
0 0 252
0 0 249
0 0 253
0 0 250
0 0 249
0 0 246
0 0 249
0 0 253
0 0 250
0 0 248
0 0 245
0 0 252
0 0 244
0 0 250
0 0 242
0 0 250
0 0 246
0 0 240
0 0 244
0 0 250
0 0 246
0 0 241
0 0 238
0 0 238
0 0 244
0 0 248
0 0 234
0 0 244
0 0 246
0 0 249
0 0 241
0 0 241
0 0 244
0 0 244
0 0 241
0 0 244
0 0 238
0 0 231
0 0 246
0 0 238
0 0 237
0 0 233
0 0 237
0 0 240
0 0 236
0 0 237
0 0 240
0 0 234
0 0 237
0 0 234
0 0 233
0 0 228
0 0 226
0 0 227
0 0 228
0 0 226
0 0 228
0 0 238
0 0 230
0 0 228
0 0 236
0 0 226
0 0 221
0 0 224
0 0 230
0 0 224
0 0 228
0 0 226
0 0 220
0 0 221
0 0 227
0 0 217
0 0 204
0 0 217
0 0 204
0 0 212
0 0 207
0 0 201
0 0 193
0 0 196
0 0 199
0 0 191
0 0 193
0 0 189
0 0 198
0 0 182
0 0 161
0 0 186
0 0 173
0 0 157
0 0 142
0 0 151
0 0 140
0 0 122
0 0 114
89 96 128
217 233 255
217 233 255
120 106 117
83 0 0
104 0 0
110 0 0
127 0 0
141 0 0
128 0 0
146 0 0
138 0 0
156 0 0
140 0 0
147 0 0
162 0 0
165 0 0
161 0 0
164 0 0
176 0 0
160 0 0
186 0 0
173 0 0
176 0 0
182 0 0
189 0 0
182 0 0
178 0 0
191 0 0
187 0 0
187 0 0
186 0 0
193 0 0
196 0 0
194 0 0
198 0 0
195 0 0
197 0 0
193 0 0
195 0 0
185 0 0
201 0 0
197 0 0
203 0 0
199 0 0
194 0 0
205 0 0
195 0 0
200 0 0
204 0 0
195 0 0
195 0 0
202 0 0
197 0 0
207 0 0
205 0 0
208 0 0
211 0 0
199 0 0
208 0 0
209 0 0
214 0 0
204 0 0
209 0 0
209 0 0
205 0 0
207 0 0
206 0 0
208 0 0
208 0 0
208 0 0
209 0 0
211 0 0
203 0 0
205 0 0
214 0 0
206 0 0
212 0 0
209 0 0
214 0 0
216 0 0
217 0 0
214 0 0
216 0 0
216 0 0
207 0 0
213 0 0
214 0 0
210 0 0
215 0 0
210 0 0
211 0 0
217 0 0
214 0 0
215 0 0
210 0 0
211 0 0
212 0 0
212 0 0
216 0 0
216 0 0
216 0 0
218 0 0
217 0 0
214 0 0
213 0 0
216 0 0
214 0 0
212 0 0
212 0 0
214 0 0
219 0 0
217 0 0
217 0 0
218 0 0
216 0 0
214 0 0
216 0 0
201 0 0
214 0 0
213 0 0
219 0 0
212 0 0
216 0 0
215 0 0
216 0 0
212 0 0
209 0 0
219 0 0
214 0 0
216 0 0
219 0 0
214 0 0
217 0 0
219 0 0
218 0 0
218 0 0
216 0 0
217 0 0
218 0 0
220 0 0
218 0 0
220 0 0
216 0 0
223 0 0
211 0 0
217 0 0
219 0 0
218 0 0
219 0 0
216 0 0
218 0 0
221 0 0
219 0 0
220 0 0
217 0 0
215 0 0
218 0 0
213 0 0
219 0 0
218 0 0
222 0 0
216 0 0
218 0 0
219 0 0
217 0 0
215 0 0
218 0 0
219 0 0
218 0 0
217 0 0
219 0 0
219 0 0
218 0 0
217 0 0
221 0 0
217 0 0
219 0 0
222 0 0
218 0 0
218 0 0
220 0 0
219 0 0
215 0 0
216 0 0
220 0 0
216 0 0
222 0 0
216 0 0
219 0 0
218 0 0
217 0 0
223 0 0
218 0 0
221 0 0
219 0 0
221 0 0
216 0 0
217 0 0
218 0 0
219 0 0
219 0 0
0 0 254
0 0 254
0 0 255
0 0 255
0 0 255
0 0 255
0 0 254
0 0 254
0 0 255
0 0 255
0 0 253
0 0 255
0 0 255
0 0 255
0 0 254
0 0 253
0 0 253
0 0 255
0 0 254
0 0 255
0 0 254
0 0 254
0 0 254
0 0 255
0 0 254
0 0 255
0 0 254
0 0 255
0 0 253
0 0 255
0 0 254
0 0 254
0 0 253
0 0 254
0 0 254
0 0 254
0 0 255
0 0 254
0 0 253
0 0 253
0 0 254
0 0 255
0 0 255
0 0 250
0 0 255
0 0 255
0 0 254
0 0 255
0 0 254
0 0 253
0 0 254
0 0 254
0 0 253
0 0 254
0 0 254
0 0 252
0 0 252
0 0 254
0 0 253
0 0 250
0 0 252
0 0 253
0 0 252
0 0 250
0 0 255
0 0 250
0 0 255
0 0 253
0 0 252
0 0 252
0 0 252
0 0 250
0 0 253
0 0 254
0 0 254
0 0 253
0 0 250
0 0 249
0 0 248
0 0 249
0 0 250
0 0 252
0 0 253
0 0 253
0 0 246
0 0 252
0 0 250
0 0 249
0 0 249
0 0 253
0 0 250
0 0 253
0 0 246
0 0 254
0 0 246
0 0 250
0 0 250
0 0 246
0 0 250
0 0 249
0 0 253
0 0 248
0 0 244
0 0 252
0 0 248
0 0 252
0 0 248
0 0 248
0 0 250
0 0 250
0 0 255
0 0 254
0 0 245
0 0 245
0 0 250
0 0 240
0 0 250
0 0 246
0 0 249
0 0 248
0 0 245
0 0 242
0 0 248
0 0 244
0 0 244
0 0 245
0 0 252
0 0 236
0 0 244
0 0 245
0 0 249
0 0 244
0 0 242
0 0 237
0 0 240
0 0 242
0 0 238
0 0 237
0 0 246
0 0 236
0 0 237
0 0 237
0 0 236
0 0 241
0 0 234
0 0 241
0 0 248
0 0 246
0 0 227
0 0 236
0 0 230
0 0 234
0 0 237
0 0 240
0 0 234
0 0 237
0 0 241
0 0 224
0 0 231
0 0 236
0 0 231
0 0 226
0 0 226
0 0 231
0 0 236
0 0 223
0 0 231
0 0 227
0 0 233
0 0 230
0 0 220
0 0 230
0 0 215
0 0 224
0 0 220
0 0 212
0 0 207
0 0 212
0 0 201
0 0 209
0 0 198
0 0 191
0 0 198
0 0 188
0 0 207
0 0 188
0 0 191
0 0 181
0 0 194
0 0 184
0 0 171
0 0 186
0 0 159
0 0 155
0 0 144
0 0 133
0 0 130
0 0 114
65 70 122
217 233 255
217 233 255
84 70 76
88 0 0
105 0 0
107 0 0
127 0 0
127 0 0
140 0 0
134 0 0
156 0 0
144 0 0
151 0 0
158 0 0
150 0 0
176 0 0
173 0 0
164 0 0
169 0 0
181 0 0
171 0 0
185 0 0
175 0 0
193 0 0
183 0 0
174 0 0
192 0 0
183 0 0
183 0 0
188 0 0
190 0 0
192 0 0
203 0 0
184 0 0
199 0 0
190 0 0
191 0 0
192 0 0
195 0 0
192 0 0
200 0 0
194 0 0
203 0 0
205 0 0
199 0 0
201 0 0
203 0 0
202 0 0
209 0 0
202 0 0
202 0 0
200 0 0
202 0 0
205 0 0
203 0 0
206 0 0
197 0 0
208 0 0
206 0 0
209 0 0
211 0 0
206 0 0
203 0 0
211 0 0
206 0 0
206 0 0
194 0 0
210 0 0
210 0 0
209 0 0
211 0 0
213 0 0
215 0 0
212 0 0
212 0 0
214 0 0
209 0 0
207 0 0
211 0 0
214 0 0
208 0 0
215 0 0
203 0 0
209 0 0
218 0 0
218 0 0
208 0 0
217 0 0
215 0 0
216 0 0
209 0 0
210 0 0
210 0 0
214 0 0
219 0 0
215 0 0
217 0 0
217 0 0
215 0 0
218 0 0
218 0 0
215 0 0
209 0 0
215 0 0
218 0 0
218 0 0
215 0 0
216 0 0
214 0 0
218 0 0
215 0 0
216 0 0
209 0 0
219 0 0
220 0 0
219 0 0
216 0 0
212 0 0
214 0 0
210 0 0
218 0 0
215 0 0
218 0 0
220 0 0
217 0 0
212 0 0
215 0 0
215 0 0
218 0 0
217 0 0
216 0 0
221 0 0
214 0 0
216 0 0
221 0 0
217 0 0
216 0 0
218 0 0
218 0 0
215 0 0
217 0 0
217 0 0
212 0 0
220 0 0
217 0 0
221 0 0
217 0 0
219 0 0
219 0 0
218 0 0
217 0 0
217 0 0
220 0 0
215 0 0
217 0 0
219 0 0
218 0 0
219 0 0
216 0 0
216 0 0
222 0 0
220 0 0
218 0 0
217 0 0
214 0 0
223 0 0
217 0 0
216 0 0
219 0 0
220 0 0
218 0 0
220 0 0
220 0 0
220 0 0
221 0 0
222 0 0
221 0 0
219 0 0
219 0 0
219 0 0
220 0 0
220 0 0
217 0 0
219 0 0
217 0 0
219 0 0
220 0 0
220 0 0
218 0 0
218 0 0
219 0 0
220 0 0
220 0 0
220 0 0
219 0 0
219 0 0
218 0 0
215 0 0
219 0 0
218 0 0
222 0 0
0 0 255
0 0 255
0 0 255
0 0 255
0 0 254
0 0 253
0 0 252
0 0 255
0 0 255
0 0 254
0 0 255
0 0 254
0 0 255
0 0 255
0 0 255
0 0 252
0 0 254
0 0 254
0 0 255
0 0 252
0 0 255
0 0 252
0 0 255
0 0 255
0 0 253
0 0 253
0 0 254
0 0 253
0 0 253
0 0 255
0 0 254
0 0 254
0 0 255
0 0 255
0 0 254
0 0 253
0 0 254
0 0 254
0 0 253
0 0 255
0 0 253
0 0 255
0 0 252
0 0 255
0 0 254
0 0 254
0 0 253
0 0 255
0 0 253
0 0 254
0 0 254
0 0 252
0 0 253
0 0 254
0 0 252
0 0 254
0 0 254
0 0 254
0 0 246
0 0 254
0 0 253
0 0 252
0 0 254
0 0 250
0 0 255
0 0 252
0 0 254
0 0 252
0 0 252
0 0 250
0 0 253
0 0 254
0 0 249
0 0 253
0 0 249
0 0 248
0 0 252
0 0 254
0 0 253
0 0 248
0 0 254
0 0 254
0 0 249
0 0 252
0 0 255
0 0 250
0 0 255
0 0 248
0 0 254
0 0 253
0 0 249
0 0 254
0 0 248
0 0 252
0 0 250
0 0 246
0 0 250
0 0 253
0 0 245
0 0 249
0 0 248
0 0 246
0 0 250
0 0 250
0 0 242
0 0 249
0 0 250
0 0 248
0 0 246
0 0 244
0 0 252
0 0 249
0 0 245
0 0 241
0 0 253
0 0 246
0 0 242
0 0 248
0 0 249
0 0 241
0 0 241
0 0 244
0 0 245
0 0 245
0 0 248
0 0 248
0 0 245
0 0 245
0 0 250
0 0 241
0 0 245
0 0 245
0 0 238
0 0 245
0 0 245
0 0 244
0 0 238
0 0 237
0 0 244
0 0 248
0 0 241
0 0 233
0 0 237
0 0 242
0 0 240
0 0 233
0 0 245
0 0 241
0 0 233
0 0 231
0 0 237
0 0 240
0 0 236
0 0 236
0 0 234
0 0 238
0 0 237
0 0 236
0 0 230
0 0 231
0 0 224
0 0 224
0 0 234
0 0 221
0 0 218
0 0 240
0 0 212
0 0 218
0 0 228
0 0 228
0 0 227
0 0 221
0 0 227
0 0 209
0 0 214
0 0 221
0 0 211
0 0 204
0 0 206
0 0 206
0 0 209
0 0 217
0 0 198
0 0 207
0 0 203
0 0 188
0 0 191
0 0 181
0 0 188
0 0 181
0 0 161
0 0 171
0 0 169
0 0 173
0 0 151
0 0 140
0 0 114
0 0 95
0 0 80
198 213 237
206 219 240
61 0 0
100 0 0
116 0 0
118 0 0
128 0 0
126 0 0
147 0 0
141 0 0
137 0 0
148 0 0
131 0 0
168 0 0
167 0 0
161 0 0
155 0 0
175 0 0
177 0 0
170 0 0
186 0 0
181 0 0
167 0 0
184 0 0
180 0 0
185 0 0
190 0 0
183 0 0
181 0 0
188 0 0
191 0 0
186 0 0
195 0 0
183 0 0
192 0 0
199 0 0
188 0 0
195 0 0
194 0 0
200 0 0
202 0 0
200 0 0
202 0 0
200 0 0
198 0 0
201 0 0
204 0 0
202 0 0
192 0 0
204 0 0
202 0 0
200 0 0
208 0 0
204 0 0
201 0 0
207 0 0
206 0 0
204 0 0
202 0 0
205 0 0
207 0 0
199 0 0
207 0 0
208 0 0
206 0 0
204 0 0
211 0 0
210 0 0
213 0 0
213 0 0
209 0 0
216 0 0
213 0 0
206 0 0
208 0 0
209 0 0
212 0 0
219 0 0
216 0 0
213 0 0
211 0 0
208 0 0
207 0 0
205 0 0
216 0 0
207 0 0
215 0 0
218 0 0
215 0 0
210 0 0
213 0 0
214 0 0
209 0 0
218 0 0
216 0 0
215 0 0
214 0 0
210 0 0
212 0 0
210 0 0
218 0 0
217 0 0
210 0 0
215 0 0
213 0 0
212 0 0
217 0 0
218 0 0
214 0 0
215 0 0
215 0 0
217 0 0
215 0 0
218 0 0
220 0 0
216 0 0
216 0 0
218 0 0
220 0 0
217 0 0
218 0 0
216 0 0
219 0 0
213 0 0
216 0 0
214 0 0
211 0 0
218 0 0
213 0 0
216 0 0
218 0 0
219 0 0
217 0 0
217 0 0
215 0 0
221 0 0
220 0 0
218 0 0
218 0 0
220 0 0
216 0 0
215 0 0
220 0 0
218 0 0
217 0 0
217 0 0
218 0 0
221 0 0
221 0 0
221 0 0
215 0 0
221 0 0
218 0 0
215 0 0
215 0 0
219 0 0
218 0 0
220 0 0
217 0 0
215 0 0
217 0 0
221 0 0
218 0 0
221 0 0
219 0 0
222 0 0
218 0 0
218 0 0
218 0 0
221 0 0
220 0 0
221 0 0
217 0 0
222 0 0
218 0 0
220 0 0
224 0 0
218 0 0
222 0 0
221 0 0
217 0 0
215 0 0
224 0 0
219 0 0
222 0 0
217 0 0
217 0 0
221 0 0
219 0 0
215 0 0
220 0 0
219 0 0
214 0 0
217 0 0
223 0 0
219 0 0
217 0 0
218 0 0
220 0 0
218 0 0
223 0 0
0 0 255
0 0 255
0 0 255
0 0 255
0 0 255
0 0 254
0 0 255
0 0 254
0 0 254
0 0 255
0 0 255
0 0 255
0 0 255
0 0 255
0 0 255
0 0 254
0 0 254
0 0 255
0 0 254
0 0 253
0 0 254
0 0 255
0 0 254
0 0 255
0 0 255
0 0 254
0 0 254
0 0 253
0 0 255
0 0 253
0 0 253
0 0 253
0 0 255
0 0 255
0 0 250
0 0 255
0 0 255
0 0 254
0 0 254
0 0 253
0 0 253
0 0 255
0 0 254
0 0 255
0 0 253
0 0 252
0 0 254
0 0 253
0 0 252
0 0 252
0 0 254
0 0 253
0 0 253
0 0 254
0 0 255
0 0 252
0 0 255
0 0 254
0 0 254
0 0 252
0 0 255
0 0 254
0 0 254
0 0 252
0 0 254
0 0 253
0 0 254
0 0 254
0 0 250
0 0 253
0 0 254
0 0 250
0 0 248
0 0 250
0 0 249
0 0 249
0 0 253
0 0 254
0 0 254
0 0 248
0 0 250
0 0 254
0 0 249
0 0 252
0 0 249
0 0 254
0 0 252
0 0 250
0 0 249
0 0 246
0 0 252
0 0 252
0 0 254
0 0 250
0 0 244
0 0 252
0 0 253
0 0 249
0 0 252
0 0 250
0 0 248
0 0 253
0 0 246
0 0 249
0 0 248
0 0 249
0 0 253
0 0 250
0 0 246
0 0 250
0 0 242
0 0 244
0 0 245
0 0 246
0 0 248
0 0 242
0 0 242
0 0 245
0 0 249
0 0 250
0 0 246
0 0 244
0 0 246
0 0 246
0 0 250
0 0 241
0 0 244
0 0 244
0 0 233
0 0 245
0 0 240
0 0 238
0 0 250
0 0 252
0 0 246
0 0 244
0 0 236
0 0 242
0 0 245
0 0 241
0 0 248
0 0 242
0 0 246
0 0 238
0 0 231
0 0 236
0 0 244
0 0 237
0 0 240
0 0 244
0 0 237
0 0 228
0 0 234
0 0 230
0 0 231
0 0 240
0 0 230
0 0 237
0 0 230
0 0 227
0 0 236
0 0 230
0 0 227
0 0 233
0 0 218
0 0 230
0 0 226
0 0 227
0 0 223
0 0 220
0 0 217
0 0 228
0 0 228
0 0 223
0 0 215
0 0 209
0 0 209
0 0 217
0 0 218
0 0 211
0 0 218
0 0 215
0 0 191
0 0 198
0 0 196
0 0 206
0 0 182
0 0 184
0 0 181
0 0 177
0 0 169
0 0 181
0 0 157
0 0 161
0 0 149
0 0 140
0 0 114
0 0 105
0 0 76
191 205 227
182 190 207
55 0 0
104 0 0
112 0 0
112 0 0
117 0 0
118 0 0
137 0 0
136 0 0
141 0 0
158 0 0
155 0 0
156 0 0
167 0 0
164 0 0
147 0 0
166 0 0
159 0 0
170 0 0
176 0 0
163 0 0
189 0 0
187 0 0
173 0 0
178 0 0
173 0 0
183 0 0
193 0 0
183 0 0
195 0 0
181 0 0
196 0 0
201 0 0
188 0 0
196 0 0
191 0 0
197 0 0
202 0 0
196 0 0
193 0 0
206 0 0
205 0 0
200 0 0
197 0 0
207 0 0
194 0 0
204 0 0
203 0 0
199 0 0
200 0 0
217 0 0
193 0 0
203 0 0
204 0 0
209 0 0
203 0 0
205 0 0
206 0 0
210 0 0
208 0 0
206 0 0
209 0 0
211 0 0
213 0 0
204 0 0
210 0 0
214 0 0
209 0 0
205 0 0
208 0 0
208 0 0
212 0 0
209 0 0
218 0 0
210 0 0
217 0 0
216 0 0
212 0 0
214 0 0
218 0 0
207 0 0
215 0 0
211 0 0
208 0 0
209 0 0
218 0 0
208 0 0
209 0 0
211 0 0
206 0 0
210 0 0
212 0 0
215 0 0
219 0 0
214 0 0
218 0 0
213 0 0
216 0 0
217 0 0
217 0 0
213 0 0
212 0 0
216 0 0
216 0 0
216 0 0
220 0 0
219 0 0
221 0 0
211 0 0
218 0 0
216 0 0
217 0 0
218 0 0
217 0 0
218 0 0
218 0 0
217 0 0
214 0 0
217 0 0
217 0 0
221 0 0
219 0 0
214 0 0
219 0 0
215 0 0
216 0 0
218 0 0
215 0 0
218 0 0
213 0 0
217 0 0
221 0 0
218 0 0
218 0 0
216 0 0
218 0 0
217 0 0
216 0 0
222 0 0
216 0 0
218 0 0
218 0 0
219 0 0
221 0 0
218 0 0
221 0 0
218 0 0
221 0 0
216 0 0
222 0 0
215 0 0
217 0 0
221 0 0
217 0 0
220 0 0
211 0 0
217 0 0
219 0 0
214 0 0
218 0 0
223 0 0
218 0 0
219 0 0
221 0 0
217 0 0
220 0 0
215 0 0
212 0 0
220 0 0
218 0 0
217 0 0
224 0 0
222 0 0
222 0 0
219 0 0
216 0 0
220 0 0
218 0 0
222 0 0
219 0 0
222 0 0
215 0 0
219 0 0
221 0 0
223 0 0
221 0 0
221 0 0
219 0 0
218 0 0
220 0 0
219 0 0
219 0 0
220 0 0
222 0 0
218 0 0
218 0 0
221 0 0
221 0 0
219 0 0
218 0 0
0 0 254
0 0 255
0 0 255
0 0 254
0 0 252
0 0 254
0 0 254
0 0 252
0 0 255
0 0 255
0 0 255
0 0 255
0 0 254
0 0 255
0 0 254
0 0 254
0 0 254
0 0 255
0 0 255
0 0 255
0 0 255
0 0 255
0 0 255
0 0 254
0 0 253
0 0 254
0 0 252
0 0 253
0 0 255
0 0 255
0 0 254
0 0 255
0 0 254
0 0 255
0 0 255
0 0 254
0 0 255
0 0 252
0 0 254
0 0 253
0 0 254
0 0 255
0 0 253
0 0 255
0 0 254
0 0 250
0 0 253
0 0 254
0 0 255
0 0 255
0 0 255
0 0 249
0 0 255
0 0 250
0 0 250
0 0 254
0 0 254
0 0 254
0 0 249
0 0 255
0 0 254
0 0 253
0 0 253
0 0 254
0 0 253
0 0 252
0 0 254
0 0 253
0 0 252
0 0 249
0 0 249
0 0 253
0 0 250
0 0 252
0 0 254
0 0 252
0 0 253
0 0 252
0 0 253
0 0 254
0 0 254
0 0 250
0 0 248
0 0 249
0 0 255
0 0 253
0 0 248
0 0 252
0 0 249
0 0 252
0 0 255
0 0 246
0 0 246
0 0 252
0 0 249
0 0 248
0 0 244
0 0 249
0 0 246
0 0 246
0 0 249
0 0 249
0 0 245
0 0 245
0 0 253
0 0 244
0 0 250
0 0 252
0 0 250
0 0 249
0 0 249
0 0 249
0 0 249
0 0 249
0 0 241
0 0 245
0 0 253
0 0 248
0 0 246
0 0 249
0 0 246
0 0 245
0 0 238
0 0 246
0 0 248
0 0 250
0 0 238
0 0 241
0 0 246
0 0 245
0 0 250
0 0 244
0 0 240
0 0 245
0 0 244
0 0 244
0 0 237
0 0 241
0 0 249
0 0 245
0 0 238
0 0 244
0 0 244
0 0 238
0 0 250
0 0 245
0 0 240
0 0 237
0 0 245
0 0 238
0 0 234
0 0 224
0 0 230
0 0 233
0 0 240
0 0 233
0 0 228
0 0 226
0 0 234
0 0 233
0 0 226
0 0 234
0 0 230
0 0 234
0 0 224
0 0 224
0 0 231
0 0 215
0 0 221
0 0 218
0 0 226
0 0 230
0 0 221
0 0 227
0 0 217
0 0 217
0 0 206
0 0 207
0 0 206
0 0 198
0 0 198
0 0 204
0 0 212
0 0 188
0 0 203
0 0 182
0 0 193
0 0 175
0 0 169
0 0 169
0 0 182
0 0 167
0 0 149
0 0 149
0 0 144
0 0 135
0 0 111
0 0 114
0 0 67
164 176 198
185 198 217
86 0 0
79 0 0
111 0 0
111 0 0
132 0 0
136 0 0
129 0 0
134 0 0
157 0 0
143 0 0
157 0 0
166 0 0
164 0 0
163 0 0
167 0 0
160 0 0
157 0 0
184 0 0
169 0 0
173 0 0
186 0 0
169 0 0
177 0 0
172 0 0
180 0 0
176 0 0
195 0 0
186 0 0
198 0 0
187 0 0
194 0 0
195 0 0
190 0 0
191 0 0
194 0 0
203 0 0
198 0 0
195 0 0
192 0 0
193 0 0
201 0 0
202 0 0
200 0 0
194 0 0
203 0 0
209 0 0
199 0 0
203 0 0
202 0 0
206 0 0
198 0 0
204 0 0
207 0 0
210 0 0
204 0 0
210 0 0
210 0 0
210 0 0
210 0 0
209 0 0
207 0 0
208 0 0
210 0 0
200 0 0
210 0 0
208 0 0
211 0 0
210 0 0
212 0 0
203 0 0
205 0 0
208 0 0
211 0 0
206 0 0
211 0 0
218 0 0
212 0 0
214 0 0
212 0 0
212 0 0
208 0 0
213 0 0
216 0 0
214 0 0
212 0 0
213 0 0
205 0 0
215 0 0
210 0 0
217 0 0
212 0 0
212 0 0
214 0 0
213 0 0
212 0 0
211 0 0
220 0 0
213 0 0
219 0 0
220 0 0
214 0 0
206 0 0
212 0 0
213 0 0
213 0 0
217 0 0
218 0 0
218 0 0
218 0 0
219 0 0
217 0 0
217 0 0
217 0 0
217 0 0
220 0 0
215 0 0
216 0 0
214 0 0
219 0 0
216 0 0
214 0 0
215 0 0
215 0 0
216 0 0
214 0 0
221 0 0
209 0 0
216 0 0
215 0 0
221 0 0
224 0 0
220 0 0
220 0 0
220 0 0
214 0 0
217 0 0
219 0 0
220 0 0
217 0 0
215 0 0
216 0 0
220 0 0
222 0 0
221 0 0
218 0 0
216 0 0
220 0 0
217 0 0
217 0 0
220 0 0
219 0 0
220 0 0
214 0 0
220 0 0
220 0 0
217 0 0
219 0 0
215 0 0
220 0 0
213 0 0
219 0 0
219 0 0
220 0 0
222 0 0
220 0 0
221 0 0
224 0 0
215 0 0
223 0 0
218 0 0
219 0 0
221 0 0
221 0 0
219 0 0
221 0 0
217 0 0
217 0 0
217 0 0
218 0 0
222 0 0
220 0 0
217 0 0
219 0 0
220 0 0
215 0 0
220 0 0
219 0 0
219 0 0
217 0 0
222 0 0
220 0 0
220 0 0
217 0 0
223 0 0
219 0 0
220 0 0
222 0 0
218 0 0
221 0 0
0 0 255
0 0 254
0 0 255
0 0 255
0 0 254
0 0 255
0 0 255
0 0 254
0 0 255
0 0 254
0 0 254
0 0 253
0 0 255
0 0 255
0 0 254
0 0 255
0 0 254
0 0 254
0 0 255
0 0 255
0 0 253
0 0 248
0 0 255
0 0 255
0 0 255
0 0 255
0 0 255
0 0 255
0 0 254
0 0 254
0 0 255
0 0 255
0 0 253
0 0 254
0 0 254
0 0 254
0 0 253
0 0 254
0 0 254
0 0 254
0 0 254
0 0 254
0 0 255
0 0 254
0 0 255
0 0 252
0 0 254
0 0 254
0 0 254
0 0 254
0 0 252
0 0 249
0 0 254
0 0 254
0 0 252
0 0 255
0 0 252
0 0 252
0 0 255
0 0 255
0 0 255
0 0 254
0 0 252
0 0 246
0 0 252
0 0 254
0 0 254
0 0 250
0 0 254
0 0 253
0 0 255
0 0 248
0 0 253
0 0 245
0 0 250
0 0 248
0 0 255
0 0 252
0 0 249
0 0 250
0 0 253
0 0 254
0 0 253
0 0 254
0 0 252
0 0 249
0 0 252
0 0 248
0 0 248
0 0 252
0 0 249
0 0 252
0 0 249
0 0 252
0 0 253
0 0 250
0 0 252
0 0 244
0 0 250
0 0 254
0 0 248
0 0 248
0 0 249
0 0 249
0 0 254
0 0 249
0 0 248
0 0 250
0 0 249
0 0 248
0 0 250
0 0 252
0 0 249
0 0 248
0 0 253
0 0 248
0 0 252
0 0 246
0 0 250
0 0 245
0 0 248
0 0 249
0 0 244
0 0 240
0 0 246
0 0 244
0 0 249
0 0 242
0 0 248
0 0 244
0 0 234
0 0 246
0 0 237
0 0 237
0 0 245
0 0 245
0 0 241
0 0 236
0 0 241
0 0 241
0 0 242
0 0 240
0 0 242
0 0 245
0 0 246
0 0 244
0 0 241
0 0 244
0 0 231
0 0 228
0 0 236
0 0 241
0 0 233
0 0 231
0 0 221
0 0 240
0 0 236
0 0 234
0 0 231
0 0 228
0 0 237
0 0 224
0 0 221
0 0 228
0 0 231
0 0 230
0 0 236
0 0 223
0 0 228
0 0 226
0 0 218
0 0 212
0 0 212
0 0 209
0 0 224
0 0 203
0 0 217
0 0 204
0 0 223
0 0 207
0 0 207
0 0 206
0 0 203
0 0 203
0 0 199
0 0 189
0 0 188
0 0 189
0 0 186
0 0 182
0 0 186
0 0 186
0 0 167
0 0 155
0 0 144
0 0 144
0 0 130
0 0 99
0 0 105
148 158 177
155 157 171
76 0 0
88 0 0
91 0 0
120 0 0
126 0 0
131 0 0
130 0 0
148 0 0
146 0 0
151 0 0
164 0 0
151 0 0
167 0 0
153 0 0
166 0 0
156 0 0
163 0 0
170 0 0
178 0 0
166 0 0
172 0 0
180 0 0
186 0 0
179 0 0
189 0 0
189 0 0
182 0 0
193 0 0
190 0 0
194 0 0
195 0 0
183 0 0
197 0 0
205 0 0
202 0 0
199 0 0
191 0 0
199 0 0
204 0 0
197 0 0
202 0 0
205 0 0
203 0 0
199 0 0
195 0 0
201 0 0
199 0 0
209 0 0
200 0 0
208 0 0
207 0 0
205 0 0
207 0 0
210 0 0
199 0 0
208 0 0
201 0 0
200 0 0
204 0 0
208 0 0
211 0 0
210 0 0
211 0 0
216 0 0
213 0 0
211 0 0
203 0 0
211 0 0
200 0 0
206 0 0
206 0 0
215 0 0
209 0 0
211 0 0
209 0 0
205 0 0
215 0 0
212 0 0
205 0 0
213 0 0
215 0 0
215 0 0
205 0 0
215 0 0
210 0 0
214 0 0
213 0 0
210 0 0
213 0 0
218 0 0
211 0 0
215 0 0
212 0 0
217 0 0
213 0 0
214 0 0
215 0 0
219 0 0
212 0 0
219 0 0
215 0 0
214 0 0
216 0 0
213 0 0
221 0 0
218 0 0
214 0 0
214 0 0
214 0 0
214 0 0
223 0 0
214 0 0
215 0 0
212 0 0
212 0 0
218 0 0
215 0 0
220 0 0
214 0 0
216 0 0
218 0 0
217 0 0
216 0 0
218 0 0
218 0 0
221 0 0
216 0 0
217 0 0
222 0 0
220 0 0
221 0 0
216 0 0
216 0 0
222 0 0
219 0 0
217 0 0
222 0 0
218 0 0
222 0 0
219 0 0
221 0 0
215 0 0
221 0 0
220 0 0
222 0 0
217 0 0
218 0 0
220 0 0
219 0 0
218 0 0
223 0 0
222 0 0
221 0 0
220 0 0
220 0 0
215 0 0
220 0 0
218 0 0
216 0 0
219 0 0
218 0 0
219 0 0
220 0 0
216 0 0
217 0 0
217 0 0
224 0 0
217 0 0
220 0 0
218 0 0
221 0 0
219 0 0
217 0 0
224 0 0
216 0 0
222 0 0
221 0 0
220 0 0
218 0 0
220 0 0
220 0 0
220 0 0
219 0 0
223 0 0
220 0 0
217 0 0
220 0 0
218 0 0
222 0 0
219 0 0
219 0 0
223 0 0
223 0 0
219 0 0
222 0 0
220 0 0
221 0 0
220 0 0
221 0 0
0 0 254
0 0 255
0 0 254
0 0 255
0 0 255
0 0 254
0 0 254
0 0 255
0 0 254
0 0 254
0 0 254
0 0 253
0 0 255
0 0 255
0 0 255
0 0 255
0 0 255
0 0 254
0 0 255
0 0 255
0 0 254
0 0 253
0 0 255
0 0 254
0 0 255
0 0 253
0 0 253
0 0 253
0 0 253
0 0 255
0 0 252
0 0 253
0 0 254
0 0 253
0 0 255
0 0 252
0 0 252
0 0 254
0 0 254
0 0 253
0 0 254
0 0 254
0 0 254
0 0 254
0 0 255
0 0 255
0 0 255
0 0 254
0 0 252
0 0 255
0 0 253
0 0 252
0 0 252
0 0 252
0 0 254
0 0 254
0 0 255
0 0 253
0 0 253
0 0 253
0 0 254
0 0 252
0 0 252
0 0 252
0 0 253
0 0 252
0 0 252
0 0 246
0 0 252
0 0 252
0 0 254
0 0 248
0 0 252
0 0 253
0 0 250
0 0 252
0 0 249
0 0 249
0 0 253
0 0 250
0 0 255
0 0 246
0 0 246
0 0 252
0 0 252
0 0 246
0 0 253
0 0 254
0 0 252
0 0 250
0 0 249
0 0 253
0 0 254
0 0 249
0 0 248
0 0 253
0 0 249
0 0 250
0 0 253
0 0 252
0 0 246
0 0 245
0 0 253
0 0 248
0 0 249
0 0 252
0 0 248
0 0 246
0 0 252
0 0 248
0 0 253
0 0 248
0 0 245
0 0 246
0 0 248
0 0 248
0 0 250
0 0 248
0 0 249
0 0 240
0 0 249
0 0 246
0 0 250
0 0 245
0 0 245
0 0 244
0 0 250
0 0 246
0 0 240
0 0 248
0 0 248
0 0 248
0 0 245
0 0 237
0 0 244
0 0 245
0 0 241
0 0 244
0 0 245
0 0 244
0 0 244
0 0 241
0 0 228
0 0 245
0 0 231
0 0 242
0 0 237
0 0 233
0 0 242
0 0 236
0 0 240
0 0 246
0 0 242
0 0 227
0 0 241
0 0 224
0 0 231
0 0 226
0 0 233
0 0 220
0 0 226
0 0 234
0 0 221
0 0 227
0 0 224
0 0 227
0 0 215
0 0 217
0 0 226
0 0 224
0 0 221
0 0 215
0 0 224
0 0 221
0 0 224
0 0 217
0 0 217
0 0 217
0 0 212
0 0 217
0 0 198
0 0 196
0 0 206
0 0 207
0 0 201
0 0 188
0 0 186
0 0 198
0 0 186
0 0 167
0 0 157
0 0 177
0 0 153
0 0 159
0 0 153
0 0 125
0 0 137
0 0 108
0 0 102
145 155 177
144 150 163
60 0 0
65 0 0
101 0 0
131 0 0
127 0 0
134 0 0
144 0 0
154 0 0
153 0 0
153 0 0
162 0 0
140 0 0
165 0 0
170 0 0
158 0 0
171 0 0
179 0 0
165 0 0
171 0 0
178 0 0
168 0 0
181 0 0
181 0 0
176 0 0
188 0 0
166 0 0
188 0 0
192 0 0
190 0 0
192 0 0
186 0 0
199 0 0
195 0 0
196 0 0
193 0 0
197 0 0
197 0 0
197 0 0
200 0 0
199 0 0
196 0 0
203 0 0
195 0 0
200 0 0
202 0 0
205 0 0
204 0 0
197 0 0
207 0 0
204 0 0
207 0 0
196 0 0
205 0 0
213 0 0
207 0 0
199 0 0
206 0 0
205 0 0
216 0 0
214 0 0
212 0 0
209 0 0
209 0 0
208 0 0
211 0 0
211 0 0
212 0 0
203 0 0
207 0 0
211 0 0
208 0 0
217 0 0
211 0 0
211 0 0
212 0 0
216 0 0
214 0 0
210 0 0
213 0 0
211 0 0
208 0 0
212 0 0
211 0 0
216 0 0
209 0 0
212 0 0
219 0 0
218 0 0
216 0 0
210 0 0
215 0 0
212 0 0
212 0 0
216 0 0
216 0 0
215 0 0
215 0 0
220 0 0
218 0 0
213 0 0
215 0 0
214 0 0
219 0 0
215 0 0
219 0 0
217 0 0
218 0 0
213 0 0
214 0 0
212 0 0
214 0 0
211 0 0
213 0 0
220 0 0
218 0 0
221 0 0
219 0 0
214 0 0
215 0 0
216 0 0
221 0 0
216 0 0
219 0 0
219 0 0
215 0 0
216 0 0
218 0 0
221 0 0
216 0 0
218 0 0
216 0 0
218 0 0
222 0 0
214 0 0
210 0 0
215 0 0
218 0 0
217 0 0
216 0 0
218 0 0
214 0 0
217 0 0
218 0 0
218 0 0
213 0 0
221 0 0
219 0 0
219 0 0
219 0 0
219 0 0
220 0 0
221 0 0
223 0 0
216 0 0
219 0 0
218 0 0
217 0 0
224 0 0
219 0 0
217 0 0
215 0 0
220 0 0
220 0 0
217 0 0
222 0 0
217 0 0
219 0 0
221 0 0
217 0 0
218 0 0
221 0 0
217 0 0
218 0 0
220 0 0
220 0 0
218 0 0
218 0 0
222 0 0
220 0 0
219 0 0
220 0 0
220 0 0
218 0 0
219 0 0
219 0 0
221 0 0
215 0 0
217 0 0
218 0 0
220 0 0
225 0 0
219 0 0
219 0 0
218 0 0
220 0 0
220 0 0
221 0 0
221 0 0
218 0 0
0 0 253
0 0 254
0 0 255
0 0 255
0 0 255
0 0 255
0 0 255
0 0 253
0 0 255
0 0 254
0 0 254
0 0 254
0 0 255
0 0 254
0 0 254
0 0 255
0 0 255
0 0 254
0 0 255
0 0 255
0 0 254
0 0 255
0 0 255
0 0 253
0 0 254
0 0 255
0 0 254
0 0 253
0 0 253
0 0 253
0 0 252
0 0 255
0 0 254
0 0 254
0 0 253
0 0 253
0 0 253
0 0 253
0 0 253
0 0 255
0 0 254
0 0 254
0 0 252
0 0 255
0 0 255
0 0 253
0 0 255
0 0 254
0 0 252
0 0 255
0 0 253
0 0 253
0 0 250
0 0 255
0 0 253
0 0 252
0 0 254
0 0 255
0 0 254
0 0 252
0 0 253
0 0 252
0 0 253
0 0 253
0 0 253
0 0 248
0 0 253
0 0 255
0 0 253
0 0 252
0 0 253
0 0 254
0 0 254
0 0 253
0 0 245
0 0 252
0 0 248
0 0 250
0 0 252
0 0 253
0 0 255
0 0 252
0 0 253
0 0 253
0 0 250
0 0 254
0 0 248
0 0 250
0 0 248
0 0 245
0 0 250
0 0 252
0 0 249
0 0 253
0 0 252
0 0 252
0 0 252
0 0 249
0 0 249
0 0 248
0 0 246
0 0 250
0 0 249
0 0 248
0 0 246
0 0 250
0 0 248
0 0 246
0 0 252
0 0 246
0 0 246
0 0 246
0 0 244
0 0 242
0 0 254
0 0 245
0 0 249
0 0 246
0 0 248
0 0 244
0 0 246
0 0 241
0 0 249
0 0 249
0 0 246
0 0 245
0 0 246
0 0 228
0 0 248
0 0 246
0 0 240
0 0 246
0 0 242
0 0 244
0 0 248
0 0 241
0 0 249
0 0 246
0 0 236
0 0 245
0 0 237
0 0 242
0 0 236
0 0 240
0 0 238
0 0 234
0 0 233
0 0 238
0 0 231
0 0 236
0 0 237
0 0 231
0 0 230
0 0 241
0 0 234
0 0 238
0 0 223
0 0 234
0 0 238
0 0 237
0 0 227
0 0 237
0 0 236
0 0 231
0 0 226
0 0 234
0 0 234
0 0 226
0 0 228
0 0 211
0 0 214
0 0 209
0 0 209
0 0 214
0 0 217
0 0 209
0 0 212
0 0 215
0 0 221
0 0 193
0 0 196
0 0 199
0 0 217
0 0 207
0 0 188
0 0 191
0 0 182
0 0 184
0 0 186
0 0 188
0 0 189
0 0 163
0 0 163
0 0 142
0 0 135
0 0 142
0 0 135
0 0 72
0 0 84
131 140 159
133 136 149
57 0 0
100 0 0
109 0 0
116 0 0
108 0 0
131 0 0
131 0 0
151 0 0
124 0 0
153 0 0
157 0 0
169 0 0
161 0 0
162 0 0
164 0 0
165 0 0
167 0 0
176 0 0
170 0 0
183 0 0
180 0 0
175 0 0
168 0 0
188 0 0
186 0 0
186 0 0
189 0 0
192 0 0
200 0 0
193 0 0
191 0 0
207 0 0
198 0 0
192 0 0
192 0 0
203 0 0
191 0 0
208 0 0
195 0 0
197 0 0
191 0 0
197 0 0
202 0 0
200 0 0
200 0 0
210 0 0
201 0 0
199 0 0
206 0 0
210 0 0
208 0 0
206 0 0
206 0 0
206 0 0
199 0 0
201 0 0
207 0 0
201 0 0
203 0 0
213 0 0
210 0 0
205 0 0
210 0 0
207 0 0
206 0 0
210 0 0
206 0 0
208 0 0
207 0 0
213 0 0
206 0 0
213 0 0
209 0 0
210 0 0
207 0 0
210 0 0
212 0 0
211 0 0
206 0 0
213 0 0
213 0 0
214 0 0
208 0 0
215 0 0
209 0 0
212 0 0
215 0 0
214 0 0
208 0 0
214 0 0
212 0 0
215 0 0
213 0 0
216 0 0
218 0 0
214 0 0
214 0 0
206 0 0
213 0 0
212 0 0
219 0 0
213 0 0
213 0 0
213 0 0
212 0 0
214 0 0
217 0 0
218 0 0
220 0 0
217 0 0
217 0 0
213 0 0
217 0 0
218 0 0
215 0 0
217 0 0
209 0 0
215 0 0
216 0 0
221 0 0
220 0 0
216 0 0
214 0 0
216 0 0
220 0 0
212 0 0
220 0 0
219 0 0
219 0 0
221 0 0
220 0 0
215 0 0
221 0 0
219 0 0
219 0 0
215 0 0
218 0 0
217 0 0
219 0 0
221 0 0
218 0 0
217 0 0
220 0 0
221 0 0
217 0 0
222 0 0
215 0 0
217 0 0
224 0 0
217 0 0
217 0 0
217 0 0
216 0 0
219 0 0
218 0 0
219 0 0
221 0 0
218 0 0
220 0 0
218 0 0
220 0 0
214 0 0
221 0 0
221 0 0
223 0 0
220 0 0
224 0 0
219 0 0
217 0 0
218 0 0
219 0 0
221 0 0
217 0 0
217 0 0
219 0 0
221 0 0
220 0 0
218 0 0
220 0 0
221 0 0
219 0 0
220 0 0
222 0 0
220 0 0
220 0 0
216 0 0
220 0 0
218 0 0
220 0 0
218 0 0
221 0 0
222 0 0
220 0 0
223 0 0
222 0 0
219 0 0
222 0 0
219 0 0
221 0 0
0 0 255
0 0 255
0 0 255
0 0 255
0 0 254
0 0 255
0 0 254
0 0 252
0 0 254
0 0 255
0 0 254
0 0 254
0 0 255
0 0 255
0 0 254
0 0 254
0 0 255
0 0 253
0 0 255
0 0 254
0 0 253
0 0 254
0 0 255
0 0 255
0 0 253
0 0 254
0 0 254
0 0 254
0 0 255
0 0 255
0 0 254
0 0 255
0 0 253
0 0 254
0 0 255
0 0 254
0 0 255
0 0 254
0 0 253
0 0 254
0 0 250
0 0 255
0 0 254
0 0 254
0 0 253
0 0 253
0 0 255
0 0 253
0 0 254
0 0 253
0 0 253
0 0 255
0 0 254
0 0 254
0 0 254
0 0 254
0 0 254
0 0 252
0 0 252
0 0 250
0 0 253
0 0 252
0 0 252
0 0 253
0 0 252
0 0 250
0 0 254
0 0 249
0 0 253
0 0 252
0 0 252
0 0 250
0 0 250
0 0 249
0 0 253
0 0 253
0 0 253
0 0 253
0 0 248
0 0 250
0 0 249
0 0 246
0 0 249
0 0 252
0 0 254
0 0 252
0 0 250
0 0 249
0 0 250
0 0 250
0 0 253
0 0 253
0 0 250
0 0 253
0 0 248
0 0 248
0 0 250
0 0 250
0 0 250
0 0 252
0 0 246
0 0 249
0 0 253
0 0 252
0 0 252
0 0 245
0 0 249
0 0 248
0 0 248
0 0 248
0 0 248
0 0 254
0 0 249
0 0 248
0 0 248
0 0 242
0 0 248
0 0 245
0 0 248
0 0 244
0 0 246
0 0 241
0 0 253
0 0 245
0 0 234
0 0 253
0 0 246
0 0 240
0 0 245
0 0 245
0 0 242
0 0 242
0 0 238
0 0 242
0 0 245
0 0 246
0 0 240
0 0 242
0 0 244
0 0 236
0 0 230
0 0 237
0 0 246
0 0 241
0 0 242
0 0 240
0 0 240
0 0 238
0 0 234
0 0 234
0 0 233
0 0 234
0 0 244
0 0 237
0 0 237
0 0 228
0 0 233
0 0 233
0 0 231
0 0 233
0 0 237
0 0 231
0 0 224
0 0 231
0 0 238
0 0 230
0 0 227
0 0 228
0 0 218
0 0 212
0 0 230
0 0 227
0 0 226
0 0 212
0 0 207
0 0 218
0 0 221
0 0 218
0 0 215
0 0 191
0 0 212
0 0 194
0 0 196
0 0 201
0 0 194
0 0 199
0 0 188
0 0 179
0 0 184
0 0 182
0 0 167
0 0 177
0 0 153
0 0 142
0 0 140
0 0 147
0 0 147
0 0 133
0 0 76
118 126 147
116 117 128
76 0 0
89 0 0
108 0 0
122 0 0
127 0 0
131 0 0
138 0 0
143 0 0
148 0 0
155 0 0
168 0 0
163 0 0
159 0 0
168 0 0
164 0 0
175 0 0
165 0 0
170 0 0
174 0 0
175 0 0
174 0 0
186 0 0
180 0 0
178 0 0
186 0 0
181 0 0
181 0 0
195 0 0
197 0 0
194 0 0
187 0 0
187 0 0
189 0 0
192 0 0
195 0 0
202 0 0
201 0 0
200 0 0
198 0 0
203 0 0
202 0 0
203 0 0
210 0 0
200 0 0
202 0 0
212 0 0
204 0 0
207 0 0
204 0 0
213 0 0
198 0 0
209 0 0
205 0 0
207 0 0
195 0 0
211 0 0
211 0 0
212 0 0
207 0 0
212 0 0
210 0 0
213 0 0
209 0 0
206 0 0
206 0 0
209 0 0
211 0 0
205 0 0
207 0 0
212 0 0
212 0 0
213 0 0
206 0 0
211 0 0
216 0 0
216 0 0
208 0 0
206 0 0
214 0 0
214 0 0
214 0 0
211 0 0
212 0 0
216 0 0
217 0 0
208 0 0
213 0 0
213 0 0
214 0 0
211 0 0
207 0 0
217 0 0
211 0 0
216 0 0
210 0 0
215 0 0
208 0 0
215 0 0
218 0 0
213 0 0
215 0 0
220 0 0
215 0 0
218 0 0
219 0 0
216 0 0
218 0 0
215 0 0
213 0 0
216 0 0
217 0 0
218 0 0
217 0 0
221 0 0
216 0 0
213 0 0
220 0 0
217 0 0
221 0 0
216 0 0
211 0 0
221 0 0
218 0 0
215 0 0
218 0 0
220 0 0
214 0 0
216 0 0
217 0 0
214 0 0
217 0 0
217 0 0
220 0 0
216 0 0
219 0 0
219 0 0
217 0 0
218 0 0
221 0 0
222 0 0
218 0 0
220 0 0
216 0 0
217 0 0
218 0 0
219 0 0
217 0 0
218 0 0
218 0 0
219 0 0
220 0 0
219 0 0
220 0 0
220 0 0
217 0 0
222 0 0
219 0 0
218 0 0
221 0 0
219 0 0
220 0 0
220 0 0
219 0 0
220 0 0
221 0 0
217 0 0
219 0 0
221 0 0
220 0 0
220 0 0
220 0 0
219 0 0
219 0 0
219 0 0
219 0 0
220 0 0
217 0 0
220 0 0
219 0 0
219 0 0
223 0 0
219 0 0
223 0 0
215 0 0
218 0 0
225 0 0
221 0 0
221 0 0
219 0 0
220 0 0
222 0 0
219 0 0
219 0 0
217 0 0
220 0 0
219 0 0
219 0 0
224 0 0
219 0 0
0 0 254
0 0 255
0 0 255
0 0 254
0 0 254
0 0 255
0 0 255
0 0 255
0 0 255
0 0 255
0 0 250
0 0 253
0 0 255
0 0 255
0 0 254
0 0 255
0 0 253
0 0 255
0 0 254
0 0 255
0 0 255
0 0 254
0 0 254
0 0 254
0 0 253
0 0 255
0 0 254
0 0 255
0 0 253
0 0 255
0 0 255
0 0 255
0 0 254
0 0 255
0 0 254
0 0 254
0 0 250
0 0 255
0 0 253
0 0 254
0 0 252
0 0 254
0 0 253
0 0 253
0 0 253
0 0 253
0 0 253
0 0 254
0 0 255
0 0 254
0 0 254
0 0 252
0 0 253
0 0 253
0 0 253
0 0 252
0 0 254
0 0 250
0 0 254
0 0 254
0 0 253
0 0 255
0 0 253
0 0 252
0 0 250
0 0 253
0 0 250
0 0 253
0 0 246
0 0 253
0 0 254
0 0 250
0 0 253
0 0 253
0 0 253
0 0 249
0 0 255
0 0 253
0 0 252
0 0 248
0 0 254
0 0 252
0 0 252
0 0 249
0 0 253
0 0 248
0 0 252
0 0 248
0 0 250
0 0 249
0 0 252
0 0 249
0 0 252
0 0 253
0 0 252
0 0 248
0 0 253
0 0 250
0 0 246
0 0 250
0 0 250
0 0 250
0 0 249
0 0 248
0 0 249
0 0 249
0 0 244
0 0 246
0 0 245
0 0 246
0 0 248
0 0 244
0 0 245
0 0 249
0 0 246
0 0 246
0 0 248
0 0 244
0 0 245
0 0 248
0 0 248
0 0 248
0 0 245
0 0 246
0 0 245
0 0 245
0 0 246
0 0 250
0 0 242
0 0 249
0 0 248
0 0 237
0 0 244
0 0 248
0 0 244
0 0 238
0 0 241
0 0 246
0 0 236
0 0 242
0 0 242
0 0 238
0 0 241
0 0 241
0 0 246
0 0 233
0 0 233
0 0 237
0 0 238
0 0 233
0 0 233
0 0 231
0 0 228
0 0 249
0 0 242
0 0 236
0 0 236
0 0 236
0 0 231
0 0 228
0 0 226
0 0 227
0 0 226
0 0 236
0 0 220
0 0 214
0 0 230
0 0 218
0 0 214
0 0 214
0 0 218
0 0 217
0 0 228
0 0 198
0 0 220
0 0 221
0 0 204
0 0 212
0 0 204
0 0 206
0 0 204
0 0 204
0 0 204
0 0 206
0 0 196
0 0 201
0 0 173
0 0 163
0 0 169
0 0 182
0 0 181
0 0 167
0 0 169
0 0 142
0 0 142
0 0 149
0 0 117
0 0 133
0 0 80
93 99 122
106 105 114
65 0 0
97 0 0
100 0 0
119 0 0
129 0 0
137 0 0
121 0 0
160 0 0
137 0 0
150 0 0
157 0 0
162 0 0
163 0 0
159 0 0
170 0 0
174 0 0
181 0 0
171 0 0
191 0 0
179 0 0
164 0 0
167 0 0
180 0 0
188 0 0
172 0 0
183 0 0
169 0 0
182 0 0
173 0 0
186 0 0
184 0 0
203 0 0
181 0 0
191 0 0
202 0 0
201 0 0
203 0 0
201 0 0
204 0 0
201 0 0
195 0 0
206 0 0
191 0 0
184 0 0
194 0 0
205 0 0
197 0 0
203 0 0
196 0 0
203 0 0
202 0 0
204 0 0
202 0 0
207 0 0
207 0 0
208 0 0
209 0 0
212 0 0
216 0 0
198 0 0
208 0 0
209 0 0
205 0 0
206 0 0
207 0 0
209 0 0
209 0 0
211 0 0
211 0 0
210 0 0
211 0 0
210 0 0
209 0 0
214 0 0
209 0 0
210 0 0
208 0 0
207 0 0
211 0 0
214 0 0
216 0 0
213 0 0
206 0 0
212 0 0
217 0 0
209 0 0
211 0 0
213 0 0
218 0 0
215 0 0
213 0 0
215 0 0
206 0 0
217 0 0
214 0 0
214 0 0
215 0 0
216 0 0
218 0 0
219 0 0
219 0 0
213 0 0
218 0 0
221 0 0
214 0 0
209 0 0
217 0 0
216 0 0
219 0 0
216 0 0
212 0 0
218 0 0
214 0 0
217 0 0
216 0 0
212 0 0
214 0 0
218 0 0
214 0 0
220 0 0
214 0 0
219 0 0
214 0 0
217 0 0
219 0 0
215 0 0
211 0 0
221 0 0
220 0 0
215 0 0
218 0 0
217 0 0
218 0 0
218 0 0
218 0 0
221 0 0
220 0 0
218 0 0
215 0 0
222 0 0
219 0 0
217 0 0
216 0 0
219 0 0
221 0 0
222 0 0
220 0 0
218 0 0
221 0 0
220 0 0
217 0 0
217 0 0
217 0 0
219 0 0
217 0 0
222 0 0
221 0 0
220 0 0
220 0 0
222 0 0
224 0 0
222 0 0
224 0 0
221 0 0
220 0 0
217 0 0
219 0 0
222 0 0
220 0 0
218 0 0
214 0 0
219 0 0
219 0 0
220 0 0
218 0 0
218 0 0
223 0 0
218 0 0
221 0 0
220 0 0
216 0 0
222 0 0
218 0 0
221 0 0
219 0 0
219 0 0
215 0 0
220 0 0
223 0 0
220 0 0
221 0 0
218 0 0
221 0 0
219 0 0
222 0 0
217 0 0
221 0 0
223 0 0
223 0 0
0 0 254
0 0 253
0 0 255
0 0 254
0 0 255
0 0 255
0 0 255
0 0 254
0 0 254
0 0 254
0 0 254
0 0 255
0 0 255
0 0 255
0 0 255
0 0 255
0 0 254
0 0 255
0 0 254
0 0 254
0 0 254
0 0 254
0 0 254
0 0 249
0 0 254
0 0 254
0 0 255
0 0 252
0 0 254
0 0 252
0 0 254
0 0 253
0 0 254
0 0 252
0 0 255
0 0 254
0 0 254
0 0 255
0 0 253
0 0 254
0 0 252
0 0 252
0 0 252
0 0 255
0 0 253
0 0 253
0 0 253
0 0 252
0 0 255
0 0 253
0 0 253
0 0 254
0 0 254
0 0 253
0 0 249
0 0 252
0 0 252
0 0 255
0 0 254
0 0 252
0 0 253
0 0 246
0 0 253
0 0 252
0 0 254
0 0 252
0 0 253
0 0 253
0 0 250
0 0 252
0 0 253
0 0 253
0 0 253
0 0 252
0 0 252
0 0 250
0 0 249
0 0 254
0 0 250
0 0 245
0 0 253
0 0 252
0 0 250
0 0 252
0 0 252
0 0 252
0 0 253
0 0 250
0 0 252
0 0 250
0 0 254
0 0 253
0 0 249
0 0 246
0 0 246
0 0 246
0 0 250
0 0 245
0 0 252
0 0 252
0 0 250
0 0 248
0 0 245
0 0 252
0 0 250
0 0 252
0 0 249
0 0 248
0 0 250
0 0 246
0 0 249
0 0 248
0 0 250
0 0 248
0 0 248
0 0 244
0 0 250
0 0 249
0 0 246
0 0 236
0 0 245
0 0 249
0 0 246
0 0 248
0 0 237
0 0 246
0 0 246
0 0 245
0 0 249
0 0 246
0 0 238
0 0 245
0 0 250
0 0 242
0 0 245
0 0 245
0 0 241
0 0 245
0 0 245
0 0 244
0 0 242
0 0 244
0 0 228
0 0 246
0 0 233
0 0 244
0 0 237
0 0 240
0 0 234
0 0 236
0 0 240
0 0 240
0 0 234
0 0 234
0 0 236
0 0 234
0 0 237
0 0 236
0 0 233
0 0 226
0 0 244
0 0 228
0 0 231
0 0 227
0 0 233
0 0 228
0 0 231
0 0 218
0 0 238
0 0 230
0 0 236
0 0 218
0 0 215
0 0 221
0 0 217
0 0 214
0 0 215
0 0 218
0 0 218
0 0 223
0 0 191
0 0 196
0 0 203
0 0 188
0 0 203
0 0 199
0 0 186
0 0 189
0 0 171
0 0 169
0 0 165
0 0 167
0 0 182
0 0 159
0 0 155
0 0 142
0 0 125
0 0 95
0 0 80
73 78 92
92 91 99
66 0 0
106 0 0
123 0 0
118 0 0
136 0 0
127 0 0
147 0 0
145 0 0
145 0 0
144 0 0
165 0 0
158 0 0
172 0 0
169 0 0
150 0 0
170 0 0
169 0 0
172 0 0
183 0 0
182 0 0
193 0 0
183 0 0
179 0 0
189 0 0
182 0 0
187 0 0
171 0 0
188 0 0
184 0 0
191 0 0
189 0 0
197 0 0
192 0 0
193 0 0
192 0 0
201 0 0
195 0 0
202 0 0
200 0 0
203 0 0
195 0 0
203 0 0
191 0 0
200 0 0
205 0 0
199 0 0
203 0 0
205 0 0
201 0 0
212 0 0
209 0 0
209 0 0
210 0 0
207 0 0
213 0 0
199 0 0
202 0 0
198 0 0
212 0 0
203 0 0
205 0 0
203 0 0
205 0 0
204 0 0
205 0 0
210 0 0
214 0 0
214 0 0
215 0 0
213 0 0
207 0 0
215 0 0
213 0 0
212 0 0
216 0 0
212 0 0
204 0 0
211 0 0
214 0 0
210 0 0
212 0 0
210 0 0
214 0 0
214 0 0
215 0 0
217 0 0
208 0 0
213 0 0
221 0 0
216 0 0
213 0 0
214 0 0
214 0 0
213 0 0
213 0 0
207 0 0
214 0 0
215 0 0
217 0 0
222 0 0
215 0 0
216 0 0
219 0 0
215 0 0
214 0 0
219 0 0
217 0 0
221 0 0
215 0 0
217 0 0
215 0 0
216 0 0
215 0 0
215 0 0
218 0 0
215 0 0
216 0 0
216 0 0
211 0 0
221 0 0
218 0 0
217 0 0
222 0 0
220 0 0
221 0 0
214 0 0
221 0 0
219 0 0
218 0 0
219 0 0
223 0 0
218 0 0
219 0 0
214 0 0
217 0 0
218 0 0
220 0 0
220 0 0
219 0 0
219 0 0
217 0 0
219 0 0
218 0 0
217 0 0
220 0 0
217 0 0
221 0 0
219 0 0
220 0 0
221 0 0
216 0 0
224 0 0
219 0 0
219 0 0
215 0 0
219 0 0
220 0 0
218 0 0
216 0 0
220 0 0
221 0 0
219 0 0
221 0 0
216 0 0
220 0 0
221 0 0
219 0 0
224 0 0
220 0 0
222 0 0
215 0 0
219 0 0
223 0 0
221 0 0
216 0 0
220 0 0
223 0 0
221 0 0
222 0 0
219 0 0
222 0 0
222 0 0
223 0 0
221 0 0
220 0 0
221 0 0
218 0 0
222 0 0
220 0 0
224 0 0
223 0 0
220 0 0
220 0 0
221 0 0
221 0 0
223 0 0
218 0 0
222 0 0
221 0 0
0 0 255
0 0 255
0 0 254
0 0 254
0 0 253
0 0 255
0 0 253
0 0 255
0 0 254
0 0 253
0 0 253
0 0 254
0 0 254
0 0 254
0 0 255
0 0 255
0 0 252
0 0 254
0 0 255
0 0 255
0 0 250
0 0 255
0 0 255
0 0 254
0 0 255
0 0 253
0 0 254
0 0 253
0 0 252
0 0 253
0 0 254
0 0 254
0 0 254
0 0 250
0 0 254
0 0 254
0 0 255
0 0 253
0 0 250
0 0 255
0 0 255
0 0 253
0 0 255
0 0 254
0 0 252
0 0 253
0 0 253
0 0 254
0 0 253
0 0 254
0 0 249
0 0 255
0 0 254
0 0 254
0 0 253
0 0 254
0 0 254
0 0 254
0 0 252
0 0 253
0 0 254
0 0 253
0 0 249
0 0 253
0 0 254
0 0 255
0 0 253
0 0 249
0 0 252
0 0 248
0 0 250
0 0 250
0 0 253
0 0 254
0 0 250
0 0 249
0 0 255
0 0 253
0 0 249
0 0 249
0 0 252
0 0 252
0 0 253
0 0 248
0 0 250
0 0 252
0 0 250
0 0 252
0 0 246
0 0 252
0 0 248
0 0 250
0 0 254
0 0 250
0 0 248
0 0 249
0 0 241
0 0 250
0 0 242
0 0 249
0 0 250
0 0 248
0 0 246
0 0 246
0 0 244
0 0 246
0 0 246
0 0 250
0 0 249
0 0 248
0 0 246
0 0 246
0 0 246
0 0 249
0 0 246
0 0 248
0 0 246
0 0 241
0 0 252
0 0 246
0 0 246
0 0 246
0 0 240
0 0 252
0 0 248
0 0 246
0 0 245
0 0 245
0 0 249
0 0 244
0 0 248
0 0 245
0 0 248
0 0 244
0 0 240
0 0 238
0 0 244
0 0 241
0 0 237
0 0 234
0 0 244
0 0 242
0 0 230
0 0 238
0 0 240
0 0 242
0 0 231
0 0 234
0 0 236
0 0 234
0 0 238
0 0 233
0 0 228
0 0 234
0 0 223
0 0 233
0 0 228
0 0 237
0 0 228
0 0 233
0 0 223
0 0 221
0 0 236
0 0 234
0 0 223
0 0 223
0 0 223
0 0 224
0 0 231
0 0 212
0 0 220
0 0 230
0 0 218
0 0 215
0 0 215
0 0 221
0 0 207
0 0 212
0 0 212
0 0 206
0 0 209
0 0 201
0 0 203
0 0 193
0 0 196
0 0 186
0 0 186
0 0 171
0 0 177
0 0 186
0 0 182
0 0 165
0 0 163
0 0 163
0 0 149
0 0 130
0 0 111
0 0 117
0 0 84
58 62 84
84 62 67
88 0 0
92 0 0
97 0 0
118 0 0
128 0 0
120 0 0
131 0 0
151 0 0
144 0 0
154 0 0
156 0 0
164 0 0
162 0 0
164 0 0
162 0 0
174 0 0
173 0 0
176 0 0
180 0 0
165 0 0
192 0 0
169 0 0
184 0 0
189 0 0
189 0 0
195 0 0
184 0 0
201 0 0
189 0 0
197 0 0
205 0 0
192 0 0
201 0 0
204 0 0
201 0 0
201 0 0
190 0 0
201 0 0
197 0 0
201 0 0
194 0 0
196 0 0
200 0 0
201 0 0
204 0 0
201 0 0
204 0 0
199 0 0
208 0 0
207 0 0
197 0 0
212 0 0
204 0 0
214 0 0
204 0 0
206 0 0
210 0 0
210 0 0
211 0 0
202 0 0
198 0 0
206 0 0
202 0 0
213 0 0
207 0 0
197 0 0
214 0 0
203 0 0
207 0 0
209 0 0
214 0 0
205 0 0
209 0 0
210 0 0
205 0 0
206 0 0
211 0 0
207 0 0
214 0 0
216 0 0
212 0 0
217 0 0
218 0 0
217 0 0
214 0 0
214 0 0
217 0 0
214 0 0
216 0 0
213 0 0
217 0 0
214 0 0
213 0 0
219 0 0
220 0 0
210 0 0
215 0 0
217 0 0
220 0 0
222 0 0
212 0 0
215 0 0
209 0 0
214 0 0
219 0 0
214 0 0
220 0 0
219 0 0
218 0 0
215 0 0
210 0 0
216 0 0
219 0 0
221 0 0
217 0 0
216 0 0
217 0 0
215 0 0
219 0 0
221 0 0
218 0 0
220 0 0
208 0 0
220 0 0
223 0 0
216 0 0
219 0 0
222 0 0
219 0 0
217 0 0
219 0 0
217 0 0
218 0 0
219 0 0
216 0 0
215 0 0
220 0 0
218 0 0
221 0 0
222 0 0
217 0 0
219 0 0
213 0 0
219 0 0
218 0 0
216 0 0
221 0 0
219 0 0
223 0 0
218 0 0
223 0 0
216 0 0
222 0 0
217 0 0
216 0 0
216 0 0
222 0 0
217 0 0
219 0 0
221 0 0
218 0 0
216 0 0
223 0 0
219 0 0
218 0 0
220 0 0
221 0 0
223 0 0
220 0 0
219 0 0
217 0 0
220 0 0
219 0 0
218 0 0
220 0 0
221 0 0
219 0 0
221 0 0
215 0 0
222 0 0
219 0 0
220 0 0
218 0 0
220 0 0
223 0 0
221 0 0
222 0 0
221 0 0
221 0 0
219 0 0
218 0 0
220 0 0
221 0 0
220 0 0
219 0 0
224 0 0
220 0 0
218 0 0
217 0 0
0 0 254
0 0 255
0 0 255
0 0 253
0 0 254
0 0 255
0 0 255
0 0 254
0 0 255
0 0 254
0 0 255
0 0 254
0 0 254
0 0 254
0 0 255
0 0 255
0 0 254
0 0 255
0 0 252
0 0 254
0 0 253
0 0 254
0 0 255
0 0 255
0 0 255
0 0 249
0 0 254
0 0 255
0 0 252
0 0 254
0 0 254
0 0 254
0 0 253
0 0 255
0 0 253
0 0 253
0 0 254
0 0 254
0 0 252
0 0 254
0 0 255
0 0 252
0 0 255
0 0 254
0 0 254
0 0 254
0 0 250
0 0 255
0 0 253
0 0 253
0 0 253
0 0 253
0 0 253
0 0 253
0 0 249
0 0 255
0 0 252
0 0 254
0 0 254
0 0 254
0 0 253
0 0 252
0 0 254
0 0 250
0 0 248
0 0 252
0 0 252
0 0 249
0 0 252
0 0 252
0 0 248
0 0 254
0 0 250
0 0 249
0 0 255
0 0 254
0 0 252
0 0 252
0 0 252
0 0 254
0 0 253
0 0 252
0 0 254
0 0 250
0 0 249
0 0 254
0 0 249
0 0 252
0 0 253
0 0 250
0 0 252
0 0 252
0 0 245
0 0 248
0 0 246
0 0 252
0 0 246
0 0 254
0 0 252
0 0 253
0 0 253
0 0 252
0 0 248
0 0 252
0 0 252
0 0 250
0 0 252
0 0 246
0 0 248
0 0 246
0 0 245
0 0 250
0 0 248
0 0 248
0 0 250
0 0 244
0 0 245
0 0 249
0 0 248
0 0 246
0 0 240
0 0 242
0 0 248
0 0 248
0 0 244
0 0 248
0 0 241
0 0 246
0 0 246
0 0 245
0 0 245
0 0 244
0 0 241
0 0 241
0 0 241
0 0 238
0 0 248
0 0 245
0 0 245
0 0 246
0 0 238
0 0 242
0 0 240
0 0 228
0 0 244
0 0 236
0 0 241
0 0 241
0 0 241
0 0 237
0 0 233
0 0 233
0 0 230
0 0 240
0 0 237
0 0 227
0 0 238
0 0 226
0 0 234
0 0 227
0 0 234
0 0 223
0 0 237
0 0 233
0 0 227
0 0 227
0 0 228
0 0 227
0 0 217
0 0 226
0 0 227
0 0 226
0 0 218
0 0 215
0 0 201
0 0 220
0 0 212
0 0 215
0 0 220
0 0 199
0 0 201
0 0 209
0 0 209
0 0 186
0 0 189
0 0 191
0 0 186
0 0 186
0 0 186
0 0 189
0 0 171
0 0 169
0 0 161
0 0 179
0 0 147
0 0 122
0 0 135
0 0 108
0 0 95
31 33 67
65 33 36
65 0 0
77 0 0
110 0 0
115 0 0
130 0 0
129 0 0
125 0 0
142 0 0
136 0 0
157 0 0
154 0 0
144 0 0
164 0 0
162 0 0
171 0 0
175 0 0
161 0 0
171 0 0
171 0 0
176 0 0
183 0 0
190 0 0
186 0 0
190 0 0
179 0 0
188 0 0
184 0 0
191 0 0
189 0 0
190 0 0
188 0 0
189 0 0
189 0 0
204 0 0
185 0 0
189 0 0
199 0 0
198 0 0
199 0 0
202 0 0
193 0 0
201 0 0
202 0 0
196 0 0
210 0 0
199 0 0
205 0 0
199 0 0
200 0 0
209 0 0
204 0 0
203 0 0
208 0 0
207 0 0
213 0 0
206 0 0
201 0 0
205 0 0
208 0 0
198 0 0
208 0 0
211 0 0
214 0 0
205 0 0
213 0 0
211 0 0
211 0 0
209 0 0
215 0 0
203 0 0
206 0 0
209 0 0
210 0 0
206 0 0
206 0 0
208 0 0
216 0 0
216 0 0
215 0 0
217 0 0
209 0 0
211 0 0
207 0 0
210 0 0
214 0 0
213 0 0
217 0 0
214 0 0
213 0 0
215 0 0
213 0 0
214 0 0
210 0 0
213 0 0
210 0 0
213 0 0
215 0 0
214 0 0
214 0 0
216 0 0
211 0 0
220 0 0
215 0 0
221 0 0
219 0 0
222 0 0
210 0 0
215 0 0
216 0 0
219 0 0
214 0 0
214 0 0
221 0 0
214 0 0
217 0 0
216 0 0
219 0 0
221 0 0
223 0 0
214 0 0
217 0 0
214 0 0
217 0 0
218 0 0
217 0 0
220 0 0
216 0 0
215 0 0
224 0 0
216 0 0
216 0 0
221 0 0
217 0 0
220 0 0
216 0 0
217 0 0
218 0 0
220 0 0
220 0 0
216 0 0
220 0 0
215 0 0
222 0 0
218 0 0
222 0 0
218 0 0
216 0 0
218 0 0
218 0 0
220 0 0
220 0 0
223 0 0
220 0 0
219 0 0
218 0 0
218 0 0
220 0 0
221 0 0
220 0 0
218 0 0
214 0 0
221 0 0
221 0 0
219 0 0
221 0 0
218 0 0
220 0 0
220 0 0
221 0 0
217 0 0
215 0 0
216 0 0
218 0 0
218 0 0
216 0 0
221 0 0
220 0 0
224 0 0
220 0 0
222 0 0
221 0 0
220 0 0
222 0 0
218 0 0
221 0 0
218 0 0
220 0 0
222 0 0
221 0 0
219 0 0
222 0 0
222 0 0
219 0 0
218 0 0
222 0 0
220 0 0
217 0 0
222 0 0
222 0 0
0 0 255
0 0 254
0 0 255
0 0 254
0 0 255
0 0 255
0 0 254
0 0 254
0 0 254
0 0 254
0 0 255
0 0 255
0 0 255
0 0 254
0 0 254
0 0 252
0 0 254
0 0 255
0 0 255
0 0 254
0 0 253
0 0 255
0 0 254
0 0 255
0 0 255
0 0 254
0 0 255
0 0 254
0 0 254
0 0 255
0 0 255
0 0 254
0 0 253
0 0 255
0 0 255
0 0 255
0 0 255
0 0 254
0 0 254
0 0 254
0 0 254
0 0 254
0 0 255
0 0 255
0 0 254
0 0 249
0 0 255
0 0 253
0 0 254
0 0 253
0 0 254
0 0 252
0 0 255
0 0 255
0 0 254
0 0 253
0 0 254
0 0 250
0 0 253
0 0 253
0 0 254
0 0 255
0 0 254
0 0 254
0 0 254
0 0 252
0 0 252
0 0 253
0 0 249
0 0 253
0 0 252
0 0 249
0 0 254
0 0 254
0 0 250
0 0 249
0 0 254
0 0 254
0 0 253
0 0 253
0 0 249
0 0 250
0 0 252
0 0 249
0 0 252
0 0 254
0 0 252
0 0 252
0 0 249
0 0 245
0 0 248
0 0 249
0 0 246
0 0 252
0 0 250
0 0 249
0 0 252
0 0 248
0 0 246
0 0 253
0 0 252
0 0 249
0 0 249
0 0 253
0 0 249
0 0 248
0 0 245
0 0 252
0 0 245
0 0 253
0 0 248
0 0 249
0 0 245
0 0 248
0 0 250
0 0 244
0 0 249
0 0 249
0 0 248
0 0 242
0 0 248
0 0 249
0 0 245
0 0 246
0 0 246
0 0 245
0 0 248
0 0 250
0 0 242
0 0 244
0 0 246
0 0 245
0 0 238
0 0 246
0 0 241
0 0 238
0 0 240
0 0 242
0 0 244
0 0 242
0 0 240
0 0 241
0 0 244
0 0 242
0 0 244
0 0 234
0 0 241
0 0 241
0 0 234
0 0 234
0 0 234
0 0 233
0 0 244
0 0 236
0 0 233
0 0 233
0 0 236
0 0 218
0 0 234
0 0 230
0 0 231
0 0 231
0 0 224
0 0 228
0 0 227
0 0 218
0 0 223
0 0 217
0 0 217
0 0 214
0 0 223
0 0 221
0 0 215
0 0 215
0 0 231
0 0 212
0 0 214
0 0 209
0 0 198
0 0 209
0 0 220
0 0 211
0 0 186
0 0 186
0 0 203
0 0 184
0 0 198
0 0 199
0 0 173
0 0 182
0 0 157
0 0 169
0 0 155
0 0 159
0 0 173
0 0 144
0 0 130
0 0 99
0 0 95
0 0 57
34 0 0
68 0 0
90 0 0
108 0 0
126 0 0
137 0 0
122 0 0
145 0 0
149 0 0
148 0 0
158 0 0
155 0 0
160 0 0
156 0 0
146 0 0
170 0 0
176 0 0
173 0 0
178 0 0
166 0 0
173 0 0
184 0 0
184 0 0
196 0 0
185 0 0
186 0 0
181 0 0
184 0 0
189 0 0
181 0 0
194 0 0
192 0 0
199 0 0
191 0 0
197 0 0
199 0 0
193 0 0
204 0 0
203 0 0
196 0 0
196 0 0
197 0 0
201 0 0
202 0 0
199 0 0
204 0 0
198 0 0
198 0 0
202 0 0
218 0 0
206 0 0
206 0 0
205 0 0
216 0 0
210 0 0
204 0 0
210 0 0
212 0 0
210 0 0
217 0 0
211 0 0
208 0 0
211 0 0
206 0 0
211 0 0
212 0 0
213 0 0
211 0 0
205 0 0
212 0 0
215 0 0
212 0 0
219 0 0
210 0 0
214 0 0
211 0 0
215 0 0
217 0 0
212 0 0
213 0 0
214 0 0
214 0 0
213 0 0
217 0 0
217 0 0
214 0 0
212 0 0
219 0 0
215 0 0
212 0 0
207 0 0
216 0 0
216 0 0
214 0 0
213 0 0
214 0 0
215 0 0
218 0 0
214 0 0
218 0 0
211 0 0
217 0 0
212 0 0
219 0 0
221 0 0
216 0 0
215 0 0
212 0 0
213 0 0
220 0 0
217 0 0
216 0 0
220 0 0
216 0 0
216 0 0
214 0 0
216 0 0
218 0 0
221 0 0
216 0 0
216 0 0
218 0 0
213 0 0
218 0 0
220 0 0
220 0 0
218 0 0
212 0 0
219 0 0
221 0 0
216 0 0
216 0 0
219 0 0
219 0 0
223 0 0
217 0 0
220 0 0
218 0 0
222 0 0
220 0 0
216 0 0
212 0 0
218 0 0
221 0 0
219 0 0
215 0 0
220 0 0
218 0 0
220 0 0
218 0 0
220 0 0
216 0 0
217 0 0
215 0 0
220 0 0
220 0 0
217 0 0
219 0 0
220 0 0
219 0 0
219 0 0
220 0 0
218 0 0
223 0 0
217 0 0
220 0 0
222 0 0
221 0 0
222 0 0
218 0 0
217 0 0
224 0 0
219 0 0
219 0 0
221 0 0
219 0 0
220 0 0
217 0 0
221 0 0
214 0 0
222 0 0
222 0 0
220 0 0
222 0 0
220 0 0
222 0 0
221 0 0
222 0 0
222 0 0
224 0 0
218 0 0
222 0 0
223 0 0
223 0 0
218 0 0
216 0 0
221 0 0
216 0 0
222 0 0
216 0 0
0 0 255
0 0 253
0 0 253
0 0 255
0 0 255
0 0 255
0 0 253
0 0 255
0 0 254
0 0 255
0 0 254
0 0 254
0 0 254
0 0 255
0 0 255
0 0 254
0 0 255
0 0 255
0 0 254
0 0 255
0 0 254
0 0 253
0 0 255
0 0 255
0 0 255
0 0 254
0 0 253
0 0 252
0 0 254
0 0 254
0 0 255
0 0 254
0 0 254
0 0 254
0 0 252
0 0 254
0 0 255
0 0 255
0 0 253
0 0 255
0 0 254
0 0 254
0 0 254
0 0 254
0 0 254
0 0 253
0 0 254
0 0 253
0 0 255
0 0 255
0 0 255
0 0 253
0 0 252
0 0 252
0 0 253
0 0 254
0 0 252
0 0 254
0 0 254
0 0 249
0 0 253
0 0 253
0 0 252
0 0 253
0 0 255
0 0 255
0 0 253
0 0 253
0 0 254
0 0 250
0 0 253
0 0 253
0 0 246
0 0 253
0 0 250
0 0 250
0 0 252
0 0 253
0 0 252
0 0 253
0 0 249
0 0 254
0 0 250
0 0 253
0 0 252
0 0 254
0 0 254
0 0 249
0 0 250
0 0 249
0 0 253
0 0 252
0 0 254
0 0 253
0 0 250
0 0 249
0 0 248
0 0 249
0 0 244
0 0 246
0 0 249
0 0 249
0 0 252
0 0 254
0 0 248
0 0 250
0 0 245
0 0 240
0 0 249
0 0 248
0 0 252
0 0 253
0 0 249
0 0 241
0 0 250
0 0 253
0 0 234
0 0 249
0 0 242
0 0 244
0 0 249
0 0 238
0 0 244
0 0 244
0 0 240
0 0 244
0 0 241
0 0 246
0 0 249
0 0 245
0 0 245
0 0 245
0 0 242
0 0 246
0 0 234
0 0 240
0 0 242
0 0 238
0 0 242
0 0 242
0 0 238
0 0 238
0 0 241
0 0 238
0 0 241
0 0 238
0 0 242
0 0 245
0 0 242
0 0 241
0 0 233
0 0 241
0 0 228
0 0 230
0 0 233
0 0 227
0 0 231
0 0 228
0 0 238
0 0 227
0 0 236
0 0 228
0 0 230
0 0 228
0 0 228
0 0 221
0 0 211
0 0 221
0 0 218
0 0 228
0 0 217
0 0 228
0 0 218
0 0 217
0 0 217
0 0 207
0 0 212
0 0 196
0 0 203
0 0 217
0 0 194
0 0 206
0 0 204
0 0 191
0 0 193
0 0 199
0 0 189
0 0 191
0 0 184
0 0 171
0 0 188
0 0 161
0 0 161
0 0 147
0 0 161
0 0 151
0 0 130
0 0 117
0 0 95
0 0 57
56 0 0
83 0 0
85 0 0
103 0 0
121 0 0
132 0 0
145 0 0
146 0 0
161 0 0
149 0 0
144 0 0
131 0 0
161 0 0
163 0 0
160 0 0
170 0 0
176 0 0
164 0 0
175 0 0
181 0 0
180 0 0
173 0 0
186 0 0
179 0 0
178 0 0
191 0 0
190 0 0
199 0 0
187 0 0
184 0 0
195 0 0
185 0 0
192 0 0
190 0 0
193 0 0
192 0 0
209 0 0
205 0 0
202 0 0
199 0 0
198 0 0
208 0 0
206 0 0
200 0 0
204 0 0
205 0 0
197 0 0
205 0 0
201 0 0
209 0 0
203 0 0
213 0 0
206 0 0
209 0 0
204 0 0
208 0 0
213 0 0
208 0 0
208 0 0
210 0 0
208 0 0
213 0 0
210 0 0
208 0 0
213 0 0
213 0 0
200 0 0
214 0 0
206 0 0
217 0 0
210 0 0
214 0 0
210 0 0
211 0 0
210 0 0
215 0 0
215 0 0
211 0 0
215 0 0
213 0 0
211 0 0
213 0 0
210 0 0
210 0 0
213 0 0
213 0 0
211 0 0
209 0 0
214 0 0
221 0 0
214 0 0
220 0 0
212 0 0
215 0 0
213 0 0
210 0 0
222 0 0
216 0 0
217 0 0
219 0 0
222 0 0
219 0 0
216 0 0
218 0 0
220 0 0
218 0 0
213 0 0
215 0 0
213 0 0
215 0 0
214 0 0
217 0 0
216 0 0
215 0 0
218 0 0
217 0 0
216 0 0
215 0 0
218 0 0
220 0 0
218 0 0
214 0 0
215 0 0
227 0 0
224 0 0
217 0 0
220 0 0
218 0 0
216 0 0
223 0 0
219 0 0
220 0 0
216 0 0
218 0 0
219 0 0
218 0 0
217 0 0
217 0 0
224 0 0
220 0 0
221 0 0
219 0 0
214 0 0
217 0 0
217 0 0
217 0 0
219 0 0
223 0 0
221 0 0
222 0 0
217 0 0
217 0 0
218 0 0
219 0 0
220 0 0
225 0 0
221 0 0
221 0 0
222 0 0
220 0 0
219 0 0
221 0 0
220 0 0
219 0 0
220 0 0
220 0 0
216 0 0
219 0 0
216 0 0
222 0 0
219 0 0
220 0 0
223 0 0
223 0 0
219 0 0
217 0 0
221 0 0
220 0 0
219 0 0
220 0 0
221 0 0
220 0 0
218 0 0
225 0 0
220 0 0
224 0 0
221 0 0
221 0 0
220 0 0
222 0 0
222 0 0
219 0 0
220 0 0
219 0 0
217 0 0
218 0 0
223 0 0
217 0 0
222 0 0
218 0 0
0 0 255
0 0 255
0 0 253
0 0 255
0 0 255
0 0 253
0 0 255
0 0 253
0 0 254
0 0 255
0 0 255
0 0 253
0 0 255
0 0 253
0 0 254
0 0 254
0 0 255
0 0 253
0 0 255
0 0 253
0 0 253
0 0 255
0 0 255
0 0 252
0 0 255
0 0 255
0 0 254
0 0 254
0 0 253
0 0 253
0 0 254
0 0 254
0 0 254
0 0 255
0 0 252
0 0 253
0 0 253
0 0 254
0 0 254
0 0 255
0 0 252
0 0 254
0 0 255
0 0 253
0 0 253
0 0 253
0 0 253
0 0 252
0 0 250
0 0 255
0 0 254
0 0 254
0 0 254
0 0 252
0 0 255
0 0 253
0 0 254
0 0 253
0 0 255
0 0 255
0 0 254
0 0 252
0 0 250
0 0 254
0 0 253
0 0 254
0 0 254
0 0 253
0 0 255
0 0 254
0 0 254
0 0 253
0 0 252
0 0 254
0 0 253
0 0 254
0 0 253
0 0 248
0 0 255
0 0 252
0 0 248
0 0 254
0 0 252
0 0 252
0 0 253
0 0 252
0 0 252
0 0 252
0 0 252
0 0 252
0 0 253
0 0 248
0 0 249
0 0 245
0 0 254
0 0 254
0 0 253
0 0 245
0 0 250
0 0 250
0 0 254
0 0 252
0 0 250
0 0 246
0 0 248
0 0 246
0 0 254
0 0 246
0 0 250
0 0 246
0 0 252
0 0 249
0 0 250
0 0 246
0 0 249
0 0 246
0 0 245
0 0 241
0 0 244
0 0 248
0 0 244
0 0 237
0 0 242
0 0 252
0 0 246
0 0 242
0 0 249
0 0 249
0 0 249
0 0 245
0 0 248
0 0 244
0 0 249
0 0 244
0 0 245
0 0 249
0 0 242
0 0 241
0 0 240
0 0 244
0 0 240
0 0 240
0 0 236
0 0 240
0 0 241
0 0 242
0 0 246
0 0 241
0 0 240
0 0 241
0 0 231
0 0 233
0 0 226
0 0 240
0 0 240
0 0 242
0 0 236
0 0 231
0 0 226
0 0 234
0 0 227
0 0 218
0 0 230
0 0 223
0 0 226
0 0 226
0 0 233
0 0 211
0 0 212
0 0 227
0 0 231
0 0 214
0 0 224
0 0 237
0 0 212
0 0 211
0 0 204
0 0 211
0 0 212
0 0 221
0 0 204
0 0 206
0 0 209
0 0 182
0 0 214
0 0 188
0 0 188
0 0 182
0 0 182
0 0 186
0 0 159
0 0 182
0 0 161
0 0 155
0 0 142
0 0 151
0 0 99
0 0 120
0 0 80
31 33 62
46 0 0
85 0 0
89 0 0
105 0 0
129 0 0
126 0 0
133 0 0
125 0 0
150 0 0
139 0 0
145 0 0
157 0 0
165 0 0
167 0 0
171 0 0
186 0 0
172 0 0
177 0 0
172 0 0
176 0 0
167 0 0
177 0 0
174 0 0
186 0 0
179 0 0
193 0 0
192 0 0
199 0 0
188 0 0
202 0 0
191 0 0
194 0 0
177 0 0
197 0 0
179 0 0
189 0 0
197 0 0
205 0 0
197 0 0
198 0 0
195 0 0
206 0 0
202 0 0
200 0 0
201 0 0
205 0 0
201 0 0
195 0 0
209 0 0
203 0 0
205 0 0
209 0 0
209 0 0
206 0 0
206 0 0
210 0 0
212 0 0
206 0 0
209 0 0
207 0 0
208 0 0
209 0 0
211 0 0
212 0 0
212 0 0
211 0 0
207 0 0
211 0 0
202 0 0
208 0 0
206 0 0
210 0 0
214 0 0
217 0 0
206 0 0
217 0 0
206 0 0
211 0 0
209 0 0
211 0 0
212 0 0
216 0 0
211 0 0
215 0 0
212 0 0
216 0 0
210 0 0
213 0 0
215 0 0
218 0 0
221 0 0
216 0 0
219 0 0
210 0 0
211 0 0
212 0 0
215 0 0
215 0 0
212 0 0
218 0 0
212 0 0
217 0 0
215 0 0
212 0 0
216 0 0
223 0 0
212 0 0
219 0 0
220 0 0
217 0 0
219 0 0
215 0 0
219 0 0
210 0 0
218 0 0
212 0 0
218 0 0
220 0 0
222 0 0
220 0 0
216 0 0
214 0 0
219 0 0
215 0 0
218 0 0
219 0 0
214 0 0
217 0 0
218 0 0
223 0 0
219 0 0
220 0 0
220 0 0
220 0 0
218 0 0
217 0 0
218 0 0
214 0 0
220 0 0
219 0 0
220 0 0
216 0 0
217 0 0
222 0 0
219 0 0
220 0 0
218 0 0
221 0 0
218 0 0
217 0 0
220 0 0
219 0 0
219 0 0
220 0 0
214 0 0
223 0 0
219 0 0
219 0 0
217 0 0
217 0 0
221 0 0
217 0 0
223 0 0
219 0 0
218 0 0
220 0 0
222 0 0
219 0 0
217 0 0
221 0 0
220 0 0
219 0 0
216 0 0
220 0 0
224 0 0
224 0 0
220 0 0
222 0 0
218 0 0
223 0 0
220 0 0
221 0 0
223 0 0
220 0 0
217 0 0
219 0 0
216 0 0
222 0 0
223 0 0
219 0 0
217 0 0
224 0 0
221 0 0
218 0 0
220 0 0
222 0 0
221 0 0
222 0 0
220 0 0
220 0 0
0 0 255
0 0 254
0 0 255
0 0 254
0 0 254
0 0 255
0 0 255
0 0 254
0 0 255
0 0 254
0 0 255
0 0 255
0 0 254
0 0 254
0 0 255
0 0 255
0 0 253
0 0 255
0 0 253
0 0 255
0 0 254
0 0 255
0 0 253
0 0 254
0 0 254
0 0 255
0 0 254
0 0 255
0 0 255
0 0 254
0 0 254
0 0 255
0 0 253
0 0 254
0 0 254
0 0 255
0 0 252
0 0 253
0 0 254
0 0 254
0 0 255
0 0 253
0 0 253
0 0 254
0 0 253
0 0 250
0 0 253
0 0 255
0 0 253
0 0 253
0 0 252
0 0 252
0 0 249
0 0 254
0 0 253
0 0 255
0 0 253
0 0 254
0 0 255
0 0 253
0 0 248
0 0 252
0 0 252
0 0 250
0 0 252
0 0 252
0 0 249
0 0 254
0 0 252
0 0 253
0 0 253
0 0 252
0 0 253
0 0 250
0 0 249
0 0 254
0 0 249
0 0 252
0 0 250
0 0 252
0 0 250
0 0 252
0 0 254
0 0 249
0 0 248
0 0 254
0 0 252
0 0 248
0 0 253
0 0 250
0 0 252
0 0 245
0 0 250
0 0 254
0 0 252
0 0 252
0 0 250
0 0 248
0 0 245
0 0 254
0 0 252
0 0 248
0 0 253
0 0 249
0 0 248
0 0 246
0 0 248
0 0 246
0 0 250
0 0 248
0 0 245
0 0 241
0 0 250
0 0 249
0 0 245
0 0 245
0 0 250
0 0 238
0 0 244
0 0 250
0 0 248
0 0 242
0 0 238
0 0 249
0 0 244
0 0 248
0 0 250
0 0 242
0 0 246
0 0 246
0 0 245
0 0 246
0 0 241
0 0 241
0 0 240
0 0 244
0 0 236
0 0 238
0 0 246
0 0 238
0 0 228
0 0 241
0 0 230
0 0 240
0 0 244
0 0 244
0 0 237
0 0 231
0 0 240
0 0 231
0 0 234
0 0 236
0 0 241
0 0 236
0 0 228
0 0 231
0 0 236
0 0 244
0 0 223
0 0 228
0 0 230
0 0 228
0 0 214
0 0 228
0 0 231
0 0 233
0 0 233
0 0 226
0 0 231
0 0 231
0 0 212
0 0 231
0 0 217
0 0 220
0 0 214
0 0 206
0 0 204
0 0 221
0 0 212
0 0 204
0 0 201
0 0 193
0 0 194
0 0 194
0 0 188
0 0 182
0 0 179
0 0 191
0 0 177
0 0 191
0 0 165
0 0 163
0 0 159
0 0 149
0 0 135
0 0 128
0 0 108
0 0 111
0 0 80
22 23 44
47 23 25
91 0 0
99 0 0
86 0 0
114 0 0
139 0 0
146 0 0
155 0 0
156 0 0
146 0 0
169 0 0
161 0 0
166 0 0
149 0 0
173 0 0
170 0 0
165 0 0
170 0 0
174 0 0
176 0 0
175 0 0
177 0 0
172 0 0
185 0 0
195 0 0
188 0 0
180 0 0
188 0 0
193 0 0
195 0 0
199 0 0
193 0 0
192 0 0
190 0 0
201 0 0
190 0 0
197 0 0
190 0 0
198 0 0
194 0 0
198 0 0
202 0 0
198 0 0
205 0 0
199 0 0
200 0 0
204 0 0
200 0 0
201 0 0
203 0 0
199 0 0
207 0 0
210 0 0
210 0 0
212 0 0
213 0 0
205 0 0
206 0 0
206 0 0
208 0 0
214 0 0
214 0 0
214 0 0
205 0 0
205 0 0
206 0 0
216 0 0
213 0 0
205 0 0
210 0 0
214 0 0
209 0 0
217 0 0
203 0 0
210 0 0
213 0 0
214 0 0
211 0 0
216 0 0
219 0 0
217 0 0
213 0 0
210 0 0
216 0 0
214 0 0
215 0 0
211 0 0
217 0 0
215 0 0
213 0 0
212 0 0
214 0 0
214 0 0
216 0 0
213 0 0
218 0 0
221 0 0
220 0 0
217 0 0
216 0 0
213 0 0
217 0 0
213 0 0
219 0 0
220 0 0
220 0 0
214 0 0
220 0 0
219 0 0
220 0 0
215 0 0
219 0 0
219 0 0
219 0 0
219 0 0
219 0 0
214 0 0
219 0 0
222 0 0
213 0 0
220 0 0
220 0 0
215 0 0
221 0 0
220 0 0
215 0 0
218 0 0
216 0 0
219 0 0
219 0 0
220 0 0
218 0 0
220 0 0
219 0 0
222 0 0
218 0 0
219 0 0
223 0 0
217 0 0
217 0 0
218 0 0
220 0 0
218 0 0
216 0 0
217 0 0
220 0 0
221 0 0
220 0 0
220 0 0
219 0 0
215 0 0
217 0 0
216 0 0
225 0 0
216 0 0
218 0 0
220 0 0
220 0 0
218 0 0
219 0 0
220 0 0
220 0 0
219 0 0
224 0 0
222 0 0
219 0 0
223 0 0
219 0 0
222 0 0
219 0 0
220 0 0
219 0 0
217 0 0
219 0 0
215 0 0
220 0 0
220 0 0
223 0 0
220 0 0
221 0 0
216 0 0
219 0 0
221 0 0
219 0 0
221 0 0
220 0 0
223 0 0
219 0 0
221 0 0
223 0 0
222 0 0
217 0 0
219 0 0
220 0 0
222 0 0
221 0 0
222 0 0
223 0 0
219 0 0
221 0 0
0 0 253
0 0 255
0 0 255
0 0 255
0 0 255
0 0 255
0 0 253
0 0 253
0 0 254
0 0 254
0 0 254
0 0 254
0 0 255
0 0 255
0 0 253
0 0 253
0 0 254
0 0 253
0 0 254
0 0 254
0 0 255
0 0 254
0 0 255
0 0 255
0 0 254
0 0 255
0 0 253
0 0 255
0 0 254
0 0 254
0 0 254
0 0 252
0 0 255
0 0 255
0 0 254
0 0 254
0 0 255
0 0 255
0 0 255
0 0 252
0 0 253
0 0 254
0 0 253
0 0 254
0 0 253
0 0 253
0 0 252
0 0 250
0 0 253
0 0 254
0 0 254
0 0 253
0 0 254
0 0 252
0 0 253
0 0 254
0 0 252
0 0 253
0 0 253
0 0 253
0 0 255
0 0 250
0 0 254
0 0 252
0 0 252
0 0 253
0 0 254
0 0 252
0 0 254
0 0 250
0 0 253
0 0 253
0 0 254
0 0 253
0 0 253
0 0 253
0 0 248
0 0 252
0 0 254
0 0 250
0 0 249
0 0 252
0 0 252
0 0 254
0 0 254
0 0 254
0 0 249
0 0 249
0 0 250
0 0 253
0 0 252
0 0 252
0 0 250
0 0 252
0 0 248
0 0 254
0 0 254
0 0 248
0 0 252
0 0 248
0 0 249
0 0 244
0 0 250
0 0 253
0 0 249
0 0 248
0 0 248
0 0 250
0 0 246
0 0 245
0 0 249
0 0 249
0 0 248
0 0 244
0 0 245
0 0 250
0 0 249
0 0 240
0 0 249
0 0 245
0 0 246
0 0 240
0 0 249
0 0 241
0 0 249
0 0 250
0 0 241
0 0 241
0 0 252
0 0 242
0 0 245
0 0 241
0 0 244
0 0 242
0 0 234
0 0 244
0 0 250
0 0 245
0 0 242
0 0 242
0 0 241
0 0 234
0 0 244
0 0 240
0 0 230
0 0 244
0 0 236
0 0 236
0 0 237
0 0 233
0 0 233
0 0 228
0 0 240
0 0 226
0 0 240
0 0 242
0 0 233
0 0 226
0 0 233
0 0 233
0 0 227
0 0 236
0 0 230
0 0 223
0 0 230
0 0 231
0 0 226
0 0 212
0 0 233
0 0 218
0 0 237
0 0 207
0 0 220
0 0 224
0 0 223
0 0 212
0 0 227
0 0 220
0 0 204
0 0 201
0 0 203
0 0 193
0 0 194
0 0 215
0 0 204
0 0 199
0 0 196
0 0 181
0 0 194
0 0 161
0 0 159
0 0 155
0 0 163
0 0 165
0 0 144
0 0 128
0 0 137
0 0 125
0 0 99
54 57 88
76 74 80
57 0 0
100 0 0
121 0 0
125 0 0
130 0 0
130 0 0
140 0 0
149 0 0
146 0 0
153 0 0
164 0 0
167 0 0
174 0 0
167 0 0
176 0 0
180 0 0
180 0 0
187 0 0
182 0 0
187 0 0
184 0 0
178 0 0
184 0 0
189 0 0
194 0 0
185 0 0
195 0 0
200 0 0
183 0 0
187 0 0
190 0 0
195 0 0
196 0 0
201 0 0
201 0 0
203 0 0
202 0 0
206 0 0
206 0 0
199 0 0
206 0 0
211 0 0
197 0 0
208 0 0
199 0 0
203 0 0
214 0 0
201 0 0
207 0 0
206 0 0
211 0 0
205 0 0
209 0 0
211 0 0
208 0 0
211 0 0
206 0 0
218 0 0
205 0 0
205 0 0
209 0 0
206 0 0
210 0 0
212 0 0
213 0 0
206 0 0
207 0 0
211 0 0
214 0 0
205 0 0
209 0 0
209 0 0
216 0 0
218 0 0
207 0 0
212 0 0
208 0 0
208 0 0
213 0 0
211 0 0
215 0 0
217 0 0
209 0 0
216 0 0
212 0 0
210 0 0
215 0 0
214 0 0
216 0 0
213 0 0
213 0 0
217 0 0
213 0 0
216 0 0
210 0 0
219 0 0
216 0 0
216 0 0
216 0 0
211 0 0
214 0 0
220 0 0
215 0 0
220 0 0
213 0 0
216 0 0
219 0 0
216 0 0
220 0 0
220 0 0
219 0 0
222 0 0
218 0 0
219 0 0
218 0 0
220 0 0
220 0 0
216 0 0
217 0 0
220 0 0
219 0 0
219 0 0
220 0 0
220 0 0
221 0 0
217 0 0
219 0 0
216 0 0
217 0 0
217 0 0
215 0 0
219 0 0
219 0 0
217 0 0
219 0 0
220 0 0
219 0 0
216 0 0
220 0 0
216 0 0
224 0 0
220 0 0
217 0 0
223 0 0
221 0 0
216 0 0
218 0 0
218 0 0
225 0 0
221 0 0
218 0 0
221 0 0
224 0 0
218 0 0
219 0 0
220 0 0
218 0 0
220 0 0
220 0 0
219 0 0
218 0 0
220 0 0
216 0 0
219 0 0
225 0 0
221 0 0
222 0 0
217 0 0
218 0 0
221 0 0
219 0 0
219 0 0
220 0 0
219 0 0
220 0 0
220 0 0
218 0 0
221 0 0
223 0 0
222 0 0
219 0 0
223 0 0
221 0 0
220 0 0
222 0 0
222 0 0
223 0 0
218 0 0
223 0 0
224 0 0
219 0 0
222 0 0
222 0 0
223 0 0
221 0 0
222 0 0
221 0 0
220 0 0
221 0 0
0 0 253
0 0 255
0 0 254
0 0 255
0 0 255
0 0 255
0 0 255
0 0 255
0 0 255
0 0 255
0 0 255
0 0 255
0 0 255
0 0 255
0 0 255
0 0 255
0 0 254
0 0 253
0 0 254
0 0 254
0 0 254
0 0 255
0 0 253
0 0 253
0 0 254
0 0 254
0 0 253
0 0 254
0 0 254
0 0 255
0 0 255
0 0 255
0 0 254
0 0 252
0 0 253
0 0 254
0 0 255
0 0 254
0 0 255
0 0 253
0 0 254
0 0 254
0 0 255
0 0 254
0 0 254
0 0 254
0 0 253
0 0 254
0 0 255
0 0 254
0 0 254
0 0 254
0 0 255
0 0 254
0 0 254
0 0 254
0 0 254
0 0 253
0 0 250
0 0 249
0 0 252
0 0 249
0 0 254
0 0 252
0 0 253
0 0 250
0 0 252
0 0 253
0 0 252
0 0 254
0 0 250
0 0 253
0 0 249
0 0 250
0 0 250
0 0 252
0 0 250
0 0 249
0 0 249
0 0 248
0 0 253
0 0 253
0 0 253
0 0 249
0 0 252
0 0 253
0 0 253
0 0 252
0 0 249
0 0 250
0 0 252
0 0 253
0 0 249
0 0 249
0 0 249
0 0 253
0 0 248
0 0 250
0 0 252
0 0 250
0 0 246
0 0 248
0 0 252
0 0 246
0 0 249
0 0 249
0 0 248
0 0 246
0 0 250
0 0 250
0 0 248
0 0 248
0 0 244
0 0 245
0 0 245
0 0 248
0 0 252
0 0 250
0 0 248
0 0 237
0 0 245
0 0 237
0 0 246
0 0 237
0 0 241
0 0 244
0 0 252
0 0 248
0 0 244
0 0 240
0 0 242
0 0 242
0 0 246
0 0 244
0 0 238
0 0 249
0 0 240
0 0 246
0 0 248
0 0 242
0 0 241
0 0 238
0 0 241
0 0 240
0 0 242
0 0 248
0 0 237
0 0 234
0 0 233
0 0 230
0 0 233
0 0 238
0 0 231
0 0 227
0 0 230
0 0 236
0 0 236
0 0 240
0 0 231
0 0 236
0 0 236
0 0 218
0 0 231
0 0 230
0 0 234
0 0 215
0 0 218
0 0 221
0 0 228
0 0 211
0 0 230
0 0 224
0 0 220
0 0 203
0 0 214
0 0 204
0 0 212
0 0 220
0 0 227
0 0 214
0 0 204
0 0 193
0 0 199
0 0 206
0 0 198
0 0 188
0 0 199
0 0 188
0 0 167
0 0 163
0 0 171
0 0 177
0 0 159
0 0 142
0 0 155
0 0 140
0 0 128
0 0 108
0 0 88
66 71 102
88 74 80
71 0 0
99 0 0
101 0 0
118 0 0
131 0 0
152 0 0
139 0 0
149 0 0
137 0 0
143 0 0
163 0 0
155 0 0
179 0 0
174 0 0
169 0 0
162 0 0
187 0 0
178 0 0
175 0 0
177 0 0
182 0 0
191 0 0
178 0 0
192 0 0
186 0 0
191 0 0
190 0 0
201 0 0
183 0 0
193 0 0
188 0 0
191 0 0
194 0 0
195 0 0
199 0 0
197 0 0
192 0 0
204 0 0
209 0 0
209 0 0
198 0 0
199 0 0
209 0 0
195 0 0
198 0 0
211 0 0
205 0 0
206 0 0
208 0 0
211 0 0
208 0 0
206 0 0
208 0 0
199 0 0
203 0 0
212 0 0
212 0 0
207 0 0
210 0 0
211 0 0
219 0 0
214 0 0
204 0 0
214 0 0
216 0 0
209 0 0
213 0 0
210 0 0
217 0 0
215 0 0
213 0 0
216 0 0
207 0 0
216 0 0
211 0 0
215 0 0
207 0 0
216 0 0
209 0 0
212 0 0
212 0 0
216 0 0
209 0 0
217 0 0
208 0 0
214 0 0
221 0 0
218 0 0
214 0 0
213 0 0
220 0 0
213 0 0
213 0 0
215 0 0
215 0 0
213 0 0
217 0 0
212 0 0
215 0 0
214 0 0
213 0 0
218 0 0
215 0 0
220 0 0
213 0 0
215 0 0
224 0 0
220 0 0
216 0 0
216 0 0
215 0 0
223 0 0
220 0 0
214 0 0
217 0 0
220 0 0
219 0 0
216 0 0
221 0 0
217 0 0
221 0 0
214 0 0
217 0 0
222 0 0
215 0 0
219 0 0
222 0 0
213 0 0
221 0 0
219 0 0
217 0 0
216 0 0
217 0 0
219 0 0
220 0 0
219 0 0
220 0 0
225 0 0
217 0 0
218 0 0
224 0 0
215 0 0
219 0 0
221 0 0
219 0 0
219 0 0
220 0 0
221 0 0
220 0 0
221 0 0
222 0 0
216 0 0
218 0 0
224 0 0
219 0 0
221 0 0
220 0 0
221 0 0
221 0 0
216 0 0
217 0 0
223 0 0
221 0 0
221 0 0
219 0 0
222 0 0
219 0 0
220 0 0
222 0 0
222 0 0
221 0 0
219 0 0
223 0 0
213 0 0
221 0 0
218 0 0
221 0 0
223 0 0
218 0 0
221 0 0
222 0 0
217 0 0
220 0 0
223 0 0
222 0 0
222 0 0
215 0 0
221 0 0
223 0 0
220 0 0
215 0 0
222 0 0
219 0 0
223 0 0
223 0 0
223 0 0
221 0 0
221 0 0
221 0 0
0 0 255
0 0 255
0 0 255
0 0 255
0 0 254
0 0 254
0 0 253
0 0 254
0 0 255
0 0 255
0 0 254
0 0 254
0 0 252
0 0 254
0 0 255
0 0 254
0 0 255
0 0 255
0 0 255
0 0 254
0 0 254
0 0 253
0 0 254
0 0 254
0 0 255
0 0 254
0 0 253
0 0 254
0 0 254
0 0 253
0 0 255
0 0 250
0 0 255
0 0 253
0 0 253
0 0 253
0 0 253
0 0 254
0 0 253
0 0 254
0 0 253
0 0 253
0 0 254
0 0 255
0 0 254
0 0 254
0 0 252
0 0 253
0 0 254
0 0 254
0 0 253
0 0 250
0 0 252
0 0 255
0 0 255
0 0 253
0 0 255
0 0 254
0 0 244
0 0 250
0 0 254
0 0 248
0 0 249
0 0 253
0 0 250
0 0 254
0 0 254
0 0 254
0 0 254
0 0 254
0 0 253
0 0 254
0 0 253
0 0 253
0 0 248
0 0 254
0 0 254
0 0 252
0 0 253
0 0 253
0 0 254
0 0 252
0 0 254
0 0 252
0 0 252
0 0 250
0 0 250
0 0 253
0 0 254
0 0 252
0 0 250
0 0 246
0 0 248
0 0 253
0 0 250
0 0 250
0 0 254
0 0 249
0 0 245
0 0 249
0 0 250
0 0 248
0 0 246
0 0 252
0 0 245
0 0 249
0 0 249
0 0 250
0 0 250
0 0 241
0 0 250
0 0 249
0 0 245
0 0 248
0 0 248
0 0 244
0 0 244
0 0 244
0 0 240
0 0 242
0 0 245
0 0 246
0 0 244
0 0 249
0 0 249
0 0 244
0 0 246
0 0 248
0 0 240
0 0 253
0 0 241
0 0 245
0 0 242
0 0 240
0 0 246
0 0 246
0 0 242
0 0 245
0 0 241
0 0 237
0 0 244
0 0 238
0 0 238
0 0 233
0 0 245
0 0 237
0 0 241
0 0 248
0 0 242
0 0 230
0 0 233
0 0 231
0 0 233
0 0 233
0 0 228
0 0 237
0 0 228
0 0 234
0 0 234
0 0 238
0 0 223
0 0 237
0 0 231
0 0 238
0 0 221
0 0 230
0 0 227
0 0 223
0 0 211
0 0 230
0 0 236
0 0 220
0 0 220
0 0 211
0 0 230
0 0 214
0 0 220
0 0 209
0 0 203
0 0 198
0 0 211
0 0 198
0 0 203
0 0 198
0 0 198
0 0 191
0 0 184
0 0 193
0 0 201
0 0 182
0 0 169
0 0 179
0 0 163
0 0 159
0 0 144
0 0 120
0 0 128
0 0 88
0 0 111
97 103 122
88 88 95
72 0 0
106 0 0
101 0 0
112 0 0
139 0 0
128 0 0
149 0 0
127 0 0
162 0 0
170 0 0
173 0 0
173 0 0
177 0 0
170 0 0
180 0 0
174 0 0
177 0 0
171 0 0
184 0 0
193 0 0
184 0 0
193 0 0
190 0 0
195 0 0
182 0 0
182 0 0
192 0 0
189 0 0
208 0 0
198 0 0
202 0 0
191 0 0
195 0 0
200 0 0
199 0 0
194 0 0
190 0 0
196 0 0
200 0 0
206 0 0
196 0 0
203 0 0
189 0 0
203 0 0
200 0 0
192 0 0
202 0 0
206 0 0
209 0 0
203 0 0
208 0 0
201 0 0
206 0 0
201 0 0
206 0 0
202 0 0
203 0 0
205 0 0
207 0 0
204 0 0
214 0 0
210 0 0
212 0 0
215 0 0
211 0 0
208 0 0
214 0 0
210 0 0
212 0 0
219 0 0
211 0 0
214 0 0
211 0 0
215 0 0
214 0 0
212 0 0
214 0 0
215 0 0
219 0 0
209 0 0
206 0 0
210 0 0
209 0 0
214 0 0
216 0 0
221 0 0
219 0 0
214 0 0
215 0 0
215 0 0
205 0 0
214 0 0
211 0 0
216 0 0
217 0 0
218 0 0
218 0 0
220 0 0
216 0 0
217 0 0
211 0 0
212 0 0
210 0 0
224 0 0
216 0 0
218 0 0
212 0 0
219 0 0
216 0 0
214 0 0
214 0 0
221 0 0
218 0 0
212 0 0
220 0 0
223 0 0
217 0 0
215 0 0
224 0 0
218 0 0
219 0 0
218 0 0
214 0 0
217 0 0
215 0 0
216 0 0
216 0 0
216 0 0
219 0 0
221 0 0
213 0 0
221 0 0
218 0 0
219 0 0
217 0 0
215 0 0
218 0 0
220 0 0
222 0 0
221 0 0
218 0 0
221 0 0
221 0 0
214 0 0
218 0 0
220 0 0
217 0 0
223 0 0
219 0 0
216 0 0
220 0 0
221 0 0
220 0 0
218 0 0
224 0 0
218 0 0
219 0 0
222 0 0
220 0 0
221 0 0
221 0 0
224 0 0
219 0 0
214 0 0
221 0 0
220 0 0
222 0 0
217 0 0
222 0 0
222 0 0
218 0 0
222 0 0
218 0 0
217 0 0
224 0 0
223 0 0
223 0 0
220 0 0
221 0 0
219 0 0
220 0 0
223 0 0
219 0 0
221 0 0
218 0 0
221 0 0
218 0 0
219 0 0
223 0 0
219 0 0
221 0 0
219 0 0
223 0 0
222 0 0
221 0 0
220 0 0
224 0 0
221 0 0
219 0 0
0 0 255
0 0 255
0 0 255
0 0 255
0 0 255
0 0 255
0 0 253
0 0 255
0 0 255
0 0 254
0 0 254
0 0 255
0 0 254
0 0 255
0 0 253
0 0 255
0 0 255
0 0 254
0 0 254
0 0 255
0 0 253
0 0 255
0 0 254
0 0 255
0 0 253
0 0 255
0 0 252
0 0 255
0 0 254
0 0 252
0 0 253
0 0 255
0 0 255
0 0 254
0 0 253
0 0 254
0 0 254
0 0 254
0 0 253
0 0 254
0 0 255
0 0 252
0 0 253
0 0 255
0 0 253
0 0 255
0 0 254
0 0 253
0 0 253
0 0 253
0 0 254
0 0 253
0 0 254
0 0 253
0 0 253
0 0 255
0 0 248
0 0 252
0 0 253
0 0 248
0 0 252
0 0 250
0 0 250
0 0 254
0 0 250
0 0 253
0 0 254
0 0 254
0 0 253
0 0 255
0 0 250
0 0 253
0 0 250
0 0 253
0 0 254
0 0 253
0 0 253
0 0 253
0 0 250
0 0 255
0 0 252
0 0 253
0 0 254
0 0 253
0 0 248
0 0 248
0 0 246
0 0 253
0 0 249
0 0 246
0 0 250
0 0 250
0 0 254
0 0 254
0 0 248
0 0 249
0 0 250
0 0 246
0 0 252
0 0 250
0 0 252
0 0 246
0 0 254
0 0 248
0 0 249
0 0 252
0 0 250
0 0 246
0 0 246
0 0 248
0 0 249
0 0 249
0 0 249
0 0 246
0 0 249
0 0 242
0 0 246
0 0 245
0 0 245
0 0 245
0 0 248
0 0 246
0 0 245
0 0 241
0 0 244
0 0 246
0 0 236
0 0 244
0 0 237
0 0 242
0 0 245
0 0 242
0 0 245
0 0 241
0 0 242
0 0 242
0 0 241
0 0 245
0 0 241
0 0 238
0 0 236
0 0 248
0 0 234
0 0 241
0 0 252
0 0 242
0 0 231
0 0 242
0 0 231
0 0 236
0 0 228
0 0 224
0 0 224
0 0 237
0 0 237
0 0 231
0 0 227
0 0 233
0 0 226
0 0 227
0 0 230
0 0 218
0 0 233
0 0 233
0 0 228
0 0 231
0 0 221
0 0 227
0 0 230
0 0 209
0 0 221
0 0 224
0 0 218
0 0 221
0 0 223
0 0 203
0 0 218
0 0 215
0 0 186
0 0 199
0 0 198
0 0 199
0 0 201
0 0 196
0 0 201
0 0 193
0 0 184
0 0 179
0 0 163
0 0 175
0 0 165
0 0 144
0 0 169
0 0 155
0 0 130
0 0 155
0 0 130
0 0 117
0 0 84
100 106 122
128 127 137
73 0 0
97 0 0
106 0 0
126 0 0
124 0 0
142 0 0
132 0 0
149 0 0
172 0 0
166 0 0
166 0 0
162 0 0
175 0 0
163 0 0
167 0 0
178 0 0
173 0 0
179 0 0
180 0 0
168 0 0
186 0 0
187 0 0
187 0 0
173 0 0
185 0 0
184 0 0
173 0 0
199 0 0
196 0 0
189 0 0
197 0 0
191 0 0
199 0 0
190 0 0
201 0 0
200 0 0
192 0 0
194 0 0
195 0 0
196 0 0
188 0 0
202 0 0
196 0 0
202 0 0
203 0 0
206 0 0
199 0 0
204 0 0
199 0 0
202 0 0
205 0 0
207 0 0
203 0 0
211 0 0
212 0 0
216 0 0
211 0 0
206 0 0
211 0 0
203 0 0
206 0 0
205 0 0
208 0 0
211 0 0
207 0 0
212 0 0
216 0 0
213 0 0
209 0 0
212 0 0
208 0 0
207 0 0
218 0 0
215 0 0
214 0 0
213 0 0
210 0 0
220 0 0
210 0 0
218 0 0
217 0 0
219 0 0
214 0 0
220 0 0
217 0 0
220 0 0
216 0 0
216 0 0
218 0 0
211 0 0
212 0 0
210 0 0
215 0 0
218 0 0
216 0 0
218 0 0
213 0 0
217 0 0
218 0 0
219 0 0
218 0 0
213 0 0
217 0 0
220 0 0
219 0 0
216 0 0
213 0 0
214 0 0
210 0 0
221 0 0
218 0 0
219 0 0
217 0 0
215 0 0
218 0 0
221 0 0
218 0 0
220 0 0
221 0 0
221 0 0
216 0 0
216 0 0
217 0 0
216 0 0
221 0 0
217 0 0
215 0 0
222 0 0
223 0 0
217 0 0
221 0 0
219 0 0
221 0 0
218 0 0
217 0 0
219 0 0
220 0 0
220 0 0
219 0 0
221 0 0
221 0 0
214 0 0
216 0 0
223 0 0
219 0 0
223 0 0
218 0 0
219 0 0
220 0 0
224 0 0
220 0 0
216 0 0
225 0 0
217 0 0
219 0 0
218 0 0
222 0 0
221 0 0
219 0 0
218 0 0
219 0 0
224 0 0
224 0 0
219 0 0
217 0 0
222 0 0
220 0 0
220 0 0
220 0 0
222 0 0
224 0 0
218 0 0
221 0 0
223 0 0
221 0 0
218 0 0
213 0 0
221 0 0
220 0 0
221 0 0
223 0 0
222 0 0
223 0 0
221 0 0
217 0 0
226 0 0
221 0 0
222 0 0
224 0 0
224 0 0
222 0 0
217 0 0
218 0 0
226 0 0
223 0 0
223 0 0
220 0 0
219 0 0
221 0 0
0 0 254
0 0 255
0 0 255
0 0 255
0 0 255
0 0 254
0 0 255
0 0 255
0 0 255
0 0 255
0 0 255
0 0 255
0 0 253
0 0 254
0 0 255
0 0 254
0 0 253
0 0 254
0 0 253
0 0 254
0 0 255
0 0 254
0 0 255
0 0 254
0 0 255
0 0 255
0 0 254
0 0 255
0 0 255
0 0 253
0 0 254
0 0 255
0 0 254
0 0 254
0 0 255
0 0 253
0 0 252
0 0 254
0 0 254
0 0 252
0 0 254
0 0 255
0 0 254
0 0 255
0 0 253
0 0 255
0 0 255
0 0 254
0 0 254
0 0 253
0 0 254
0 0 253
0 0 253
0 0 255
0 0 254
0 0 252
0 0 255
0 0 246
0 0 253
0 0 255
0 0 250
0 0 254
0 0 253
0 0 252
0 0 254
0 0 253
0 0 254
0 0 250
0 0 254
0 0 253
0 0 249
0 0 254
0 0 253
0 0 249
0 0 249
0 0 250
0 0 252
0 0 252
0 0 252
0 0 252
0 0 252
0 0 253
0 0 253
0 0 254
0 0 253
0 0 249
0 0 250
0 0 252
0 0 253
0 0 250
0 0 248
0 0 253
0 0 253
0 0 249
0 0 250
0 0 245
0 0 252
0 0 250
0 0 253
0 0 253
0 0 250
0 0 253
0 0 252
0 0 246
0 0 249
0 0 252
0 0 250
0 0 253
0 0 250
0 0 246
0 0 249
0 0 245
0 0 245
0 0 242
0 0 245
0 0 250
0 0 246
0 0 252
0 0 244
0 0 249
0 0 246
0 0 245
0 0 236
0 0 244
0 0 240
0 0 241
0 0 246
0 0 249
0 0 248
0 0 241
0 0 245
0 0 242
0 0 241
0 0 241
0 0 240
0 0 246
0 0 242
0 0 241
0 0 238
0 0 233
0 0 241
0 0 242
0 0 231
0 0 236
0 0 241
0 0 231
0 0 236
0 0 234
0 0 238
0 0 236
0 0 236
0 0 237
0 0 233
0 0 231
0 0 238
0 0 237
0 0 231
0 0 228
0 0 230
0 0 230
0 0 230
0 0 237
0 0 236
0 0 217
0 0 214
0 0 221
0 0 215
0 0 233
0 0 215
0 0 217
0 0 218
0 0 218
0 0 224
0 0 228
0 0 214
0 0 204
0 0 211
0 0 211
0 0 206
0 0 198
0 0 212
0 0 215
0 0 215
0 0 203
0 0 198
0 0 188
0 0 173
0 0 199
0 0 189
0 0 171
0 0 167
0 0 161
0 0 163
0 0 137
0 0 149
0 0 114
0 0 108
0 0 117
0 0 67
124 132 155
118 123 133
83 0 0
108 0 0
108 0 0
127 0 0
137 0 0
136 0 0
149 0 0
144 0 0
159 0 0
149 0 0
155 0 0
163 0 0
170 0 0
169 0 0
160 0 0
163 0 0
176 0 0
169 0 0
193 0 0
171 0 0
189 0 0
188 0 0
176 0 0
179 0 0
182 0 0
188 0 0
196 0 0
187 0 0
191 0 0
188 0 0
191 0 0
187 0 0
191 0 0
189 0 0
194 0 0
201 0 0
198 0 0
213 0 0
207 0 0
206 0 0
204 0 0
204 0 0
207 0 0
209 0 0
202 0 0
209 0 0
207 0 0
202 0 0
205 0 0
201 0 0
213 0 0
198 0 0
207 0 0
213 0 0
208 0 0
209 0 0
213 0 0
207 0 0
213 0 0
207 0 0
212 0 0
200 0 0
217 0 0
205 0 0
207 0 0
211 0 0
212 0 0
209 0 0
215 0 0
215 0 0
210 0 0
214 0 0
211 0 0
216 0 0
211 0 0
215 0 0
213 0 0
216 0 0
209 0 0
214 0 0
217 0 0
219 0 0
219 0 0
218 0 0
218 0 0
213 0 0
204 0 0
217 0 0
216 0 0
220 0 0
214 0 0
216 0 0
217 0 0
214 0 0
221 0 0
215 0 0
219 0 0
210 0 0
212 0 0
218 0 0
217 0 0
221 0 0
219 0 0
218 0 0
217 0 0
223 0 0
218 0 0
216 0 0
221 0 0
220 0 0
217 0 0
218 0 0
218 0 0
220 0 0
218 0 0
225 0 0
219 0 0
217 0 0
219 0 0
215 0 0
216 0 0
219 0 0
213 0 0
212 0 0
220 0 0
221 0 0
221 0 0
221 0 0
220 0 0
220 0 0
212 0 0
222 0 0
221 0 0
221 0 0
213 0 0
219 0 0
222 0 0
221 0 0
221 0 0
222 0 0
223 0 0
220 0 0
220 0 0
219 0 0
215 0 0
219 0 0
218 0 0
220 0 0
220 0 0
220 0 0
221 0 0
220 0 0
221 0 0
219 0 0
220 0 0
219 0 0
219 0 0
217 0 0
222 0 0
219 0 0
219 0 0
217 0 0
221 0 0
222 0 0
221 0 0
221 0 0
226 0 0
221 0 0
214 0 0
218 0 0
216 0 0
220 0 0
220 0 0
220 0 0
222 0 0
221 0 0
226 0 0
217 0 0
222 0 0
221 0 0
222 0 0
224 0 0
223 0 0
223 0 0
217 0 0
221 0 0
224 0 0
221 0 0
219 0 0
220 0 0
221 0 0
219 0 0
223 0 0
225 0 0
221 0 0
218 0 0
222 0 0
218 0 0
218 0 0
0 0 254
0 0 255
0 0 255
0 0 254
0 0 255
0 0 255
0 0 254
0 0 254
0 0 253
0 0 255
0 0 255
0 0 255
0 0 255
0 0 255
0 0 255
0 0 252
0 0 255
0 0 254
0 0 253
0 0 252
0 0 255
0 0 254
0 0 254
0 0 255
0 0 255
0 0 254
0 0 255
0 0 253
0 0 253
0 0 255
0 0 254
0 0 255
0 0 254
0 0 253
0 0 254
0 0 254
0 0 255
0 0 253
0 0 253
0 0 253
0 0 254
0 0 254
0 0 252
0 0 255
0 0 255
0 0 254
0 0 254
0 0 249
0 0 253
0 0 253
0 0 255
0 0 254
0 0 253
0 0 253
0 0 254
0 0 253
0 0 252
0 0 252
0 0 249
0 0 253
0 0 252
0 0 253
0 0 253
0 0 252
0 0 249
0 0 254
0 0 249
0 0 249
0 0 254
0 0 254
0 0 254
0 0 249
0 0 248
0 0 249
0 0 245
0 0 253
0 0 252
0 0 253
0 0 254
0 0 252
0 0 246
0 0 244
0 0 253
0 0 249
0 0 253
0 0 250
0 0 254
0 0 253
0 0 252
0 0 245
0 0 252
0 0 253
0 0 250
0 0 252
0 0 253
0 0 252
0 0 248
0 0 246
0 0 249
0 0 250
0 0 249
0 0 250
0 0 240
0 0 248
0 0 252
0 0 252
0 0 252
0 0 252
0 0 249
0 0 244
0 0 249
0 0 244
0 0 250
0 0 244
0 0 246
0 0 244
0 0 250
0 0 245
0 0 241
0 0 246
0 0 248
0 0 246
0 0 249
0 0 249
0 0 244
0 0 249
0 0 245
0 0 245
0 0 242
0 0 241
0 0 246
0 0 234
0 0 242
0 0 236
0 0 245
0 0 241
0 0 242
0 0 242
0 0 236
0 0 242
0 0 238
0 0 237
0 0 244
0 0 237
0 0 242
0 0 241
0 0 236
0 0 231
0 0 241
0 0 242
0 0 236
0 0 233
0 0 238
0 0 234
0 0 234
0 0 237
0 0 237
0 0 237
0 0 237
0 0 218
0 0 237
0 0 218
0 0 231
0 0 233
0 0 228
0 0 237
0 0 227
0 0 221
0 0 233
0 0 223
0 0 209
0 0 215
0 0 230
0 0 211
0 0 215
0 0 214
0 0 217
0 0 212
0 0 201
0 0 207
0 0 209
0 0 209
0 0 218
0 0 198
0 0 194
0 0 179
0 0 186
0 0 184
0 0 184
0 0 177
0 0 173
0 0 173
0 0 155
0 0 153
0 0 147
0 0 140
0 0 122
0 0 137
0 0 102
147 155 177
140 144 155
74 0 0
98 0 0
109 0 0
111 0 0
129 0 0
136 0 0
142 0 0
152 0 0
154 0 0
154 0 0
160 0 0
155 0 0
168 0 0
171 0 0
167 0 0
174 0 0
177 0 0
169 0 0
180 0 0
190 0 0
177 0 0
189 0 0
197 0 0
191 0 0
190 0 0
180 0 0
194 0 0
193 0 0
196 0 0
199 0 0
196 0 0
202 0 0
187 0 0
202 0 0
188 0 0
191 0 0
201 0 0
199 0 0
197 0 0
204 0 0
209 0 0
200 0 0
206 0 0
209 0 0
204 0 0
204 0 0
202 0 0
208 0 0
195 0 0
199 0 0
203 0 0
202 0 0
206 0 0
204 0 0
214 0 0
213 0 0
211 0 0
208 0 0
214 0 0
207 0 0
206 0 0
209 0 0
208 0 0
215 0 0
211 0 0
203 0 0
210 0 0
208 0 0
218 0 0
215 0 0
211 0 0
215 0 0
212 0 0
213 0 0
220 0 0
212 0 0
210 0 0
216 0 0
219 0 0
213 0 0
218 0 0
214 0 0
211 0 0
212 0 0
219 0 0
213 0 0
217 0 0
206 0 0
216 0 0
220 0 0
217 0 0
216 0 0
214 0 0
217 0 0
215 0 0
216 0 0
216 0 0
219 0 0
214 0 0
221 0 0
217 0 0
217 0 0
214 0 0
217 0 0
218 0 0
216 0 0
220 0 0
220 0 0
219 0 0
221 0 0
215 0 0
221 0 0
218 0 0
220 0 0
213 0 0
218 0 0
221 0 0
220 0 0
215 0 0
217 0 0
216 0 0
219 0 0
221 0 0
220 0 0
217 0 0
222 0 0
221 0 0
212 0 0
218 0 0
222 0 0
223 0 0
216 0 0
213 0 0
219 0 0
218 0 0
215 0 0
218 0 0
220 0 0
223 0 0
220 0 0
222 0 0
219 0 0
218 0 0
218 0 0
222 0 0
221 0 0
221 0 0
221 0 0
223 0 0
222 0 0
221 0 0
219 0 0
220 0 0
222 0 0
223 0 0
220 0 0
222 0 0
218 0 0
221 0 0
221 0 0
222 0 0
222 0 0
221 0 0
222 0 0
223 0 0
221 0 0
225 0 0
220 0 0
220 0 0
220 0 0
219 0 0
221 0 0
225 0 0
223 0 0
223 0 0
217 0 0
220 0 0
219 0 0
222 0 0
223 0 0
220 0 0
224 0 0
220 0 0
221 0 0
221 0 0
223 0 0
219 0 0
223 0 0
221 0 0
225 0 0
223 0 0
221 0 0
218 0 0
222 0 0
224 0 0
221 0 0
222 0 0
223 0 0
223 0 0
0 0 255
0 0 255
0 0 255
0 0 255
0 0 254
0 0 255
0 0 255
0 0 255
0 0 255
0 0 255
0 0 254
0 0 254
0 0 255
0 0 255
0 0 253
0 0 255
0 0 255
0 0 255
0 0 253
0 0 255
0 0 255
0 0 253
0 0 254
0 0 254
0 0 253
0 0 255
0 0 250
0 0 254
0 0 254
0 0 253
0 0 254
0 0 255
0 0 255
0 0 255
0 0 254
0 0 253
0 0 255
0 0 253
0 0 254
0 0 254
0 0 255
0 0 249
0 0 253
0 0 253
0 0 253
0 0 252
0 0 255
0 0 253
0 0 253
0 0 253
0 0 255
0 0 253
0 0 254
0 0 254
0 0 253
0 0 254
0 0 253
0 0 253
0 0 250
0 0 252
0 0 254
0 0 254
0 0 254
0 0 252
0 0 249
0 0 253
0 0 253
0 0 250
0 0 252
0 0 249
0 0 252
0 0 254
0 0 250
0 0 253
0 0 253
0 0 255
0 0 249
0 0 252
0 0 250
0 0 252
0 0 249
0 0 250
0 0 254
0 0 252
0 0 254
0 0 249
0 0 249
0 0 249
0 0 249
0 0 254
0 0 252
0 0 254
0 0 254
0 0 249
0 0 250
0 0 248
0 0 249
0 0 249
0 0 245
0 0 246
0 0 248
0 0 254
0 0 250
0 0 249
0 0 248
0 0 248
0 0 248
0 0 255
0 0 244
0 0 245
0 0 252
0 0 245
0 0 249
0 0 248
0 0 246
0 0 246
0 0 246
0 0 250
0 0 245
0 0 244
0 0 246
0 0 249
0 0 245
0 0 248
0 0 248
0 0 245
0 0 242
0 0 246
0 0 249
0 0 250
0 0 245
0 0 250
0 0 237
0 0 238
0 0 245
0 0 237
0 0 236
0 0 248
0 0 242
0 0 245
0 0 233
0 0 237
0 0 236
0 0 244
0 0 245
0 0 231
0 0 242
0 0 238
0 0 234
0 0 233
0 0 231
0 0 242
0 0 237
0 0 233
0 0 230
0 0 226
0 0 233
0 0 236
0 0 230
0 0 237
0 0 224
0 0 224
0 0 223
0 0 220
0 0 228
0 0 228
0 0 223
0 0 214
0 0 214
0 0 227
0 0 217
0 0 226
0 0 217
0 0 221
0 0 224
0 0 209
0 0 214
0 0 215
0 0 204
0 0 203
0 0 201
0 0 207
0 0 189
0 0 211
0 0 186
0 0 201
0 0 181
0 0 173
0 0 184
0 0 171
0 0 173
0 0 159
0 0 171
0 0 137
0 0 149
0 0 128
0 0 120
0 0 108
0 0 105
155 164 188
187 193 207
77 0 0
107 0 0
125 0 0
127 0 0
111 0 0
153 0 0
139 0 0
146 0 0
152 0 0
164 0 0
156 0 0
164 0 0
169 0 0
171 0 0
180 0 0
189 0 0
178 0 0
183 0 0
174 0 0
181 0 0
177 0 0
175 0 0
173 0 0
191 0 0
184 0 0
200 0 0
184 0 0
190 0 0
187 0 0
188 0 0
192 0 0
196 0 0
191 0 0
200 0 0
201 0 0
196 0 0
203 0 0
199 0 0
213 0 0
204 0 0
202 0 0
208 0 0
196 0 0
189 0 0
196 0 0
213 0 0
202 0 0
200 0 0
202 0 0
213 0 0
207 0 0
209 0 0
218 0 0
213 0 0
207 0 0
212 0 0
212 0 0
208 0 0
213 0 0
209 0 0
203 0 0
212 0 0
212 0 0
208 0 0
216 0 0
200 0 0
214 0 0
217 0 0
211 0 0
217 0 0
212 0 0
206 0 0
205 0 0
213 0 0
214 0 0
216 0 0
212 0 0
217 0 0
215 0 0
214 0 0
213 0 0
218 0 0
208 0 0
215 0 0
222 0 0
216 0 0
213 0 0
217 0 0
213 0 0
204 0 0
218 0 0
212 0 0
216 0 0
217 0 0
219 0 0
218 0 0
217 0 0
219 0 0
218 0 0
215 0 0
218 0 0
214 0 0
214 0 0
221 0 0
210 0 0
215 0 0
218 0 0
216 0 0
221 0 0
222 0 0
215 0 0
215 0 0
215 0 0
215 0 0
218 0 0
210 0 0
216 0 0
213 0 0
218 0 0
217 0 0
217 0 0
217 0 0
220 0 0
223 0 0
218 0 0
219 0 0
221 0 0
217 0 0
218 0 0
217 0 0
219 0 0
222 0 0
224 0 0
217 0 0
220 0 0
220 0 0
219 0 0
224 0 0
220 0 0
220 0 0
225 0 0
221 0 0
222 0 0
222 0 0
221 0 0
219 0 0
222 0 0
220 0 0
219 0 0
221 0 0
216 0 0
220 0 0
221 0 0
217 0 0
221 0 0
223 0 0
219 0 0
219 0 0
216 0 0
219 0 0
223 0 0
220 0 0
219 0 0
221 0 0
219 0 0
215 0 0
219 0 0
221 0 0
220 0 0
219 0 0
220 0 0
221 0 0
220 0 0
221 0 0
223 0 0
223 0 0
222 0 0
219 0 0
220 0 0
222 0 0
220 0 0
219 0 0
223 0 0
221 0 0
223 0 0
217 0 0
219 0 0
222 0 0
222 0 0
219 0 0
222 0 0
219 0 0
220 0 0
220 0 0
222 0 0
224 0 0
224 0 0
222 0 0
221 0 0
0 0 255
0 0 255
0 0 255
0 0 254
0 0 254
0 0 255
0 0 255
0 0 254
0 0 255
0 0 255
0 0 254
0 0 255
0 0 255
0 0 255
0 0 254
0 0 254
0 0 254
0 0 255
0 0 254
0 0 254
0 0 252
0 0 255
0 0 254
0 0 254
0 0 254
0 0 255
0 0 254
0 0 253
0 0 255
0 0 253
0 0 255
0 0 255
0 0 253
0 0 255
0 0 254
0 0 255
0 0 254
0 0 255
0 0 254
0 0 252
0 0 253
0 0 252
0 0 254
0 0 254
0 0 253
0 0 254
0 0 255
0 0 254
0 0 253
0 0 253
0 0 250
0 0 254
0 0 255
0 0 253
0 0 253
0 0 254
0 0 252
0 0 254
0 0 255
0 0 253
0 0 249
0 0 253
0 0 252
0 0 254
0 0 254
0 0 252
0 0 250
0 0 253
0 0 252
0 0 252
0 0 253
0 0 255
0 0 250
0 0 249
0 0 255
0 0 254
0 0 252
0 0 248
0 0 248
0 0 250
0 0 252
0 0 253
0 0 254
0 0 249
0 0 249
0 0 253
0 0 246
0 0 249
0 0 252
0 0 252
0 0 249
0 0 252
0 0 254
0 0 248
0 0 248
0 0 246
0 0 250
0 0 253
0 0 249
0 0 255
0 0 249
0 0 240
0 0 249
0 0 250
0 0 245
0 0 246
0 0 252
0 0 244
0 0 244
0 0 246
0 0 245
0 0 253
0 0 242
0 0 253
0 0 240
0 0 248
0 0 245
0 0 248
0 0 246
0 0 242
0 0 241
0 0 245
0 0 245
0 0 249
0 0 245
0 0 248
0 0 241
0 0 238
0 0 240
0 0 242
0 0 240
0 0 242
0 0 248
0 0 242
0 0 230
0 0 233
0 0 246
0 0 238
0 0 244
0 0 236
0 0 237
0 0 241
0 0 246
0 0 233
0 0 234
0 0 240
0 0 233
0 0 241
0 0 233
0 0 237
0 0 236
0 0 242
0 0 242
0 0 237
0 0 234
0 0 234
0 0 233
0 0 238
0 0 223
0 0 234
0 0 228
0 0 226
0 0 231
0 0 209
0 0 227
0 0 230
0 0 230
0 0 228
0 0 224
0 0 221
0 0 221
0 0 215
0 0 207
0 0 215
0 0 217
0 0 209
0 0 218
0 0 215
0 0 223
0 0 201
0 0 203
0 0 196
0 0 196
0 0 194
0 0 189
0 0 193
0 0 189
0 0 191
0 0 194
0 0 177
0 0 169
0 0 175
0 0 161
0 0 161
0 0 128
0 0 137
0 0 130
0 0 108
0 0 99
178 188 211
174 181 194
109 0 0
110 0 0
106 0 0
123 0 0
125 0 0
136 0 0
145 0 0
143 0 0
156 0 0
155 0 0
158 0 0
168 0 0
172 0 0
173 0 0
167 0 0
180 0 0
171 0 0
173 0 0
193 0 0
199 0 0
185 0 0
189 0 0
186 0 0
186 0 0
197 0 0
193 0 0
201 0 0
196 0 0
195 0 0
191 0 0
199 0 0
196 0 0
202 0 0
207 0 0
200 0 0
211 0 0
199 0 0
205 0 0
200 0 0
203 0 0
209 0 0
199 0 0
201 0 0
210 0 0
210 0 0
206 0 0
205 0 0
212 0 0
215 0 0
198 0 0
203 0 0
209 0 0
216 0 0
215 0 0
213 0 0
208 0 0
210 0 0
209 0 0
206 0 0
213 0 0
213 0 0
210 0 0
214 0 0
209 0 0
212 0 0
208 0 0
219 0 0
217 0 0
221 0 0
210 0 0
216 0 0
217 0 0
214 0 0
217 0 0
214 0 0
211 0 0
214 0 0
212 0 0
211 0 0
216 0 0
214 0 0
215 0 0
216 0 0
210 0 0
216 0 0
212 0 0
217 0 0
215 0 0
213 0 0
215 0 0
217 0 0
218 0 0
217 0 0
219 0 0
215 0 0
216 0 0
218 0 0
221 0 0
215 0 0
217 0 0
220 0 0
220 0 0
216 0 0
222 0 0
220 0 0
215 0 0
223 0 0
217 0 0
218 0 0
219 0 0
222 0 0
218 0 0
217 0 0
219 0 0
219 0 0
218 0 0
215 0 0
219 0 0
220 0 0
218 0 0
215 0 0
217 0 0
221 0 0
219 0 0
220 0 0
218 0 0
219 0 0
214 0 0
218 0 0
221 0 0
224 0 0
214 0 0
222 0 0
222 0 0
224 0 0
220 0 0
218 0 0
218 0 0
220 0 0
217 0 0
224 0 0
222 0 0
217 0 0
224 0 0
220 0 0
220 0 0
224 0 0
222 0 0
220 0 0
220 0 0
218 0 0
221 0 0
221 0 0
221 0 0
217 0 0
221 0 0
220 0 0
220 0 0
216 0 0
223 0 0
221 0 0
220 0 0
221 0 0
222 0 0
221 0 0
220 0 0
220 0 0
222 0 0
223 0 0
221 0 0
220 0 0
225 0 0
219 0 0
220 0 0
224 0 0
220 0 0
220 0 0
219 0 0
220 0 0
220 0 0
219 0 0
223 0 0
221 0 0
221 0 0
223 0 0
219 0 0
222 0 0
222 0 0
220 0 0
221 0 0
220 0 0
219 0 0
218 0 0
222 0 0
223 0 0
220 0 0
223 0 0
217 0 0
222 0 0
0 0 255
0 0 255
0 0 253
0 0 254
0 0 255
0 0 255
0 0 255
0 0 254
0 0 254
0 0 255
0 0 254
0 0 255
0 0 255
0 0 255
0 0 254
0 0 255
0 0 254
0 0 252
0 0 254
0 0 254
0 0 254
0 0 254
0 0 254
0 0 255
0 0 253
0 0 254
0 0 252
0 0 255
0 0 255
0 0 254
0 0 255
0 0 254
0 0 254
0 0 255
0 0 254
0 0 255
0 0 252
0 0 253
0 0 255
0 0 255
0 0 255
0 0 254
0 0 255
0 0 255
0 0 253
0 0 254
0 0 252
0 0 253
0 0 254
0 0 252
0 0 254
0 0 254
0 0 254
0 0 253
0 0 252
0 0 253
0 0 252
0 0 250
0 0 254
0 0 250
0 0 254
0 0 254
0 0 253
0 0 255
0 0 249
0 0 254
0 0 254
0 0 252
0 0 252
0 0 253
0 0 254
0 0 254
0 0 254
0 0 253
0 0 253
0 0 252
0 0 254
0 0 253
0 0 250
0 0 253
0 0 244
0 0 253
0 0 252
0 0 254
0 0 248
0 0 249
0 0 249
0 0 250
0 0 249
0 0 249
0 0 250
0 0 248
0 0 250
0 0 246
0 0 250
0 0 250
0 0 248
0 0 250
0 0 253
0 0 250
0 0 249
0 0 250
0 0 250
0 0 248
0 0 252
0 0 246
0 0 252
0 0 250
0 0 252
0 0 245
0 0 248
0 0 248
0 0 253
0 0 244
0 0 246
0 0 241
0 0 244
0 0 246
0 0 248
0 0 244
0 0 248
0 0 246
0 0 244
0 0 244
0 0 246
0 0 248
0 0 240
0 0 245
0 0 244
0 0 248
0 0 245
0 0 241
0 0 245
0 0 242
0 0 246
0 0 244
0 0 241
0 0 241
0 0 238
0 0 242
0 0 240
0 0 240
0 0 241
0 0 242
0 0 240
0 0 236
0 0 241
0 0 238
0 0 240
0 0 238
0 0 228
0 0 237
0 0 240
0 0 234
0 0 236
0 0 228
0 0 230
0 0 228
0 0 240
0 0 221
0 0 231
0 0 221
0 0 226
0 0 227
0 0 233
0 0 233
0 0 236
0 0 218
0 0 221
0 0 227
0 0 223
0 0 224
0 0 234
0 0 206
0 0 212
0 0 206
0 0 204
0 0 212
0 0 204
0 0 203
0 0 199
0 0 196
0 0 201
0 0 201
0 0 204
0 0 203
0 0 203
0 0 182
0 0 188
0 0 181
0 0 173
0 0 173
0 0 151
0 0 149
0 0 149
0 0 133
0 0 125
0 0 114
0 0 99
196 207 226
202 212 228
89 0 0
98 0 0
99 0 0
132 0 0
117 0 0
133 0 0
141 0 0
146 0 0
133 0 0
164 0 0
153 0 0
166 0 0
181 0 0
174 0 0
174 0 0
169 0 0
183 0 0
185 0 0
181 0 0
183 0 0
185 0 0
172 0 0
196 0 0
183 0 0
192 0 0
185 0 0
196 0 0
192 0 0
180 0 0
195 0 0
191 0 0
192 0 0
197 0 0
197 0 0
203 0 0
195 0 0
199 0 0
197 0 0
204 0 0
202 0 0
201 0 0
198 0 0
200 0 0
214 0 0
212 0 0
200 0 0
210 0 0
213 0 0
211 0 0
206 0 0
204 0 0
212 0 0
209 0 0
208 0 0
217 0 0
212 0 0
209 0 0
210 0 0
215 0 0
215 0 0
209 0 0
213 0 0
209 0 0
211 0 0
206 0 0
214 0 0
212 0 0
211 0 0
210 0 0
207 0 0
214 0 0
218 0 0
215 0 0
218 0 0
217 0 0
216 0 0
215 0 0
221 0 0
210 0 0
216 0 0
216 0 0
215 0 0
220 0 0
216 0 0
214 0 0
219 0 0
216 0 0
215 0 0
218 0 0
217 0 0
218 0 0
217 0 0
222 0 0
217 0 0
215 0 0
223 0 0
216 0 0
216 0 0
216 0 0
217 0 0
219 0 0
217 0 0
216 0 0
219 0 0
222 0 0
216 0 0
217 0 0
215 0 0
215 0 0
220 0 0
220 0 0
220 0 0
222 0 0
218 0 0
221 0 0
219 0 0
214 0 0
220 0 0
224 0 0
217 0 0
216 0 0
218 0 0
225 0 0
216 0 0
219 0 0
220 0 0
217 0 0
219 0 0
220 0 0
221 0 0
218 0 0
222 0 0
219 0 0
218 0 0
223 0 0
217 0 0
223 0 0
220 0 0
216 0 0
224 0 0
217 0 0
222 0 0
219 0 0
218 0 0
216 0 0
217 0 0
219 0 0
223 0 0
220 0 0
219 0 0
219 0 0
221 0 0
221 0 0
216 0 0
220 0 0
221 0 0
221 0 0
219 0 0
225 0 0
222 0 0
218 0 0
221 0 0
223 0 0
219 0 0
222 0 0
220 0 0
219 0 0
221 0 0
219 0 0
220 0 0
220 0 0
223 0 0
220 0 0
218 0 0
220 0 0
224 0 0
217 0 0
222 0 0
224 0 0
221 0 0
224 0 0
221 0 0
225 0 0
221 0 0
224 0 0
220 0 0
222 0 0
219 0 0
221 0 0
220 0 0
222 0 0
223 0 0
221 0 0
221 0 0
218 0 0
222 0 0
221 0 0
222 0 0
223 0 0
0 0 255
0 0 255
0 0 255
0 0 255
0 0 253
0 0 255
0 0 255
0 0 255
0 0 253
0 0 255
0 0 255
0 0 255
0 0 254
0 0 254
0 0 254
0 0 255
0 0 254
0 0 254
0 0 254
0 0 255
0 0 254
0 0 254
0 0 255
0 0 254
0 0 255
0 0 254
0 0 255
0 0 253
0 0 254
0 0 255
0 0 253
0 0 253
0 0 253
0 0 253
0 0 253
0 0 252
0 0 255
0 0 254
0 0 253
0 0 255
0 0 252
0 0 254
0 0 255
0 0 253
0 0 254
0 0 255
0 0 252
0 0 254
0 0 254
0 0 255
0 0 253
0 0 252
0 0 254
0 0 252
0 0 255
0 0 249
0 0 253
0 0 254
0 0 253
0 0 253
0 0 250
0 0 250
0 0 249
0 0 255
0 0 254
0 0 255
0 0 250
0 0 250
0 0 254
0 0 248
0 0 253
0 0 252
0 0 249
0 0 254
0 0 255
0 0 249
0 0 252
0 0 249
0 0 253
0 0 249
0 0 248
0 0 253
0 0 254
0 0 254
0 0 249
0 0 250
0 0 248
0 0 254
0 0 249
0 0 249
0 0 246
0 0 248
0 0 250
0 0 248
0 0 252
0 0 246
0 0 248
0 0 250
0 0 252
0 0 250
0 0 246
0 0 248
0 0 253
0 0 248
0 0 252
0 0 252
0 0 249
0 0 250
0 0 252
0 0 250
0 0 246
0 0 248
0 0 241
0 0 250
0 0 245
0 0 249
0 0 241
0 0 252
0 0 245
0 0 246
0 0 245
0 0 249
0 0 246
0 0 245
0 0 250
0 0 241
0 0 244
0 0 245
0 0 245
0 0 234
0 0 246
0 0 245
0 0 240
0 0 246
0 0 241
0 0 244
0 0 244
0 0 249
0 0 242
0 0 242
0 0 245
0 0 244
0 0 238
0 0 237
0 0 233
0 0 234
0 0 244
0 0 244
0 0 245
0 0 234
0 0 236
0 0 236
0 0 227
0 0 230
0 0 241
0 0 228
0 0 240
0 0 227
0 0 221
0 0 230
0 0 236
0 0 226
0 0 230
0 0 224
0 0 223
0 0 236
0 0 223
0 0 230
0 0 221
0 0 228
0 0 231
0 0 218
0 0 212
0 0 215
0 0 220
0 0 218
0 0 226
0 0 204
0 0 203
0 0 194
0 0 211
0 0 214
0 0 206
0 0 198
0 0 194
0 0 188
0 0 191
0 0 186
0 0 196
0 0 209
0 0 167
0 0 165
0 0 171
0 0 171
0 0 153
0 0 120
0 0 120
0 0 99
0 0 92
221 233 252
214 226 242
92 0 0
98 0 0
105 0 0
123 0 0
126 0 0
148 0 0
144 0 0
148 0 0
159 0 0
149 0 0
178 0 0
166 0 0
166 0 0
177 0 0
168 0 0
179 0 0
181 0 0
183 0 0
189 0 0
191 0 0
183 0 0
192 0 0
193 0 0
184 0 0
199 0 0
184 0 0
184 0 0
196 0 0
193 0 0
194 0 0
203 0 0
196 0 0
199 0 0
202 0 0
200 0 0
202 0 0
197 0 0
205 0 0
204 0 0
204 0 0
206 0 0
203 0 0
204 0 0
202 0 0
195 0 0
202 0 0
210 0 0
207 0 0
216 0 0
209 0 0
205 0 0
211 0 0
215 0 0
206 0 0
211 0 0
222 0 0
204 0 0
208 0 0
205 0 0
211 0 0
192 0 0
212 0 0
211 0 0
218 0 0
200 0 0
212 0 0
211 0 0
211 0 0
215 0 0
211 0 0
214 0 0
206 0 0
216 0 0
211 0 0
218 0 0
213 0 0
213 0 0
217 0 0
218 0 0
216 0 0
215 0 0
218 0 0
221 0 0
213 0 0
217 0 0
218 0 0
217 0 0
213 0 0
214 0 0
221 0 0
219 0 0
214 0 0
218 0 0
217 0 0
220 0 0
214 0 0
218 0 0
221 0 0
219 0 0
220 0 0
211 0 0
214 0 0
216 0 0
216 0 0
221 0 0
218 0 0
217 0 0
216 0 0
218 0 0
219 0 0
219 0 0
222 0 0
219 0 0
215 0 0
217 0 0
219 0 0
216 0 0
220 0 0
223 0 0
222 0 0
215 0 0
220 0 0
221 0 0
221 0 0
218 0 0
220 0 0
218 0 0
220 0 0
221 0 0
224 0 0
220 0 0
219 0 0
221 0 0
218 0 0
217 0 0
222 0 0
216 0 0
219 0 0
213 0 0
221 0 0
222 0 0
219 0 0
217 0 0
219 0 0
219 0 0
221 0 0
223 0 0
223 0 0
222 0 0
221 0 0
221 0 0
220 0 0
221 0 0
220 0 0
221 0 0
220 0 0
219 0 0
218 0 0
217 0 0
222 0 0
219 0 0
223 0 0
218 0 0
218 0 0
217 0 0
222 0 0
217 0 0
222 0 0
221 0 0
220 0 0
217 0 0
226 0 0
224 0 0
223 0 0
221 0 0
221 0 0
221 0 0
221 0 0
219 0 0
221 0 0
216 0 0
224 0 0
223 0 0
221 0 0
222 0 0
219 0 0
226 0 0
223 0 0
223 0 0
222 0 0
225 0 0
220 0 0
223 0 0
219 0 0
222 0 0
223 0 0
224 0 0
221 0 0
224 0 0
0 0 255
0 0 255
0 0 255
0 0 255
0 0 254
0 0 255
0 0 255
0 0 254
0 0 255
0 0 255
0 0 255
0 0 254
0 0 255
0 0 255
0 0 254
0 0 254
0 0 253
0 0 254
0 0 255
0 0 253
0 0 254
0 0 255
0 0 255
0 0 254
0 0 254
0 0 255
0 0 254
0 0 253
0 0 255
0 0 254
0 0 254
0 0 253
0 0 255
0 0 255
0 0 255
0 0 253
0 0 254
0 0 254
0 0 253
0 0 254
0 0 255
0 0 254
0 0 255
0 0 254
0 0 253
0 0 252
0 0 254
0 0 252
0 0 250
0 0 255
0 0 254
0 0 250
0 0 252
0 0 254
0 0 253
0 0 255
0 0 254
0 0 252
0 0 253
0 0 252
0 0 252
0 0 250
0 0 255
0 0 249
0 0 253
0 0 254
0 0 252
0 0 250
0 0 253
0 0 253
0 0 254
0 0 248
0 0 255
0 0 253
0 0 253
0 0 253
0 0 252
0 0 249
0 0 250
0 0 252
0 0 253
0 0 250
0 0 252
0 0 248
0 0 255
0 0 250
0 0 250
0 0 252
0 0 246
0 0 252
0 0 253
0 0 253
0 0 249
0 0 249
0 0 253
0 0 253
0 0 246
0 0 246
0 0 249
0 0 250
0 0 254
0 0 249
0 0 253
0 0 252
0 0 249
0 0 250
0 0 249
0 0 250
0 0 250
0 0 246
0 0 249
0 0 250
0 0 252
0 0 245
0 0 245
0 0 249
0 0 249
0 0 250
0 0 244
0 0 242
0 0 246
0 0 245
0 0 245
0 0 246
0 0 242
0 0 246
0 0 249
0 0 248
0 0 245
0 0 240
0 0 237
0 0 245
0 0 246
0 0 241
0 0 249
0 0 244
0 0 246
0 0 240
0 0 236
0 0 233
0 0 233
0 0 242
0 0 241
0 0 242
0 0 244
0 0 242
0 0 234
0 0 236
0 0 244
0 0 244
0 0 242
0 0 233
0 0 241
0 0 234
0 0 237
0 0 242
0 0 228
0 0 228
0 0 233
0 0 238
0 0 227
0 0 228
0 0 230
0 0 224
0 0 215
0 0 223
0 0 221
0 0 224
0 0 224
0 0 226
0 0 231
0 0 214
0 0 221
0 0 217
0 0 207
0 0 215
0 0 214
0 0 211
0 0 212
0 0 198
0 0 207
0 0 201
0 0 191
0 0 201
0 0 189
0 0 165
0 0 177
0 0 175
0 0 175
0 0 182
0 0 169
0 0 175
0 0 173
0 0 173
0 0 149
0 0 122
0 0 117
0 0 108
55 58 117
225 238 255
225 238 255
114 58 62
87 0 0
114 0 0
97 0 0
130 0 0
123 0 0
146 0 0
142 0 0
149 0 0
160 0 0
165 0 0
167 0 0
161 0 0
176 0 0
176 0 0
180 0 0
174 0 0
190 0 0
181 0 0
177 0 0
184 0 0
178 0 0
195 0 0
193 0 0
193 0 0
183 0 0
203 0 0
198 0 0
193 0 0
195 0 0
201 0 0
200 0 0
203 0 0
204 0 0
208 0 0
205 0 0
202 0 0
197 0 0
204 0 0
203 0 0
202 0 0
202 0 0
205 0 0
205 0 0
210 0 0
209 0 0
199 0 0
213 0 0
206 0 0
204 0 0
208 0 0
208 0 0
213 0 0
211 0 0
214 0 0
209 0 0
213 0 0
211 0 0
210 0 0
207 0 0
210 0 0
211 0 0
217 0 0
211 0 0
219 0 0
213 0 0
220 0 0
214 0 0
213 0 0
216 0 0
222 0 0
219 0 0
215 0 0
213 0 0
219 0 0
218 0 0
212 0 0
217 0 0
212 0 0
215 0 0
216 0 0
212 0 0
215 0 0
211 0 0
218 0 0
208 0 0
220 0 0
212 0 0
212 0 0
219 0 0
211 0 0
217 0 0
215 0 0
222 0 0
218 0 0
211 0 0
223 0 0
218 0 0
215 0 0
220 0 0
218 0 0
214 0 0
216 0 0
220 0 0
215 0 0
213 0 0
220 0 0
218 0 0
219 0 0
216 0 0
215 0 0
217 0 0
215 0 0
213 0 0
221 0 0
215 0 0
220 0 0
218 0 0
220 0 0
220 0 0
221 0 0
221 0 0
223 0 0
219 0 0
218 0 0
222 0 0
223 0 0
219 0 0
214 0 0
220 0 0
220 0 0
219 0 0
223 0 0
219 0 0
221 0 0
220 0 0
219 0 0
219 0 0
222 0 0
218 0 0
218 0 0
220 0 0
216 0 0
223 0 0
219 0 0
218 0 0
224 0 0
221 0 0
216 0 0
220 0 0
223 0 0
222 0 0
227 0 0
220 0 0
221 0 0
223 0 0
223 0 0
221 0 0
223 0 0
223 0 0
218 0 0
220 0 0
224 0 0
219 0 0
224 0 0
218 0 0
220 0 0
220 0 0
218 0 0
222 0 0
221 0 0
223 0 0
220 0 0
222 0 0
220 0 0
222 0 0
223 0 0
221 0 0
221 0 0
222 0 0
219 0 0
221 0 0
222 0 0
221 0 0
225 0 0
223 0 0
224 0 0
225 0 0
223 0 0
225 0 0
222 0 0
221 0 0
222 0 0
223 0 0
226 0 0
222 0 0
222 0 0
222 0 0
222 0 0
0 0 255
0 0 255
0 0 255
0 0 255
0 0 254
0 0 255
0 0 254
0 0 255
0 0 254
0 0 254
0 0 253
0 0 255
0 0 254
0 0 255
0 0 254
0 0 255
0 0 253
0 0 254
0 0 255
0 0 253
0 0 254
0 0 255
0 0 254
0 0 255
0 0 253
0 0 253
0 0 255
0 0 255
0 0 255
0 0 253
0 0 254
0 0 255
0 0 252
0 0 254
0 0 253
0 0 254
0 0 253
0 0 253
0 0 250
0 0 255
0 0 252
0 0 253
0 0 254
0 0 253
0 0 253
0 0 252
0 0 253
0 0 253
0 0 253
0 0 254
0 0 253
0 0 252
0 0 253
0 0 255
0 0 253
0 0 254
0 0 252
0 0 253
0 0 254
0 0 253
0 0 252
0 0 253
0 0 253
0 0 249
0 0 255
0 0 253
0 0 248
0 0 252
0 0 253
0 0 253
0 0 254
0 0 250
0 0 248
0 0 254
0 0 249
0 0 252
0 0 252
0 0 254
0 0 253
0 0 248
0 0 253
0 0 252
0 0 249
0 0 250
0 0 250
0 0 249
0 0 253
0 0 254
0 0 249
0 0 253
0 0 254
0 0 249
0 0 246
0 0 252
0 0 246
0 0 249
0 0 252
0 0 246
0 0 249
0 0 249
0 0 248
0 0 250
0 0 252
0 0 246
0 0 248
0 0 249
0 0 250
0 0 250
0 0 252
0 0 242
0 0 249
0 0 250
0 0 248
0 0 249
0 0 244
0 0 245
0 0 249
0 0 252
0 0 250
0 0 245
0 0 252
0 0 252
0 0 250
0 0 248
0 0 238
0 0 248
0 0 246
0 0 246
0 0 245
0 0 242
0 0 245
0 0 241
0 0 242
0 0 238
0 0 244
0 0 241
0 0 237
0 0 242
0 0 246
0 0 245
0 0 244
0 0 234
0 0 241
0 0 241
0 0 237
0 0 238
0 0 228
0 0 234
0 0 245
0 0 237
0 0 233
0 0 231
0 0 233
0 0 238
0 0 241
0 0 231
0 0 236
0 0 238
0 0 237
0 0 231
0 0 230
0 0 221
0 0 227
0 0 221
0 0 223
0 0 224
0 0 218
0 0 217
0 0 221
0 0 221
0 0 230
0 0 217
0 0 226
0 0 217
0 0 211
0 0 207
0 0 214
0 0 214
0 0 209
0 0 203
0 0 194
0 0 198
0 0 215
0 0 211
0 0 201
0 0 184
0 0 196
0 0 186
0 0 193
0 0 179
0 0 167
0 0 173
0 0 175
0 0 135
0 0 140
0 0 140
0 0 147
0 0 120
106 111 149
226 238 255
226 238 255
124 114 122
110 0 0
118 0 0
112 0 0
135 0 0
134 0 0
144 0 0
150 0 0
151 0 0
146 0 0
151 0 0
167 0 0
179 0 0
166 0 0
174 0 0
170 0 0
188 0 0
171 0 0
174 0 0
177 0 0
192 0 0
187 0 0
196 0 0
191 0 0
199 0 0
199 0 0
202 0 0
190 0 0
188 0 0
193 0 0
195 0 0
190 0 0
197 0 0
196 0 0
179 0 0
205 0 0
205 0 0
189 0 0
200 0 0
204 0 0
207 0 0
202 0 0
202 0 0
210 0 0
208 0 0
200 0 0
206 0 0
210 0 0
214 0 0
207 0 0
212 0 0
207 0 0
208 0 0
212 0 0
217 0 0
212 0 0
209 0 0
212 0 0
215 0 0
206 0 0
213 0 0
217 0 0
213 0 0
220 0 0
214 0 0
216 0 0
212 0 0
212 0 0
208 0 0
213 0 0
217 0 0
219 0 0
211 0 0
216 0 0
222 0 0
214 0 0
213 0 0
221 0 0
208 0 0
216 0 0
214 0 0
215 0 0
209 0 0
213 0 0
219 0 0
214 0 0
212 0 0
215 0 0
211 0 0
215 0 0
218 0 0
223 0 0
218 0 0
218 0 0
217 0 0
219 0 0
207 0 0
214 0 0
215 0 0
222 0 0
215 0 0
225 0 0
222 0 0
212 0 0
222 0 0
224 0 0
220 0 0
219 0 0
219 0 0
222 0 0
220 0 0
223 0 0
217 0 0
215 0 0
216 0 0
215 0 0
220 0 0
211 0 0
221 0 0
225 0 0
225 0 0
223 0 0
223 0 0
221 0 0
220 0 0
219 0 0
225 0 0
223 0 0
218 0 0
219 0 0
219 0 0
221 0 0
219 0 0
218 0 0
221 0 0
224 0 0
221 0 0
223 0 0
221 0 0
220 0 0
225 0 0
215 0 0
224 0 0
215 0 0
223 0 0
222 0 0
223 0 0
219 0 0
221 0 0
223 0 0
221 0 0
220 0 0
219 0 0
219 0 0
218 0 0
219 0 0
219 0 0
226 0 0
217 0 0
220 0 0
222 0 0
223 0 0
221 0 0
222 0 0
220 0 0
227 0 0
221 0 0
220 0 0
226 0 0
219 0 0
221 0 0
221 0 0
225 0 0
223 0 0
224 0 0
220 0 0
224 0 0
219 0 0
220 0 0
220 0 0
220 0 0
223 0 0
223 0 0
219 0 0
223 0 0
221 0 0
222 0 0
222 0 0
223 0 0
223 0 0
221 0 0
221 0 0
218 0 0
220 0 0
222 0 0
220 0 0
222 0 0
222 0 0
224 0 0
0 0 254
0 0 252
0 0 250
0 0 255
0 0 255
0 0 255
0 0 255
0 0 255
0 0 255
0 0 255
0 0 255
0 0 254
0 0 255
0 0 255
0 0 255
0 0 255
0 0 253
0 0 255
0 0 255
0 0 253
0 0 254
0 0 252
0 0 250
0 0 255
0 0 254
0 0 255
0 0 250
0 0 253
0 0 254
0 0 255
0 0 254
0 0 255
0 0 254
0 0 254
0 0 254
0 0 253
0 0 255
0 0 254
0 0 255
0 0 250
0 0 253
0 0 253
0 0 252
0 0 255
0 0 255
0 0 255
0 0 250
0 0 254
0 0 254
0 0 254
0 0 254
0 0 254
0 0 254
0 0 254
0 0 250
0 0 255
0 0 252
0 0 254
0 0 253
0 0 255
0 0 253
0 0 254
0 0 255
0 0 253
0 0 253
0 0 252
0 0 252
0 0 250
0 0 250
0 0 250
0 0 255
0 0 252
0 0 250
0 0 254
0 0 252
0 0 250
0 0 250
0 0 252
0 0 249
0 0 254
0 0 254
0 0 245
0 0 249
0 0 254
0 0 248
0 0 246
0 0 252
0 0 252
0 0 253
0 0 253
0 0 248
0 0 252
0 0 252
0 0 252
0 0 250
0 0 254
0 0 250
0 0 248
0 0 252
0 0 250
0 0 245
0 0 252
0 0 248
0 0 252
0 0 250
0 0 250
0 0 245
0 0 245
0 0 248
0 0 245
0 0 246
0 0 240
0 0 240
0 0 252
0 0 245
0 0 248
0 0 240
0 0 246
0 0 249
0 0 249
0 0 245
0 0 250
0 0 244
0 0 246
0 0 245
0 0 245
0 0 249
0 0 245
0 0 241
0 0 246
0 0 241
0 0 238
0 0 246
0 0 248
0 0 245
0 0 242
0 0 250
0 0 238
0 0 236
0 0 242
0 0 245
0 0 246
0 0 234
0 0 240
0 0 241
0 0 241
0 0 238
0 0 241
0 0 241
0 0 233
0 0 242
0 0 230
0 0 236
0 0 242
0 0 242
0 0 231
0 0 228
0 0 237
0 0 227
0 0 227
0 0 244
0 0 233
0 0 226
0 0 227
0 0 223
0 0 231
0 0 223
0 0 221
0 0 217
0 0 226
0 0 223
0 0 226
0 0 218
0 0 217
0 0 221
0 0 203
0 0 204
0 0 226
0 0 206
0 0 214
0 0 215
0 0 209
0 0 211
0 0 204
0 0 191
0 0 193
0 0 189
0 0 182
0 0 188
0 0 171
0 0 173
0 0 167
0 0 171
0 0 144
0 0 153
0 0 130
0 0 133
0 0 111
153 161 184
226 238 255
226 238 255
177 168 181
118 0 0
121 0 0
108 0 0
122 0 0
139 0 0
139 0 0
154 0 0
164 0 0
158 0 0
166 0 0
156 0 0
177 0 0
176 0 0
165 0 0
177 0 0
175 0 0
187 0 0
195 0 0
177 0 0
194 0 0
196 0 0
190 0 0
185 0 0
183 0 0
193 0 0
202 0 0
196 0 0
189 0 0
197 0 0
191 0 0
183 0 0
200 0 0
195 0 0
199 0 0
199 0 0
194 0 0
197 0 0
196 0 0
199 0 0
210 0 0
204 0 0
206 0 0
206 0 0
209 0 0
202 0 0
202 0 0
207 0 0
212 0 0
212 0 0
215 0 0
203 0 0
205 0 0
202 0 0
205 0 0
210 0 0
207 0 0
211 0 0
207 0 0
205 0 0
219 0 0
211 0 0
215 0 0
214 0 0
216 0 0
210 0 0
212 0 0
216 0 0
209 0 0
215 0 0
213 0 0
211 0 0
212 0 0
207 0 0
209 0 0
220 0 0
213 0 0
213 0 0
216 0 0
216 0 0
218 0 0
217 0 0
218 0 0
220 0 0
218 0 0
213 0 0
213 0 0
219 0 0
218 0 0
214 0 0
219 0 0
215 0 0
220 0 0
212 0 0
218 0 0
222 0 0
213 0 0
215 0 0
219 0 0
213 0 0
218 0 0
222 0 0
220 0 0
220 0 0
222 0 0
218 0 0
215 0 0
221 0 0
221 0 0
220 0 0
217 0 0
217 0 0
218 0 0
222 0 0
223 0 0
225 0 0
221 0 0
221 0 0
217 0 0
218 0 0
222 0 0
220 0 0
223 0 0
222 0 0
223 0 0
217 0 0
218 0 0
221 0 0
217 0 0
227 0 0
220 0 0
222 0 0
217 0 0
218 0 0
217 0 0
225 0 0
224 0 0
218 0 0
218 0 0
222 0 0
219 0 0
220 0 0
221 0 0
226 0 0
219 0 0
224 0 0
223 0 0
221 0 0
218 0 0
224 0 0
222 0 0
220 0 0
223 0 0
217 0 0
224 0 0
218 0 0
222 0 0
222 0 0
221 0 0
221 0 0
223 0 0
222 0 0
221 0 0
224 0 0
223 0 0
218 0 0
222 0 0
225 0 0
220 0 0
222 0 0
224 0 0
219 0 0
221 0 0
224 0 0
223 0 0
223 0 0
220 0 0
221 0 0
221 0 0
223 0 0
221 0 0
219 0 0
224 0 0
221 0 0
226 0 0
225 0 0
221 0 0
226 0 0
223 0 0
221 0 0
224 0 0
222 0 0
219 0 0
222 0 0
222 0 0
221 0 0
224 0 0
224 0 0
223 0 0
0 0 255
0 0 255
0 0 255
0 0 254
0 0 255
0 0 255
0 0 254
0 0 255
0 0 254
0 0 255
0 0 254
0 0 255
0 0 255
0 0 254
0 0 254
0 0 255
0 0 254
0 0 255
0 0 255
0 0 253
0 0 254
0 0 253
0 0 254
0 0 254
0 0 255
0 0 253
0 0 252
0 0 255
0 0 253
0 0 254
0 0 254
0 0 253
0 0 253
0 0 254
0 0 255
0 0 252
0 0 255
0 0 254
0 0 254
0 0 253
0 0 252
0 0 254
0 0 254
0 0 253
0 0 255
0 0 254
0 0 255
0 0 255
0 0 252
0 0 254
0 0 252
0 0 254
0 0 253
0 0 255
0 0 255
0 0 253
0 0 253
0 0 254
0 0 252
0 0 252
0 0 253
0 0 255
0 0 254
0 0 254
0 0 250
0 0 253
0 0 253
0 0 255
0 0 252
0 0 249
0 0 250
0 0 254
0 0 250
0 0 255
0 0 253
0 0 253
0 0 255
0 0 253
0 0 252
0 0 254
0 0 250
0 0 253
0 0 249
0 0 252
0 0 255
0 0 250
0 0 248
0 0 252
0 0 246
0 0 252
0 0 252
0 0 250
0 0 252
0 0 249
0 0 250
0 0 249
0 0 250
0 0 252
0 0 245
0 0 244
0 0 254
0 0 253
0 0 252
0 0 253
0 0 245
0 0 252
0 0 252
0 0 248
0 0 249
0 0 246
0 0 241
0 0 252
0 0 246
0 0 248
0 0 248
0 0 248
0 0 242
0 0 242
0 0 245
0 0 249
0 0 245
0 0 248
0 0 244
0 0 249
0 0 246
0 0 242
0 0 244
0 0 238
0 0 246
0 0 241
0 0 242
0 0 244
0 0 245
0 0 244
0 0 245
0 0 241
0 0 238
0 0 245
0 0 242
0 0 242
0 0 234
0 0 242
0 0 240
0 0 246
0 0 234
0 0 241
0 0 241
0 0 240
0 0 242
0 0 233
0 0 223
0 0 237
0 0 236
0 0 241
0 0 236
0 0 237
0 0 234
0 0 236
0 0 231
0 0 231
0 0 230
0 0 228
0 0 233
0 0 233
0 0 221
0 0 214
0 0 230
0 0 227
0 0 230
0 0 228
0 0 212
0 0 217
0 0 221
0 0 218
0 0 218
0 0 207
0 0 203
0 0 211
0 0 206
0 0 209
0 0 212
0 0 189
0 0 204
0 0 199
0 0 186
0 0 191
0 0 198
0 0 167
0 0 189
0 0 189
0 0 182
0 0 169
0 0 171
0 0 169
0 0 173
0 0 133
0 0 114
0 0 125
163 172 201
226 238 255
226 238 255
195 191 204
118 0 0
105 0 0
130 0 0
144 0 0
149 0 0
149 0 0
150 0 0
159 0 0
156 0 0
153 0 0
170 0 0
163 0 0
186 0 0
169 0 0
168 0 0
175 0 0
188 0 0
189 0 0
184 0 0
200 0 0
186 0 0
178 0 0
190 0 0
198 0 0
188 0 0
199 0 0
189 0 0
194 0 0
188 0 0
194 0 0
206 0 0
204 0 0
206 0 0
208 0 0
204 0 0
210 0 0
205 0 0
201 0 0
201 0 0
206 0 0
200 0 0
209 0 0
205 0 0
212 0 0
201 0 0
206 0 0
199 0 0
198 0 0
204 0 0
210 0 0
211 0 0
204 0 0
208 0 0
209 0 0
204 0 0
207 0 0
214 0 0
213 0 0
203 0 0
216 0 0
208 0 0
213 0 0
217 0 0
217 0 0
209 0 0
215 0 0
217 0 0
213 0 0
212 0 0
209 0 0
216 0 0
218 0 0
216 0 0
215 0 0
210 0 0
214 0 0
217 0 0
221 0 0
223 0 0
221 0 0
214 0 0
208 0 0
213 0 0
218 0 0
219 0 0
213 0 0
213 0 0
217 0 0
215 0 0
215 0 0
218 0 0
219 0 0
216 0 0
214 0 0
218 0 0
217 0 0
217 0 0
214 0 0
218 0 0
220 0 0
215 0 0
219 0 0
219 0 0
217 0 0
221 0 0
222 0 0
217 0 0
222 0 0
217 0 0
222 0 0
219 0 0
219 0 0
219 0 0
217 0 0
216 0 0
221 0 0
214 0 0
220 0 0
224 0 0
221 0 0
223 0 0
219 0 0
220 0 0
218 0 0
221 0 0
218 0 0
224 0 0
220 0 0
217 0 0
222 0 0
219 0 0
223 0 0
223 0 0
218 0 0
221 0 0
220 0 0
220 0 0
220 0 0
222 0 0
220 0 0
216 0 0
223 0 0
222 0 0
221 0 0
221 0 0
220 0 0
219 0 0
220 0 0
225 0 0
220 0 0
222 0 0
215 0 0
219 0 0
224 0 0
217 0 0
224 0 0
221 0 0
223 0 0
216 0 0
222 0 0
219 0 0
223 0 0
217 0 0
220 0 0
215 0 0
219 0 0
221 0 0
225 0 0
220 0 0
219 0 0
219 0 0
223 0 0
222 0 0
225 0 0
222 0 0
223 0 0
224 0 0
224 0 0
224 0 0
221 0 0
224 0 0
224 0 0
221 0 0
220 0 0
225 0 0
225 0 0
220 0 0
224 0 0
224 0 0
222 0 0
223 0 0
220 0 0
220 0 0
226 0 0
223 0 0
221 0 0
222 0 0
224 0 0
0 0 254
0 0 255
0 0 255
0 0 255
0 0 254
0 0 255
0 0 254
0 0 255
0 0 255
0 0 254
0 0 254
0 0 255
0 0 255
0 0 254
0 0 255
0 0 255
0 0 254
0 0 254
0 0 255
0 0 255
0 0 255
0 0 255
0 0 254
0 0 254
0 0 253
0 0 250
0 0 255
0 0 254
0 0 254
0 0 255
0 0 253
0 0 254
0 0 255
0 0 254
0 0 253
0 0 254
0 0 255
0 0 254
0 0 254
0 0 253
0 0 253
0 0 253
0 0 254
0 0 254
0 0 252
0 0 253
0 0 255
0 0 253
0 0 254
0 0 255
0 0 253
0 0 254
0 0 254
0 0 252
0 0 253
0 0 253
0 0 255
0 0 253
0 0 253
0 0 254
0 0 253
0 0 250
0 0 250
0 0 254
0 0 253
0 0 253
0 0 252
0 0 254
0 0 254
0 0 250
0 0 250
0 0 253
0 0 249
0 0 249
0 0 252
0 0 250
0 0 249
0 0 250
0 0 253
0 0 250
0 0 249
0 0 253
0 0 249
0 0 252
0 0 253
0 0 253
0 0 254
0 0 253
0 0 254
0 0 245
0 0 248
0 0 249
0 0 253
0 0 253
0 0 250
0 0 246
0 0 249
0 0 250
0 0 249
0 0 246
0 0 250
0 0 245
0 0 249
0 0 252
0 0 253
0 0 250
0 0 244
0 0 250
0 0 249
0 0 250
0 0 245
0 0 252
0 0 246
0 0 249
0 0 244
0 0 246
0 0 244
0 0 241
0 0 249
0 0 248
0 0 250
0 0 248
0 0 248
0 0 248
0 0 245
0 0 248
0 0 250
0 0 244
0 0 241
0 0 237
0 0 238
0 0 240
0 0 228
0 0 244
0 0 246
0 0 248
0 0 234
0 0 246
0 0 240
0 0 249
0 0 250
0 0 244
0 0 238
0 0 238
0 0 231
0 0 238
0 0 242
0 0 230
0 0 238
0 0 237
0 0 240
0 0 240
0 0 227
0 0 228
0 0 231
0 0 227
0 0 234
0 0 233
0 0 223
0 0 234
0 0 233
0 0 221
0 0 230
0 0 223
0 0 224
0 0 223
0 0 224
0 0 224
0 0 227
0 0 223
0 0 231
0 0 207
0 0 223
0 0 220
0 0 212
0 0 209
0 0 211
0 0 204
0 0 218
0 0 215
0 0 201
0 0 204
0 0 201
0 0 194
0 0 196
0 0 198
0 0 201
0 0 184
0 0 201
0 0 169
0 0 163
0 0 171
0 0 167
0 0 151
0 0 153
0 0 117
0 0 120
0 0 108
206 217 237
227 239 255
227 239 255
215 220 236
111 0 0
110 0 0
110 0 0
154 0 0
141 0 0
131 0 0
160 0 0
154 0 0
156 0 0
169 0 0
164 0 0
174 0 0
185 0 0
163 0 0
176 0 0
184 0 0
180 0 0
183 0 0
185 0 0
176 0 0
197 0 0
185 0 0
192 0 0
178 0 0
197 0 0
193 0 0
179 0 0
200 0 0
193 0 0
201 0 0
196 0 0
206 0 0
201 0 0
196 0 0
198 0 0
196 0 0
203 0 0
203 0 0
206 0 0
193 0 0
210 0 0
202 0 0
215 0 0
201 0 0
206 0 0
204 0 0
205 0 0
212 0 0
211 0 0
213 0 0
208 0 0
211 0 0
212 0 0
212 0 0
213 0 0
208 0 0
217 0 0
214 0 0
203 0 0
213 0 0
214 0 0
209 0 0
214 0 0
216 0 0
215 0 0
212 0 0
215 0 0
214 0 0
213 0 0
219 0 0
215 0 0
210 0 0
219 0 0
213 0 0
219 0 0
218 0 0
219 0 0
218 0 0
215 0 0
218 0 0
216 0 0
215 0 0
214 0 0
218 0 0
219 0 0
216 0 0
209 0 0
218 0 0
217 0 0
221 0 0
213 0 0
214 0 0
218 0 0
222 0 0
218 0 0
222 0 0
221 0 0
219 0 0
213 0 0
219 0 0
216 0 0
220 0 0
220 0 0
222 0 0
222 0 0
223 0 0
221 0 0
217 0 0
214 0 0
220 0 0
216 0 0
219 0 0
218 0 0
221 0 0
219 0 0
222 0 0
220 0 0
221 0 0
222 0 0
216 0 0
218 0 0
220 0 0
220 0 0
223 0 0
223 0 0
226 0 0
219 0 0
224 0 0
219 0 0
218 0 0
217 0 0
226 0 0
220 0 0
220 0 0
221 0 0
224 0 0
224 0 0
219 0 0
220 0 0
224 0 0
221 0 0
222 0 0
222 0 0
222 0 0
224 0 0
220 0 0
221 0 0
220 0 0
222 0 0
219 0 0
220 0 0
220 0 0
223 0 0
221 0 0
219 0 0
222 0 0
220 0 0
221 0 0
223 0 0
220 0 0
218 0 0
225 0 0
224 0 0
220 0 0
225 0 0
221 0 0
224 0 0
224 0 0
220 0 0
220 0 0
219 0 0
222 0 0
218 0 0
219 0 0
225 0 0
223 0 0
226 0 0
224 0 0
222 0 0
223 0 0
226 0 0
221 0 0
222 0 0
220 0 0
222 0 0
223 0 0
222 0 0
221 0 0
218 0 0
223 0 0
218 0 0
222 0 0
222 0 0
221 0 0
221 0 0
223 0 0
224 0 0
218 0 0
0 0 254
0 0 255
0 0 254
0 0 255
0 0 255
0 0 252
0 0 254
0 0 255
0 0 255
0 0 255
0 0 254
0 0 254
0 0 255
0 0 255
0 0 255
0 0 254
0 0 255
0 0 255
0 0 253
0 0 255
0 0 255
0 0 254
0 0 253
0 0 253
0 0 254
0 0 255
0 0 253
0 0 254
0 0 255
0 0 255
0 0 255
0 0 254
0 0 254
0 0 254
0 0 253
0 0 254
0 0 253
0 0 254
0 0 252
0 0 253
0 0 253
0 0 255
0 0 252
0 0 253
0 0 255
0 0 248
0 0 254
0 0 253
0 0 254
0 0 252
0 0 249
0 0 254
0 0 254
0 0 253
0 0 253
0 0 254
0 0 254
0 0 254
0 0 253
0 0 249
0 0 254
0 0 250
0 0 250
0 0 253
0 0 253
0 0 254
0 0 249
0 0 252
0 0 249
0 0 253
0 0 250
0 0 255
0 0 253
0 0 253
0 0 250
0 0 246
0 0 252
0 0 253
0 0 249
0 0 254
0 0 248
0 0 255
0 0 252
0 0 249
0 0 252
0 0 246
0 0 249
0 0 254
0 0 252
0 0 250
0 0 252
0 0 250
0 0 252
0 0 252
0 0 246
0 0 250
0 0 249
0 0 246
0 0 246
0 0 245
0 0 246
0 0 250
0 0 250
0 0 248
0 0 249
0 0 249
0 0 250
0 0 253
0 0 242
0 0 244
0 0 253
0 0 248
0 0 246
0 0 242
0 0 240
0 0 252
0 0 246
0 0 250
0 0 248
0 0 249
0 0 244
0 0 249
0 0 242
0 0 250
0 0 249
0 0 238
0 0 249
0 0 242
0 0 242
0 0 240
0 0 244
0 0 245
0 0 244
0 0 237
0 0 234
0 0 245
0 0 241
0 0 244
0 0 242
0 0 240
0 0 241
0 0 241
0 0 236
0 0 238
0 0 234
0 0 241
0 0 233
0 0 237
0 0 237
0 0 238
0 0 237
0 0 230
0 0 234
0 0 238
0 0 226
0 0 237
0 0 237
0 0 226
0 0 240
0 0 238
0 0 236
0 0 230
0 0 236
0 0 221
0 0 231
0 0 221
0 0 230
0 0 220
0 0 223
0 0 224
0 0 227
0 0 215
0 0 220
0 0 215
0 0 228
0 0 218
0 0 217
0 0 217
0 0 207
0 0 215
0 0 209
0 0 201
0 0 198
0 0 204
0 0 196
0 0 209
0 0 204
0 0 191
0 0 188
0 0 173
0 0 181
0 0 171
0 0 157
0 0 159
0 0 161
0 0 151
0 0 122
50 53 133
226 238 254
227 239 255
227 239 255
227 239 255
125 63 67
112 0 0
124 0 0
120 0 0
155 0 0
133 0 0
159 0 0
161 0 0
158 0 0
161 0 0
157 0 0
184 0 0
171 0 0
169 0 0
168 0 0
176 0 0
176 0 0
172 0 0
176 0 0
188 0 0
176 0 0
184 0 0
197 0 0
183 0 0
187 0 0
192 0 0
199 0 0
197 0 0
200 0 0
204 0 0
198 0 0
197 0 0
205 0 0
194 0 0
208 0 0
193 0 0
199 0 0
202 0 0
193 0 0
203 0 0
216 0 0
212 0 0
201 0 0
211 0 0
203 0 0
196 0 0
209 0 0
207 0 0
209 0 0
201 0 0
216 0 0
211 0 0
206 0 0
209 0 0
214 0 0
208 0 0
215 0 0
215 0 0
215 0 0
208 0 0
209 0 0
208 0 0
217 0 0
219 0 0
212 0 0
217 0 0
210 0 0
205 0 0
211 0 0
210 0 0
209 0 0
218 0 0
208 0 0
214 0 0
218 0 0
216 0 0
217 0 0
219 0 0
213 0 0
216 0 0
213 0 0
222 0 0
219 0 0
216 0 0
211 0 0
214 0 0
217 0 0
217 0 0
215 0 0
217 0 0
212 0 0
213 0 0
219 0 0
218 0 0
219 0 0
214 0 0
219 0 0
216 0 0
220 0 0
220 0 0
221 0 0
215 0 0
221 0 0
221 0 0
217 0 0
216 0 0
216 0 0
215 0 0
217 0 0
222 0 0
219 0 0
218 0 0
221 0 0
220 0 0
215 0 0
218 0 0
221 0 0
222 0 0
218 0 0
219 0 0
220 0 0
216 0 0
219 0 0
224 0 0
223 0 0
218 0 0
218 0 0
220 0 0
218 0 0
221 0 0
219 0 0
218 0 0
221 0 0
222 0 0
223 0 0
224 0 0
219 0 0
220 0 0
220 0 0
221 0 0
221 0 0
221 0 0
219 0 0
221 0 0
222 0 0
216 0 0
222 0 0
223 0 0
218 0 0
223 0 0
223 0 0
218 0 0
217 0 0
220 0 0
222 0 0
223 0 0
222 0 0
218 0 0
221 0 0
224 0 0
224 0 0
223 0 0
218 0 0
220 0 0
221 0 0
223 0 0
221 0 0
223 0 0
222 0 0
220 0 0
224 0 0
223 0 0
220 0 0
222 0 0
222 0 0
220 0 0
222 0 0
223 0 0
225 0 0
221 0 0
223 0 0
221 0 0
223 0 0
224 0 0
221 0 0
222 0 0
220 0 0
221 0 0
224 0 0
225 0 0
222 0 0
227 0 0
222 0 0
222 0 0
221 0 0
224 0 0
222 0 0
220 0 0
0 0 255
0 0 255
0 0 254
0 0 255
0 0 255
0 0 254
0 0 254
0 0 255
0 0 255
0 0 255
0 0 254
0 0 253
0 0 255
0 0 255
0 0 254
0 0 254
0 0 255
0 0 255
0 0 254
0 0 254
0 0 254
0 0 255
0 0 255
0 0 254
0 0 255
0 0 254
0 0 254
0 0 254
0 0 253
0 0 254
0 0 255
0 0 254
0 0 254
0 0 255
0 0 254
0 0 254
0 0 254
0 0 253
0 0 253
0 0 255
0 0 254
0 0 255
0 0 252
0 0 255
0 0 254
0 0 253
0 0 254
0 0 254
0 0 252
0 0 254
0 0 254
0 0 252
0 0 253
0 0 252
0 0 254
0 0 252
0 0 252
0 0 254
0 0 252
0 0 254
0 0 252
0 0 254
0 0 252
0 0 254
0 0 253
0 0 252
0 0 253
0 0 255
0 0 254
0 0 255
0 0 253
0 0 252
0 0 254
0 0 255
0 0 252
0 0 255
0 0 250
0 0 249
0 0 248
0 0 250
0 0 253
0 0 249
0 0 250
0 0 252
0 0 253
0 0 253
0 0 252
0 0 245
0 0 248
0 0 245
0 0 252
0 0 253
0 0 249
0 0 249
0 0 249
0 0 245
0 0 246
0 0 252
0 0 254
0 0 250
0 0 252
0 0 249
0 0 254
0 0 245
0 0 252
0 0 246
0 0 250
0 0 250
0 0 249
0 0 249
0 0 249
0 0 249
0 0 250
0 0 242
0 0 250
0 0 254
0 0 242
0 0 253
0 0 245
0 0 242
0 0 240
0 0 244
0 0 244
0 0 254
0 0 248
0 0 248
0 0 245
0 0 240
0 0 242
0 0 245
0 0 248
0 0 240
0 0 244
0 0 236
0 0 241
0 0 242
0 0 242
0 0 233
0 0 236
0 0 244
0 0 233
0 0 241
0 0 244
0 0 245
0 0 246
0 0 241
0 0 245
0 0 242
0 0 237
0 0 234
0 0 233
0 0 233
0 0 231
0 0 237
0 0 223
0 0 230
0 0 236
0 0 226
0 0 227
0 0 238
0 0 224
0 0 217
0 0 238
0 0 228
0 0 221
0 0 221
0 0 237
0 0 226
0 0 217
0 0 224
0 0 221
0 0 221
0 0 224
0 0 211
0 0 215
0 0 212
0 0 218
0 0 211
0 0 203
0 0 211
0 0 217
0 0 203
0 0 203
0 0 182
0 0 191
0 0 203
0 0 191
0 0 193
0 0 165
0 0 171
0 0 175
0 0 182
0 0 171
0 0 149
0 0 142
0 0 155
0 0 137
106 112 147
227 239 255
227 239 255
227 239 255
227 239 255
148 126 135
123 0 0
123 0 0
141 0 0
145 0 0
136 0 0
144 0 0
158 0 0
160 0 0
168 0 0
164 0 0
161 0 0
172 0 0
190 0 0
177 0 0
176 0 0
189 0 0
187 0 0
191 0 0
186 0 0
193 0 0
193 0 0
188 0 0
184 0 0
191 0 0
206 0 0
196 0 0
200 0 0
199 0 0
205 0 0
200 0 0
192 0 0
200 0 0
200 0 0
196 0 0
198 0 0
196 0 0
194 0 0
213 0 0
202 0 0
218 0 0
198 0 0
207 0 0
209 0 0
205 0 0
210 0 0
212 0 0
210 0 0
214 0 0
213 0 0
204 0 0
198 0 0
210 0 0
212 0 0
213 0 0
214 0 0
208 0 0
201 0 0
207 0 0
211 0 0
212 0 0
216 0 0
208 0 0
216 0 0
215 0 0
213 0 0
216 0 0
216 0 0
212 0 0
206 0 0
208 0 0
211 0 0
212 0 0
210 0 0
217 0 0
217 0 0
213 0 0
214 0 0
214 0 0
207 0 0
216 0 0
221 0 0
213 0 0
218 0 0
219 0 0
221 0 0
216 0 0
218 0 0
219 0 0
214 0 0
218 0 0
219 0 0
219 0 0
214 0 0
215 0 0
219 0 0
222 0 0
218 0 0
220 0 0
216 0 0
224 0 0
218 0 0
217 0 0
219 0 0
218 0 0
217 0 0
216 0 0
217 0 0
222 0 0
223 0 0
221 0 0
215 0 0
219 0 0
221 0 0
221 0 0
218 0 0
220 0 0
220 0 0
216 0 0
219 0 0
223 0 0
223 0 0
226 0 0
220 0 0
219 0 0
221 0 0
223 0 0
223 0 0
216 0 0
224 0 0
221 0 0
223 0 0
219 0 0
220 0 0
218 0 0
220 0 0
219 0 0
219 0 0
222 0 0
220 0 0
216 0 0
223 0 0
219 0 0
220 0 0
220 0 0
223 0 0
222 0 0
225 0 0
223 0 0
220 0 0
222 0 0
223 0 0
222 0 0
222 0 0
219 0 0
224 0 0
224 0 0
223 0 0
222 0 0
222 0 0
223 0 0
221 0 0
223 0 0
223 0 0
223 0 0
222 0 0
219 0 0
222 0 0
222 0 0
221 0 0
222 0 0
219 0 0
222 0 0
224 0 0
216 0 0
225 0 0
220 0 0
222 0 0
222 0 0
223 0 0
222 0 0
220 0 0
223 0 0
224 0 0
223 0 0
222 0 0
221 0 0
223 0 0
224 0 0
224 0 0
222 0 0
222 0 0
223 0 0
224 0 0
223 0 0
222 0 0
222 0 0
221 0 0
0 0 255
0 0 254
0 0 254
0 0 252
0 0 254
0 0 255
0 0 254
0 0 255
0 0 254
0 0 254
0 0 255
0 0 254
0 0 254
0 0 255
0 0 255
0 0 255
0 0 255
0 0 254
0 0 255
0 0 255
0 0 253
0 0 254
0 0 253
0 0 255
0 0 255
0 0 255
0 0 253
0 0 254
0 0 255
0 0 254
0 0 255
0 0 253
0 0 252
0 0 253
0 0 255
0 0 252
0 0 254
0 0 254
0 0 254
0 0 255
0 0 253
0 0 254
0 0 254
0 0 253
0 0 253
0 0 255
0 0 254
0 0 254
0 0 253
0 0 254
0 0 252
0 0 254
0 0 255
0 0 252
0 0 255
0 0 254
0 0 254
0 0 249
0 0 252
0 0 253
0 0 253
0 0 253
0 0 249
0 0 255
0 0 252
0 0 250
0 0 252
0 0 250
0 0 253
0 0 252
0 0 254
0 0 252
0 0 250
0 0 253
0 0 249
0 0 253
0 0 253
0 0 250
0 0 254
0 0 252
0 0 250
0 0 244
0 0 252
0 0 253
0 0 252
0 0 249
0 0 252
0 0 248
0 0 250
0 0 253
0 0 253
0 0 253
0 0 249
0 0 248
0 0 252
0 0 250
0 0 253
0 0 248
0 0 249
0 0 248
0 0 253
0 0 250
0 0 250
0 0 253
0 0 240
0 0 250
0 0 244
0 0 249
0 0 252
0 0 242
0 0 250
0 0 245
0 0 252
0 0 248
0 0 244
0 0 246
0 0 250
0 0 248
0 0 246
0 0 245
0 0 246
0 0 242
0 0 245
0 0 240
0 0 250
0 0 249
0 0 245
0 0 249
0 0 246
0 0 242
0 0 238
0 0 246
0 0 246
0 0 240
0 0 240
0 0 240
0 0 244
0 0 241
0 0 242
0 0 233
0 0 240
0 0 237
0 0 238
0 0 236
0 0 245
0 0 231
0 0 238
0 0 238
0 0 237
0 0 240
0 0 238
0 0 237
0 0 238
0 0 241
0 0 228
0 0 238
0 0 233
0 0 233
0 0 230
0 0 236
0 0 237
0 0 233
0 0 238
0 0 236
0 0 230
0 0 226
0 0 215
0 0 220
0 0 223
0 0 231
0 0 227
0 0 227
0 0 223
0 0 209
0 0 214
0 0 224
0 0 206
0 0 221
0 0 209
0 0 206
0 0 209
0 0 188
0 0 201
0 0 199
0 0 194
0 0 204
0 0 188
0 0 184
0 0 169
0 0 186
0 0 171
0 0 157
0 0 159
0 0 159
0 0 147
0 0 137
0 0 135
161 169 203
228 239 255
228 239 255
228 239 255
228 239 255
193 182 194
118 0 0
136 0 0
127 0 0
134 0 0
152 0 0
139 0 0
161 0 0
167 0 0
166 0 0
162 0 0
168 0 0
172 0 0
176 0 0
167 0 0
182 0 0
183 0 0
188 0 0
191 0 0
181 0 0
194 0 0
191 0 0
193 0 0
198 0 0
195 0 0
201 0 0
195 0 0
189 0 0
204 0 0
198 0 0
192 0 0
194 0 0
193 0 0
199 0 0
199 0 0
200 0 0
206 0 0
197 0 0
196 0 0
200 0 0
210 0 0
212 0 0
213 0 0
207 0 0
203 0 0
213 0 0
207 0 0
206 0 0
202 0 0
212 0 0
214 0 0
218 0 0
202 0 0
211 0 0
223 0 0
215 0 0
210 0 0
214 0 0
214 0 0
206 0 0
204 0 0
216 0 0
210 0 0
215 0 0
211 0 0
208 0 0
218 0 0
213 0 0
219 0 0
214 0 0
213 0 0
212 0 0
212 0 0
220 0 0
216 0 0
219 0 0
215 0 0
215 0 0
216 0 0
211 0 0
213 0 0
219 0 0
211 0 0
221 0 0
219 0 0
215 0 0
217 0 0
216 0 0
221 0 0
218 0 0
218 0 0
218 0 0
213 0 0
220 0 0
220 0 0
222 0 0
218 0 0
219 0 0
221 0 0
216 0 0
218 0 0
219 0 0
224 0 0
220 0 0
212 0 0
216 0 0
221 0 0
222 0 0
220 0 0
219 0 0
221 0 0
220 0 0
223 0 0
224 0 0
220 0 0
219 0 0
217 0 0
220 0 0
225 0 0
222 0 0
215 0 0
216 0 0
218 0 0
220 0 0
217 0 0
220 0 0
220 0 0
221 0 0
223 0 0
222 0 0
220 0 0
219 0 0
222 0 0
220 0 0
216 0 0
218 0 0
217 0 0
221 0 0
224 0 0
223 0 0
221 0 0
218 0 0
216 0 0
223 0 0
218 0 0
219 0 0
226 0 0
221 0 0
225 0 0
221 0 0
221 0 0
220 0 0
223 0 0
220 0 0
222 0 0
221 0 0
222 0 0
224 0 0
219 0 0
221 0 0
224 0 0
222 0 0
225 0 0
223 0 0
220 0 0
222 0 0
223 0 0
225 0 0
224 0 0
223 0 0
226 0 0
223 0 0
222 0 0
221 0 0
217 0 0
222 0 0
222 0 0
218 0 0
225 0 0
224 0 0
220 0 0
219 0 0
223 0 0
225 0 0
223 0 0
224 0 0
223 0 0
224 0 0
222 0 0
224 0 0
221 0 0
226 0 0
220 0 0
225 0 0
223 0 0
223 0 0
223 0 0
224 0 0
0 0 255
0 0 255
0 0 254
0 0 255
0 0 254
0 0 255
0 0 255
0 0 254
0 0 255
0 0 254
0 0 255
0 0 255
0 0 254
0 0 254
0 0 255
0 0 250
0 0 255
0 0 255
0 0 255
0 0 255
0 0 254
0 0 255
0 0 255
0 0 255
0 0 253
0 0 255
0 0 254
0 0 252
0 0 255
0 0 255
0 0 255
0 0 254
0 0 254
0 0 253
0 0 254
0 0 253
0 0 255
0 0 254
0 0 254
0 0 255
0 0 254
0 0 253
0 0 252
0 0 253
0 0 255
0 0 253
0 0 254
0 0 254
0 0 250
0 0 254
0 0 254
0 0 255
0 0 254
0 0 253
0 0 253
0 0 252
0 0 254
0 0 252
0 0 252
0 0 249
0 0 249
0 0 254
0 0 254
0 0 253
0 0 250
0 0 252
0 0 253
0 0 252
0 0 254
0 0 252
0 0 255
0 0 250
0 0 250
0 0 254
0 0 249
0 0 252
0 0 254
0 0 252
0 0 255
0 0 248
0 0 252
0 0 249
0 0 250
0 0 248
0 0 252
0 0 250
0 0 250
0 0 253
0 0 252
0 0 250
0 0 252
0 0 250
0 0 249
0 0 252
0 0 250
0 0 248
0 0 250
0 0 249
0 0 249
0 0 249
0 0 252
0 0 250
0 0 253
0 0 248
0 0 242
0 0 242
0 0 244
0 0 249
0 0 252
0 0 252
0 0 250
0 0 252
0 0 249
0 0 249
0 0 250
0 0 248
0 0 244
0 0 248
0 0 245
0 0 252
0 0 249
0 0 249
0 0 242
0 0 244
0 0 245
0 0 249
0 0 244
0 0 244
0 0 238
0 0 246
0 0 234
0 0 250
0 0 242
0 0 240
0 0 248
0 0 240
0 0 245
0 0 233
0 0 246
0 0 240
0 0 241
0 0 241
0 0 240
0 0 242
0 0 249
0 0 236
0 0 231
0 0 240
0 0 230
0 0 237
0 0 241
0 0 240
0 0 238
0 0 237
0 0 234
0 0 233
0 0 236
0 0 220
0 0 231
0 0 227
0 0 234
0 0 233
0 0 227
0 0 226
0 0 230
0 0 227
0 0 228
0 0 223
0 0 221
0 0 226
0 0 218
0 0 218
0 0 212
0 0 227
0 0 209
0 0 211
0 0 218
0 0 204
0 0 207
0 0 215
0 0 217
0 0 191
0 0 214
0 0 203
0 0 189
0 0 211
0 0 179
0 0 203
0 0 184
0 0 182
0 0 186
0 0 167
0 0 163
0 0 161
0 0 159
0 0 165
0 0 117
204 214 237
228 239 255
228 239 255
228 239 255
228 239 255
213 214 228
105 0 0
124 0 0
132 0 0
131 0 0
158 0 0
150 0 0
164 0 0
176 0 0
180 0 0
168 0 0
161 0 0
168 0 0
167 0 0
168 0 0
186 0 0
185 0 0
195 0 0
184 0 0
182 0 0
194 0 0
185 0 0
193 0 0
189 0 0
199 0 0
186 0 0
204 0 0
195 0 0
187 0 0
201 0 0
204 0 0
199 0 0
215 0 0
201 0 0
204 0 0
197 0 0
207 0 0
188 0 0
201 0 0
199 0 0
212 0 0
203 0 0
211 0 0
202 0 0
214 0 0
208 0 0
208 0 0
212 0 0
208 0 0
212 0 0
212 0 0
207 0 0
212 0 0
206 0 0
205 0 0
207 0 0
211 0 0
218 0 0
216 0 0
218 0 0
216 0 0
214 0 0
210 0 0
213 0 0
218 0 0
219 0 0
218 0 0
212 0 0
207 0 0
217 0 0
215 0 0
221 0 0
211 0 0
218 0 0
219 0 0
218 0 0
216 0 0
214 0 0
214 0 0
214 0 0
216 0 0
222 0 0
220 0 0
220 0 0
216 0 0
220 0 0
221 0 0
217 0 0
222 0 0
215 0 0
214 0 0
211 0 0
221 0 0
219 0 0
221 0 0
220 0 0
214 0 0
223 0 0
215 0 0
226 0 0
218 0 0
220 0 0
219 0 0
215 0 0
221 0 0
224 0 0
224 0 0
219 0 0
216 0 0
218 0 0
219 0 0
218 0 0
222 0 0
218 0 0
219 0 0
213 0 0
223 0 0
222 0 0
221 0 0
218 0 0
217 0 0
219 0 0
219 0 0
219 0 0
220 0 0
225 0 0
218 0 0
224 0 0
220 0 0
218 0 0
219 0 0
223 0 0
220 0 0
224 0 0
221 0 0
220 0 0
221 0 0
220 0 0
222 0 0
222 0 0
218 0 0
216 0 0
222 0 0
221 0 0
222 0 0
218 0 0
220 0 0
222 0 0
221 0 0
220 0 0
224 0 0
221 0 0
221 0 0
225 0 0
223 0 0
222 0 0
221 0 0
221 0 0
222 0 0
216 0 0
222 0 0
222 0 0
222 0 0
224 0 0
223 0 0
220 0 0
226 0 0
224 0 0
220 0 0
223 0 0
225 0 0
228 0 0
219 0 0
225 0 0
220 0 0
218 0 0
220 0 0
221 0 0
219 0 0
220 0 0
226 0 0
220 0 0
217 0 0
222 0 0
219 0 0
222 0 0
224 0 0
223 0 0
222 0 0
220 0 0
222 0 0
225 0 0
223 0 0
224 0 0
222 0 0
222 0 0
222 0 0
221 0 0
0 0 254
0 0 255
0 0 254
0 0 255
0 0 255
0 0 254
0 0 255
0 0 255
0 0 255
0 0 255
0 0 255
0 0 252
0 0 254
0 0 255
0 0 255
0 0 254
0 0 252
0 0 254
0 0 255
0 0 250
0 0 254
0 0 254
0 0 255
0 0 252
0 0 255
0 0 255
0 0 254
0 0 253
0 0 254
0 0 253
0 0 253
0 0 255
0 0 254
0 0 255
0 0 255
0 0 254
0 0 254
0 0 253
0 0 250
0 0 254
0 0 254
0 0 254
0 0 253
0 0 254
0 0 254
0 0 252
0 0 254
0 0 254
0 0 253
0 0 253
0 0 255
0 0 253
0 0 253
0 0 250
0 0 255
0 0 253
0 0 253
0 0 254
0 0 252
0 0 254
0 0 255
0 0 254
0 0 250
0 0 254
0 0 254
0 0 254
0 0 253
0 0 254
0 0 252
0 0 255
0 0 253
0 0 254
0 0 255
0 0 252
0 0 254
0 0 250
0 0 248
0 0 252
0 0 252
0 0 254
0 0 252
0 0 252
0 0 253
0 0 253
0 0 253
0 0 253
0 0 246
0 0 245
0 0 252
0 0 253
0 0 253
0 0 253
0 0 245
0 0 250
0 0 249
0 0 252
0 0 254
0 0 252
0 0 246
0 0 249
0 0 252
0 0 252
0 0 248
0 0 249
0 0 253
0 0 252
0 0 249
0 0 245
0 0 248
0 0 250
0 0 245
0 0 248
0 0 252
0 0 245
0 0 249
0 0 248
0 0 248
0 0 250
0 0 240
0 0 246
0 0 249
0 0 249
0 0 246
0 0 242
0 0 246
0 0 246
0 0 242
0 0 248
0 0 249
0 0 246
0 0 250
0 0 238
0 0 242
0 0 238
0 0 236
0 0 241
0 0 241
0 0 248
0 0 238
0 0 240
0 0 248
0 0 249
0 0 241
0 0 237
0 0 237
0 0 240
0 0 240
0 0 237
0 0 236
0 0 233
0 0 234
0 0 226
0 0 238
0 0 236
0 0 236
0 0 226
0 0 221
0 0 226
0 0 240
0 0 226
0 0 234
0 0 228
0 0 227
0 0 226
0 0 220
0 0 217
0 0 224
0 0 227
0 0 226
0 0 224
0 0 211
0 0 218
0 0 224
0 0 220
0 0 199
0 0 214
0 0 241
0 0 215
0 0 214
0 0 215
0 0 207
0 0 204
0 0 209
0 0 207
0 0 179
0 0 189
0 0 191
0 0 203
0 0 189
0 0 186
0 0 184
0 0 184
0 0 159
0 0 163
0 0 149
0 0 133
56 58 151
228 239 255
228 239 255
228 239 255
228 239 255
228 239 255
228 239 255
140 41 44
132 0 0
137 0 0
158 0 0
144 0 0
165 0 0
161 0 0
154 0 0
164 0 0
158 0 0
169 0 0
173 0 0
175 0 0
173 0 0
177 0 0
180 0 0
183 0 0
187 0 0
179 0 0
187 0 0
186 0 0
188 0 0
199 0 0
194 0 0
207 0 0
197 0 0
196 0 0
193 0 0
191 0 0
203 0 0
196 0 0
210 0 0
198 0 0
206 0 0
198 0 0
208 0 0
199 0 0
195 0 0
212 0 0
210 0 0
208 0 0
205 0 0
192 0 0
199 0 0
208 0 0
203 0 0
213 0 0
208 0 0
212 0 0
211 0 0
207 0 0
207 0 0
212 0 0
220 0 0
210 0 0
211 0 0
220 0 0
209 0 0
212 0 0
204 0 0
210 0 0
204 0 0
213 0 0
216 0 0
215 0 0
210 0 0
213 0 0
212 0 0
216 0 0
218 0 0
224 0 0
207 0 0
218 0 0
214 0 0
209 0 0
219 0 0
219 0 0
214 0 0
210 0 0
213 0 0
217 0 0
211 0 0
218 0 0
220 0 0
216 0 0
217 0 0
217 0 0
219 0 0
220 0 0
217 0 0
225 0 0
216 0 0
220 0 0
215 0 0
221 0 0
218 0 0
217 0 0
218 0 0
221 0 0
219 0 0
222 0 0
216 0 0
221 0 0
215 0 0
219 0 0
216 0 0
218 0 0
217 0 0
220 0 0
220 0 0
221 0 0
222 0 0
223 0 0
220 0 0
221 0 0
217 0 0
220 0 0
218 0 0
219 0 0
219 0 0
217 0 0
218 0 0
218 0 0
222 0 0
219 0 0
222 0 0
221 0 0
223 0 0
217 0 0
220 0 0
217 0 0
219 0 0
220 0 0
224 0 0
221 0 0
221 0 0
221 0 0
223 0 0
222 0 0
219 0 0
223 0 0
222 0 0
226 0 0
223 0 0
222 0 0
221 0 0
219 0 0
216 0 0
224 0 0
223 0 0
222 0 0
222 0 0
219 0 0
221 0 0
224 0 0
222 0 0
224 0 0
221 0 0
220 0 0
220 0 0
223 0 0
224 0 0
222 0 0
220 0 0
222 0 0
224 0 0
219 0 0
224 0 0
221 0 0
222 0 0
222 0 0
222 0 0
221 0 0
225 0 0
224 0 0
224 0 0
222 0 0
223 0 0
226 0 0
223 0 0
224 0 0
219 0 0
222 0 0
222 0 0
220 0 0
219 0 0
229 0 0
224 0 0
223 0 0
218 0 0
227 0 0
221 0 0
225 0 0
225 0 0
226 0 0
222 0 0
222 0 0
0 0 255
0 0 255
0 0 253
0 0 254
0 0 255
0 0 254
0 0 255
0 0 253
0 0 254
0 0 254
0 0 255
0 0 254
0 0 255
0 0 254
0 0 255
0 0 255
0 0 254
0 0 254
0 0 255
0 0 252
0 0 254
0 0 253
0 0 254
0 0 254
0 0 254
0 0 255
0 0 255
0 0 255
0 0 255
0 0 255
0 0 254
0 0 254
0 0 255
0 0 255
0 0 255
0 0 255
0 0 254
0 0 255
0 0 252
0 0 253
0 0 254
0 0 254
0 0 255
0 0 255
0 0 253
0 0 253
0 0 253
0 0 255
0 0 253
0 0 253
0 0 252
0 0 254
0 0 253
0 0 252
0 0 253
0 0 254
0 0 252
0 0 253
0 0 255
0 0 250
0 0 253
0 0 254
0 0 253
0 0 254
0 0 255
0 0 253
0 0 255
0 0 254
0 0 253
0 0 254
0 0 253
0 0 252
0 0 252
0 0 253
0 0 252
0 0 252
0 0 253
0 0 253
0 0 252
0 0 250
0 0 253
0 0 248
0 0 250
0 0 252
0 0 250
0 0 253
0 0 252
0 0 250
0 0 253
0 0 250
0 0 252
0 0 252
0 0 253
0 0 253
0 0 252
0 0 248
0 0 249
0 0 254
0 0 252
0 0 253
0 0 254
0 0 244
0 0 249
0 0 245
0 0 250
0 0 248
0 0 249
0 0 248
0 0 249
0 0 242
0 0 249
0 0 246
0 0 246
0 0 245
0 0 250
0 0 244
0 0 250
0 0 245
0 0 246
0 0 246
0 0 245
0 0 244
0 0 246
0 0 248
0 0 246
0 0 238
0 0 246
0 0 246
0 0 249
0 0 244
0 0 248
0 0 244
0 0 245
0 0 242
0 0 241
0 0 238
0 0 245
0 0 240
0 0 241
0 0 224
0 0 245
0 0 248
0 0 242
0 0 240
0 0 241
0 0 234
0 0 241
0 0 234
0 0 233
0 0 237
0 0 237
0 0 228
0 0 226
0 0 236
0 0 236
0 0 223
0 0 236
0 0 237
0 0 234
0 0 227
0 0 231
0 0 230
0 0 227
0 0 231
0 0 227
0 0 237
0 0 223
0 0 224
0 0 227
0 0 214
0 0 223
0 0 214
0 0 223
0 0 218
0 0 212
0 0 215
0 0 223
0 0 221
0 0 204
0 0 207
0 0 201
0 0 201
0 0 204
0 0 196
0 0 203
0 0 204
0 0 193
0 0 175
0 0 188
0 0 165
0 0 188
0 0 188
0 0 171
0 0 159
0 0 153
0 0 130
131 137 186
228 240 255
228 240 255
228 240 255
228 240 255
228 240 255
228 240 255
173 142 151
121 0 0
150 0 0
147 0 0
139 0 0
155 0 0
138 0 0
186 0 0
170 0 0
174 0 0
172 0 0
174 0 0
181 0 0
178 0 0
177 0 0
181 0 0
190 0 0
180 0 0
181 0 0
183 0 0
189 0 0
189 0 0
197 0 0
192 0 0
190 0 0
182 0 0
201 0 0
196 0 0
202 0 0
196 0 0
201 0 0
214 0 0
198 0 0
204 0 0
212 0 0
207 0 0
203 0 0
210 0 0
202 0 0
195 0 0
208 0 0
208 0 0
211 0 0
203 0 0
209 0 0
208 0 0
212 0 0
203 0 0
211 0 0
225 0 0
205 0 0
206 0 0
220 0 0
216 0 0
214 0 0
209 0 0
221 0 0
206 0 0
218 0 0
210 0 0
216 0 0
216 0 0
209 0 0
210 0 0
214 0 0
212 0 0
225 0 0
218 0 0
217 0 0
212 0 0
216 0 0
210 0 0
216 0 0
211 0 0
218 0 0
210 0 0
216 0 0
216 0 0
216 0 0
215 0 0
212 0 0
218 0 0
218 0 0
224 0 0
214 0 0
214 0 0
215 0 0
223 0 0
215 0 0
218 0 0
217 0 0
222 0 0
222 0 0
219 0 0
221 0 0
210 0 0
222 0 0
213 0 0
224 0 0
224 0 0
215 0 0
218 0 0
218 0 0
219 0 0
220 0 0
224 0 0
224 0 0
221 0 0
222 0 0
222 0 0
222 0 0
220 0 0
215 0 0
222 0 0
223 0 0
221 0 0
219 0 0
220 0 0
223 0 0
218 0 0
219 0 0
221 0 0
223 0 0
225 0 0
222 0 0
222 0 0
223 0 0
219 0 0
221 0 0
219 0 0
221 0 0
223 0 0
223 0 0
218 0 0
223 0 0
222 0 0
222 0 0
225 0 0
225 0 0
219 0 0
223 0 0
224 0 0
223 0 0
223 0 0
223 0 0
220 0 0
219 0 0
218 0 0
223 0 0
218 0 0
222 0 0
224 0 0
225 0 0
225 0 0
220 0 0
220 0 0
221 0 0
224 0 0
220 0 0
221 0 0
222 0 0
222 0 0
227 0 0
222 0 0
224 0 0
222 0 0
222 0 0
226 0 0
219 0 0
223 0 0
223 0 0
222 0 0
225 0 0
222 0 0
224 0 0
219 0 0
226 0 0
224 0 0
224 0 0
222 0 0
222 0 0
219 0 0
220 0 0
224 0 0
225 0 0
224 0 0
219 0 0
221 0 0
223 0 0
220 0 0
224 0 0
219 0 0
223 0 0
224 0 0
222 0 0
222 0 0
221 0 0
0 0 254
0 0 255
0 0 254
0 0 254
0 0 255
0 0 254
0 0 254
0 0 254
0 0 255
0 0 254
0 0 255
0 0 255
0 0 255
0 0 255
0 0 253
0 0 253
0 0 254
0 0 254
0 0 255
0 0 255
0 0 255
0 0 254
0 0 255
0 0 254
0 0 253
0 0 255
0 0 254
0 0 254
0 0 253
0 0 254
0 0 255
0 0 253
0 0 253
0 0 254
0 0 254
0 0 253
0 0 253
0 0 252
0 0 254
0 0 253
0 0 255
0 0 255
0 0 254
0 0 253
0 0 255
0 0 254
0 0 252
0 0 254
0 0 254
0 0 253
0 0 254
0 0 250
0 0 254
0 0 253
0 0 253
0 0 254
0 0 250
0 0 253
0 0 254
0 0 254
0 0 253
0 0 252
0 0 254
0 0 254
0 0 253
0 0 255
0 0 253
0 0 250
0 0 253
0 0 250
0 0 253
0 0 252
0 0 246
0 0 253
0 0 255
0 0 249
0 0 253
0 0 253
0 0 249
0 0 252
0 0 250
0 0 254
0 0 250
0 0 254
0 0 253
0 0 250
0 0 252
0 0 252
0 0 249
0 0 252
0 0 241
0 0 249
0 0 249
0 0 250
0 0 252
0 0 249
0 0 253
0 0 252
0 0 248
0 0 249
0 0 246
0 0 253
0 0 245
0 0 248
0 0 246
0 0 249
0 0 246
0 0 249
0 0 248
0 0 250
0 0 246
0 0 246
0 0 250
0 0 245
0 0 246
0 0 248
0 0 249
0 0 245
0 0 242
0 0 242
0 0 248
0 0 244
0 0 242
0 0 244
0 0 245
0 0 245
0 0 246
0 0 242
0 0 249
0 0 241
0 0 245
0 0 249
0 0 242
0 0 245
0 0 234
0 0 244
0 0 241
0 0 244
0 0 241
0 0 242
0 0 252
0 0 240
0 0 242
0 0 237
0 0 242
0 0 240
0 0 241
0 0 238
0 0 240
0 0 233
0 0 241
0 0 236
0 0 231
0 0 227
0 0 238
0 0 223
0 0 228
0 0 241
0 0 240
0 0 218
0 0 237
0 0 231
0 0 220
0 0 233
0 0 223
0 0 221
0 0 221
0 0 220
0 0 226
0 0 218
0 0 234
0 0 211
0 0 226
0 0 204
0 0 228
0 0 209
0 0 204
0 0 215
0 0 215
0 0 217
0 0 207
0 0 211
0 0 191
0 0 191
0 0 217
0 0 182
0 0 201
0 0 188
0 0 179
0 0 175
0 0 177
0 0 177
0 0 161
0 0 133
0 0 163
0 0 142
190 199 226
229 240 255
229 240 255
229 240 255
229 240 255
229 240 255
229 240 255
199 193 206
118 0 0
160 0 0
153 0 0
167 0 0
136 0 0
174 0 0
166 0 0
169 0 0
166 0 0
184 0 0
178 0 0
178 0 0
184 0 0
173 0 0
179 0 0
184 0 0
192 0 0
192 0 0
196 0 0
177 0 0
202 0 0
196 0 0
202 0 0
194 0 0
201 0 0
210 0 0
204 0 0
201 0 0
188 0 0
194 0 0
199 0 0
202 0 0
199 0 0
211 0 0
210 0 0
212 0 0
201 0 0
202 0 0
209 0 0
198 0 0
206 0 0
209 0 0
212 0 0
214 0 0
212 0 0
203 0 0
216 0 0
216 0 0
212 0 0
202 0 0
207 0 0
210 0 0
214 0 0
217 0 0
211 0 0
214 0 0
212 0 0
218 0 0
217 0 0
214 0 0
215 0 0
214 0 0
215 0 0
210 0 0
220 0 0
217 0 0
214 0 0
216 0 0
213 0 0
213 0 0
221 0 0
215 0 0
223 0 0
210 0 0
213 0 0
218 0 0
212 0 0
215 0 0
218 0 0
219 0 0
212 0 0
215 0 0
211 0 0
213 0 0
212 0 0
218 0 0
222 0 0
214 0 0
217 0 0
212 0 0
221 0 0
219 0 0
222 0 0
221 0 0
219 0 0
224 0 0
223 0 0
218 0 0
214 0 0
218 0 0
221 0 0
215 0 0
221 0 0
215 0 0
223 0 0
217 0 0
222 0 0
219 0 0
215 0 0
217 0 0
221 0 0
217 0 0
221 0 0
217 0 0
219 0 0
219 0 0
220 0 0
217 0 0
222 0 0
223 0 0
222 0 0
221 0 0
223 0 0
221 0 0
223 0 0
221 0 0
220 0 0
221 0 0
227 0 0
220 0 0
221 0 0
224 0 0
225 0 0
221 0 0
220 0 0
221 0 0
223 0 0
219 0 0
225 0 0
222 0 0
221 0 0
222 0 0
223 0 0
223 0 0
224 0 0
224 0 0
223 0 0
223 0 0
223 0 0
217 0 0
222 0 0
218 0 0
222 0 0
221 0 0
223 0 0
226 0 0
223 0 0
221 0 0
221 0 0
225 0 0
221 0 0
222 0 0
223 0 0
224 0 0
224 0 0
226 0 0
222 0 0
225 0 0
224 0 0
223 0 0
221 0 0
223 0 0
225 0 0
221 0 0
222 0 0
223 0 0
221 0 0
221 0 0
222 0 0
224 0 0
224 0 0
223 0 0
223 0 0
222 0 0
222 0 0
220 0 0
226 0 0
222 0 0
223 0 0
224 0 0
221 0 0
223 0 0
225 0 0
227 0 0
223 0 0
225 0 0
0 0 255
0 0 255
0 0 254
0 0 254
0 0 255
0 0 254
0 0 255
0 0 255
0 0 254
0 0 255
0 0 255
0 0 255
0 0 255
0 0 255
0 0 255
0 0 253
0 0 255
0 0 253
0 0 255
0 0 254
0 0 254
0 0 254
0 0 255
0 0 255
0 0 254
0 0 253
0 0 255
0 0 253
0 0 255
0 0 253
0 0 254
0 0 253
0 0 253
0 0 253
0 0 252
0 0 255
0 0 254
0 0 255
0 0 254
0 0 254
0 0 254
0 0 255
0 0 253
0 0 253
0 0 255
0 0 255
0 0 254
0 0 252
0 0 254
0 0 254
0 0 252
0 0 252
0 0 255
0 0 254
0 0 253
0 0 255
0 0 250
0 0 253
0 0 253
0 0 254
0 0 253
0 0 255
0 0 253
0 0 253
0 0 253
0 0 250
0 0 254
0 0 252
0 0 253
0 0 253
0 0 253
0 0 253
0 0 253
0 0 249
0 0 254
0 0 250
0 0 255
0 0 254
0 0 252
0 0 253
0 0 248
0 0 252
0 0 250
0 0 252
0 0 254
0 0 248
0 0 250
0 0 248
0 0 250
0 0 250
0 0 248
0 0 250
0 0 250
0 0 249
0 0 248
0 0 248
0 0 253
0 0 252
0 0 248
0 0 254
0 0 246
0 0 253
0 0 252
0 0 252
0 0 253
0 0 252
0 0 242
0 0 244
0 0 248
0 0 253
0 0 255
0 0 249
0 0 252
0 0 254
0 0 246
0 0 242
0 0 245
0 0 246
0 0 245
0 0 246
0 0 248
0 0 246
0 0 240
0 0 238
0 0 246
0 0 253
0 0 245
0 0 242
0 0 253
0 0 244
0 0 244
0 0 248
0 0 242
0 0 241
0 0 241
0 0 245
0 0 244
0 0 240
0 0 236
0 0 240
0 0 245
0 0 242
0 0 240
0 0 245
0 0 246
0 0 233
0 0 236
0 0 237
0 0 237
0 0 236
0 0 237
0 0 240
0 0 231
0 0 237
0 0 236
0 0 241
0 0 241
0 0 226
0 0 238
0 0 228
0 0 228
0 0 237
0 0 220
0 0 227
0 0 217
0 0 233
0 0 236
0 0 220
0 0 220
0 0 228
0 0 223
0 0 220
0 0 215
0 0 215
0 0 212
0 0 221
0 0 220
0 0 220
0 0 207
0 0 207
0 0 212
0 0 204
0 0 191
0 0 201
0 0 184
0 0 191
0 0 188
0 0 191
0 0 188
0 0 194
0 0 171
0 0 173
0 0 171
0 0 147
0 0 153
22 24 144
220 230 248
229 240 255
229 240 255
229 240 255
229 240 255
229 240 255
229 240 255
224 231 246
149 34 36
141 0 0
156 0 0
138 0 0
172 0 0
166 0 0
159 0 0
174 0 0
168 0 0
174 0 0
177 0 0
181 0 0
180 0 0
177 0 0
190 0 0
190 0 0
194 0 0
177 0 0
184 0 0
177 0 0
187 0 0
200 0 0
195 0 0
200 0 0
198 0 0
196 0 0
196 0 0
198 0 0
209 0 0
201 0 0
201 0 0
195 0 0
200 0 0
202 0 0
197 0 0
200 0 0
213 0 0
209 0 0
211 0 0
210 0 0
211 0 0
208 0 0
207 0 0
206 0 0
207 0 0
206 0 0
204 0 0
212 0 0
214 0 0
203 0 0
210 0 0
215 0 0
210 0 0
215 0 0
216 0 0
214 0 0
214 0 0
209 0 0
216 0 0
219 0 0
214 0 0
214 0 0
213 0 0
215 0 0
214 0 0
206 0 0
222 0 0
218 0 0
211 0 0
212 0 0
214 0 0
212 0 0
213 0 0
218 0 0
223 0 0
223 0 0
222 0 0
218 0 0
208 0 0
217 0 0
218 0 0
220 0 0
215 0 0
213 0 0
217 0 0
217 0 0
221 0 0
217 0 0
222 0 0
223 0 0
213 0 0
213 0 0
219 0 0
221 0 0
224 0 0
213 0 0
223 0 0
222 0 0
216 0 0
220 0 0
224 0 0
219 0 0
225 0 0
222 0 0
221 0 0
222 0 0
216 0 0
220 0 0
222 0 0
220 0 0
222 0 0
219 0 0
225 0 0
220 0 0
227 0 0
221 0 0
222 0 0
215 0 0
220 0 0
219 0 0
221 0 0
222 0 0
221 0 0
218 0 0
220 0 0
219 0 0
220 0 0
220 0 0
225 0 0
222 0 0
221 0 0
224 0 0
221 0 0
219 0 0
219 0 0
219 0 0
223 0 0
221 0 0
221 0 0
224 0 0
225 0 0
224 0 0
221 0 0
223 0 0
224 0 0
225 0 0
222 0 0
223 0 0
224 0 0
223 0 0
222 0 0
225 0 0
215 0 0
222 0 0
222 0 0
224 0 0
226 0 0
221 0 0
221 0 0
219 0 0
224 0 0
219 0 0
220 0 0
220 0 0
225 0 0
222 0 0
224 0 0
225 0 0
227 0 0
226 0 0
223 0 0
227 0 0
223 0 0
225 0 0
219 0 0
224 0 0
226 0 0
225 0 0
221 0 0
224 0 0
221 0 0
224 0 0
221 0 0
227 0 0
222 0 0
224 0 0
223 0 0
227 0 0
227 0 0
223 0 0
222 0 0
225 0 0
224 0 0
224 0 0
223 0 0
221 0 0
0 0 255
0 0 255
0 0 255
0 0 254
0 0 252
0 0 255
0 0 255
0 0 255
0 0 255
0 0 254
0 0 253
0 0 255
0 0 254
0 0 255
0 0 253
0 0 255
0 0 255
0 0 255
0 0 254
0 0 254
0 0 254
0 0 255
0 0 254
0 0 255
0 0 254
0 0 252
0 0 255
0 0 255
0 0 255
0 0 253
0 0 254
0 0 254
0 0 254
0 0 255
0 0 253
0 0 253
0 0 254
0 0 250
0 0 254
0 0 254
0 0 253
0 0 254
0 0 250
0 0 254
0 0 253
0 0 254
0 0 253
0 0 255
0 0 255
0 0 255
0 0 255
0 0 254
0 0 254
0 0 255
0 0 254
0 0 253
0 0 254
0 0 252
0 0 255
0 0 254
0 0 252
0 0 248
0 0 253
0 0 255
0 0 252
0 0 255
0 0 253
0 0 253
0 0 252
0 0 252
0 0 250
0 0 255
0 0 253
0 0 252
0 0 252
0 0 253
0 0 253
0 0 249
0 0 249
0 0 253
0 0 248
0 0 254
0 0 248
0 0 252
0 0 252
0 0 252
0 0 253
0 0 254
0 0 248
0 0 249
0 0 242
0 0 252
0 0 253
0 0 253
0 0 249
0 0 252
0 0 246
0 0 249
0 0 253
0 0 249
0 0 253
0 0 248
0 0 242
0 0 248
0 0 252
0 0 255
0 0 253
0 0 250
0 0 246
0 0 246
0 0 246
0 0 250
0 0 253
0 0 242
0 0 249
0 0 244
0 0 246
0 0 244
0 0 246
0 0 250
0 0 253
0 0 242
0 0 248
0 0 234
0 0 246
0 0 245
0 0 249
0 0 237
0 0 238
0 0 238
0 0 242
0 0 244
0 0 244
0 0 245
0 0 238
0 0 238
0 0 246
0 0 246
0 0 241
0 0 233
0 0 242
0 0 240
0 0 241
0 0 242
0 0 233
0 0 244
0 0 234
0 0 244
0 0 237
0 0 233
0 0 245
0 0 233
0 0 228
0 0 231
0 0 240
0 0 233
0 0 230
0 0 231
0 0 233
0 0 227
0 0 230
0 0 224
0 0 217
0 0 220
0 0 224
0 0 221
0 0 234
0 0 233
0 0 227
0 0 214
0 0 227
0 0 227
0 0 217
0 0 220
0 0 214
0 0 223
0 0 214
0 0 211
0 0 211
0 0 215
0 0 203
0 0 215
0 0 199
0 0 199
0 0 199
0 0 198
0 0 165
0 0 189
0 0 177
0 0 199
0 0 186
0 0 173
0 0 179
0 0 147
0 0 177
136 142 191
229 240 255
229 240 255
229 240 255
229 240 255
229 240 255
229 240 255
229 240 255
229 240 255
185 140 149
140 0 0
140 0 0
132 0 0
164 0 0
140 0 0
154 0 0
173 0 0
168 0 0
174 0 0
190 0 0
185 0 0
174 0 0
188 0 0
179 0 0
185 0 0
178 0 0
180 0 0
209 0 0
196 0 0
193 0 0
197 0 0
199 0 0
203 0 0
203 0 0
198 0 0
204 0 0
200 0 0
201 0 0
210 0 0
199 0 0
204 0 0
191 0 0
205 0 0
205 0 0
197 0 0
201 0 0
207 0 0
202 0 0
204 0 0
216 0 0
210 0 0
213 0 0
202 0 0
214 0 0
211 0 0
207 0 0
209 0 0
208 0 0
207 0 0
209 0 0
203 0 0
220 0 0
218 0 0
211 0 0
210 0 0
214 0 0
214 0 0
213 0 0
213 0 0
213 0 0
224 0 0
213 0 0
221 0 0
216 0 0
215 0 0
221 0 0
215 0 0
213 0 0
217 0 0
217 0 0
211 0 0
222 0 0
223 0 0
222 0 0
210 0 0
219 0 0
220 0 0
217 0 0
217 0 0
217 0 0
213 0 0
216 0 0
216 0 0
216 0 0
218 0 0
222 0 0
215 0 0
219 0 0
215 0 0
212 0 0
217 0 0
217 0 0
215 0 0
217 0 0
217 0 0
219 0 0
215 0 0
216 0 0
221 0 0
219 0 0
216 0 0
217 0 0
221 0 0
218 0 0
225 0 0
216 0 0
218 0 0
218 0 0
218 0 0
219 0 0
220 0 0
218 0 0
222 0 0
216 0 0
219 0 0
224 0 0
223 0 0
222 0 0
221 0 0
220 0 0
219 0 0
224 0 0
219 0 0
216 0 0
220 0 0
226 0 0
220 0 0
222 0 0
220 0 0
225 0 0
222 0 0
224 0 0
219 0 0
218 0 0
219 0 0
222 0 0
223 0 0
222 0 0
224 0 0
222 0 0
220 0 0
222 0 0
222 0 0
223 0 0
222 0 0
220 0 0
226 0 0
222 0 0
222 0 0
225 0 0
222 0 0
218 0 0
223 0 0
221 0 0
224 0 0
220 0 0
222 0 0
225 0 0
225 0 0
222 0 0
225 0 0
226 0 0
224 0 0
222 0 0
222 0 0
228 0 0
221 0 0
223 0 0
222 0 0
218 0 0
221 0 0
221 0 0
220 0 0
223 0 0
223 0 0
222 0 0
225 0 0
225 0 0
223 0 0
222 0 0
221 0 0
222 0 0
219 0 0
225 0 0
222 0 0
225 0 0
221 0 0
226 0 0
225 0 0
222 0 0
222 0 0
220 0 0
223 0 0
222 0 0
223 0 0
0 0 253
0 0 255
0 0 254
0 0 255
0 0 255
0 0 255
0 0 255
0 0 254
0 0 255
0 0 255
0 0 254
0 0 254
0 0 255
0 0 255
0 0 255
0 0 255
0 0 253
0 0 255
0 0 255
0 0 255
0 0 255
0 0 254
0 0 253
0 0 255
0 0 252
0 0 255
0 0 253
0 0 255
0 0 255
0 0 254
0 0 254
0 0 255
0 0 254
0 0 254
0 0 253
0 0 255
0 0 254
0 0 254
0 0 255
0 0 254
0 0 254
0 0 253
0 0 252
0 0 252
0 0 250
0 0 254
0 0 252
0 0 254
0 0 253
0 0 252
0 0 254
0 0 253
0 0 254
0 0 254
0 0 252
0 0 255
0 0 253
0 0 255
0 0 253
0 0 254
0 0 255
0 0 254
0 0 253
0 0 254
0 0 250
0 0 254
0 0 254
0 0 254
0 0 253
0 0 250
0 0 255
0 0 253
0 0 254
0 0 249
0 0 253
0 0 255
0 0 253
0 0 249
0 0 253
0 0 253
0 0 250
0 0 253
0 0 250
0 0 244
0 0 253
0 0 250
0 0 250
0 0 253
0 0 252
0 0 244
0 0 254
0 0 252
0 0 250
0 0 252
0 0 248
0 0 250
0 0 245
0 0 250
0 0 252
0 0 250
0 0 249
0 0 246
0 0 250
0 0 248
0 0 250
0 0 245
0 0 246
0 0 249
0 0 249
0 0 246
0 0 248
0 0 245
0 0 246
0 0 245
0 0 245
0 0 249
0 0 244
0 0 250
0 0 248
0 0 246
0 0 244
0 0 253
0 0 244
0 0 245
0 0 246
0 0 244
0 0 246
0 0 250
0 0 246
0 0 253
0 0 245
0 0 244
0 0 238
0 0 242
0 0 241
0 0 248
0 0 240
0 0 244
0 0 233
0 0 241
0 0 233
0 0 250
0 0 238
0 0 242
0 0 234
0 0 242
0 0 238
0 0 242
0 0 234
0 0 237
0 0 234
0 0 230
0 0 237
0 0 236
0 0 240
0 0 241
0 0 228
0 0 237
0 0 218
0 0 228
0 0 223
0 0 226
0 0 231
0 0 230
0 0 231
0 0 237
0 0 227
0 0 227
0 0 223
0 0 236
0 0 223
0 0 230
0 0 217
0 0 226
0 0 207
0 0 211
0 0 214
0 0 217
0 0 212
0 0 217
0 0 218
0 0 199
0 0 203
0 0 199
0 0 209
0 0 203
0 0 173
0 0 189
0 0 175
0 0 182
0 0 159
0 0 184
0 0 169
0 0 161
0 0 142
188 197 224
230 240 255
230 240 255
230 240 255
230 240 255
230 240 255
230 240 255
230 240 255
230 240 255
210 197 209
146 0 0
153 0 0
161 0 0
156 0 0
172 0 0
164 0 0
169 0 0
171 0 0
181 0 0
171 0 0
185 0 0
182 0 0
189 0 0
180 0 0
190 0 0
176 0 0
180 0 0
189 0 0
197 0 0
186 0 0
199 0 0
201 0 0
191 0 0
193 0 0
201 0 0
192 0 0
199 0 0
205 0 0
190 0 0
192 0 0
207 0 0
200 0 0
210 0 0
198 0 0
199 0 0
211 0 0
210 0 0
209 0 0
208 0 0
203 0 0
210 0 0
218 0 0
210 0 0
215 0 0
214 0 0
199 0 0
211 0 0
217 0 0
213 0 0
214 0 0
218 0 0
216 0 0
209 0 0
212 0 0
206 0 0
212 0 0
205 0 0
217 0 0
217 0 0
212 0 0
208 0 0
219 0 0
214 0 0
215 0 0
223 0 0
213 0 0
217 0 0
212 0 0
210 0 0
216 0 0
221 0 0
211 0 0
215 0 0
220 0 0
213 0 0
224 0 0
219 0 0
220 0 0
218 0 0
214 0 0
218 0 0
217 0 0
218 0 0
218 0 0
221 0 0
215 0 0
219 0 0
222 0 0
222 0 0
217 0 0
219 0 0
216 0 0
217 0 0
213 0 0
223 0 0
220 0 0
222 0 0
221 0 0
220 0 0
218 0 0
223 0 0
225 0 0
220 0 0
218 0 0
220 0 0
222 0 0
221 0 0
224 0 0
220 0 0
221 0 0
220 0 0
220 0 0
218 0 0
221 0 0
223 0 0
221 0 0
215 0 0
223 0 0
226 0 0
218 0 0
217 0 0
224 0 0
218 0 0
221 0 0
222 0 0
221 0 0
224 0 0
223 0 0
225 0 0
223 0 0
224 0 0
224 0 0
225 0 0
223 0 0
224 0 0
225 0 0
220 0 0
224 0 0
223 0 0
220 0 0
224 0 0
223 0 0
223 0 0
222 0 0
222 0 0
219 0 0
219 0 0
222 0 0
222 0 0
225 0 0
226 0 0
226 0 0
225 0 0
219 0 0
225 0 0
226 0 0
219 0 0
224 0 0
219 0 0
220 0 0
223 0 0
223 0 0
222 0 0
223 0 0
220 0 0
224 0 0
221 0 0
224 0 0
222 0 0
226 0 0
222 0 0
224 0 0
222 0 0
222 0 0
222 0 0
220 0 0
225 0 0
221 0 0
222 0 0
227 0 0
221 0 0
222 0 0
223 0 0
225 0 0
224 0 0
220 0 0
223 0 0
225 0 0
226 0 0
223 0 0
219 0 0
222 0 0
222 0 0
223 0 0
221 0 0
0 0 254
0 0 255
0 0 254
0 0 255
0 0 254
0 0 255
0 0 255
0 0 255
0 0 254
0 0 253
0 0 255
0 0 255
0 0 254
0 0 255
0 0 255
0 0 254
0 0 255
0 0 254
0 0 255
0 0 253
0 0 252
0 0 254
0 0 253
0 0 254
0 0 254
0 0 255
0 0 253
0 0 250
0 0 255
0 0 255
0 0 252
0 0 253
0 0 254
0 0 254
0 0 254
0 0 255
0 0 254
0 0 250
0 0 254
0 0 254
0 0 254
0 0 255
0 0 253
0 0 252
0 0 254
0 0 250
0 0 255
0 0 254
0 0 254
0 0 255
0 0 249
0 0 253
0 0 255
0 0 252
0 0 253
0 0 253
0 0 254
0 0 254
0 0 254
0 0 250
0 0 253
0 0 253
0 0 254
0 0 254
0 0 253
0 0 250
0 0 255
0 0 254
0 0 250
0 0 249
0 0 250
0 0 253
0 0 248
0 0 254
0 0 250
0 0 250
0 0 252
0 0 250
0 0 249
0 0 249
0 0 252
0 0 242
0 0 248
0 0 248
0 0 250
0 0 253
0 0 252
0 0 250
0 0 253
0 0 253
0 0 249
0 0 252
0 0 249
0 0 254
0 0 250
0 0 253
0 0 250
0 0 253
0 0 253
0 0 250
0 0 250
0 0 250
0 0 249
0 0 248
0 0 248
0 0 250
0 0 250
0 0 246
0 0 249
0 0 244
0 0 246
0 0 246
0 0 245
0 0 254
0 0 246
0 0 253
0 0 249
0 0 246
0 0 244
0 0 250
0 0 252
0 0 244
0 0 245
0 0 238
0 0 240
0 0 242
0 0 240
0 0 237
0 0 248
0 0 245
0 0 244
0 0 245
0 0 240
0 0 246
0 0 238
0 0 244
0 0 245
0 0 242
0 0 246
0 0 237
0 0 245
0 0 241
0 0 242
0 0 238
0 0 238
0 0 233
0 0 237
0 0 228
0 0 238
0 0 238
0 0 234
0 0 241
0 0 238
0 0 224
0 0 237
0 0 236
0 0 242
0 0 224
0 0 221
0 0 231
0 0 233
0 0 228
0 0 231
0 0 230
0 0 241
0 0 236
0 0 221
0 0 221
0 0 236
0 0 226
0 0 215
0 0 218
0 0 215
0 0 220
0 0 223
0 0 218
0 0 221
0 0 217
0 0 217
0 0 198
0 0 212
0 0 206
0 0 206
0 0 199
0 0 199
0 0 193
0 0 193
0 0 188
0 0 182
0 0 191
0 0 182
0 0 182
0 0 149
0 0 163
51 53 157
222 232 249
230 240 255
230 241 255
230 240 255
230 240 255
230 241 255
230 241 255
230 240 255
230 240 255
229 238 253
160 68 72
152 0 0
143 0 0
168 0 0
141 0 0
161 0 0
174 0 0
172 0 0
174 0 0
177 0 0
177 0 0
177 0 0
192 0 0
199 0 0
192 0 0
184 0 0
177 0 0
183 0 0
186 0 0
188 0 0
191 0 0
201 0 0
199 0 0
192 0 0
200 0 0
200 0 0
198 0 0
207 0 0
195 0 0
195 0 0
210 0 0
199 0 0
205 0 0
206 0 0
200 0 0
199 0 0
207 0 0
207 0 0
207 0 0
201 0 0
207 0 0
215 0 0
205 0 0
212 0 0
207 0 0
215 0 0
216 0 0
213 0 0
213 0 0
214 0 0
215 0 0
211 0 0
209 0 0
213 0 0
220 0 0
215 0 0
217 0 0
213 0 0
215 0 0
214 0 0
211 0 0
213 0 0
219 0 0
218 0 0
218 0 0
215 0 0
221 0 0
212 0 0
216 0 0
221 0 0
218 0 0
210 0 0
217 0 0
216 0 0
213 0 0
222 0 0
218 0 0
218 0 0
215 0 0
216 0 0
218 0 0
213 0 0
218 0 0
221 0 0
219 0 0
220 0 0
219 0 0
216 0 0
215 0 0
217 0 0
215 0 0
216 0 0
222 0 0
217 0 0
218 0 0
221 0 0
217 0 0
225 0 0
216 0 0
222 0 0
220 0 0
225 0 0
222 0 0
221 0 0
218 0 0
217 0 0
223 0 0
218 0 0
221 0 0
219 0 0
222 0 0
217 0 0
222 0 0
217 0 0
219 0 0
224 0 0
223 0 0
223 0 0
218 0 0
219 0 0
220 0 0
224 0 0
227 0 0
223 0 0
223 0 0
223 0 0
225 0 0
219 0 0
224 0 0
224 0 0
226 0 0
224 0 0
221 0 0
215 0 0
221 0 0
226 0 0
218 0 0
226 0 0
222 0 0
222 0 0
220 0 0
224 0 0
217 0 0
219 0 0
221 0 0
224 0 0
221 0 0
223 0 0
221 0 0
223 0 0
221 0 0
225 0 0
225 0 0
223 0 0
221 0 0
222 0 0
224 0 0
223 0 0
223 0 0
226 0 0
223 0 0
224 0 0
223 0 0
225 0 0
223 0 0
225 0 0
224 0 0
222 0 0
223 0 0
224 0 0
223 0 0
220 0 0
226 0 0
223 0 0
221 0 0
223 0 0
225 0 0
221 0 0
225 0 0
225 0 0
225 0 0
223 0 0
227 0 0
221 0 0
220 0 0
221 0 0
221 0 0
223 0 0
224 0 0
225 0 0
225 0 0
223 0 0
226 0 0
223 0 0
224 0 0
0 0 254
0 0 255
0 0 255
0 0 255
0 0 253
0 0 253
0 0 254
0 0 255
0 0 255
0 0 255
0 0 255
0 0 255
0 0 253
0 0 255
0 0 255
0 0 254
0 0 254
0 0 255
0 0 253
0 0 254
0 0 254
0 0 255
0 0 254
0 0 253
0 0 254
0 0 255
0 0 253
0 0 255
0 0 254
0 0 255
0 0 254
0 0 253
0 0 255
0 0 254
0 0 253
0 0 253
0 0 253
0 0 254
0 0 253
0 0 253
0 0 253
0 0 254
0 0 255
0 0 253
0 0 253
0 0 255
0 0 253
0 0 254
0 0 255
0 0 253
0 0 254
0 0 253
0 0 253
0 0 254
0 0 255
0 0 253
0 0 250
0 0 253
0 0 254
0 0 242
0 0 253
0 0 254
0 0 254
0 0 254
0 0 254
0 0 253
0 0 253
0 0 253
0 0 252
0 0 255
0 0 255
0 0 255
0 0 254
0 0 255
0 0 250
0 0 253
0 0 254
0 0 254
0 0 252
0 0 252
0 0 250
0 0 250
0 0 254
0 0 250
0 0 252
0 0 249
0 0 254
0 0 253
0 0 249
0 0 254
0 0 252
0 0 250
0 0 252
0 0 250
0 0 252
0 0 253
0 0 248
0 0 245
0 0 244
0 0 253
0 0 248
0 0 249
0 0 253
0 0 246
0 0 248
0 0 248
0 0 254
0 0 245
0 0 248
0 0 245
0 0 250
0 0 249
0 0 254
0 0 250
0 0 248
0 0 250
0 0 252
0 0 249
0 0 240
0 0 242
0 0 242
0 0 250
0 0 249
0 0 245
0 0 242
0 0 250
0 0 250
0 0 250
0 0 244
0 0 244
0 0 242
0 0 238
0 0 238
0 0 236
0 0 244
0 0 244
0 0 244
0 0 248
0 0 244
0 0 241
0 0 230
0 0 241
0 0 238
0 0 233
0 0 241
0 0 237
0 0 242
0 0 241
0 0 244
0 0 234
0 0 244
0 0 233
0 0 241
0 0 231
0 0 240
0 0 238
0 0 231
0 0 231
0 0 236
0 0 230
0 0 236
0 0 231
0 0 238
0 0 228
0 0 223
0 0 226
0 0 236
0 0 224
0 0 221
0 0 227
0 0 227
0 0 220
0 0 221
0 0 217
0 0 217
0 0 223
0 0 207
0 0 214
0 0 207
0 0 211
0 0 196
0 0 206
0 0 206
0 0 207
0 0 199
0 0 212
0 0 196
0 0 196
0 0 173
0 0 191
0 0 186
0 0 163
0 0 165
0 0 171
136 142 184
230 241 255
230 241 255
230 241 255
230 241 255
230 241 255
230 241 255
230 241 255
230 241 255
230 241 255
230 241 255
182 136 144
153 0 0
152 0 0
147 0 0
146 0 0
169 0 0
173 0 0
179 0 0
164 0 0
182 0 0
172 0 0
190 0 0
186 0 0
183 0 0
184 0 0
176 0 0
187 0 0
188 0 0
191 0 0
186 0 0
191 0 0
201 0 0
203 0 0
195 0 0
192 0 0
206 0 0
206 0 0
204 0 0
210 0 0
198 0 0
207 0 0
206 0 0
205 0 0
205 0 0
212 0 0
208 0 0
211 0 0
212 0 0
202 0 0
199 0 0
205 0 0
207 0 0
202 0 0
206 0 0
212 0 0
212 0 0
210 0 0
219 0 0
207 0 0
211 0 0
198 0 0
216 0 0
216 0 0
207 0 0
217 0 0
208 0 0
217 0 0
219 0 0
210 0 0
218 0 0
217 0 0
214 0 0
214 0 0
214 0 0
220 0 0
224 0 0
224 0 0
223 0 0
208 0 0
222 0 0
212 0 0
216 0 0
210 0 0
212 0 0
217 0 0
217 0 0
214 0 0
216 0 0
221 0 0
222 0 0
212 0 0
221 0 0
219 0 0
221 0 0
219 0 0
221 0 0
218 0 0
216 0 0
223 0 0
218 0 0
216 0 0
212 0 0
217 0 0
218 0 0
219 0 0
218 0 0
221 0 0
222 0 0
221 0 0
224 0 0
223 0 0
218 0 0
218 0 0
224 0 0
217 0 0
221 0 0
221 0 0
220 0 0
219 0 0
221 0 0
222 0 0
223 0 0
217 0 0
219 0 0
223 0 0
217 0 0
222 0 0
223 0 0
226 0 0
223 0 0
225 0 0
222 0 0
220 0 0
223 0 0
223 0 0
225 0 0
217 0 0
224 0 0
222 0 0
222 0 0
222 0 0
221 0 0
222 0 0
223 0 0
220 0 0
223 0 0
223 0 0
219 0 0
223 0 0
217 0 0
224 0 0
227 0 0
226 0 0
223 0 0
223 0 0
220 0 0
226 0 0
224 0 0
227 0 0
222 0 0
225 0 0
227 0 0
221 0 0
220 0 0
222 0 0
225 0 0
224 0 0
223 0 0
221 0 0
222 0 0
221 0 0
225 0 0
226 0 0
225 0 0
224 0 0
222 0 0
220 0 0
224 0 0
223 0 0
220 0 0
225 0 0
222 0 0
225 0 0
220 0 0
223 0 0
224 0 0
221 0 0
220 0 0
224 0 0
227 0 0
223 0 0
223 0 0
225 0 0
225 0 0
221 0 0
226 0 0
225 0 0
224 0 0
221 0 0
224 0 0
227 0 0
222 0 0
221 0 0
226 0 0
224 0 0
0 0 255
0 0 255
0 0 255
0 0 255
0 0 254
0 0 254
0 0 255
0 0 255
0 0 254
0 0 252
0 0 254
0 0 255
0 0 255
0 0 255
0 0 255
0 0 255
0 0 254
0 0 255
0 0 254
0 0 255
0 0 255
0 0 254
0 0 255
0 0 255
0 0 254
0 0 254
0 0 254
0 0 254
0 0 253
0 0 255
0 0 255
0 0 254
0 0 252
0 0 253
0 0 254
0 0 255
0 0 254
0 0 255
0 0 253
0 0 253
0 0 255
0 0 254
0 0 255
0 0 255
0 0 253
0 0 253
0 0 250
0 0 254
0 0 254
0 0 252
0 0 255
0 0 254
0 0 255
0 0 254
0 0 255
0 0 253
0 0 255
0 0 253
0 0 250
0 0 250
0 0 252
0 0 253
0 0 254
0 0 253
0 0 253
0 0 254
0 0 254
0 0 255
0 0 249
0 0 252
0 0 254
0 0 253
0 0 252
0 0 254
0 0 254
0 0 253
0 0 250
0 0 253
0 0 253
0 0 254
0 0 253
0 0 254
0 0 255
0 0 249
0 0 245
0 0 252
0 0 250
0 0 250
0 0 250
0 0 252
0 0 252
0 0 250
0 0 253
0 0 248
0 0 252
0 0 254
0 0 249
0 0 245
0 0 250
0 0 250
0 0 253
0 0 254
0 0 253
0 0 250
0 0 254
0 0 250
0 0 250
0 0 245
0 0 249
0 0 249
0 0 249
0 0 248
0 0 252
0 0 245
0 0 244
0 0 245
0 0 248
0 0 246
0 0 244
0 0 250
0 0 246
0 0 253
0 0 242
0 0 241
0 0 245
0 0 244
0 0 249
0 0 242
0 0 241
0 0 244
0 0 246
0 0 244
0 0 245
0 0 240
0 0 240
0 0 242
0 0 241
0 0 240
0 0 245
0 0 242
0 0 241
0 0 238
0 0 241
0 0 249
0 0 242
0 0 237
0 0 244
0 0 237
0 0 233
0 0 234
0 0 238
0 0 241
0 0 238
0 0 236
0 0 241
0 0 234
0 0 240
0 0 228
0 0 226
0 0 220
0 0 234
0 0 223
0 0 230
0 0 231
0 0 217
0 0 226
0 0 228
0 0 227
0 0 230
0 0 230
0 0 227
0 0 218
0 0 220
0 0 223
0 0 218
0 0 230
0 0 209
0 0 211
0 0 206
0 0 207
0 0 206
0 0 204
0 0 211
0 0 193
0 0 207
0 0 206
0 0 198
0 0 188
0 0 188
0 0 179
0 0 182
0 0 175
0 0 171
0 0 167
198 207 236
231 241 255
231 241 255
231 241 255
231 241 255
231 241 255
231 241 255
231 241 255
231 241 255
231 241 255
231 241 255
216 203 215
160 0 0
152 0 0
161 0 0
177 0 0
173 0 0
163 0 0
178 0 0
184 0 0
169 0 0
186 0 0
191 0 0
179 0 0
179 0 0
194 0 0
186 0 0
198 0 0
190 0 0
188 0 0
193 0 0
202 0 0
200 0 0
205 0 0
198 0 0
197 0 0
203 0 0
194 0 0
207 0 0
204 0 0
191 0 0
215 0 0
201 0 0
203 0 0
203 0 0
203 0 0
202 0 0
202 0 0
209 0 0
206 0 0
206 0 0
205 0 0
213 0 0
208 0 0
210 0 0
211 0 0
213 0 0
205 0 0
210 0 0
213 0 0
208 0 0
216 0 0
210 0 0
208 0 0
212 0 0
215 0 0
219 0 0
218 0 0
215 0 0
214 0 0
220 0 0
212 0 0
216 0 0
208 0 0
211 0 0
212 0 0
218 0 0
213 0 0
211 0 0
215 0 0
217 0 0
219 0 0
213 0 0
215 0 0
222 0 0
220 0 0
221 0 0
219 0 0
217 0 0
220 0 0
213 0 0
214 0 0
209 0 0
220 0 0
223 0 0
216 0 0
214 0 0
216 0 0
211 0 0
217 0 0
215 0 0
216 0 0
223 0 0
225 0 0
222 0 0
225 0 0
224 0 0
222 0 0
221 0 0
223 0 0
224 0 0
223 0 0
221 0 0
223 0 0
218 0 0
220 0 0
222 0 0
219 0 0
222 0 0
222 0 0
218 0 0
222 0 0
221 0 0
219 0 0
219 0 0
222 0 0
225 0 0
219 0 0
223 0 0
218 0 0
226 0 0
219 0 0
222 0 0
223 0 0
224 0 0
223 0 0
223 0 0
220 0 0
222 0 0
220 0 0
221 0 0
225 0 0
224 0 0
221 0 0
219 0 0
219 0 0
222 0 0
223 0 0
224 0 0
224 0 0
227 0 0
223 0 0
221 0 0
223 0 0
225 0 0
224 0 0
222 0 0
223 0 0
225 0 0
224 0 0
221 0 0
224 0 0
223 0 0
223 0 0
223 0 0
225 0 0
225 0 0
222 0 0
224 0 0
225 0 0
221 0 0
225 0 0
224 0 0
224 0 0
220 0 0
224 0 0
227 0 0
221 0 0
226 0 0
225 0 0
223 0 0
224 0 0
223 0 0
223 0 0
224 0 0
226 0 0
221 0 0
224 0 0
223 0 0
223 0 0
221 0 0
223 0 0
224 0 0
225 0 0
220 0 0
220 0 0
225 0 0
223 0 0
225 0 0
224 0 0
223 0 0
221 0 0
224 0 0
224 0 0
226 0 0
227 0 0
0 0 255
0 0 255
0 0 254
0 0 255
0 0 254
0 0 255
0 0 255
0 0 255
0 0 255
0 0 254
0 0 255
0 0 254
0 0 254
0 0 255
0 0 255
0 0 253
0 0 255
0 0 255
0 0 252
0 0 254
0 0 254
0 0 255
0 0 253
0 0 253
0 0 255
0 0 253
0 0 254
0 0 253
0 0 253
0 0 254
0 0 255
0 0 255
0 0 253
0 0 255
0 0 254
0 0 255
0 0 253
0 0 252
0 0 254
0 0 255
0 0 255
0 0 255
0 0 254
0 0 254
0 0 255
0 0 252
0 0 254
0 0 254
0 0 255
0 0 254
0 0 254
0 0 250
0 0 254
0 0 252
0 0 254
0 0 253
0 0 255
0 0 254
0 0 253
0 0 253
0 0 255
0 0 254
0 0 252
0 0 252
0 0 255
0 0 252
0 0 253
0 0 253
0 0 252
0 0 250
0 0 254
0 0 252
0 0 253
0 0 253
0 0 254
0 0 254
0 0 253
0 0 250
0 0 253
0 0 252
0 0 248
0 0 250
0 0 250
0 0 254
0 0 250
0 0 252
0 0 248
0 0 249
0 0 248
0 0 252
0 0 254
0 0 246
0 0 249
0 0 250
0 0 248
0 0 248
0 0 249
0 0 253
0 0 252
0 0 250
0 0 250
0 0 252
0 0 254
0 0 252
0 0 252
0 0 249
0 0 253
0 0 246
0 0 246
0 0 248
0 0 250
0 0 248
0 0 249
0 0 249
0 0 252
0 0 241
0 0 250
0 0 252
0 0 245
0 0 242
0 0 246
0 0 249
0 0 237
0 0 242
0 0 252
0 0 241
0 0 246
0 0 250
0 0 237
0 0 248
0 0 249
0 0 244
0 0 231
0 0 241
0 0 245
0 0 244
0 0 242
0 0 241
0 0 238
0 0 244
0 0 244
0 0 237
0 0 241
0 0 237
0 0 241
0 0 241
0 0 233
0 0 234
0 0 237
0 0 237
0 0 234
0 0 236
0 0 242
0 0 244
0 0 234
0 0 231
0 0 238
0 0 236
0 0 234
0 0 242
0 0 231
0 0 237
0 0 244
0 0 234
0 0 228
0 0 224
0 0 230
0 0 230
0 0 224
0 0 223
0 0 218
0 0 220
0 0 224
0 0 203
0 0 228
0 0 221
0 0 211
0 0 224
0 0 226
0 0 204
0 0 199
0 0 217
0 0 207
0 0 201
0 0 209
0 0 201
0 0 188
0 0 194
0 0 177
0 0 189
0 0 179
0 0 193
0 0 155
80 83 181
230 240 254
231 241 255
231 241 255
231 241 255
231 241 255
231 241 255
231 241 255
231 241 255
231 241 255
231 241 255
231 241 255
231 241 255
170 87 92
170 0 0
153 0 0
161 0 0
169 0 0
164 0 0
173 0 0
189 0 0
179 0 0
178 0 0
182 0 0
198 0 0
177 0 0
187 0 0
183 0 0
198 0 0
194 0 0
195 0 0
194 0 0
194 0 0
199 0 0
203 0 0
194 0 0
199 0 0
203 0 0
200 0 0
193 0 0
201 0 0
201 0 0
206 0 0
210 0 0
210 0 0
207 0 0
207 0 0
204 0 0
207 0 0
213 0 0
208 0 0
216 0 0
210 0 0
213 0 0
206 0 0
216 0 0
208 0 0
212 0 0
220 0 0
208 0 0
215 0 0
214 0 0
210 0 0
208 0 0
219 0 0
216 0 0
214 0 0
218 0 0
216 0 0
212 0 0
210 0 0
213 0 0
214 0 0
214 0 0
213 0 0
215 0 0
216 0 0
207 0 0
223 0 0
211 0 0
218 0 0
215 0 0
212 0 0
209 0 0
212 0 0
218 0 0
213 0 0
222 0 0
221 0 0
216 0 0
216 0 0
216 0 0
222 0 0
215 0 0
223 0 0
222 0 0
219 0 0
218 0 0
219 0 0
219 0 0
219 0 0
216 0 0
217 0 0
221 0 0
217 0 0
225 0 0
216 0 0
218 0 0
219 0 0
220 0 0
220 0 0
221 0 0
217 0 0
222 0 0
223 0 0
223 0 0
219 0 0
222 0 0
220 0 0
220 0 0
223 0 0
222 0 0
219 0 0
218 0 0
217 0 0
223 0 0
219 0 0
223 0 0
221 0 0
223 0 0
221 0 0
218 0 0
221 0 0
220 0 0
224 0 0
224 0 0
219 0 0
224 0 0
218 0 0
222 0 0
224 0 0
223 0 0
226 0 0
222 0 0
225 0 0
224 0 0
226 0 0
224 0 0
215 0 0
222 0 0
221 0 0
222 0 0
224 0 0
222 0 0
221 0 0
224 0 0
223 0 0
222 0 0
222 0 0
225 0 0
223 0 0
227 0 0
224 0 0
224 0 0
223 0 0
222 0 0
225 0 0
219 0 0
228 0 0
219 0 0
222 0 0
219 0 0
225 0 0
221 0 0
227 0 0
225 0 0
220 0 0
223 0 0
224 0 0
226 0 0
228 0 0
228 0 0
224 0 0
226 0 0
225 0 0
222 0 0
225 0 0
221 0 0
222 0 0
223 0 0
223 0 0
223 0 0
220 0 0
220 0 0
227 0 0
226 0 0
226 0 0
222 0 0
225 0 0
226 0 0
224 0 0
223 0 0
221 0 0
226 0 0
224 0 0
221 0 0
220 0 0
0 0 255
0 0 255
0 0 255
0 0 255
0 0 255
0 0 255
0 0 254
0 0 252
0 0 254
0 0 255
0 0 255
0 0 255
0 0 255
0 0 255
0 0 253
0 0 254
0 0 255
0 0 255
0 0 255
0 0 253
0 0 255
0 0 254
0 0 254
0 0 255
0 0 254
0 0 253
0 0 255
0 0 255
0 0 255
0 0 254
0 0 255
0 0 255
0 0 255
0 0 254
0 0 255
0 0 255
0 0 254
0 0 253
0 0 254
0 0 255
0 0 255
0 0 250
0 0 255
0 0 255
0 0 254
0 0 254
0 0 253
0 0 254
0 0 255
0 0 254
0 0 252
0 0 254
0 0 253
0 0 254
0 0 253
0 0 252
0 0 250
0 0 253
0 0 253
0 0 249
0 0 255
0 0 253
0 0 246
0 0 255
0 0 255
0 0 253
0 0 252
0 0 252
0 0 249
0 0 253
0 0 253
0 0 253
0 0 252
0 0 253
0 0 249
0 0 253
0 0 249
0 0 250
0 0 254
0 0 248
0 0 254
0 0 254
0 0 255
0 0 245
0 0 249
0 0 248
0 0 248
0 0 250
0 0 248
0 0 252
0 0 252
0 0 252
0 0 252
0 0 249
0 0 245
0 0 252
0 0 249
0 0 245
0 0 253
0 0 249
0 0 253
0 0 252
0 0 253
0 0 246
0 0 250
0 0 250
0 0 248
0 0 245
0 0 248
0 0 255
0 0 248
0 0 241
0 0 253
0 0 241
0 0 252
0 0 248
0 0 248
0 0 250
0 0 248
0 0 253
0 0 244
0 0 246
0 0 242
0 0 244
0 0 246
0 0 246
0 0 242
0 0 248
0 0 250
0 0 245
0 0 245
0 0 240
0 0 242
0 0 242
0 0 248
0 0 244
0 0 242
0 0 244
0 0 248
0 0 245
0 0 238
0 0 245
0 0 246
0 0 237
0 0 240
0 0 240
0 0 234
0 0 236
0 0 244
0 0 236
0 0 248
0 0 241
0 0 241
0 0 231
0 0 238
0 0 244
0 0 230
0 0 233
0 0 233
0 0 238
0 0 240
0 0 228
0 0 236
0 0 237
0 0 226
0 0 231
0 0 226
0 0 230
0 0 226
0 0 207
0 0 212
0 0 223
0 0 215
0 0 228
0 0 209
0 0 211
0 0 217
0 0 214
0 0 217
0 0 194
0 0 221
0 0 198
0 0 199
0 0 199
0 0 209
0 0 193
0 0 171
0 0 184
0 0 196
0 0 177
0 0 173
0 0 175
0 0 173
186 194 227
231 241 255
231 241 255
231 241 255
231 241 255
231 241 255
231 241 255
231 241 255
231 241 255
231 241 255
231 241 255
231 241 255
231 241 255
207 170 181
157 0 0
167 0 0
165 0 0
161 0 0
183 0 0
175 0 0
187 0 0
175 0 0
188 0 0
186 0 0
178 0 0
178 0 0
185 0 0
198 0 0
190 0 0
201 0 0
182 0 0
192 0 0
202 0 0
205 0 0
184 0 0
197 0 0
207 0 0
197 0 0
208 0 0
206 0 0
203 0 0
201 0 0
196 0 0
198 0 0
207 0 0
207 0 0
212 0 0
208 0 0
209 0 0
205 0 0
205 0 0
213 0 0
206 0 0
209 0 0
214 0 0
212 0 0
205 0 0
210 0 0
208 0 0
223 0 0
212 0 0
209 0 0
204 0 0
211 0 0
217 0 0
215 0 0
216 0 0
212 0 0
210 0 0
210 0 0
212 0 0
218 0 0
219 0 0
219 0 0
220 0 0
211 0 0
220 0 0
218 0 0
211 0 0
217 0 0
217 0 0
220 0 0
226 0 0
218 0 0
213 0 0
221 0 0
218 0 0
220 0 0
213 0 0
218 0 0
219 0 0
214 0 0
217 0 0
221 0 0
213 0 0
222 0 0
223 0 0
225 0 0
222 0 0
220 0 0
218 0 0
223 0 0
222 0 0
220 0 0
216 0 0
227 0 0
222 0 0
225 0 0
223 0 0
222 0 0
220 0 0
222 0 0
218 0 0
220 0 0
213 0 0
220 0 0
219 0 0
220 0 0
217 0 0
220 0 0
218 0 0
226 0 0
222 0 0
221 0 0
225 0 0
224 0 0
221 0 0
222 0 0
225 0 0
222 0 0
223 0 0
225 0 0
222 0 0
223 0 0
223 0 0
223 0 0
222 0 0
223 0 0
222 0 0
224 0 0
224 0 0
226 0 0
223 0 0
226 0 0
219 0 0
221 0 0
221 0 0
225 0 0
222 0 0
222 0 0
223 0 0
219 0 0
221 0 0
222 0 0
223 0 0
219 0 0
225 0 0
220 0 0
223 0 0
224 0 0
222 0 0
225 0 0
224 0 0
225 0 0
226 0 0
220 0 0
218 0 0
222 0 0
220 0 0
222 0 0
222 0 0
223 0 0
223 0 0
222 0 0
227 0 0
220 0 0
225 0 0
223 0 0
225 0 0
224 0 0
221 0 0
223 0 0
226 0 0
222 0 0
225 0 0
224 0 0
224 0 0
228 0 0
223 0 0
227 0 0
221 0 0
224 0 0
223 0 0
221 0 0
223 0 0
224 0 0
223 0 0
227 0 0
222 0 0
223 0 0
223 0 0
228 0 0
224 0 0
221 0 0
224 0 0
226 0 0
224 0 0
0 0 255
0 0 255
0 0 255
0 0 255
0 0 255
0 0 254
0 0 254
0 0 254
0 0 255
0 0 254
0 0 255
0 0 255
0 0 255
0 0 254
0 0 254
0 0 253
0 0 252
0 0 255
0 0 254
0 0 255
0 0 254
0 0 255
0 0 255
0 0 255
0 0 255
0 0 254
0 0 254
0 0 254
0 0 255
0 0 254
0 0 255
0 0 254
0 0 254
0 0 254
0 0 255
0 0 253
0 0 255
0 0 254
0 0 255
0 0 255
0 0 254
0 0 252
0 0 254
0 0 254
0 0 255
0 0 253
0 0 253
0 0 253
0 0 255
0 0 253
0 0 254
0 0 253
0 0 255
0 0 253
0 0 253
0 0 253
0 0 254
0 0 254
0 0 253
0 0 253
0 0 253
0 0 255
0 0 254
0 0 253
0 0 254
0 0 253
0 0 249
0 0 250
0 0 253
0 0 250
0 0 253
0 0 252
0 0 250
0 0 252
0 0 250
0 0 248
0 0 253
0 0 250
0 0 250
0 0 252
0 0 250
0 0 249
0 0 252
0 0 253
0 0 246
0 0 250
0 0 250
0 0 254
0 0 250
0 0 254
0 0 253
0 0 250
0 0 249
0 0 246
0 0 252
0 0 246
0 0 248
0 0 252
0 0 249
0 0 250
0 0 249
0 0 248
0 0 250
0 0 245
0 0 253
0 0 244
0 0 245
0 0 249
0 0 252
0 0 249
0 0 252
0 0 244
0 0 248
0 0 252
0 0 246
0 0 250
0 0 252
0 0 252
0 0 248
0 0 246
0 0 249
0 0 246
0 0 253
0 0 248
0 0 242
0 0 248
0 0 242
0 0 248
0 0 245
0 0 242
0 0 244
0 0 244
0 0 240
0 0 244
0 0 248
0 0 244
0 0 248
0 0 246
0 0 248
0 0 244
0 0 236
0 0 244
0 0 237
0 0 240
0 0 245
0 0 241
0 0 241
0 0 240
0 0 246
0 0 238
0 0 237
0 0 240
0 0 241
0 0 245
0 0 241
0 0 233
0 0 236
0 0 231
0 0 237
0 0 245
0 0 234
0 0 214
0 0 230
0 0 233
0 0 231
0 0 230
0 0 228
0 0 218
0 0 215
0 0 228
0 0 218
0 0 224
0 0 215
0 0 217
0 0 217
0 0 223
0 0 214
0 0 209
0 0 211
0 0 212
0 0 209
0 0 201
0 0 204
0 0 194
0 0 196
0 0 191
0 0 188
0 0 188
0 0 182
0 0 182
0 0 189
0 0 179
46 48 175
227 236 254
231 241 255
231 241 255
231 241 255
231 241 255
231 241 255
231 241 255
231 241 255
231 241 255
231 241 255
231 241 255
231 241 255
231 241 255
232 238 252
152 41 44
165 0 0
159 0 0
165 0 0
185 0 0
175 0 0
185 0 0
196 0 0
191 0 0
186 0 0
190 0 0
187 0 0
190 0 0
187 0 0
185 0 0
199 0 0
188 0 0
188 0 0
192 0 0
196 0 0
199 0 0
204 0 0
191 0 0
201 0 0
198 0 0
208 0 0
206 0 0
203 0 0
210 0 0
195 0 0
208 0 0
211 0 0
205 0 0
209 0 0
203 0 0
206 0 0
212 0 0
211 0 0
209 0 0
214 0 0
208 0 0
209 0 0
215 0 0
210 0 0
207 0 0
212 0 0
209 0 0
212 0 0
212 0 0
219 0 0
212 0 0
213 0 0
214 0 0
206 0 0
208 0 0
221 0 0
219 0 0
216 0 0
216 0 0
218 0 0
215 0 0
216 0 0
214 0 0
213 0 0
219 0 0
217 0 0
215 0 0
218 0 0
217 0 0
222 0 0
217 0 0
215 0 0
216 0 0
223 0 0
223 0 0
216 0 0
216 0 0
218 0 0
218 0 0
219 0 0
213 0 0
220 0 0
214 0 0
218 0 0
219 0 0
222 0 0
219 0 0
215 0 0
223 0 0
218 0 0
221 0 0
221 0 0
221 0 0
218 0 0
219 0 0
215 0 0
222 0 0
220 0 0
217 0 0
222 0 0
220 0 0
217 0 0
220 0 0
222 0 0
216 0 0
220 0 0
221 0 0
227 0 0
224 0 0
218 0 0
221 0 0
223 0 0
222 0 0
220 0 0
224 0 0
222 0 0
218 0 0
221 0 0
221 0 0
220 0 0
217 0 0
222 0 0
223 0 0
223 0 0
225 0 0
222 0 0
224 0 0
222 0 0
225 0 0
220 0 0
219 0 0
223 0 0
221 0 0
222 0 0
218 0 0
225 0 0
222 0 0
223 0 0
225 0 0
224 0 0
222 0 0
220 0 0
223 0 0
221 0 0
227 0 0
222 0 0
222 0 0
220 0 0
225 0 0
224 0 0
223 0 0
226 0 0
219 0 0
222 0 0
225 0 0
225 0 0
224 0 0
224 0 0
224 0 0
218 0 0
226 0 0
222 0 0
221 0 0
223 0 0
223 0 0
220 0 0
218 0 0
229 0 0
221 0 0
224 0 0
223 0 0
227 0 0
221 0 0
224 0 0
221 0 0
223 0 0
226 0 0
226 0 0
219 0 0
223 0 0
222 0 0
223 0 0
225 0 0
226 0 0
227 0 0
225 0 0
225 0 0
227 0 0
223 0 0
226 0 0
220 0 0
222 0 0
220 0 0
0 0 255
0 0 255
0 0 255
0 0 255
0 0 255
0 0 254
0 0 255
0 0 255
0 0 253
0 0 255
0 0 254
0 0 255
0 0 255
0 0 254
0 0 255
0 0 254
0 0 254
0 0 255
0 0 255
0 0 253
0 0 254
0 0 255
0 0 254
0 0 254
0 0 254
0 0 255
0 0 255
0 0 255
0 0 254
0 0 253
0 0 255
0 0 255
0 0 255
0 0 255
0 0 255
0 0 252
0 0 254
0 0 255
0 0 253
0 0 255
0 0 254
0 0 254
0 0 252
0 0 253
0 0 254
0 0 254
0 0 254
0 0 255
0 0 253
0 0 250
0 0 252
0 0 252
0 0 254
0 0 253
0 0 254
0 0 253
0 0 250
0 0 253
0 0 254
0 0 250
0 0 252
0 0 255
0 0 255
0 0 255
0 0 252
0 0 254
0 0 252
0 0 253
0 0 253
0 0 253
0 0 249
0 0 254
0 0 254
0 0 252
0 0 252
0 0 249
0 0 253
0 0 253
0 0 254
0 0 252
0 0 255
0 0 252
0 0 253
0 0 253
0 0 253
0 0 249
0 0 250
0 0 249
0 0 249
0 0 252
0 0 255
0 0 249
0 0 253
0 0 250
0 0 249
0 0 253
0 0 252
0 0 250
0 0 253
0 0 248
0 0 248
0 0 245
0 0 246
0 0 248
0 0 249
0 0 250
0 0 250
0 0 249
0 0 246
0 0 248
0 0 250
0 0 250
0 0 252
0 0 241
0 0 249
0 0 244
0 0 249
0 0 250
0 0 244
0 0 253
0 0 249
0 0 249
0 0 248
0 0 241
0 0 246
0 0 246
0 0 244
0 0 250
0 0 245
0 0 244
0 0 246
0 0 249
0 0 245
0 0 248
0 0 241
0 0 242
0 0 246
0 0 244
0 0 246
0 0 241
0 0 236
0 0 244
0 0 244
0 0 237
0 0 241
0 0 240
0 0 236
0 0 234
0 0 238
0 0 241
0 0 234
0 0 236
0 0 230
0 0 230
0 0 234
0 0 231
0 0 236
0 0 228
0 0 230
0 0 238
0 0 234
0 0 231
0 0 231
0 0 226
0 0 236
0 0 223
0 0 228
0 0 227
0 0 230
0 0 220
0 0 211
0 0 223
0 0 228
0 0 204
0 0 218
0 0 226
0 0 220
0 0 209
0 0 215
0 0 214
0 0 207
0 0 221
0 0 203
0 0 193
0 0 207
0 0 199
0 0 204
0 0 189
0 0 171
0 0 186
0 0 188
0 0 175
155 162 214
232 241 255
232 241 255
232 241 255
232 241 255
232 241 255
232 241 255
232 241 255
232 241 255
232 241 255
232 241 255
232 241 255
232 241 255
232 241 255
232 241 255
199 162 171
180 0 0
176 0 0
179 0 0
175 0 0
169 0 0
187 0 0
178 0 0
199 0 0
190 0 0
175 0 0
189 0 0
181 0 0
200 0 0
199 0 0
200 0 0
199 0 0
191 0 0
202 0 0
197 0 0
199 0 0
200 0 0
206 0 0
197 0 0
216 0 0
205 0 0
200 0 0
208 0 0
199 0 0
209 0 0
210 0 0
215 0 0
210 0 0
204 0 0
209 0 0
216 0 0
211 0 0
208 0 0
202 0 0
208 0 0
215 0 0
208 0 0
211 0 0
222 0 0
218 0 0
218 0 0
212 0 0
208 0 0
212 0 0
215 0 0
213 0 0
214 0 0
213 0 0
217 0 0
218 0 0
214 0 0
221 0 0
219 0 0
214 0 0
215 0 0
211 0 0
220 0 0
215 0 0
220 0 0
216 0 0
214 0 0
215 0 0
217 0 0
208 0 0
210 0 0
220 0 0
220 0 0
218 0 0
219 0 0
223 0 0
220 0 0
221 0 0
221 0 0
224 0 0
223 0 0
216 0 0
223 0 0
222 0 0
219 0 0
226 0 0
220 0 0
219 0 0
226 0 0
214 0 0
216 0 0
224 0 0
219 0 0
224 0 0
217 0 0
224 0 0
224 0 0
219 0 0
224 0 0
220 0 0
222 0 0
222 0 0
227 0 0
220 0 0
224 0 0
218 0 0
221 0 0
214 0 0
222 0 0
225 0 0
220 0 0
224 0 0
221 0 0
222 0 0
222 0 0
221 0 0
225 0 0
221 0 0
218 0 0
221 0 0
224 0 0
227 0 0
223 0 0
220 0 0
216 0 0
217 0 0
224 0 0
213 0 0
221 0 0
225 0 0
220 0 0
221 0 0
223 0 0
224 0 0
221 0 0
221 0 0
226 0 0
222 0 0
226 0 0
227 0 0
227 0 0
225 0 0
226 0 0
218 0 0
224 0 0
223 0 0
222 0 0
224 0 0
226 0 0
222 0 0
225 0 0
222 0 0
222 0 0
222 0 0
224 0 0
222 0 0
224 0 0
224 0 0
225 0 0
223 0 0
225 0 0
224 0 0
225 0 0
224 0 0
227 0 0
224 0 0
223 0 0
222 0 0
226 0 0
225 0 0
226 0 0
222 0 0
222 0 0
225 0 0
225 0 0
225 0 0
225 0 0
227 0 0
221 0 0
226 0 0
227 0 0
218 0 0
225 0 0
224 0 0
222 0 0
223 0 0
224 0 0
226 0 0
226 0 0
221 0 0
229 0 0
222 0 0
222 0 0
225 0 0
0 0 255
0 0 255
0 0 255
0 0 254
0 0 255
0 0 253
0 0 254
0 0 255
0 0 254
0 0 255
0 0 255
0 0 255
0 0 253
0 0 255
0 0 254
0 0 253
0 0 255
0 0 253
0 0 255
0 0 254
0 0 254
0 0 254
0 0 254
0 0 255
0 0 254
0 0 255
0 0 254
0 0 255
0 0 254
0 0 254
0 0 254
0 0 253
0 0 254
0 0 255
0 0 254
0 0 255
0 0 255
0 0 255
0 0 255
0 0 254
0 0 253
0 0 254
0 0 250
0 0 254
0 0 252
0 0 254
0 0 252
0 0 253
0 0 250
0 0 249
0 0 253
0 0 254
0 0 253
0 0 252
0 0 254
0 0 254
0 0 249
0 0 254
0 0 254
0 0 253
0 0 255
0 0 248
0 0 250
0 0 254
0 0 252
0 0 253
0 0 249
0 0 254
0 0 254
0 0 248
0 0 255
0 0 248
0 0 253
0 0 253
0 0 252
0 0 254
0 0 255
0 0 249
0 0 249
0 0 254
0 0 250
0 0 254
0 0 255
0 0 249
0 0 253
0 0 252
0 0 246
0 0 252
0 0 252
0 0 254
0 0 253
0 0 252
0 0 248
0 0 254
0 0 249
0 0 253
0 0 254
0 0 250
0 0 252
0 0 249
0 0 248
0 0 249
0 0 248
0 0 244
0 0 252
0 0 252
0 0 248
0 0 249
0 0 245
0 0 245
0 0 253
0 0 253
0 0 240
0 0 249
0 0 246
0 0 250
0 0 245
0 0 249
0 0 248
0 0 240
0 0 244
0 0 246
0 0 244
0 0 246
0 0 246
0 0 240
0 0 248
0 0 240
0 0 248
0 0 248
0 0 242
0 0 250
0 0 240
0 0 248
0 0 246
0 0 236
0 0 248
0 0 246
0 0 242
0 0 245
0 0 246
0 0 241
0 0 237
0 0 242
0 0 234
0 0 240
0 0 233
0 0 245
0 0 242
0 0 238
0 0 245
0 0 238
0 0 240
0 0 231
0 0 227
0 0 245
0 0 245
0 0 226
0 0 218
0 0 234
0 0 240
0 0 228
0 0 226
0 0 218
0 0 228
0 0 231
0 0 230
0 0 223
0 0 223
0 0 230
0 0 224
0 0 224
0 0 214
0 0 209
0 0 227
0 0 206
0 0 223
0 0 223
0 0 223
0 0 209
0 0 221
0 0 198
0 0 198
0 0 206
0 0 191
0 0 196
0 0 199
0 0 198
0 0 188
0 0 189
0 0 186
40 41 193
219 228 250
232 242 255
232 242 255
232 242 255
232 242 255
232 242 255
232 242 255
232 242 255
232 242 255
232 242 255
232 242 255
232 242 255
232 242 255
232 242 255
232 242 255
223 217 230
178 34 36
159 0 0
175 0 0
171 0 0
181 0 0
170 0 0
193 0 0
183 0 0
176 0 0
191 0 0
188 0 0
192 0 0
198 0 0
193 0 0
197 0 0
191 0 0
196 0 0
196 0 0
190 0 0
204 0 0
210 0 0
204 0 0
198 0 0
207 0 0
187 0 0
214 0 0
203 0 0
198 0 0
206 0 0
209 0 0
203 0 0
209 0 0
221 0 0
209 0 0
211 0 0
210 0 0
207 0 0
216 0 0
204 0 0
208 0 0
211 0 0
217 0 0
210 0 0
210 0 0
214 0 0
220 0 0
214 0 0
219 0 0
209 0 0
216 0 0
212 0 0
213 0 0
217 0 0
208 0 0
217 0 0
215 0 0
210 0 0
217 0 0
221 0 0
217 0 0
217 0 0
218 0 0
221 0 0
213 0 0
215 0 0
216 0 0
221 0 0
224 0 0
219 0 0
216 0 0
206 0 0
218 0 0
220 0 0
221 0 0
214 0 0
219 0 0
214 0 0
219 0 0
218 0 0
211 0 0
220 0 0
217 0 0
223 0 0
222 0 0
222 0 0
215 0 0
222 0 0
213 0 0
218 0 0
223 0 0
216 0 0
219 0 0
224 0 0
221 0 0
225 0 0
222 0 0
226 0 0
220 0 0
225 0 0
214 0 0
220 0 0
219 0 0
220 0 0
225 0 0
227 0 0
219 0 0
223 0 0
220 0 0
221 0 0
222 0 0
219 0 0
222 0 0
223 0 0
217 0 0
219 0 0
218 0 0
224 0 0
228 0 0
223 0 0
228 0 0
227 0 0
217 0 0
223 0 0
225 0 0
222 0 0
226 0 0
216 0 0
220 0 0
224 0 0
220 0 0
223 0 0
223 0 0
221 0 0
220 0 0
224 0 0
222 0 0
224 0 0
223 0 0
225 0 0
224 0 0
224 0 0
225 0 0
221 0 0
223 0 0
224 0 0
222 0 0
223 0 0
226 0 0
222 0 0
221 0 0
225 0 0
224 0 0
222 0 0
221 0 0
222 0 0
226 0 0
224 0 0
224 0 0
222 0 0
221 0 0
222 0 0
223 0 0
221 0 0
225 0 0
223 0 0
225 0 0
225 0 0
224 0 0
224 0 0
222 0 0
226 0 0
224 0 0
221 0 0
222 0 0
226 0 0
225 0 0
222 0 0
221 0 0
223 0 0
225 0 0
226 0 0
224 0 0
225 0 0
222 0 0
226 0 0
226 0 0
225 0 0
225 0 0
226 0 0
222 0 0
225 0 0
221 0 0
0 0 255
0 0 255
0 0 255
0 0 255
0 0 255
0 0 254
0 0 255
0 0 255
0 0 255
0 0 254
0 0 254
0 0 255
0 0 255
0 0 255
0 0 254
0 0 255
0 0 254
0 0 255
0 0 254
0 0 255
0 0 254
0 0 255
0 0 253
0 0 254
0 0 254
0 0 255
0 0 253
0 0 253
0 0 253
0 0 255
0 0 254
0 0 255
0 0 255
0 0 255
0 0 254
0 0 255
0 0 253
0 0 254
0 0 255
0 0 254
0 0 254
0 0 252
0 0 254
0 0 254
0 0 255
0 0 253
0 0 255
0 0 254
0 0 254
0 0 255
0 0 255
0 0 254
0 0 253
0 0 254
0 0 255
0 0 254
0 0 250
0 0 254
0 0 252
0 0 252
0 0 255
0 0 252
0 0 255
0 0 255
0 0 252
0 0 253
0 0 254
0 0 253
0 0 252
0 0 252
0 0 252
0 0 248
0 0 252
0 0 250
0 0 253
0 0 254
0 0 254
0 0 254
0 0 252
0 0 253
0 0 254
0 0 250
0 0 250
0 0 253
0 0 248
0 0 252
0 0 253
0 0 249
0 0 253
0 0 253
0 0 252
0 0 253
0 0 253
0 0 250
0 0 252
0 0 250
0 0 244
0 0 252
0 0 249
0 0 250
0 0 250
0 0 246
0 0 254
0 0 250
0 0 245
0 0 252
0 0 250
0 0 253
0 0 249
0 0 246
0 0 246
0 0 252
0 0 250
0 0 249
0 0 248
0 0 249
0 0 248
0 0 250
0 0 248
0 0 245
0 0 248
0 0 242
0 0 245
0 0 245
0 0 249
0 0 250
0 0 245
0 0 241
0 0 249
0 0 250
0 0 244
0 0 242
0 0 250
0 0 240
0 0 246
0 0 241
0 0 242
0 0 241
0 0 242
0 0 238
0 0 221
0 0 245
0 0 241
0 0 241
0 0 241
0 0 238
0 0 237
0 0 238
0 0 238
0 0 231
0 0 227
0 0 234
0 0 234
0 0 237
0 0 248
0 0 236
0 0 237
0 0 233
0 0 237
0 0 226
0 0 234
0 0 236
0 0 223
0 0 238
0 0 224
0 0 224
0 0 230
0 0 228
0 0 218
0 0 226
0 0 218
0 0 224
0 0 218
0 0 223
0 0 226
0 0 223
0 0 230
0 0 217
0 0 218
0 0 209
0 0 206
0 0 198
0 0 204
0 0 212
0 0 196
0 0 194
0 0 161
0 0 188
0 0 191
0 0 189
0 0 177
129 134 206
232 242 255
232 242 255
232 242 255
232 242 255
232 242 255
232 242 255
232 242 255
232 242 255
232 242 255
232 242 255
232 242 255
232 242 255
232 242 255
232 242 255
232 242 255
232 242 255
194 147 155
174 0 0
176 0 0
194 0 0
181 0 0
178 0 0
184 0 0
186 0 0
184 0 0
179 0 0
196 0 0
189 0 0
184 0 0
186 0 0
199 0 0
187 0 0
180 0 0
197 0 0
198 0 0
198 0 0
199 0 0
203 0 0
201 0 0
199 0 0
202 0 0
204 0 0
200 0 0
214 0 0
203 0 0
205 0 0
210 0 0
205 0 0
204 0 0
211 0 0
202 0 0
207 0 0
213 0 0
208 0 0
211 0 0
210 0 0
214 0 0
208 0 0
212 0 0
219 0 0
212 0 0
214 0 0
217 0 0
211 0 0
212 0 0
214 0 0
213 0 0
214 0 0
211 0 0
223 0 0
214 0 0
212 0 0
218 0 0
222 0 0
217 0 0
219 0 0
215 0 0
216 0 0
215 0 0
219 0 0
217 0 0
223 0 0
218 0 0
214 0 0
214 0 0
216 0 0
220 0 0
219 0 0
220 0 0
217 0 0
220 0 0
216 0 0
219 0 0
218 0 0
223 0 0
222 0 0
222 0 0
216 0 0
217 0 0
215 0 0
225 0 0
220 0 0
219 0 0
220 0 0
222 0 0
218 0 0
222 0 0
219 0 0
214 0 0
222 0 0
226 0 0
221 0 0
224 0 0
220 0 0
219 0 0
221 0 0
224 0 0
219 0 0
214 0 0
222 0 0
222 0 0
225 0 0
217 0 0
226 0 0
222 0 0
219 0 0
220 0 0
222 0 0
221 0 0
224 0 0
222 0 0
225 0 0
222 0 0
225 0 0
222 0 0
219 0 0
225 0 0
225 0 0
220 0 0
227 0 0
221 0 0
222 0 0
219 0 0
226 0 0
223 0 0
222 0 0
225 0 0
224 0 0
225 0 0
224 0 0
226 0 0
225 0 0
222 0 0
221 0 0
230 0 0
226 0 0
220 0 0
223 0 0
225 0 0
223 0 0
224 0 0
222 0 0
227 0 0
226 0 0
224 0 0
226 0 0
222 0 0
227 0 0
217 0 0
227 0 0
221 0 0
223 0 0
225 0 0
222 0 0
224 0 0
225 0 0
223 0 0
227 0 0
224 0 0
227 0 0
223 0 0
225 0 0
226 0 0
222 0 0
224 0 0
224 0 0
222 0 0
222 0 0
221 0 0
228 0 0
225 0 0
224 0 0
224 0 0
227 0 0
225 0 0
226 0 0
225 0 0
223 0 0
221 0 0
223 0 0
226 0 0
227 0 0
224 0 0
221 0 0
225 0 0
224 0 0
224 0 0
227 0 0
0 0 254
0 0 255
0 0 255
0 0 255
0 0 253
0 0 255
0 0 255
0 0 255
0 0 253
0 0 255
0 0 253
0 0 255
0 0 255
0 0 252
0 0 255
0 0 255
0 0 254
0 0 253
0 0 255
0 0 255
0 0 253
0 0 254
0 0 255
0 0 254
0 0 255
0 0 255
0 0 254
0 0 254
0 0 254
0 0 253
0 0 254
0 0 254
0 0 253
0 0 254
0 0 253
0 0 253
0 0 254
0 0 253
0 0 254
0 0 252
0 0 250
0 0 250
0 0 253
0 0 254
0 0 253
0 0 253
0 0 255
0 0 255
0 0 252
0 0 253
0 0 254
0 0 254
0 0 254
0 0 253
0 0 254
0 0 255
0 0 253
0 0 255
0 0 249
0 0 250
0 0 250
0 0 252
0 0 250
0 0 253
0 0 255
0 0 253
0 0 255
0 0 254
0 0 254
0 0 248
0 0 250
0 0 255
0 0 253
0 0 253
0 0 255
0 0 250
0 0 255
0 0 249
0 0 253
0 0 252
0 0 252
0 0 249
0 0 249
0 0 250
0 0 250
0 0 253
0 0 250
0 0 250
0 0 249
0 0 255
0 0 252
0 0 249
0 0 250
0 0 252
0 0 250
0 0 254
0 0 253
0 0 248
0 0 252
0 0 252
0 0 252
0 0 250
0 0 249
0 0 250
0 0 245
0 0 250
0 0 244
0 0 253
0 0 250
0 0 248
0 0 245
0 0 250
0 0 252
0 0 249
0 0 249
0 0 252
0 0 250
0 0 249
0 0 245
0 0 245
0 0 248
0 0 246
0 0 250
0 0 241
0 0 244
0 0 241
0 0 246
0 0 246
0 0 246
0 0 248
0 0 242
0 0 244
0 0 245
0 0 244
0 0 241
0 0 249
0 0 244
0 0 242
0 0 244
0 0 238
0 0 245
0 0 238
0 0 231
0 0 237
0 0 236
0 0 234
0 0 244
0 0 238
0 0 236
0 0 231
0 0 241
0 0 231
0 0 237
0 0 233
0 0 234
0 0 241
0 0 236
0 0 234
0 0 226
0 0 226
0 0 227
0 0 227
0 0 231
0 0 238
0 0 227
0 0 224
0 0 227
0 0 233
0 0 217
0 0 228
0 0 227
0 0 228
0 0 224
0 0 215
0 0 206
0 0 215
0 0 221
0 0 215
0 0 217
0 0 206
0 0 206
0 0 211
0 0 201
0 0 215
0 0 198
0 0 186
0 0 199
0 0 199
0 0 189
0 0 177
40 42 189
204 212 236
232 242 255
232 242 255
232 242 255
232 242 255
232 242 255
232 242 255
232 242 255
232 242 255
232 242 255
232 242 255
232 242 255
232 242 255
232 242 255
232 242 255
232 242 255
232 242 255
223 224 237
180 34 36
179 0 0
177 0 0
189 0 0
177 0 0
180 0 0
183 0 0
182 0 0
201 0 0
183 0 0
197 0 0
188 0 0
191 0 0
195 0 0
201 0 0
194 0 0
203 0 0
204 0 0
198 0 0
209 0 0
200 0 0
201 0 0
199 0 0
198 0 0
207 0 0
203 0 0
201 0 0
210 0 0
209 0 0
216 0 0
219 0 0
208 0 0
208 0 0
205 0 0
212 0 0
211 0 0
215 0 0
214 0 0
213 0 0
208 0 0
213 0 0
197 0 0
206 0 0
218 0 0
209 0 0
220 0 0
213 0 0
212 0 0
218 0 0
225 0 0
216 0 0
215 0 0
215 0 0
222 0 0
218 0 0
222 0 0
214 0 0
219 0 0
210 0 0
217 0 0
220 0 0
215 0 0
216 0 0
216 0 0
219 0 0
221 0 0
223 0 0
217 0 0
217 0 0
218 0 0
221 0 0
225 0 0
218 0 0
217 0 0
216 0 0
214 0 0
220 0 0
215 0 0
216 0 0
219 0 0
225 0 0
217 0 0
226 0 0
225 0 0
224 0 0
221 0 0
220 0 0
222 0 0
216 0 0
220 0 0
224 0 0
220 0 0
219 0 0
220 0 0
218 0 0
226 0 0
222 0 0
220 0 0
228 0 0
223 0 0
225 0 0
229 0 0
224 0 0
222 0 0
224 0 0
222 0 0
223 0 0
223 0 0
227 0 0
223 0 0
219 0 0
223 0 0
227 0 0
221 0 0
225 0 0
219 0 0
215 0 0
224 0 0
224 0 0
223 0 0
225 0 0
221 0 0
222 0 0
222 0 0
225 0 0
228 0 0
219 0 0
224 0 0
224 0 0
225 0 0
219 0 0
222 0 0
229 0 0
221 0 0
222 0 0
226 0 0
223 0 0
224 0 0
224 0 0
220 0 0
225 0 0
225 0 0
223 0 0
227 0 0
225 0 0
221 0 0
227 0 0
224 0 0
221 0 0
225 0 0
224 0 0
224 0 0
223 0 0
226 0 0
226 0 0
226 0 0
226 0 0
221 0 0
225 0 0
224 0 0
226 0 0
226 0 0
227 0 0
225 0 0
225 0 0
227 0 0
221 0 0
225 0 0
223 0 0
226 0 0
226 0 0
224 0 0
223 0 0
224 0 0
226 0 0
226 0 0
223 0 0
223 0 0
222 0 0
222 0 0
223 0 0
226 0 0
226 0 0
220 0 0
225 0 0
224 0 0
225 0 0
223 0 0
224 0 0
223 0 0
225 0 0
0 0 254
0 0 255
0 0 255
0 0 255
0 0 255
0 0 255
0 0 254
0 0 254
0 0 255
0 0 255
0 0 254
0 0 255
0 0 254
0 0 255
0 0 254
0 0 255
0 0 255
0 0 255
0 0 254
0 0 254
0 0 254
0 0 254
0 0 254
0 0 254
0 0 254
0 0 254
0 0 255
0 0 255
0 0 255
0 0 250
0 0 255
0 0 253
0 0 253
0 0 254
0 0 254
0 0 254
0 0 255
0 0 253
0 0 250
0 0 253
0 0 253
0 0 253
0 0 255
0 0 255
0 0 255
0 0 255
0 0 254
0 0 255
0 0 254
0 0 255
0 0 255
0 0 254
0 0 252
0 0 254
0 0 252
0 0 253
0 0 255
0 0 253
0 0 252
0 0 253
0 0 254
0 0 254
0 0 252
0 0 254
0 0 253
0 0 254
0 0 249
0 0 252
0 0 253
0 0 252
0 0 252
0 0 255
0 0 254
0 0 253
0 0 249
0 0 254
0 0 252
0 0 248
0 0 250
0 0 254
0 0 254
0 0 253
0 0 253
0 0 250
0 0 253
0 0 252
0 0 253
0 0 249
0 0 250
0 0 250
0 0 249
0 0 249
0 0 252
0 0 250
0 0 252
0 0 250
0 0 249
0 0 250
0 0 254
0 0 249
0 0 249
0 0 250
0 0 252
0 0 252
0 0 246
0 0 250
0 0 248
0 0 248
0 0 242
0 0 250
0 0 249
0 0 249
0 0 248
0 0 248
0 0 245
0 0 245
0 0 245
0 0 248
0 0 245
0 0 246
0 0 249
0 0 245
0 0 249
0 0 246
0 0 244
0 0 252
0 0 237
0 0 244
0 0 248
0 0 244
0 0 248
0 0 244
0 0 242
0 0 244
0 0 245
0 0 241
0 0 246
0 0 248
0 0 237
0 0 246
0 0 241
0 0 242
0 0 244
0 0 240
0 0 240
0 0 244
0 0 233
0 0 234
0 0 237
0 0 236
0 0 234
0 0 238
0 0 231
0 0 236
0 0 233
0 0 240
0 0 233
0 0 238
0 0 233
0 0 234
0 0 233
0 0 215
0 0 231
0 0 228
0 0 230
0 0 217
0 0 234
0 0 228
0 0 223
0 0 234
0 0 226
0 0 212
0 0 220
0 0 212
0 0 206
0 0 214
0 0 207
0 0 218
0 0 207
0 0 214
0 0 206
0 0 206
0 0 194
0 0 212
0 0 207
0 0 203
0 0 191
0 0 206
0 0 199
0 0 173
139 145 212
233 242 255
233 242 255
233 242 255
233 242 255
233 242 255
233 242 255
233 242 255
233 242 255
233 242 255
233 242 255
233 242 255
233 242 255
233 242 255
233 242 255
233 242 255
233 242 255
233 242 255
233 242 255
188 135 142
181 0 0
166 0 0
186 0 0
185 0 0
177 0 0
186 0 0
201 0 0
191 0 0
196 0 0
180 0 0
200 0 0
199 0 0
186 0 0
199 0 0
200 0 0
193 0 0
199 0 0
204 0 0
199 0 0
203 0 0
209 0 0
199 0 0
197 0 0
216 0 0
217 0 0
211 0 0
209 0 0
204 0 0
204 0 0
211 0 0
210 0 0
211 0 0
222 0 0
207 0 0
213 0 0
218 0 0
210 0 0
217 0 0
215 0 0
212 0 0
208 0 0
209 0 0
214 0 0
218 0 0
206 0 0
212 0 0
219 0 0
214 0 0
218 0 0
212 0 0
213 0 0
216 0 0
215 0 0
213 0 0
222 0 0
209 0 0
221 0 0
222 0 0
219 0 0
225 0 0
214 0 0
214 0 0
219 0 0
217 0 0
219 0 0
217 0 0
220 0 0
219 0 0
226 0 0
221 0 0
217 0 0
223 0 0
217 0 0
226 0 0
222 0 0
223 0 0
223 0 0
224 0 0
222 0 0
220 0 0
224 0 0
218 0 0
221 0 0
216 0 0
221 0 0
216 0 0
225 0 0
220 0 0
218 0 0
215 0 0
220 0 0
225 0 0
227 0 0
224 0 0
227 0 0
220 0 0
213 0 0
220 0 0
221 0 0
217 0 0
225 0 0
217 0 0
226 0 0
225 0 0
220 0 0
221 0 0
221 0 0
226 0 0
222 0 0
222 0 0
223 0 0
226 0 0
223 0 0
226 0 0
219 0 0
223 0 0
216 0 0
224 0 0
219 0 0
224 0 0
221 0 0
223 0 0
226 0 0
224 0 0
224 0 0
221 0 0
224 0 0
218 0 0
222 0 0
227 0 0
225 0 0
225 0 0
220 0 0
224 0 0
221 0 0
220 0 0
223 0 0
227 0 0
226 0 0
225 0 0
224 0 0
227 0 0
224 0 0
225 0 0
226 0 0
226 0 0
222 0 0
226 0 0
223 0 0
219 0 0
224 0 0
225 0 0
227 0 0
226 0 0
224 0 0
227 0 0
224 0 0
225 0 0
221 0 0
222 0 0
224 0 0
223 0 0
223 0 0
224 0 0
220 0 0
225 0 0
226 0 0
223 0 0
225 0 0
225 0 0
227 0 0
226 0 0
222 0 0
224 0 0
227 0 0
222 0 0
223 0 0
224 0 0
227 0 0
224 0 0
220 0 0
224 0 0
223 0 0
223 0 0
226 0 0
223 0 0
224 0 0
225 0 0
227 0 0
223 0 0
0 0 255
0 0 255
0 0 255
0 0 255
0 0 254
0 0 255
0 0 255
0 0 253
0 0 255
0 0 254
0 0 255
0 0 255
0 0 254
0 0 255
0 0 255
0 0 255
0 0 254
0 0 255
0 0 255
0 0 255
0 0 255
0 0 254
0 0 255
0 0 254
0 0 255
0 0 253
0 0 255
0 0 254
0 0 254
0 0 255
0 0 255
0 0 254
0 0 253
0 0 255
0 0 253
0 0 255
0 0 255
0 0 254
0 0 255
0 0 253
0 0 252
0 0 252
0 0 254
0 0 255
0 0 255
0 0 254
0 0 253
0 0 253
0 0 254
0 0 255
0 0 254
0 0 254
0 0 254
0 0 254
0 0 254
0 0 255
0 0 255
0 0 252
0 0 253
0 0 252
0 0 254
0 0 250
0 0 252
0 0 253
0 0 255
0 0 252
0 0 255
0 0 252
0 0 253
0 0 254
0 0 253
0 0 254
0 0 254
0 0 249
0 0 252
0 0 253
0 0 250
0 0 249
0 0 254
0 0 253
0 0 249
0 0 252
0 0 252
0 0 252
0 0 253
0 0 254
0 0 253
0 0 248
0 0 255
0 0 255
0 0 252
0 0 252
0 0 252
0 0 252
0 0 252
0 0 253
0 0 246
0 0 250
0 0 253
0 0 250
0 0 248
0 0 254
0 0 250
0 0 248
0 0 246
0 0 249
0 0 246
0 0 248
0 0 245
0 0 246
0 0 248
0 0 250
0 0 248
0 0 248
0 0 252
0 0 252
0 0 252
0 0 245
0 0 245
0 0 252
0 0 248
0 0 252
0 0 244
0 0 240
0 0 236
0 0 252
0 0 246
0 0 242
0 0 244
0 0 242
0 0 249
0 0 252
0 0 246
0 0 241
0 0 241
0 0 252
0 0 245
0 0 238
0 0 246
0 0 250
0 0 242
0 0 240
0 0 242
0 0 240
0 0 240
0 0 234
0 0 223
0 0 238
0 0 241
0 0 242
0 0 231
0 0 226
0 0 233
0 0 244
0 0 233
0 0 230
0 0 242
0 0 238
0 0 238
0 0 228
0 0 240
0 0 231
0 0 236
0 0 230
0 0 227
0 0 217
0 0 221
0 0 227
0 0 221
0 0 230
0 0 230
0 0 231
0 0 212
0 0 221
0 0 224
0 0 218
0 0 214
0 0 212
0 0 224
0 0 193
0 0 203
0 0 206
0 0 209
0 0 199
0 0 207
0 0 212
0 0 203
0 0 198
0 0 191
33 34 201
215 223 244
233 242 255
233 242 255
233 242 255
233 242 255
233 242 255
233 242 255
233 242 255
233 242 255
233 242 255
233 242 255
233 242 255
233 242 255
233 242 255
233 242 255
233 242 255
233 242 255
233 242 255
233 242 255
220 222 234
176 42 44
177 0 0
176 0 0
184 0 0
186 0 0
186 0 0
194 0 0
206 0 0
170 0 0
193 0 0
204 0 0
186 0 0
188 0 0
200 0 0
208 0 0
196 0 0
190 0 0
197 0 0
195 0 0
197 0 0
199 0 0
189 0 0
204 0 0
204 0 0
206 0 0
209 0 0
209 0 0
207 0 0
206 0 0
207 0 0
211 0 0
211 0 0
210 0 0
209 0 0
211 0 0
217 0 0
212 0 0
209 0 0
213 0 0
216 0 0
219 0 0
207 0 0
219 0 0
204 0 0
213 0 0
214 0 0
218 0 0
216 0 0
218 0 0
217 0 0
215 0 0
213 0 0
210 0 0
222 0 0
211 0 0
221 0 0
216 0 0
226 0 0
225 0 0
216 0 0
216 0 0
219 0 0
218 0 0
216 0 0
220 0 0
218 0 0
220 0 0
222 0 0
210 0 0
222 0 0
218 0 0
215 0 0
222 0 0
219 0 0
220 0 0
219 0 0
218 0 0
224 0 0
221 0 0
222 0 0
224 0 0
214 0 0
226 0 0
219 0 0
219 0 0
222 0 0
226 0 0
223 0 0
221 0 0
217 0 0
224 0 0
220 0 0
222 0 0
225 0 0
219 0 0
222 0 0
223 0 0
225 0 0
220 0 0
225 0 0
225 0 0
221 0 0
222 0 0
223 0 0
214 0 0
225 0 0
223 0 0
222 0 0
223 0 0
229 0 0
223 0 0
220 0 0
226 0 0
224 0 0
225 0 0
226 0 0
223 0 0
221 0 0
224 0 0
222 0 0
221 0 0
224 0 0
226 0 0
222 0 0
226 0 0
225 0 0
224 0 0
222 0 0
225 0 0
224 0 0
220 0 0
225 0 0
219 0 0
223 0 0
224 0 0
219 0 0
225 0 0
226 0 0
223 0 0
222 0 0
225 0 0
222 0 0
224 0 0
222 0 0
225 0 0
227 0 0
224 0 0
223 0 0
226 0 0
227 0 0
223 0 0
227 0 0
224 0 0
226 0 0
226 0 0
225 0 0
222 0 0
224 0 0
227 0 0
227 0 0
223 0 0
221 0 0
226 0 0
224 0 0
222 0 0
222 0 0
226 0 0
224 0 0
226 0 0
226 0 0
223 0 0
226 0 0
226 0 0
220 0 0
220 0 0
224 0 0
225 0 0
222 0 0
224 0 0
225 0 0
225 0 0
225 0 0
222 0 0
224 0 0
223 0 0
226 0 0
223 0 0
224 0 0
222 0 0
225 0 0
0 0 255
0 0 255
0 0 255
0 0 254
0 0 254
0 0 252
0 0 254
0 0 254
0 0 255
0 0 255
0 0 255
0 0 255
0 0 254
0 0 255
0 0 255
0 0 254
0 0 254
0 0 255
0 0 255
0 0 255
0 0 255
0 0 255
0 0 253
0 0 255
0 0 255
0 0 254
0 0 254
0 0 254
0 0 255
0 0 253
0 0 255
0 0 255
0 0 255
0 0 250
0 0 253
0 0 255
0 0 253
0 0 254
0 0 254
0 0 254
0 0 254
0 0 255
0 0 252
0 0 254
0 0 254
0 0 252
0 0 255
0 0 252
0 0 254
0 0 254
0 0 253
0 0 254
0 0 252
0 0 254
0 0 255
0 0 254
0 0 255
0 0 253
0 0 253
0 0 254
0 0 255
0 0 253
0 0 252
0 0 254
0 0 254
0 0 248
0 0 252
0 0 253
0 0 253
0 0 254
0 0 252
0 0 254
0 0 252
0 0 252
0 0 252
0 0 254
0 0 250
0 0 249
0 0 255
0 0 250
0 0 252
0 0 249
0 0 254
0 0 252
0 0 253
0 0 253
0 0 252
0 0 250
0 0 249
0 0 254
0 0 252
0 0 250
0 0 252
0 0 248
0 0 250
0 0 248
0 0 246
0 0 252
0 0 254
0 0 248
0 0 250
0 0 250
0 0 248
0 0 249
0 0 254
0 0 253
0 0 249
0 0 248
0 0 254
0 0 248
0 0 249
0 0 248
0 0 246
0 0 248
0 0 253
0 0 252
0 0 245
0 0 250
0 0 246
0 0 245
0 0 248
0 0 250
0 0 246
0 0 245
0 0 246
0 0 244
0 0 246
0 0 249
0 0 248
0 0 249
0 0 234
0 0 248
0 0 248
0 0 244
0 0 245
0 0 242
0 0 244
0 0 244
0 0 240
0 0 234
0 0 240
0 0 234
0 0 242
0 0 242
0 0 240
0 0 241
0 0 238
0 0 241
0 0 238
0 0 241
0 0 234
0 0 230
0 0 233
0 0 237
0 0 241
0 0 234
0 0 236
0 0 242
0 0 227
0 0 237
0 0 237
0 0 238
0 0 228
0 0 228
0 0 227
0 0 220
0 0 234
0 0 234
0 0 228
0 0 231
0 0 231
0 0 218
0 0 204
0 0 223
0 0 226
0 0 212
0 0 209
0 0 204
0 0 223
0 0 220
0 0 211
0 0 198
0 0 207
0 0 199
0 0 209
0 0 194
0 0 201
0 0 194
0 0 189
151 157 214
233 242 255
233 242 255
233 242 255
233 242 255
233 242 255
233 242 255
233 242 255
233 242 255
233 242 255
233 242 255
233 242 255
233 242 255
233 242 255
233 242 255
233 242 255
233 242 255
233 242 255
233 242 255
233 242 255
233 242 255
203 147 155
168 0 0
177 0 0
188 0 0
191 0 0
181 0 0
196 0 0
194 0 0
188 0 0
182 0 0
204 0 0
198 0 0
208 0 0
197 0 0
205 0 0
200 0 0
199 0 0
201 0 0
215 0 0
209 0 0
203 0 0
207 0 0
208 0 0
200 0 0
211 0 0
200 0 0
208 0 0
211 0 0
211 0 0
211 0 0
210 0 0
210 0 0
212 0 0
216 0 0
217 0 0
221 0 0
219 0 0
217 0 0
209 0 0
209 0 0
217 0 0
211 0 0
210 0 0
212 0 0
220 0 0
215 0 0
213 0 0
209 0 0
212 0 0
222 0 0
211 0 0
211 0 0
224 0 0
221 0 0
210 0 0
214 0 0
217 0 0
221 0 0
221 0 0
219 0 0
215 0 0
223 0 0
222 0 0
221 0 0
224 0 0
219 0 0
215 0 0
221 0 0
225 0 0
217 0 0
219 0 0
215 0 0
219 0 0
223 0 0
213 0 0
216 0 0
220 0 0
220 0 0
221 0 0
217 0 0
218 0 0
222 0 0
225 0 0
220 0 0
218 0 0
223 0 0
219 0 0
220 0 0
217 0 0
221 0 0
223 0 0
224 0 0
221 0 0
225 0 0
224 0 0
221 0 0
225 0 0
225 0 0
221 0 0
222 0 0
221 0 0
221 0 0
221 0 0
222 0 0
223 0 0
225 0 0
221 0 0
223 0 0
220 0 0
222 0 0
223 0 0
222 0 0
221 0 0
223 0 0
225 0 0
225 0 0
227 0 0
228 0 0
221 0 0
223 0 0
219 0 0
221 0 0
219 0 0
222 0 0
223 0 0
227 0 0
225 0 0
220 0 0
225 0 0
226 0 0
223 0 0
221 0 0
225 0 0
226 0 0
223 0 0
221 0 0
220 0 0
226 0 0
220 0 0
226 0 0
225 0 0
225 0 0
222 0 0
228 0 0
226 0 0
224 0 0
223 0 0
224 0 0
223 0 0
224 0 0
226 0 0
227 0 0
224 0 0
223 0 0
224 0 0
221 0 0
222 0 0
223 0 0
228 0 0
220 0 0
223 0 0
228 0 0
226 0 0
223 0 0
225 0 0
228 0 0
225 0 0
228 0 0
227 0 0
220 0 0
224 0 0
228 0 0
222 0 0
224 0 0
225 0 0
227 0 0
222 0 0
222 0 0
222 0 0
229 0 0
225 0 0
224 0 0
224 0 0
225 0 0
223 0 0
226 0 0
224 0 0
227 0 0
225 0 0
225 0 0
0 0 255
0 0 255
0 0 255
0 0 254
0 0 255
0 0 255
0 0 255
0 0 255
0 0 254
0 0 255
0 0 254
0 0 254
0 0 254
0 0 255
0 0 255
0 0 254
0 0 254
0 0 255
0 0 253
0 0 253
0 0 253
0 0 253
0 0 255
0 0 252
0 0 255
0 0 253
0 0 254
0 0 254
0 0 253
0 0 255
0 0 254
0 0 255
0 0 255
0 0 254
0 0 252
0 0 254
0 0 255
0 0 252
0 0 255
0 0 255
0 0 252
0 0 254
0 0 252
0 0 254
0 0 255
0 0 255
0 0 253
0 0 255
0 0 255
0 0 254
0 0 253
0 0 253
0 0 254
0 0 254
0 0 254
0 0 252
0 0 255
0 0 254
0 0 255
0 0 254
0 0 254
0 0 253
0 0 255
0 0 255
0 0 252
0 0 253
0 0 250
0 0 252
0 0 254
0 0 253
0 0 252
0 0 253
0 0 252
0 0 255
0 0 253
0 0 252
0 0 254
0 0 252
0 0 250
0 0 252
0 0 249
0 0 253
0 0 253
0 0 253
0 0 252
0 0 248
0 0 252
0 0 253
0 0 249
0 0 252
0 0 252
0 0 254
0 0 249
0 0 250
0 0 248
0 0 253
0 0 250
0 0 249
0 0 246
0 0 252
0 0 249
0 0 252
0 0 248
0 0 253
0 0 248
0 0 244
0 0 246
0 0 246
0 0 242
0 0 249
0 0 245
0 0 249
0 0 242
0 0 250
0 0 253
0 0 245
0 0 246
0 0 246
0 0 244
0 0 252
0 0 250
0 0 242
0 0 245
0 0 241
0 0 241
0 0 248
0 0 241
0 0 246
0 0 242
0 0 245
0 0 242
0 0 242
0 0 244
0 0 236
0 0 249
0 0 234
0 0 242
0 0 244
0 0 238
0 0 246
0 0 241
0 0 238
0 0 241
0 0 245
0 0 237
0 0 236
0 0 244
0 0 237
0 0 237
0 0 242
0 0 226
0 0 238
0 0 240
0 0 242
0 0 231
0 0 233
0 0 237
0 0 245
0 0 240
0 0 226
0 0 224
0 0 240
0 0 237
0 0 233
0 0 227
0 0 220
0 0 233
0 0 231
0 0 221
0 0 223
0 0 230
0 0 223
0 0 228
0 0 206
0 0 218
0 0 226
0 0 209
0 0 204
0 0 209
0 0 212
0 0 212
0 0 212
0 0 203
0 0 207
0 0 218
0 0 206
0 0 199
0 0 193
57 59 193
218 226 249
233 243 255
233 243 255
233 243 255
234 243 255
234 243 255
234 243 255
234 243 255
234 243 255
234 243 255
234 243 255
234 243 255
234 243 255
234 243 255
233 243 255
234 243 255
233 243 255
233 243 255
233 243 255
233 243 255
233 243 255
223 224 236
187 68 72
179 0 0
185 0 0
185 0 0
186 0 0
194 0 0
194 0 0
193 0 0
193 0 0
196 0 0
192 0 0
206 0 0
198 0 0
203 0 0
200 0 0
206 0 0
207 0 0
197 0 0
196 0 0
212 0 0
200 0 0
197 0 0
209 0 0
210 0 0
210 0 0
206 0 0
206 0 0
211 0 0
217 0 0
209 0 0
204 0 0
213 0 0
208 0 0
210 0 0
216 0 0
215 0 0
218 0 0
215 0 0
210 0 0
214 0 0
213 0 0
217 0 0
218 0 0
215 0 0
208 0 0
213 0 0
217 0 0
212 0 0
217 0 0
221 0 0
216 0 0
214 0 0
218 0 0
216 0 0
224 0 0
220 0 0
214 0 0
216 0 0
221 0 0
214 0 0
217 0 0
220 0 0
219 0 0
223 0 0
222 0 0
215 0 0
216 0 0
220 0 0
223 0 0
222 0 0
218 0 0
224 0 0
220 0 0
224 0 0
225 0 0
216 0 0
223 0 0
221 0 0
217 0 0
215 0 0
217 0 0
218 0 0
216 0 0
216 0 0
216 0 0
219 0 0
221 0 0
212 0 0
221 0 0
222 0 0
223 0 0
225 0 0
223 0 0
217 0 0
221 0 0
222 0 0
223 0 0
226 0 0
218 0 0
217 0 0
219 0 0
222 0 0
220 0 0
222 0 0
225 0 0
225 0 0
226 0 0
217 0 0
220 0 0
221 0 0
225 0 0
217 0 0
221 0 0
226 0 0
219 0 0
221 0 0
227 0 0
226 0 0
220 0 0
221 0 0
223 0 0
223 0 0
226 0 0
219 0 0
224 0 0
224 0 0
227 0 0
227 0 0
225 0 0
224 0 0
224 0 0
224 0 0
221 0 0
226 0 0
226 0 0
222 0 0
225 0 0
221 0 0
225 0 0
223 0 0
228 0 0
228 0 0
224 0 0
223 0 0
226 0 0
228 0 0
222 0 0
226 0 0
225 0 0
225 0 0
224 0 0
226 0 0
225 0 0
226 0 0
225 0 0
227 0 0
223 0 0
223 0 0
223 0 0
225 0 0
224 0 0
226 0 0
225 0 0
225 0 0
222 0 0
227 0 0
226 0 0
222 0 0
225 0 0
226 0 0
228 0 0
223 0 0
226 0 0
227 0 0
227 0 0
227 0 0
224 0 0
224 0 0
225 0 0
226 0 0
226 0 0
227 0 0
223 0 0
225 0 0
225 0 0
225 0 0
225 0 0
225 0 0
224 0 0
0 0 255
0 0 255
0 0 255
0 0 254
0 0 255
0 0 255
0 0 255
0 0 254
0 0 254
0 0 255
0 0 255
0 0 254
0 0 255
0 0 253
0 0 255
0 0 254
0 0 254
0 0 255
0 0 255
0 0 254
0 0 255
0 0 254
0 0 255
0 0 253
0 0 254
0 0 254
0 0 255
0 0 255
0 0 255
0 0 255
0 0 253
0 0 253
0 0 253
0 0 255
0 0 252
0 0 255
0 0 254
0 0 255
0 0 254
0 0 252
0 0 255
0 0 252
0 0 255
0 0 253
0 0 252
0 0 254
0 0 254
0 0 254
0 0 255
0 0 255
0 0 255
0 0 255
0 0 255
0 0 252
0 0 249
0 0 255
0 0 248
0 0 252
0 0 253
0 0 254
0 0 254
0 0 255
0 0 253
0 0 252
0 0 254
0 0 254
0 0 252
0 0 250
0 0 254
0 0 253
0 0 253
0 0 253
0 0 254
0 0 253
0 0 248
0 0 249
0 0 248
0 0 255
0 0 252
0 0 254
0 0 253
0 0 253
0 0 249
0 0 253
0 0 253
0 0 252
0 0 250
0 0 249
0 0 248
0 0 249
0 0 254
0 0 253
0 0 252
0 0 255
0 0 249
0 0 249
0 0 252
0 0 249
0 0 250
0 0 253
0 0 252
0 0 246
0 0 248
0 0 250
0 0 245
0 0 246
0 0 249
0 0 252
0 0 248
0 0 252
0 0 249
0 0 244
0 0 242
0 0 245
0 0 249
0 0 250
0 0 248
0 0 241
0 0 246
0 0 250
0 0 241
0 0 246
0 0 252
0 0 241
0 0 252
0 0 245
0 0 248
0 0 237
0 0 244
0 0 242
0 0 242
0 0 242
0 0 240
0 0 245
0 0 242
0 0 245
0 0 238
0 0 234
0 0 240
0 0 245
0 0 246
0 0 246
0 0 242
0 0 246
0 0 245
0 0 242
0 0 244
0 0 237
0 0 240
0 0 237
0 0 236
0 0 226
0 0 246
0 0 241
0 0 241
0 0 238
0 0 237
0 0 231
0 0 233
0 0 226
0 0 234
0 0 227
0 0 231
0 0 221
0 0 236
0 0 230
0 0 224
0 0 224
0 0 231
0 0 233
0 0 218
0 0 231
0 0 221
0 0 218
0 0 215
0 0 220
0 0 212
0 0 217
0 0 215
0 0 193
0 0 207
0 0 214
0 0 201
0 0 204
0 0 212
0 0 201
0 0 191
0 0 199
160 166 231
234 243 255
234 243 255
234 243 255
234 243 255
234 243 255
234 243 255
234 243 255
234 243 255
234 243 255
234 243 255
234 243 255
234 243 255
234 243 255
234 243 255
234 243 255
234 243 255
234 243 255
234 243 255
234 243 255
234 243 255
234 243 255
234 243 255
202 153 161
195 0 0
175 0 0
177 0 0
178 0 0
187 0 0
196 0 0
190 0 0
209 0 0
186 0 0
192 0 0
194 0 0
206 0 0
189 0 0
204 0 0
204 0 0
201 0 0
207 0 0
213 0 0
204 0 0
213 0 0
207 0 0
211 0 0
216 0 0
214 0 0
211 0 0
215 0 0
207 0 0
210 0 0
217 0 0
209 0 0
210 0 0
217 0 0
217 0 0
212 0 0
206 0 0
217 0 0
216 0 0
209 0 0
207 0 0
212 0 0
211 0 0
219 0 0
215 0 0
223 0 0
216 0 0
213 0 0
221 0 0
215 0 0
212 0 0
221 0 0
213 0 0
213 0 0
216 0 0
222 0 0
216 0 0
219 0 0
221 0 0
226 0 0
224 0 0
223 0 0
210 0 0
214 0 0
215 0 0
222 0 0
219 0 0
222 0 0
221 0 0
219 0 0
213 0 0
220 0 0
212 0 0
224 0 0
217 0 0
222 0 0
222 0 0
224 0 0
222 0 0
222 0 0
214 0 0
217 0 0
217 0 0
223 0 0
222 0 0
220 0 0
228 0 0
222 0 0
220 0 0
224 0 0
220 0 0
224 0 0
220 0 0
219 0 0
227 0 0
223 0 0
225 0 0
216 0 0
220 0 0
222 0 0
224 0 0
223 0 0
219 0 0
228 0 0
227 0 0
221 0 0
225 0 0
227 0 0
219 0 0
222 0 0
226 0 0
225 0 0
225 0 0
224 0 0
221 0 0
225 0 0
224 0 0
227 0 0
224 0 0
224 0 0
223 0 0
221 0 0
218 0 0
223 0 0
225 0 0
224 0 0
225 0 0
226 0 0
221 0 0
225 0 0
224 0 0
225 0 0
216 0 0
225 0 0
223 0 0
225 0 0
224 0 0
226 0 0
225 0 0
223 0 0
221 0 0
226 0 0
224 0 0
221 0 0
227 0 0
226 0 0
224 0 0
223 0 0
225 0 0
223 0 0
222 0 0
224 0 0
224 0 0
221 0 0
223 0 0
224 0 0
226 0 0
227 0 0
226 0 0
230 0 0
225 0 0
225 0 0
228 0 0
224 0 0
228 0 0
226 0 0
223 0 0
224 0 0
225 0 0
221 0 0
226 0 0
224 0 0
222 0 0
225 0 0
229 0 0
228 0 0
226 0 0
228 0 0
225 0 0
221 0 0
223 0 0
226 0 0
226 0 0
224 0 0
224 0 0
227 0 0
225 0 0
226 0 0
224 0 0
226 0 0
0 0 254
0 0 255
0 0 253
0 0 254
0 0 255
0 0 255
0 0 254
0 0 255
0 0 255
0 0 254
0 0 255
0 0 255
0 0 255
0 0 253
0 0 253
0 0 255
0 0 255
0 0 254
0 0 255
0 0 254
0 0 255
0 0 254
0 0 252
0 0 254
0 0 255
0 0 255
0 0 255
0 0 255
0 0 253
0 0 255
0 0 253
0 0 255
0 0 255
0 0 255
0 0 255
0 0 255
0 0 254
0 0 254
0 0 253
0 0 255
0 0 253
0 0 253
0 0 255
0 0 253
0 0 254
0 0 254
0 0 254
0 0 254
0 0 250
0 0 252
0 0 252
0 0 254
0 0 254
0 0 250
0 0 253
0 0 254
0 0 252
0 0 254
0 0 252
0 0 253
0 0 254
0 0 250
0 0 253
0 0 254
0 0 254
0 0 252
0 0 254
0 0 254
0 0 254
0 0 254
0 0 254
0 0 252
0 0 249
0 0 252
0 0 255
0 0 249
0 0 249
0 0 250
0 0 252
0 0 250
0 0 253
0 0 253
0 0 249
0 0 252
0 0 253
0 0 245
0 0 253
0 0 252
0 0 249
0 0 252
0 0 255
0 0 250
0 0 252
0 0 254
0 0 248
0 0 245
0 0 246
0 0 250
0 0 248
0 0 246
0 0 253
0 0 254
0 0 249
0 0 250
0 0 246
0 0 250
0 0 252
0 0 250
0 0 249
0 0 246
0 0 250
0 0 249
0 0 250
0 0 249
0 0 246
0 0 248
0 0 245
0 0 254
0 0 250
0 0 245
0 0 245
0 0 245
0 0 244
0 0 250
0 0 246
0 0 248
0 0 250
0 0 245
0 0 246
0 0 244
0 0 241
0 0 242
0 0 244
0 0 242
0 0 241
0 0 240
0 0 242
0 0 246
0 0 242
0 0 234
0 0 240
0 0 242
0 0 234
0 0 237
0 0 238
0 0 237
0 0 237
0 0 237
0 0 241
0 0 234
0 0 234
0 0 240
0 0 244
0 0 242
0 0 242
0 0 234
0 0 240
0 0 233
0 0 237
0 0 238
0 0 242
0 0 234
0 0 227
0 0 230
0 0 234
0 0 224
0 0 220
0 0 224
0 0 237
0 0 223
0 0 217
0 0 224
0 0 231
0 0 226
0 0 226
0 0 224
0 0 226
0 0 217
0 0 211
0 0 209
0 0 215
0 0 212
0 0 203
0 0 223
0 0 199
0 0 212
0 0 201
90 94 209
230 239 254
234 243 255
234 243 255
234 243 255
234 243 255
234 243 255
234 243 255
234 243 255
234 243 255
234 243 255
234 243 255
234 243 255
234 243 255
234 243 255
234 243 255
234 243 255
234 243 255
234 243 255
234 243 255
234 243 255
234 243 255
234 243 255
234 243 255
233 239 252
195 84 88
187 0 0
195 0 0
189 0 0
195 0 0
191 0 0
181 0 0
190 0 0
195 0 0
201 0 0
189 0 0
204 0 0
206 0 0
190 0 0
213 0 0
203 0 0
209 0 0
198 0 0
210 0 0
212 0 0
212 0 0
211 0 0
209 0 0
214 0 0
215 0 0
209 0 0
196 0 0
207 0 0
212 0 0
208 0 0
210 0 0
204 0 0
209 0 0
208 0 0
212 0 0
210 0 0
204 0 0
212 0 0
205 0 0
220 0 0
218 0 0
210 0 0
223 0 0
215 0 0
215 0 0
219 0 0
221 0 0
218 0 0
215 0 0
217 0 0
218 0 0
212 0 0
214 0 0
214 0 0
216 0 0
213 0 0
216 0 0
222 0 0
216 0 0
215 0 0
216 0 0
218 0 0
220 0 0
220 0 0
223 0 0
217 0 0
218 0 0
214 0 0
222 0 0
222 0 0
220 0 0
226 0 0
219 0 0
218 0 0
220 0 0
224 0 0
222 0 0
221 0 0
224 0 0
226 0 0
220 0 0
218 0 0
221 0 0
221 0 0
224 0 0
217 0 0
221 0 0
225 0 0
222 0 0
224 0 0
218 0 0
224 0 0
217 0 0
221 0 0
226 0 0
223 0 0
227 0 0
223 0 0
223 0 0
225 0 0
224 0 0
220 0 0
223 0 0
224 0 0
220 0 0
223 0 0
223 0 0
222 0 0
221 0 0
223 0 0
219 0 0
225 0 0
224 0 0
224 0 0
222 0 0
220 0 0
220 0 0
219 0 0
224 0 0
224 0 0
222 0 0
227 0 0
226 0 0
224 0 0
224 0 0
227 0 0
225 0 0
225 0 0
222 0 0
225 0 0
221 0 0
223 0 0
221 0 0
223 0 0
223 0 0
222 0 0
226 0 0
221 0 0
227 0 0
223 0 0
225 0 0
223 0 0
224 0 0
223 0 0
223 0 0
221 0 0
221 0 0
224 0 0
227 0 0
226 0 0
226 0 0
225 0 0
227 0 0
225 0 0
223 0 0
224 0 0
225 0 0
225 0 0
226 0 0
226 0 0
225 0 0
222 0 0
226 0 0
226 0 0
224 0 0
224 0 0
223 0 0
224 0 0
225 0 0
225 0 0
226 0 0
226 0 0
227 0 0
225 0 0
225 0 0
225 0 0
227 0 0
227 0 0
228 0 0
224 0 0
226 0 0
222 0 0
227 0 0
227 0 0
224 0 0
221 0 0
226 0 0
222 0 0
0 0 253
0 0 255
0 0 255
0 0 255
0 0 255
0 0 254
0 0 255
0 0 254
0 0 255
0 0 255
0 0 255
0 0 255
0 0 254
0 0 255
0 0 255
0 0 254
0 0 255
0 0 255
0 0 255
0 0 255
0 0 254
0 0 255
0 0 253
0 0 254
0 0 254
0 0 254
0 0 254
0 0 255
0 0 254
0 0 254
0 0 254
0 0 254
0 0 255
0 0 254
0 0 254
0 0 253
0 0 254
0 0 255
0 0 254
0 0 253
0 0 254
0 0 255
0 0 255
0 0 253
0 0 254
0 0 254
0 0 253
0 0 250
0 0 254
0 0 254
0 0 252
0 0 249
0 0 252
0 0 253
0 0 253
0 0 252
0 0 254
0 0 254
0 0 254
0 0 253
0 0 253
0 0 252
0 0 253
0 0 252
0 0 253
0 0 248
0 0 250
0 0 253
0 0 250
0 0 255
0 0 254
0 0 255
0 0 254
0 0 252
0 0 252
0 0 252
0 0 252
0 0 248
0 0 249
0 0 250
0 0 253
0 0 253
0 0 253
0 0 252
0 0 254
0 0 253
0 0 252
0 0 252
0 0 253
0 0 253
0 0 254
0 0 252
0 0 250
0 0 250
0 0 246
0 0 253
0 0 249
0 0 248
0 0 248
0 0 254
0 0 248
0 0 250
0 0 249
0 0 245
0 0 249
0 0 253
0 0 249
0 0 248
0 0 246
0 0 249
0 0 248
0 0 250
0 0 246
0 0 248
0 0 244
0 0 245
0 0 248
0 0 254
0 0 250
0 0 248
0 0 253
0 0 244
0 0 252
0 0 238
0 0 246
0 0 248
0 0 249
0 0 244
0 0 244
0 0 242
0 0 246
0 0 254
0 0 245
0 0 249
0 0 240
0 0 237
0 0 242
0 0 242
0 0 240
0 0 249
0 0 246
0 0 240
0 0 238
0 0 244
0 0 245
0 0 236
0 0 241
0 0 244
0 0 237
0 0 244
0 0 241
0 0 241
0 0 230
0 0 234
0 0 238
0 0 248
0 0 226
0 0 242
0 0 227
0 0 231
0 0 227
0 0 228
0 0 241
0 0 233
0 0 226
0 0 227
0 0 231
0 0 228
0 0 228
0 0 217
0 0 236
0 0 230
0 0 217
0 0 224
0 0 227
0 0 220
0 0 226
0 0 204
0 0 215
0 0 214
0 0 207
0 0 191
0 0 206
0 0 215
0 0 207
0 0 201
0 0 203
192 199 241
234 243 255
234 243 255
234 243 255
234 243 255
234 243 255
234 243 255
234 243 255
234 243 255
234 243 255
234 243 255
234 243 255
234 243 255
234 243 255
234 243 255
234 243 255
234 243 255
234 243 255
234 243 255
234 243 255
234 243 255
234 243 255
234 243 255
234 243 255
234 243 255
222 202 212
177 0 0
196 0 0
195 0 0
180 0 0
197 0 0
195 0 0
203 0 0
185 0 0
193 0 0
192 0 0
189 0 0
192 0 0
202 0 0
202 0 0
219 0 0
199 0 0
209 0 0
205 0 0
217 0 0
204 0 0
203 0 0
202 0 0
211 0 0
204 0 0
212 0 0
208 0 0
210 0 0
217 0 0
218 0 0
215 0 0
215 0 0
213 0 0
211 0 0
207 0 0
210 0 0
208 0 0
205 0 0
219 0 0
212 0 0
213 0 0
214 0 0
213 0 0
217 0 0
212 0 0
218 0 0
211 0 0
219 0 0
212 0 0
219 0 0
213 0 0
211 0 0
215 0 0
206 0 0
217 0 0
220 0 0
219 0 0
213 0 0
213 0 0
220 0 0
224 0 0
215 0 0
219 0 0
217 0 0
212 0 0
222 0 0
219 0 0
217 0 0
215 0 0
210 0 0
223 0 0
213 0 0
222 0 0
223 0 0
219 0 0
224 0 0
222 0 0
219 0 0
220 0 0
217 0 0
217 0 0
218 0 0
221 0 0
218 0 0
221 0 0
226 0 0
223 0 0
220 0 0
222 0 0
219 0 0
222 0 0
221 0 0
220 0 0
226 0 0
227 0 0
225 0 0
222 0 0
220 0 0
225 0 0
226 0 0
221 0 0
222 0 0
222 0 0
223 0 0
222 0 0
223 0 0
225 0 0
227 0 0
227 0 0
228 0 0
225 0 0
223 0 0
227 0 0
225 0 0
224 0 0
222 0 0
219 0 0
225 0 0
219 0 0
225 0 0
222 0 0
224 0 0
226 0 0
220 0 0
219 0 0
224 0 0
225 0 0
224 0 0
223 0 0
227 0 0
224 0 0
218 0 0
222 0 0
221 0 0
219 0 0
219 0 0
225 0 0
222 0 0
228 0 0
223 0 0
222 0 0
223 0 0
224 0 0
224 0 0
224 0 0
226 0 0
224 0 0
223 0 0
226 0 0
223 0 0
225 0 0
226 0 0
223 0 0
223 0 0
227 0 0
221 0 0
225 0 0
225 0 0
223 0 0
229 0 0
226 0 0
222 0 0
225 0 0
222 0 0
223 0 0
225 0 0
225 0 0
225 0 0
229 0 0
227 0 0
226 0 0
226 0 0
225 0 0
225 0 0
224 0 0
225 0 0
226 0 0
224 0 0
225 0 0
228 0 0
223 0 0
227 0 0
229 0 0
226 0 0
225 0 0
224 0 0
224 0 0
223 0 0
0 0 255
0 0 254
0 0 255
0 0 254
0 0 255
0 0 254
0 0 255
0 0 255
0 0 253
0 0 255
0 0 253
0 0 254
0 0 254
0 0 254
0 0 254
0 0 254
0 0 254
0 0 255
0 0 254
0 0 255
0 0 254
0 0 254
0 0 255
0 0 255
0 0 252
0 0 255
0 0 255
0 0 252
0 0 255
0 0 254
0 0 255
0 0 255
0 0 255
0 0 254
0 0 254
0 0 253
0 0 253
0 0 255
0 0 255
0 0 255
0 0 255
0 0 254
0 0 254
0 0 255
0 0 253
0 0 254
0 0 255
0 0 254
0 0 255
0 0 255
0 0 254
0 0 255
0 0 255
0 0 254
0 0 253
0 0 254
0 0 250
0 0 253
0 0 255
0 0 255
0 0 252
0 0 253
0 0 250
0 0 255
0 0 254
0 0 253
0 0 252
0 0 254
0 0 252
0 0 252
0 0 249
0 0 254
0 0 253
0 0 254
0 0 250
0 0 252
0 0 252
0 0 252
0 0 250
0 0 255
0 0 253
0 0 253
0 0 253
0 0 253
0 0 246
0 0 254
0 0 255
0 0 253
0 0 248
0 0 254
0 0 253
0 0 252
0 0 252
0 0 254
0 0 252
0 0 249
0 0 249
0 0 253
0 0 249
0 0 250
0 0 250
0 0 252
0 0 253
0 0 246
0 0 245
0 0 252
0 0 250
0 0 250
0 0 252
0 0 249
0 0 250
0 0 253
0 0 246
0 0 246
0 0 248
0 0 252
0 0 246
0 0 242
0 0 248
0 0 249
0 0 244
0 0 245
0 0 248
0 0 244
0 0 249
0 0 241
0 0 252
0 0 244
0 0 250
0 0 242
0 0 248
0 0 244
0 0 241
0 0 245
0 0 242
0 0 234
0 0 244
0 0 241
0 0 242
0 0 236
0 0 240
0 0 240
0 0 248
0 0 237
0 0 245
0 0 249
0 0 241
0 0 240
0 0 236
0 0 236
0 0 231
0 0 221
0 0 242
0 0 238
0 0 244
0 0 238
0 0 242
0 0 240
0 0 230
0 0 240
0 0 230
0 0 231
0 0 234
0 0 226
0 0 233
0 0 228
0 0 223
0 0 226
0 0 233
0 0 231
0 0 230
0 0 221
0 0 230
0 0 220
0 0 223
0 0 223
0 0 215
0 0 212
0 0 218
0 0 212
0 0 206
0 0 215
0 0 217
0 0 209
0 0 199
0 0 203
139 144 228
234 243 255
234 243 255
234 243 255
234 243 255
234 243 255
235 243 255
235 243 255
235 243 255
235 243 255
235 243 255
235 243 255
235 243 255
235 243 255
235 243 255
235 243 255
235 243 255
235 243 255
235 243 255
235 243 255
234 243 255
234 243 255
234 243 255
234 243 255
234 243 255
234 243 255
234 243 255
213 144 151
188 0 0
190 0 0
197 0 0
194 0 0
201 0 0
204 0 0
204 0 0
197 0 0
197 0 0
203 0 0
199 0 0
191 0 0
212 0 0
212 0 0
205 0 0
212 0 0
209 0 0
197 0 0
207 0 0
206 0 0
206 0 0
209 0 0
210 0 0
214 0 0
218 0 0
212 0 0
212 0 0
217 0 0
212 0 0
216 0 0
208 0 0
211 0 0
208 0 0
211 0 0
223 0 0
215 0 0
216 0 0
211 0 0
217 0 0
218 0 0
213 0 0
218 0 0
221 0 0
216 0 0
215 0 0
219 0 0
217 0 0
219 0 0
216 0 0
219 0 0
217 0 0
215 0 0
219 0 0
222 0 0
225 0 0
215 0 0
220 0 0
226 0 0
217 0 0
222 0 0
223 0 0
218 0 0
215 0 0
219 0 0
223 0 0
223 0 0
220 0 0
222 0 0
222 0 0
215 0 0
227 0 0
224 0 0
226 0 0
222 0 0
223 0 0
221 0 0
218 0 0
223 0 0
222 0 0
224 0 0
220 0 0
215 0 0
221 0 0
220 0 0
222 0 0
218 0 0
222 0 0
219 0 0
220 0 0
221 0 0
225 0 0
221 0 0
218 0 0
221 0 0
223 0 0
221 0 0
222 0 0
227 0 0
221 0 0
220 0 0
225 0 0
224 0 0
225 0 0
225 0 0
223 0 0
222 0 0
227 0 0
223 0 0
224 0 0
224 0 0
225 0 0
224 0 0
225 0 0
222 0 0
227 0 0
223 0 0
224 0 0
224 0 0
215 0 0
225 0 0
225 0 0
230 0 0
226 0 0
224 0 0
226 0 0
224 0 0
221 0 0
228 0 0
223 0 0
223 0 0
222 0 0
215 0 0
221 0 0
226 0 0
224 0 0
226 0 0
222 0 0
225 0 0
221 0 0
228 0 0
225 0 0
225 0 0
225 0 0
225 0 0
221 0 0
226 0 0
226 0 0
225 0 0
227 0 0
227 0 0
223 0 0
226 0 0
222 0 0
221 0 0
225 0 0
225 0 0
225 0 0
223 0 0
223 0 0
226 0 0
219 0 0
226 0 0
223 0 0
223 0 0
228 0 0
225 0 0
226 0 0
224 0 0
224 0 0
224 0 0
226 0 0
226 0 0
229 0 0
228 0 0
223 0 0
228 0 0
226 0 0
222 0 0
226 0 0
228 0 0
225 0 0
225 0 0
226 0 0
225 0 0
222 0 0
225 0 0
0 0 253
0 0 255
0 0 255
0 0 255
0 0 255
0 0 255
0 0 255
0 0 255
0 0 255
0 0 255
0 0 255
0 0 254
0 0 252
0 0 255
0 0 255
0 0 253
0 0 255
0 0 254
0 0 254
0 0 255
0 0 253
0 0 255
0 0 255
0 0 253
0 0 255
0 0 253
0 0 255
0 0 255
0 0 255
0 0 253
0 0 254
0 0 255
0 0 254
0 0 255
0 0 252
0 0 255
0 0 253
0 0 254
0 0 254
0 0 255
0 0 254
0 0 254
0 0 253
0 0 255
0 0 253
0 0 254
0 0 253
0 0 254
0 0 255
0 0 254
0 0 253
0 0 253
0 0 254
0 0 250
0 0 253
0 0 252
0 0 255
0 0 252
0 0 255
0 0 254
0 0 252
0 0 253
0 0 249
0 0 253
0 0 255
0 0 253
0 0 254
0 0 252
0 0 254
0 0 255
0 0 252
0 0 255
0 0 252
0 0 252
0 0 255
0 0 254
0 0 249
0 0 254
0 0 246
0 0 255
0 0 253
0 0 250
0 0 252
0 0 248
0 0 249
0 0 252
0 0 248
0 0 250
0 0 249
0 0 253
0 0 250
0 0 254
0 0 254
0 0 249
0 0 252
0 0 250
0 0 252
0 0 250
0 0 249
0 0 250
0 0 248
0 0 249
0 0 246
0 0 245
0 0 246
0 0 249
0 0 246
0 0 244
0 0 252
0 0 254
0 0 249
0 0 248
0 0 253
0 0 250
0 0 248
0 0 248
0 0 249
0 0 245
0 0 248
0 0 248
0 0 241
0 0 248
0 0 248
0 0 246
0 0 248
0 0 246
0 0 248
0 0 245
0 0 246
0 0 252
0 0 246
0 0 246
0 0 238
0 0 245
0 0 246
0 0 246
0 0 245
0 0 249
0 0 244
0 0 238
0 0 244
0 0 242
0 0 240
0 0 233
0 0 237
0 0 231
0 0 233
0 0 245
0 0 233
0 0 246
0 0 234
0 0 240
0 0 246
0 0 233
0 0 234
0 0 237
0 0 236
0 0 240
0 0 226
0 0 241
0 0 228
0 0 234
0 0 242
0 0 238
0 0 218
0 0 236
0 0 217
0 0 217
0 0 233
0 0 226
0 0 220
0 0 230
0 0 218
0 0 228
0 0 231
0 0 221
0 0 215
0 0 212
0 0 223
0 0 204
0 0 214
0 0 215
0 0 207
0 0 218
0 0 201
23 24 206
223 231 252
235 243 255
235 243 255
235 243 255
235 243 255
235 243 255
235 243 255
235 243 255
235 243 255
235 243 255
235 243 255
235 243 255
235 243 255
235 243 255
235 243 255
235 243 255
235 243 255
235 243 255
235 243 255
235 243 255
235 243 255
235 243 255
235 243 255
235 243 255
235 243 255
235 243 255
235 243 255
234 231 242
196 0 0
196 0 0
205 0 0
203 0 0
199 0 0
189 0 0
199 0 0
191 0 0
203 0 0
208 0 0
197 0 0
209 0 0
198 0 0
200 0 0
193 0 0
205 0 0
213 0 0
213 0 0
215 0 0
213 0 0
195 0 0
205 0 0
217 0 0
214 0 0
207 0 0
215 0 0
221 0 0
211 0 0
214 0 0
212 0 0
215 0 0
209 0 0
212 0 0
216 0 0
220 0 0
212 0 0
220 0 0
224 0 0
214 0 0
208 0 0
211 0 0
218 0 0
216 0 0
215 0 0
221 0 0
217 0 0
216 0 0
216 0 0
217 0 0
215 0 0
221 0 0
212 0 0
224 0 0
216 0 0
221 0 0
222 0 0
218 0 0
219 0 0
215 0 0
225 0 0
226 0 0
219 0 0
223 0 0
221 0 0
225 0 0
224 0 0
219 0 0
221 0 0
218 0 0
221 0 0
215 0 0
217 0 0
224 0 0
220 0 0
221 0 0
218 0 0
221 0 0
219 0 0
220 0 0
218 0 0
221 0 0
223 0 0
219 0 0
217 0 0
223 0 0
226 0 0
221 0 0
226 0 0
224 0 0
219 0 0
224 0 0
219 0 0
226 0 0
224 0 0
218 0 0
221 0 0
222 0 0
230 0 0
222 0 0
222 0 0
222 0 0
222 0 0
221 0 0
223 0 0
227 0 0
226 0 0
226 0 0
223 0 0
224 0 0
225 0 0
220 0 0
225 0 0
225 0 0
223 0 0
225 0 0
222 0 0
229 0 0
221 0 0
222 0 0
222 0 0
224 0 0
224 0 0
223 0 0
227 0 0
224 0 0
224 0 0
224 0 0
225 0 0
222 0 0
223 0 0
221 0 0
220 0 0
226 0 0
225 0 0
225 0 0
223 0 0
226 0 0
221 0 0
223 0 0
224 0 0
226 0 0
226 0 0
224 0 0
226 0 0
225 0 0
225 0 0
227 0 0
226 0 0
222 0 0
228 0 0
228 0 0
226 0 0
225 0 0
225 0 0
223 0 0
224 0 0
227 0 0
223 0 0
226 0 0
225 0 0
223 0 0
226 0 0
222 0 0
224 0 0
225 0 0
225 0 0
226 0 0
225 0 0
227 0 0
223 0 0
223 0 0
224 0 0
226 0 0
227 0 0
227 0 0
226 0 0
222 0 0
226 0 0
226 0 0
230 0 0
226 0 0
224 0 0
226 0 0
226 0 0
227 0 0
225 0 0
0 0 255
0 0 254
0 0 254
0 0 254
0 0 254
0 0 252
0 0 254
0 0 253
0 0 255
0 0 253
0 0 254
0 0 255
0 0 254
0 0 253
0 0 253
0 0 254
0 0 254
0 0 255
0 0 255
0 0 255
0 0 254
0 0 253
0 0 254
0 0 254
0 0 255
0 0 254
0 0 255
0 0 254
0 0 253
0 0 253
0 0 255
0 0 250
0 0 255
0 0 254
0 0 255
0 0 255
0 0 253
0 0 255
0 0 254
0 0 252
0 0 254
0 0 252
0 0 254
0 0 252
0 0 254
0 0 254
0 0 254
0 0 254
0 0 255
0 0 252
0 0 253
0 0 255
0 0 254
0 0 254
0 0 252
0 0 253
0 0 250
0 0 255
0 0 253
0 0 254
0 0 254
0 0 253
0 0 253
0 0 253
0 0 253
0 0 250
0 0 253
0 0 255
0 0 250
0 0 249
0 0 252
0 0 253
0 0 253
0 0 253
0 0 254
0 0 253
0 0 248
0 0 250
0 0 254
0 0 252
0 0 252
0 0 250
0 0 252
0 0 253
0 0 250
0 0 250
0 0 253
0 0 252
0 0 254
0 0 248
0 0 250
0 0 250
0 0 252
0 0 252
0 0 249
0 0 250
0 0 250
0 0 254
0 0 250
0 0 254
0 0 253
0 0 253
0 0 252
0 0 255
0 0 248
0 0 246
0 0 248
0 0 248
0 0 248
0 0 246
0 0 253
0 0 253
0 0 248
0 0 252
0 0 250
0 0 245
0 0 246
0 0 242
0 0 250
0 0 245
0 0 249
0 0 241
0 0 246
0 0 241
0 0 240
0 0 249
0 0 246
0 0 241
0 0 248
0 0 237
0 0 249
0 0 244
0 0 245
0 0 240
0 0 241
0 0 245
0 0 238
0 0 249
0 0 248
0 0 250
0 0 245
0 0 244
0 0 246
0 0 240
0 0 238
0 0 245
0 0 224
0 0 242
0 0 241
0 0 242
0 0 236
0 0 238
0 0 241
0 0 237
0 0 231
0 0 230
0 0 237
0 0 242
0 0 238
0 0 238
0 0 236
0 0 233
0 0 226
0 0 236
0 0 223
0 0 233
0 0 240
0 0 230
0 0 227
0 0 221
0 0 231
0 0 226
0 0 223
0 0 215
0 0 211
0 0 221
0 0 214
0 0 212
0 0 214
0 0 221
0 0 209
0 0 211
0 0 211
0 0 214
0 0 214
179 185 231
235 243 255
235 243 255
235 243 255
235 243 255
235 243 255
235 243 255
235 243 255
235 243 255
235 243 255
235 243 255
235 243 255
235 243 255
235 243 255
235 243 255
235 243 255
235 243 255
235 243 255
235 243 255
235 243 255
235 243 255
235 243 255
235 243 255
235 243 255
235 243 255
235 243 255
235 243 255
235 243 255
235 243 255
218 177 186
197 0 0
188 0 0
186 0 0
192 0 0
201 0 0
201 0 0
194 0 0
208 0 0
206 0 0
209 0 0
204 0 0
206 0 0
201 0 0
207 0 0
210 0 0
207 0 0
209 0 0
216 0 0
207 0 0
217 0 0
208 0 0
212 0 0
220 0 0
215 0 0
207 0 0
217 0 0
212 0 0
213 0 0
207 0 0
214 0 0
217 0 0
216 0 0
207 0 0
218 0 0
213 0 0
211 0 0
221 0 0
215 0 0
222 0 0
215 0 0
216 0 0
217 0 0
218 0 0
218 0 0
218 0 0
221 0 0
220 0 0
224 0 0
216 0 0
225 0 0
221 0 0
217 0 0
214 0 0
220 0 0
212 0 0
220 0 0
216 0 0
223 0 0
208 0 0
209 0 0
217 0 0
214 0 0
220 0 0
222 0 0
218 0 0
217 0 0
226 0 0
221 0 0
223 0 0
219 0 0
221 0 0
217 0 0
219 0 0
225 0 0
221 0 0
225 0 0
220 0 0
220 0 0
223 0 0
221 0 0
218 0 0
220 0 0
222 0 0
227 0 0
224 0 0
217 0 0
221 0 0
222 0 0
222 0 0
222 0 0
219 0 0
218 0 0
223 0 0
226 0 0
225 0 0
220 0 0
226 0 0
225 0 0
222 0 0
224 0 0
221 0 0
226 0 0
224 0 0
222 0 0
221 0 0
217 0 0
227 0 0
227 0 0
225 0 0
221 0 0
224 0 0
222 0 0
225 0 0
223 0 0
229 0 0
228 0 0
219 0 0
223 0 0
229 0 0
225 0 0
224 0 0
227 0 0
225 0 0
222 0 0
222 0 0
225 0 0
222 0 0
226 0 0
223 0 0
222 0 0
225 0 0
222 0 0
222 0 0
227 0 0
224 0 0
225 0 0
225 0 0
225 0 0
225 0 0
227 0 0
227 0 0
221 0 0
219 0 0
225 0 0
226 0 0
226 0 0
224 0 0
226 0 0
225 0 0
223 0 0
226 0 0
226 0 0
222 0 0
224 0 0
227 0 0
224 0 0
225 0 0
228 0 0
224 0 0
225 0 0
225 0 0
227 0 0
223 0 0
224 0 0
229 0 0
223 0 0
228 0 0
226 0 0
226 0 0
227 0 0
224 0 0
225 0 0
229 0 0
225 0 0
224 0 0
230 0 0
221 0 0
224 0 0
224 0 0
226 0 0
226 0 0
224 0 0
224 0 0
223 0 0
225 0 0
0 0 255
0 0 255
0 0 253
0 0 255
0 0 254
0 0 255
0 0 254
0 0 255
0 0 254
0 0 255
0 0 255
0 0 255
0 0 255
0 0 254
0 0 253
0 0 255
0 0 253
0 0 255
0 0 254
0 0 255
0 0 255
0 0 255
0 0 252
0 0 255
0 0 255
0 0 255
0 0 255
0 0 254
0 0 255
0 0 253
0 0 255
0 0 254
0 0 255
0 0 253
0 0 255
0 0 253
0 0 253
0 0 255
0 0 254
0 0 255
0 0 254
0 0 255
0 0 254
0 0 254
0 0 252
0 0 252
0 0 253
0 0 252
0 0 254
0 0 254
0 0 250
0 0 254
0 0 255
0 0 254
0 0 254
0 0 254
0 0 253
0 0 252
0 0 253
0 0 254
0 0 253
0 0 254
0 0 255
0 0 254
0 0 252
0 0 255
0 0 253
0 0 250
0 0 254
0 0 249
0 0 252
0 0 252
0 0 255
0 0 254
0 0 249
0 0 250
0 0 252
0 0 254
0 0 249
0 0 249
0 0 253
0 0 249
0 0 252
0 0 250
0 0 253
0 0 253
0 0 250
0 0 249
0 0 253
0 0 253
0 0 249
0 0 253
0 0 255
0 0 254
0 0 249
0 0 249
0 0 252
0 0 246
0 0 254
0 0 255
0 0 253
0 0 248
0 0 248
0 0 252
0 0 252
0 0 249
0 0 246
0 0 250
0 0 248
0 0 250
0 0 252
0 0 246
0 0 252
0 0 250
0 0 249
0 0 249
0 0 249
0 0 249
0 0 248
0 0 249
0 0 245
0 0 244
0 0 244
0 0 248
0 0 241
0 0 244
0 0 246
0 0 245
0 0 250
0 0 241
0 0 244
0 0 244
0 0 244
0 0 244
0 0 240
0 0 240
0 0 237
0 0 244
0 0 248
0 0 245
0 0 244
0 0 240
0 0 234
0 0 233
0 0 241
0 0 240
0 0 236
0 0 242
0 0 240
0 0 244
0 0 237
0 0 237
0 0 236
0 0 231
0 0 241
0 0 233
0 0 227
0 0 230
0 0 237
0 0 233
0 0 234
0 0 244
0 0 233
0 0 240
0 0 230
0 0 230
0 0 233
0 0 240
0 0 230
0 0 236
0 0 217
0 0 220
0 0 230
0 0 215
0 0 227
0 0 226
0 0 220
0 0 224
0 0 224
0 0 207
0 0 204
0 0 207
0 0 218
0 0 215
115 119 234
234 242 255
235 244 255
235 244 255
235 244 255
235 244 255
235 244 255
235 244 255
235 244 255
235 244 255
235 244 255
235 244 255
235 244 255
235 244 255
235 244 255
235 244 255
235 244 255
235 244 255
235 244 255
235 244 255
235 244 255
235 244 255
235 244 255
235 244 255
235 244 255
235 244 255
235 244 255
235 244 255
235 244 255
235 244 255
235 241 253
210 131 137
201 0 0
188 0 0
193 0 0
201 0 0
211 0 0
204 0 0
205 0 0
206 0 0
206 0 0
211 0 0
216 0 0
187 0 0
209 0 0
204 0 0
208 0 0
211 0 0
207 0 0
202 0 0
212 0 0
212 0 0
211 0 0
216 0 0
202 0 0
209 0 0
201 0 0
207 0 0
217 0 0
221 0 0
205 0 0
211 0 0
208 0 0
219 0 0
217 0 0
214 0 0
213 0 0
218 0 0
207 0 0
218 0 0
208 0 0
222 0 0
218 0 0
217 0 0
210 0 0
209 0 0
219 0 0
220 0 0
219 0 0
209 0 0
222 0 0
215 0 0
223 0 0
220 0 0
215 0 0
224 0 0
220 0 0
220 0 0
219 0 0
219 0 0
225 0 0
220 0 0
224 0 0
222 0 0
220 0 0
224 0 0
221 0 0
222 0 0
224 0 0
221 0 0
214 0 0
224 0 0
222 0 0
230 0 0
223 0 0
223 0 0
226 0 0
221 0 0
225 0 0
219 0 0
223 0 0
217 0 0
223 0 0
226 0 0
225 0 0
221 0 0
225 0 0
222 0 0
225 0 0
224 0 0
223 0 0
225 0 0
226 0 0
224 0 0
226 0 0
224 0 0
226 0 0
225 0 0
223 0 0
222 0 0
228 0 0
221 0 0
222 0 0
219 0 0
227 0 0
225 0 0
223 0 0
221 0 0
226 0 0
228 0 0
223 0 0
225 0 0
230 0 0
220 0 0
223 0 0
225 0 0
228 0 0
225 0 0
225 0 0
222 0 0
224 0 0
226 0 0
222 0 0
226 0 0
226 0 0
225 0 0
229 0 0
225 0 0
227 0 0
220 0 0
222 0 0
225 0 0
222 0 0
223 0 0
227 0 0
228 0 0
224 0 0
225 0 0
227 0 0
220 0 0
227 0 0
220 0 0
226 0 0
225 0 0
225 0 0
226 0 0
225 0 0
227 0 0
223 0 0
226 0 0
225 0 0
224 0 0
227 0 0
224 0 0
226 0 0
228 0 0
226 0 0
226 0 0
229 0 0
225 0 0
224 0 0
226 0 0
226 0 0
224 0 0
228 0 0
224 0 0
226 0 0
226 0 0
228 0 0
223 0 0
224 0 0
223 0 0
227 0 0
229 0 0
223 0 0
224 0 0
228 0 0
225 0 0
225 0 0
227 0 0
220 0 0
228 0 0
224 0 0
227 0 0
225 0 0
225 0 0
0 0 255
0 0 255
0 0 255
0 0 255
0 0 254
0 0 255
0 0 255
0 0 255
0 0 254
0 0 255
0 0 254
0 0 255
0 0 255
0 0 255
0 0 253
0 0 255
0 0 255
0 0 255
0 0 254
0 0 254
0 0 254
0 0 255
0 0 254
0 0 255
0 0 255
0 0 254
0 0 254
0 0 253
0 0 254
0 0 254
0 0 255
0 0 255
0 0 255
0 0 255
0 0 255
0 0 254
0 0 254
0 0 255
0 0 254
0 0 254
0 0 255
0 0 255
0 0 253
0 0 253
0 0 253
0 0 253
0 0 252
0 0 254
0 0 253
0 0 254
0 0 255
0 0 253
0 0 252
0 0 255
0 0 253
0 0 252
0 0 253
0 0 248
0 0 249
0 0 250
0 0 254
0 0 249
0 0 254
0 0 254
0 0 250
0 0 254
0 0 253
0 0 253
0 0 254
0 0 252
0 0 254
0 0 254
0 0 254
0 0 253
0 0 248
0 0 252
0 0 255
0 0 252
0 0 253
0 0 253
0 0 253
0 0 255
0 0 248
0 0 252
0 0 254
0 0 253
0 0 253
0 0 249
0 0 253
0 0 252
0 0 250
0 0 248
0 0 253
0 0 252
0 0 249
0 0 250
0 0 252
0 0 254
0 0 250
0 0 253
0 0 250
0 0 250
0 0 253
0 0 244
0 0 254
0 0 249
0 0 249
0 0 246
0 0 246
0 0 254
0 0 248
0 0 248
0 0 253
0 0 250
0 0 249
0 0 252
0 0 240
0 0 246
0 0 249
0 0 248
0 0 242
0 0 249
0 0 246
0 0 246
0 0 248
0 0 238
0 0 252
0 0 249
0 0 246
0 0 242
0 0 246
0 0 249
0 0 246
0 0 242
0 0 244
0 0 244
0 0 234
0 0 242
0 0 245
0 0 244
0 0 238
0 0 245
0 0 249
0 0 245
0 0 236
0 0 238
0 0 246
0 0 242
0 0 248
0 0 245
0 0 240
0 0 238
0 0 237
0 0 238
0 0 236
0 0 237
0 0 226
0 0 241
0 0 242
0 0 237
0 0 238
0 0 236
0 0 227
0 0 231
0 0 231
0 0 231
0 0 226
0 0 228
0 0 231
0 0 221
0 0 228
0 0 218
0 0 227
0 0 217
0 0 209
0 0 220
0 0 224
0 0 220
0 0 207
0 0 211
0 0 211
0 0 220
0 0 214
47 48 212
217 225 250
235 244 255
235 244 255
235 244 255
235 244 255
235 244 255
235 244 255
235 244 255
235 244 255
235 244 255
235 244 255
235 244 255
235 244 255
235 244 255
235 244 255
235 244 255
235 244 255
236 244 255
235 244 255
236 244 255
236 244 255
235 244 255
235 244 255
235 244 255
235 244 255
235 244 255
235 244 255
235 244 255
235 244 255
235 244 255
235 244 255
235 226 237
194 34 36
203 0 0
210 0 0
197 0 0
200 0 0
206 0 0
198 0 0
200 0 0
199 0 0
216 0 0
203 0 0
208 0 0
209 0 0
205 0 0
210 0 0
206 0 0
212 0 0
202 0 0
216 0 0
213 0 0
214 0 0
210 0 0
217 0 0
211 0 0
208 0 0
210 0 0
221 0 0
215 0 0
215 0 0
221 0 0
218 0 0
211 0 0
220 0 0
210 0 0
207 0 0
210 0 0
214 0 0
213 0 0
214 0 0
216 0 0
221 0 0
220 0 0
214 0 0
216 0 0
208 0 0
223 0 0
223 0 0
212 0 0
219 0 0
218 0 0
220 0 0
220 0 0
221 0 0
223 0 0
215 0 0
220 0 0
224 0 0
224 0 0
219 0 0
221 0 0
221 0 0
220 0 0
222 0 0
224 0 0
223 0 0
224 0 0
218 0 0
221 0 0
221 0 0
217 0 0
216 0 0
223 0 0
216 0 0
228 0 0
221 0 0
225 0 0
221 0 0
221 0 0
224 0 0
218 0 0
229 0 0
221 0 0
223 0 0
225 0 0
221 0 0
220 0 0
225 0 0
225 0 0
226 0 0
219 0 0
221 0 0
225 0 0
224 0 0
228 0 0
224 0 0
221 0 0
225 0 0
226 0 0
222 0 0
223 0 0
222 0 0
228 0 0
224 0 0
229 0 0
220 0 0
219 0 0
227 0 0
219 0 0
224 0 0
224 0 0
226 0 0
226 0 0
224 0 0
222 0 0
222 0 0
226 0 0
226 0 0
230 0 0
223 0 0
228 0 0
222 0 0
225 0 0
223 0 0
220 0 0
230 0 0
225 0 0
224 0 0
226 0 0
229 0 0
222 0 0
226 0 0
224 0 0
225 0 0
223 0 0
224 0 0
224 0 0
227 0 0
221 0 0
225 0 0
221 0 0
228 0 0
224 0 0
226 0 0
224 0 0
223 0 0
226 0 0
227 0 0
223 0 0
225 0 0
225 0 0
225 0 0
224 0 0
222 0 0
220 0 0
225 0 0
226 0 0
222 0 0
224 0 0
225 0 0
225 0 0
226 0 0
227 0 0
224 0 0
228 0 0
224 0 0
228 0 0
226 0 0
225 0 0
222 0 0
227 0 0
226 0 0
224 0 0
227 0 0
227 0 0
226 0 0
228 0 0
221 0 0
223 0 0
227 0 0
226 0 0
225 0 0
225 0 0
226 0 0
226 0 0
0 0 254
0 0 255
0 0 254
0 0 255
0 0 255
0 0 254
0 0 255
0 0 255
0 0 255
0 0 255
0 0 254
0 0 254
0 0 255
0 0 254
0 0 255
0 0 255
0 0 254
0 0 255
0 0 255
0 0 254
0 0 254
0 0 255
0 0 254
0 0 254
0 0 255
0 0 255
0 0 255
0 0 254
0 0 255
0 0 254
0 0 255
0 0 255
0 0 255
0 0 255
0 0 254
0 0 255
0 0 254
0 0 255
0 0 252
0 0 255
0 0 255
0 0 254
0 0 255
0 0 254
0 0 254
0 0 253
0 0 253
0 0 252
0 0 253
0 0 253
0 0 255
0 0 254
0 0 250
0 0 253
0 0 254
0 0 253
0 0 255
0 0 253
0 0 254
0 0 253
0 0 252
0 0 253
0 0 249
0 0 253
0 0 252
0 0 254
0 0 254
0 0 254
0 0 252
0 0 252
0 0 253
0 0 252
0 0 252
0 0 255
0 0 255
0 0 245
0 0 250
0 0 254
0 0 254
0 0 254
0 0 254
0 0 252
0 0 252
0 0 254
0 0 253
0 0 255
0 0 253
0 0 250
0 0 249
0 0 250
0 0 254
0 0 250
0 0 249
0 0 253
0 0 248
0 0 250
0 0 254
0 0 254
0 0 249
0 0 252
0 0 246
0 0 249
0 0 249
0 0 246
0 0 248
0 0 249
0 0 253
0 0 248
0 0 249
0 0 245
0 0 249
0 0 250
0 0 252
0 0 250
0 0 246
0 0 248
0 0 246
0 0 252
0 0 248
0 0 252
0 0 250
0 0 245
0 0 248
0 0 249
0 0 244
0 0 245
0 0 248
0 0 248
0 0 241
0 0 241
0 0 248
0 0 244
0 0 244
0 0 244
0 0 241
0 0 245
0 0 245
0 0 231
0 0 234
0 0 246
0 0 241
0 0 237
0 0 241
0 0 240
0 0 244
0 0 244
0 0 241
0 0 240
0 0 244
0 0 242
0 0 241
0 0 231
0 0 238
0 0 241
0 0 237
0 0 245
0 0 228
0 0 233
0 0 234
0 0 234
0 0 231
0 0 233
0 0 233
0 0 244
0 0 234
0 0 221
0 0 230
0 0 230
0 0 227
0 0 240
0 0 211
0 0 226
0 0 226
0 0 236
0 0 221
0 0 214
0 0 224
0 0 223
0 0 211
0 0 211
0 0 214
0 0 218
0 0 207
184 190 249
236 244 255
236 244 255
236 244 255
236 244 255
236 244 255
236 244 255
236 244 255
236 244 255
236 244 255
236 244 255
236 244 255
236 244 255
236 244 255
236 244 255
236 244 255
236 244 255
236 244 255
236 244 255
236 244 255
236 244 255
236 244 255
236 244 255
236 244 255
236 244 255
236 244 255
236 244 255
236 244 255
236 244 255
236 244 255
236 244 255
236 244 255
236 244 255
230 182 191
207 0 0
202 0 0
211 0 0
205 0 0
205 0 0
211 0 0
203 0 0
204 0 0
207 0 0
218 0 0
198 0 0
210 0 0
206 0 0
199 0 0
211 0 0
210 0 0
207 0 0
212 0 0
212 0 0
211 0 0
206 0 0
219 0 0
211 0 0
211 0 0
211 0 0
212 0 0
225 0 0
211 0 0
216 0 0
220 0 0
214 0 0
218 0 0
220 0 0
216 0 0
211 0 0
214 0 0
218 0 0
218 0 0
217 0 0
212 0 0
219 0 0
224 0 0
222 0 0
216 0 0
222 0 0
215 0 0
218 0 0
211 0 0
221 0 0
217 0 0
218 0 0
210 0 0
223 0 0
222 0 0
213 0 0
220 0 0
224 0 0
224 0 0
222 0 0
227 0 0
223 0 0
219 0 0
226 0 0
218 0 0
220 0 0
223 0 0
221 0 0
218 0 0
220 0 0
219 0 0
222 0 0
223 0 0
221 0 0
218 0 0
224 0 0
219 0 0
220 0 0
220 0 0
218 0 0
221 0 0
224 0 0
223 0 0
221 0 0
225 0 0
221 0 0
226 0 0
217 0 0
224 0 0
225 0 0
223 0 0
225 0 0
220 0 0
225 0 0
229 0 0
225 0 0
221 0 0
226 0 0
224 0 0
221 0 0
225 0 0
218 0 0
221 0 0
224 0 0
227 0 0
223 0 0
225 0 0
224 0 0
217 0 0
224 0 0
225 0 0
222 0 0
223 0 0
223 0 0
223 0 0
226 0 0
221 0 0
221 0 0
225 0 0
230 0 0
227 0 0
225 0 0
228 0 0
223 0 0
224 0 0
225 0 0
228 0 0
229 0 0
226 0 0
226 0 0
225 0 0
221 0 0
227 0 0
222 0 0
227 0 0
228 0 0
227 0 0
227 0 0
226 0 0
230 0 0
227 0 0
229 0 0
226 0 0
222 0 0
226 0 0
224 0 0
227 0 0
223 0 0
223 0 0
222 0 0
224 0 0
228 0 0
227 0 0
228 0 0
226 0 0
222 0 0
226 0 0
225 0 0
226 0 0
227 0 0
226 0 0
222 0 0
228 0 0
223 0 0
223 0 0
227 0 0
228 0 0
225 0 0
227 0 0
223 0 0
224 0 0
224 0 0
227 0 0
230 0 0
224 0 0
223 0 0
225 0 0
227 0 0
227 0 0
225 0 0
222 0 0
228 0 0
226 0 0
225 0 0
0 0 254
0 0 254
0 0 255
0 0 255
0 0 255
0 0 255
0 0 255
0 0 255
0 0 254
0 0 254
0 0 253
0 0 255
0 0 254
0 0 255
0 0 255
0 0 254
0 0 255
0 0 254
0 0 254
0 0 255
0 0 254
0 0 255
0 0 254
0 0 255
0 0 254
0 0 255
0 0 254
0 0 254
0 0 255
0 0 253
0 0 255
0 0 253
0 0 255
0 0 252
0 0 253
0 0 255
0 0 253
0 0 254
0 0 255
0 0 252
0 0 254
0 0 254
0 0 253
0 0 255
0 0 254
0 0 255
0 0 255
0 0 253
0 0 253
0 0 255
0 0 254
0 0 254
0 0 254
0 0 254
0 0 254
0 0 253
0 0 253
0 0 253
0 0 255
0 0 255
0 0 254
0 0 252
0 0 254
0 0 250
0 0 254
0 0 253
0 0 252
0 0 252
0 0 253
0 0 254
0 0 253
0 0 254
0 0 252
0 0 252
0 0 249
0 0 252
0 0 250
0 0 253
0 0 250
0 0 250
0 0 254
0 0 252
0 0 248
0 0 250
0 0 253
0 0 253
0 0 253
0 0 248
0 0 254
0 0 255
0 0 252
0 0 252
0 0 255
0 0 252
0 0 252
0 0 255
0 0 253
0 0 252
0 0 249
0 0 253
0 0 248
0 0 248
0 0 250
0 0 250
0 0 250
0 0 252
0 0 242
0 0 244
0 0 254
0 0 249
0 0 248
0 0 245
0 0 246
0 0 252
0 0 246
0 0 249
0 0 246
0 0 244
0 0 246
0 0 249
0 0 250
0 0 253
0 0 244
0 0 242
0 0 248
0 0 245
0 0 244
0 0 250
0 0 249
0 0 244
0 0 244
0 0 230
0 0 244
0 0 244
0 0 242
0 0 250
0 0 245
0 0 246
0 0 244
0 0 236
0 0 246
0 0 248
0 0 241
0 0 242
0 0 237
0 0 248
0 0 242
0 0 244
0 0 246
0 0 230
0 0 238
0 0 238
0 0 234
0 0 242
0 0 233
0 0 233
0 0 241
0 0 230
0 0 241
0 0 238
0 0 237
0 0 245
0 0 228
0 0 227
0 0 227
0 0 227
0 0 233
0 0 234
0 0 223
0 0 231
0 0 223
0 0 227
0 0 224
0 0 228
0 0 230
0 0 226
0 0 211
0 0 224
0 0 214
0 0 226
0 0 230
0 0 218
135 140 230
233 241 255
236 244 255
236 244 255
236 244 255
236 244 255
236 244 255
236 244 255
236 244 255
236 244 255
236 244 255
236 244 255
236 244 255
236 244 255
236 244 255
236 244 255
236 244 255
236 244 255
236 244 255
236 244 255
236 244 255
236 244 255
236 244 255
236 244 255
236 244 255
236 244 255
236 244 255
236 244 255
236 244 255
236 244 255
236 244 255
236 244 255
236 244 255
236 244 255
236 244 255
215 146 153
195 0 0
206 0 0
201 0 0
200 0 0
201 0 0
215 0 0
205 0 0
187 0 0
212 0 0
208 0 0
207 0 0
204 0 0
204 0 0
214 0 0
204 0 0
221 0 0
212 0 0
215 0 0
217 0 0
215 0 0
213 0 0
214 0 0
224 0 0
218 0 0
217 0 0
213 0 0
217 0 0
215 0 0
223 0 0
212 0 0
217 0 0
218 0 0
217 0 0
216 0 0
209 0 0
220 0 0
226 0 0
221 0 0
216 0 0
214 0 0
212 0 0
218 0 0
222 0 0
216 0 0
222 0 0
221 0 0
224 0 0
216 0 0
224 0 0
216 0 0
222 0 0
223 0 0
217 0 0
223 0 0
223 0 0
222 0 0
223 0 0
224 0 0
221 0 0
219 0 0
224 0 0
220 0 0
219 0 0
227 0 0
224 0 0
214 0 0
220 0 0
224 0 0
223 0 0
219 0 0
221 0 0
218 0 0
226 0 0
227 0 0
224 0 0
225 0 0
222 0 0
223 0 0
223 0 0
227 0 0
221 0 0
226 0 0
225 0 0
223 0 0
226 0 0
222 0 0
220 0 0
218 0 0
226 0 0
221 0 0
226 0 0
225 0 0
220 0 0
229 0 0
224 0 0
225 0 0
221 0 0
221 0 0
226 0 0
227 0 0
223 0 0
228 0 0
222 0 0
227 0 0
223 0 0
225 0 0
225 0 0
226 0 0
223 0 0
223 0 0
225 0 0
222 0 0
227 0 0
222 0 0
223 0 0
225 0 0
224 0 0
228 0 0
222 0 0
221 0 0
223 0 0
224 0 0
222 0 0
224 0 0
223 0 0
225 0 0
224 0 0
226 0 0
229 0 0
224 0 0
226 0 0
226 0 0
227 0 0
230 0 0
226 0 0
225 0 0
228 0 0
224 0 0
224 0 0
224 0 0
229 0 0
224 0 0
228 0 0
226 0 0
226 0 0
226 0 0
227 0 0
224 0 0
223 0 0
222 0 0
224 0 0
227 0 0
225 0 0
229 0 0
227 0 0
228 0 0
223 0 0
225 0 0
227 0 0
226 0 0
224 0 0
227 0 0
225 0 0
228 0 0
227 0 0
224 0 0
227 0 0
223 0 0
224 0 0
223 0 0
228 0 0
226 0 0
225 0 0
225 0 0
228 0 0
223 0 0
226 0 0
223 0 0
226 0 0
225 0 0
227 0 0
226 0 0
0 0 255
0 0 255
0 0 255
0 0 255
0 0 254
0 0 254
0 0 254
0 0 255
0 0 254
0 0 255
0 0 254
0 0 255
0 0 254
0 0 255
0 0 255
0 0 255
0 0 255
0 0 254
0 0 255
0 0 254
0 0 255
0 0 255
0 0 255
0 0 255
0 0 254
0 0 254
0 0 254
0 0 255
0 0 254
0 0 253
0 0 254
0 0 255
0 0 253
0 0 254
0 0 254
0 0 254
0 0 255
0 0 255
0 0 254
0 0 253
0 0 255
0 0 250
0 0 255
0 0 254
0 0 254
0 0 254
0 0 254
0 0 255
0 0 253
0 0 255
0 0 255
0 0 254
0 0 254
0 0 254
0 0 254
0 0 254
0 0 253
0 0 253
0 0 253
0 0 252
0 0 253
0 0 253
0 0 254
0 0 252
0 0 253
0 0 255
0 0 253
0 0 253
0 0 252
0 0 253
0 0 252
0 0 254
0 0 249
0 0 253
0 0 254
0 0 249
0 0 255
0 0 253
0 0 254
0 0 254
0 0 252
0 0 253
0 0 250
0 0 255
0 0 253
0 0 249
0 0 246
0 0 249
0 0 253
0 0 250
0 0 253
0 0 252
0 0 249
0 0 250
0 0 252
0 0 254
0 0 254
0 0 249
0 0 246
0 0 252
0 0 249
0 0 244
0 0 252
0 0 249
0 0 254
0 0 246
0 0 252
0 0 241
0 0 252
0 0 249
0 0 252
0 0 244
0 0 252
0 0 250
0 0 246
0 0 240
0 0 249
0 0 249
0 0 250
0 0 245
0 0 249
0 0 242
0 0 246
0 0 246
0 0 250
0 0 248
0 0 245
0 0 246
0 0 248
0 0 245
0 0 246
0 0 245
0 0 242
0 0 241
0 0 241
0 0 248
0 0 245
0 0 244
0 0 234
0 0 234
0 0 240
0 0 244
0 0 245
0 0 244
0 0 246
0 0 248
0 0 237
0 0 238
0 0 238
0 0 231
0 0 241
0 0 240
0 0 236
0 0 238
0 0 237
0 0 238
0 0 240
0 0 233
0 0 236
0 0 230
0 0 230
0 0 240
0 0 227
0 0 218
0 0 238
0 0 236
0 0 220
0 0 238
0 0 226
0 0 214
0 0 233
0 0 221
0 0 228
0 0 228
0 0 231
0 0 226
0 0 223
0 0 217
0 0 214
0 0 212
0 0 217
57 59 226
221 229 253
236 244 255
236 244 255
236 244 255
236 244 255
236 244 255
236 244 255
236 244 255
236 244 255
236 244 255
236 244 255
236 244 255
236 244 255
236 244 255
236 244 255
236 244 255
236 244 255
236 244 255
236 244 255
236 244 255
236 244 255
236 244 255
236 244 255
236 244 255
236 244 255
236 244 255
236 244 255
236 244 255
236 244 255
236 244 255
236 244 255
236 244 255
236 244 255
236 244 255
236 244 255
233 234 245
203 84 88
209 0 0
203 0 0
211 0 0
208 0 0
210 0 0
195 0 0
216 0 0
204 0 0
208 0 0
216 0 0
211 0 0
202 0 0
213 0 0
215 0 0
211 0 0
216 0 0
211 0 0
211 0 0
220 0 0
221 0 0
219 0 0
206 0 0
215 0 0
207 0 0
212 0 0
217 0 0
216 0 0
218 0 0
217 0 0
217 0 0
218 0 0
215 0 0
217 0 0
215 0 0
224 0 0
214 0 0
214 0 0
219 0 0
209 0 0
219 0 0
215 0 0
225 0 0
216 0 0
218 0 0
215 0 0
220 0 0
222 0 0
215 0 0
218 0 0
221 0 0
224 0 0
222 0 0
216 0 0
225 0 0
225 0 0
224 0 0
222 0 0
223 0 0
224 0 0
220 0 0
223 0 0
220 0 0
227 0 0
227 0 0
228 0 0
215 0 0
221 0 0
226 0 0
218 0 0
222 0 0
219 0 0
226 0 0
221 0 0
225 0 0
225 0 0
225 0 0
226 0 0
221 0 0
225 0 0
222 0 0
226 0 0
225 0 0
224 0 0
222 0 0
226 0 0
219 0 0
221 0 0
226 0 0
223 0 0
229 0 0
221 0 0
227 0 0
220 0 0
222 0 0
222 0 0
222 0 0
226 0 0
223 0 0
226 0 0
222 0 0
223 0 0
222 0 0
224 0 0
226 0 0
220 0 0
223 0 0
225 0 0
223 0 0
225 0 0
225 0 0
225 0 0
225 0 0
223 0 0
226 0 0
225 0 0
223 0 0
227 0 0
225 0 0
224 0 0
227 0 0
221 0 0
223 0 0
225 0 0
220 0 0
225 0 0
227 0 0
231 0 0
223 0 0
226 0 0
223 0 0
224 0 0
225 0 0
223 0 0
227 0 0
225 0 0
226 0 0
226 0 0
226 0 0
227 0 0
226 0 0
227 0 0
227 0 0
222 0 0
223 0 0
226 0 0
224 0 0
225 0 0
227 0 0
226 0 0
223 0 0
228 0 0
225 0 0
224 0 0
224 0 0
224 0 0
227 0 0
225 0 0
224 0 0
225 0 0
225 0 0
223 0 0
227 0 0
226 0 0
222 0 0
227 0 0
227 0 0
223 0 0
226 0 0
220 0 0
228 0 0
227 0 0
224 0 0
223 0 0
225 0 0
227 0 0
226 0 0
226 0 0
227 0 0
225 0 0
224 0 0
227 0 0
0 0 255
0 0 254
0 0 254
0 0 255
0 0 253
0 0 255
0 0 254
0 0 255
0 0 255
0 0 255
0 0 255
0 0 255
0 0 254
0 0 254
0 0 255
0 0 255
0 0 255
0 0 255
0 0 255
0 0 253
0 0 255
0 0 255
0 0 253
0 0 254
0 0 254
0 0 254
0 0 254
0 0 254
0 0 255
0 0 255
0 0 255
0 0 254
0 0 254
0 0 254
0 0 254
0 0 254
0 0 253
0 0 255
0 0 255
0 0 254
0 0 255
0 0 254
0 0 254
0 0 250
0 0 255
0 0 254
0 0 255
0 0 252
0 0 255
0 0 254
0 0 255
0 0 254
0 0 252
0 0 252
0 0 254
0 0 252
0 0 253
0 0 252
0 0 250
0 0 255
0 0 254
0 0 252
0 0 253
0 0 250
0 0 252
0 0 250
0 0 255
0 0 255
0 0 255
0 0 252
0 0 254
0 0 250
0 0 253
0 0 254
0 0 252
0 0 255
0 0 250
0 0 254
0 0 248
0 0 252
0 0 253
0 0 253
0 0 254
0 0 254
0 0 252
0 0 248
0 0 250
0 0 252
0 0 249
0 0 248
0 0 245
0 0 254
0 0 246
0 0 248
0 0 252
0 0 248
0 0 250
0 0 252
0 0 253
0 0 253
0 0 253
0 0 250
0 0 250
0 0 244
0 0 246
0 0 244
0 0 254
0 0 249
0 0 246
0 0 250
0 0 252
0 0 246
0 0 250
0 0 252
0 0 246
0 0 248
0 0 246
0 0 248
0 0 250
0 0 249
0 0 249
0 0 252
0 0 246
0 0 250
0 0 252
0 0 248
0 0 249
0 0 250
0 0 249
0 0 250
0 0 245
0 0 244
0 0 248
0 0 248
0 0 249
0 0 238
0 0 242
0 0 237
0 0 241
0 0 252
0 0 252
0 0 245
0 0 245
0 0 246
0 0 244
0 0 234
0 0 237
0 0 242
0 0 233
0 0 246
0 0 230
0 0 238
0 0 237
0 0 242
0 0 238
0 0 240
0 0 236
0 0 227
0 0 237
0 0 234
0 0 230
0 0 220
0 0 233
0 0 234
0 0 233
0 0 233
0 0 234
0 0 236
0 0 238
0 0 227
0 0 220
0 0 224
0 0 230
0 0 228
0 0 228
0 0 227
0 0 221
0 0 227
0 0 218
0 0 211
33 34 215
211 218 254
236 244 255
236 244 255
236 244 255
236 244 255
236 244 255
236 244 255
236 244 255
236 244 255
236 244 255
236 244 255
236 244 255
236 244 255
236 244 255
236 244 255
236 244 255
236 244 255
236 244 255
236 244 255
236 244 255
236 244 255
236 244 255
236 244 255
236 244 255
236 244 255
236 244 255
236 244 255
236 244 255
236 244 255
236 244 255
236 244 255
236 244 255
236 244 255
236 244 255
236 244 255
236 244 255
236 244 255
229 221 231
208 34 36
201 0 0
215 0 0
206 0 0
210 0 0
223 0 0
215 0 0
210 0 0
208 0 0
204 0 0
215 0 0
205 0 0
206 0 0
217 0 0
200 0 0
217 0 0
216 0 0
212 0 0
213 0 0
209 0 0
210 0 0
212 0 0
220 0 0
211 0 0
212 0 0
212 0 0
220 0 0
210 0 0
216 0 0
217 0 0
217 0 0
217 0 0
222 0 0
221 0 0
206 0 0
217 0 0
212 0 0
219 0 0
214 0 0
216 0 0
217 0 0
215 0 0
218 0 0
222 0 0
213 0 0
220 0 0
225 0 0
217 0 0
225 0 0
225 0 0
219 0 0
223 0 0
224 0 0
223 0 0
227 0 0
221 0 0
225 0 0
221 0 0
224 0 0
218 0 0
220 0 0
221 0 0
217 0 0
223 0 0
225 0 0
222 0 0
213 0 0
218 0 0
221 0 0
224 0 0
225 0 0
225 0 0
225 0 0
225 0 0
226 0 0
221 0 0
229 0 0
221 0 0
224 0 0
226 0 0
225 0 0
225 0 0
224 0 0
228 0 0
228 0 0
225 0 0
227 0 0
223 0 0
225 0 0
222 0 0
228 0 0
224 0 0
224 0 0
225 0 0
223 0 0
224 0 0
223 0 0
221 0 0
223 0 0
225 0 0
227 0 0
228 0 0
225 0 0
224 0 0
224 0 0
224 0 0
219 0 0
223 0 0
230 0 0
226 0 0
226 0 0
229 0 0
222 0 0
227 0 0
230 0 0
229 0 0
228 0 0
223 0 0
226 0 0
226 0 0
225 0 0
224 0 0
227 0 0
225 0 0
226 0 0
225 0 0
223 0 0
222 0 0
224 0 0
221 0 0
224 0 0
227 0 0
228 0 0
219 0 0
220 0 0
225 0 0
226 0 0
223 0 0
217 0 0
226 0 0
224 0 0
228 0 0
226 0 0
228 0 0
224 0 0
223 0 0
226 0 0
224 0 0
227 0 0
227 0 0
228 0 0
227 0 0
225 0 0
226 0 0
223 0 0
226 0 0
225 0 0
227 0 0
227 0 0
224 0 0
226 0 0
226 0 0
224 0 0
227 0 0
225 0 0
225 0 0
227 0 0
224 0 0
225 0 0
223 0 0
226 0 0
228 0 0
226 0 0
226 0 0
225 0 0
226 0 0
224 0 0
227 0 0
226 0 0
228 0 0
224 0 0
0 0 255
0 0 255
0 0 255
0 0 255
0 0 255
0 0 254
0 0 255
0 0 254
0 0 255
0 0 255
0 0 252
0 0 254
0 0 254
0 0 254
0 0 250
0 0 254
0 0 255
0 0 255
0 0 255
0 0 255
0 0 255
0 0 255
0 0 254
0 0 254
0 0 255
0 0 255
0 0 255
0 0 255
0 0 255
0 0 255
0 0 253
0 0 254
0 0 253
0 0 254
0 0 255
0 0 253
0 0 255
0 0 255
0 0 255
0 0 255
0 0 255
0 0 254
0 0 255
0 0 254
0 0 255
0 0 255
0 0 254
0 0 254
0 0 253
0 0 252
0 0 253
0 0 253
0 0 254
0 0 254
0 0 255
0 0 254
0 0 254
0 0 253
0 0 254
0 0 254
0 0 255
0 0 254
0 0 254
0 0 254
0 0 255
0 0 252
0 0 255
0 0 255
0 0 253
0 0 255
0 0 253
0 0 253
0 0 249
0 0 250
0 0 250
0 0 252
0 0 253
0 0 249
0 0 252
0 0 253
0 0 252
0 0 253
0 0 255
0 0 254
0 0 254
0 0 253
0 0 249
0 0 252
0 0 252
0 0 253
0 0 248
0 0 252
0 0 253
0 0 252
0 0 249
0 0 250
0 0 252
0 0 248
0 0 248
0 0 246
0 0 253
0 0 252
0 0 253
0 0 252
0 0 250
0 0 245
0 0 250
0 0 252
0 0 244
0 0 250
0 0 252
0 0 249
0 0 252
0 0 245
0 0 248
0 0 252
0 0 250
0 0 250
0 0 248
0 0 249
0 0 252
0 0 242
0 0 248
0 0 250
0 0 242
0 0 245
0 0 245
0 0 252
0 0 245
0 0 246
0 0 246
0 0 240
0 0 240
0 0 240
0 0 244
0 0 242
0 0 246
0 0 242
0 0 250
0 0 248
0 0 242
0 0 242
0 0 249
0 0 242
0 0 241
0 0 246
0 0 237
0 0 231
0 0 238
0 0 240
0 0 244
0 0 236
0 0 242
0 0 244
0 0 238
0 0 228
0 0 238
0 0 228
0 0 236
0 0 241
0 0 245
0 0 233
0 0 228
0 0 237
0 0 233
0 0 236
0 0 234
0 0 226
0 0 237
0 0 220
0 0 236
0 0 230
0 0 224
0 0 220
0 0 233
0 0 214
0 0 218
0 0 218
0 0 227
0 0 223
162 167 242
236 244 255
236 244 255
237 244 255
237 244 255
237 244 255
237 244 255
237 244 255
237 244 255
237 244 255
237 244 255
237 244 255
237 244 255
237 244 255
237 244 255
237 244 255
237 244 255
237 244 255
237 244 255
237 244 255
237 244 255
237 244 255
237 244 255
237 244 255
237 244 255
237 244 255
237 244 255
237 244 255
237 244 255
237 244 255
237 244 255
237 244 255
237 244 255
237 244 255
237 244 255
237 244 255
237 244 255
236 244 255
236 244 255
227 183 191
201 0 0
213 0 0
203 0 0
212 0 0
204 0 0
214 0 0
215 0 0
213 0 0
213 0 0
208 0 0
204 0 0
210 0 0
215 0 0
209 0 0
221 0 0
210 0 0
212 0 0
215 0 0
218 0 0
218 0 0
212 0 0
219 0 0
220 0 0
216 0 0
222 0 0
224 0 0
212 0 0
221 0 0
223 0 0
218 0 0
222 0 0
215 0 0
214 0 0
215 0 0
218 0 0
215 0 0
216 0 0
213 0 0
218 0 0
223 0 0
218 0 0
217 0 0
220 0 0
220 0 0
219 0 0
225 0 0
225 0 0
221 0 0
211 0 0
220 0 0
218 0 0
212 0 0
223 0 0
215 0 0
225 0 0
226 0 0
215 0 0
223 0 0
225 0 0
225 0 0
221 0 0
221 0 0
221 0 0
223 0 0
223 0 0
220 0 0
220 0 0
226 0 0
227 0 0
221 0 0
224 0 0
219 0 0
216 0 0
224 0 0
220 0 0
221 0 0
225 0 0
225 0 0
225 0 0
225 0 0
222 0 0
225 0 0
224 0 0
223 0 0
230 0 0
227 0 0
225 0 0
222 0 0
225 0 0
224 0 0
226 0 0
228 0 0
226 0 0
225 0 0
226 0 0
227 0 0
222 0 0
225 0 0
227 0 0
229 0 0
227 0 0
226 0 0
216 0 0
222 0 0
224 0 0
226 0 0
226 0 0
226 0 0
228 0 0
227 0 0
225 0 0
222 0 0
224 0 0
226 0 0
223 0 0
222 0 0
226 0 0
225 0 0
224 0 0
225 0 0
226 0 0
222 0 0
223 0 0
224 0 0
222 0 0
225 0 0
229 0 0
227 0 0
220 0 0
231 0 0
226 0 0
227 0 0
226 0 0
227 0 0
228 0 0
228 0 0
222 0 0
223 0 0
225 0 0
224 0 0
228 0 0
228 0 0
228 0 0
226 0 0
228 0 0
227 0 0
230 0 0
221 0 0
228 0 0
229 0 0
227 0 0
226 0 0
226 0 0
229 0 0
231 0 0
227 0 0
224 0 0
225 0 0
226 0 0
227 0 0
227 0 0
226 0 0
228 0 0
226 0 0
227 0 0
227 0 0
223 0 0
226 0 0
225 0 0
225 0 0
227 0 0
227 0 0
226 0 0
229 0 0
226 0 0
227 0 0
227 0 0
226 0 0
227 0 0
225 0 0
0 0 255
0 0 254
0 0 255
0 0 255
0 0 255
0 0 255
0 0 254
0 0 255
0 0 255
0 0 254
0 0 255
0 0 253
0 0 255
0 0 254
0 0 253
0 0 255
0 0 254
0 0 255
0 0 255
0 0 255
0 0 254
0 0 255
0 0 255
0 0 255
0 0 255
0 0 254
0 0 255
0 0 254
0 0 254
0 0 255
0 0 255
0 0 255
0 0 255
0 0 255
0 0 252
0 0 255
0 0 254
0 0 254
0 0 255
0 0 254
0 0 254
0 0 252
0 0 254
0 0 255
0 0 255
0 0 252
0 0 255
0 0 255
0 0 255
0 0 254
0 0 255
0 0 255
0 0 254
0 0 253
0 0 254
0 0 254
0 0 255
0 0 254
0 0 252
0 0 253
0 0 253
0 0 254
0 0 250
0 0 253
0 0 250
0 0 253
0 0 252
0 0 252
0 0 252
0 0 250
0 0 255
0 0 254
0 0 253
0 0 250
0 0 253
0 0 254
0 0 248
0 0 253
0 0 255
0 0 254
0 0 252
0 0 250
0 0 250
0 0 254
0 0 253
0 0 253
0 0 246
0 0 255
0 0 255
0 0 253
0 0 252
0 0 254
0 0 250
0 0 249
0 0 252
0 0 250
0 0 250
0 0 252
0 0 252
0 0 248
0 0 250
0 0 252
0 0 249
0 0 249
0 0 248
0 0 249
0 0 252
0 0 252
0 0 249
0 0 246
0 0 245
0 0 244
0 0 250
0 0 252
0 0 252
0 0 245
0 0 250
0 0 248
0 0 242
0 0 252
0 0 244
0 0 250
0 0 244
0 0 248
0 0 253
0 0 246
0 0 248
0 0 250
0 0 249
0 0 248
0 0 249
0 0 244
0 0 249
0 0 248
0 0 246
0 0 244
0 0 242
0 0 241
0 0 245
0 0 238
0 0 245
0 0 245
0 0 240
0 0 242
0 0 238
0 0 242
0 0 244
0 0 244
0 0 240
0 0 234
0 0 233
0 0 237
0 0 238
0 0 233
0 0 244
0 0 233
0 0 230
0 0 241
0 0 241
0 0 230
0 0 236
0 0 237
0 0 234
0 0 231
0 0 227
0 0 223
0 0 227
0 0 224
0 0 231
0 0 224
0 0 227
0 0 227
0 0 231
0 0 221
0 0 218
0 0 227
0 0 211
0 0 214
0 0 215
120 124 240
234 242 254
237 244 255
237 244 255
237 244 255
237 244 255
237 244 255
237 244 255
237 244 255
237 244 255
237 244 255
237 244 255
237 244 255
237 244 255
237 244 255
237 244 255
237 244 255
237 244 255
237 244 255
237 244 255
237 244 255
237 244 255
237 244 255
237 244 255
237 244 255
237 244 255
237 244 255
237 244 255
237 244 255
237 244 255
237 244 255
237 244 255
237 244 255
237 244 255
237 244 255
237 244 255
237 244 255
237 244 255
237 244 255
237 244 255
237 244 255
222 131 137
212 0 0
213 0 0
194 0 0
214 0 0
207 0 0
207 0 0
205 0 0
216 0 0
214 0 0
216 0 0
215 0 0
209 0 0
204 0 0
212 0 0
215 0 0
224 0 0
226 0 0
213 0 0
213 0 0
223 0 0
218 0 0
216 0 0
225 0 0
220 0 0
204 0 0
222 0 0
221 0 0
217 0 0
214 0 0
216 0 0
210 0 0
212 0 0
219 0 0
209 0 0
221 0 0
221 0 0
222 0 0
226 0 0
221 0 0
220 0 0
218 0 0
223 0 0
219 0 0
217 0 0
213 0 0
220 0 0
226 0 0
222 0 0
219 0 0
221 0 0
216 0 0
220 0 0
226 0 0
224 0 0
220 0 0
222 0 0
222 0 0
221 0 0
223 0 0
220 0 0
221 0 0
217 0 0
225 0 0
226 0 0
224 0 0
222 0 0
217 0 0
216 0 0
223 0 0
226 0 0
226 0 0
231 0 0
224 0 0
222 0 0
225 0 0
223 0 0
222 0 0
222 0 0
221 0 0
224 0 0
227 0 0
226 0 0
224 0 0
222 0 0
225 0 0
221 0 0
224 0 0
229 0 0
224 0 0
219 0 0
229 0 0
222 0 0
220 0 0
227 0 0
224 0 0
225 0 0
224 0 0
222 0 0
227 0 0
221 0 0
221 0 0
224 0 0
230 0 0
231 0 0
229 0 0
224 0 0
229 0 0
225 0 0
226 0 0
226 0 0
219 0 0
224 0 0
224 0 0
228 0 0
227 0 0
229 0 0
224 0 0
224 0 0
230 0 0
227 0 0
226 0 0
224 0 0
227 0 0
226 0 0
225 0 0
223 0 0
229 0 0
227 0 0
225 0 0
228 0 0
223 0 0
228 0 0
223 0 0
225 0 0
226 0 0
224 0 0
227 0 0
223 0 0
226 0 0
223 0 0
226 0 0
227 0 0
228 0 0
228 0 0
229 0 0
230 0 0
227 0 0
224 0 0
224 0 0
226 0 0
227 0 0
225 0 0
224 0 0
225 0 0
228 0 0
221 0 0
227 0 0
228 0 0
226 0 0
224 0 0
229 0 0
224 0 0
227 0 0
227 0 0
227 0 0
228 0 0
223 0 0
226 0 0
226 0 0
226 0 0
224 0 0
226 0 0
228 0 0
229 0 0
228 0 0
229 0 0
230 0 0
228 0 0
225 0 0
0 0 254
0 0 255
0 0 255
0 0 255
0 0 255
0 0 254
0 0 253
0 0 255
0 0 255
0 0 255
0 0 254
0 0 255
0 0 254
0 0 255
0 0 255
0 0 255
0 0 253
0 0 255
0 0 254
0 0 255
0 0 255
0 0 255
0 0 255
0 0 255
0 0 255
0 0 255
0 0 254
0 0 255
0 0 255
0 0 254
0 0 254
0 0 255
0 0 255
0 0 254
0 0 254
0 0 254
0 0 255
0 0 255
0 0 253
0 0 253
0 0 255
0 0 255
0 0 254
0 0 255
0 0 255
0 0 254
0 0 255
0 0 255
0 0 253
0 0 253
0 0 255
0 0 253
0 0 254
0 0 253
0 0 252
0 0 254
0 0 253
0 0 253
0 0 252
0 0 252
0 0 253
0 0 253
0 0 252
0 0 254
0 0 254
0 0 253
0 0 250
0 0 254
0 0 253
0 0 252
0 0 254
0 0 254
0 0 253
0 0 254
0 0 252
0 0 252
0 0 252
0 0 253
0 0 254
0 0 253
0 0 253
0 0 250
0 0 249
0 0 255
0 0 250
0 0 253
0 0 250
0 0 249
0 0 253
0 0 246
0 0 254
0 0 252
0 0 253
0 0 254
0 0 253
0 0 254
0 0 252
0 0 249
0 0 253
0 0 250
0 0 249
0 0 249
0 0 252
0 0 248
0 0 249
0 0 249
0 0 252
0 0 248
0 0 249
0 0 241
0 0 246
0 0 250
0 0 245
0 0 246
0 0 252
0 0 253
0 0 244
0 0 246
0 0 245
0 0 246
0 0 253
0 0 248
0 0 246
0 0 250
0 0 249
0 0 244
0 0 252
0 0 245
0 0 248
0 0 249
0 0 241
0 0 248
0 0 246
0 0 242
0 0 242
0 0 249
0 0 242
0 0 245
0 0 238
0 0 246
0 0 244
0 0 245
0 0 244
0 0 245
0 0 237
0 0 246
0 0 240
0 0 242
0 0 244
0 0 237
0 0 236
0 0 240
0 0 250
0 0 236
0 0 231
0 0 242
0 0 233
0 0 234
0 0 234
0 0 241
0 0 236
0 0 238
0 0 240
0 0 237
0 0 233
0 0 233
0 0 233
0 0 231
0 0 217
0 0 233
0 0 224
0 0 233
0 0 223
0 0 231
0 0 226
0 0 234
0 0 227
0 0 221
91 94 223
233 241 255
237 245 255
237 245 255
237 245 255
237 245 255
237 245 255
237 245 255
237 245 255
237 245 255
237 245 255
237 245 255
237 245 255
237 245 255
237 245 255
237 245 255
237 245 255
237 245 255
237 245 255
237 245 255
237 245 255
237 245 255
237 245 255
237 245 255
237 245 255
237 245 255
237 245 255
237 245 255
237 245 255
237 245 255
237 245 255
237 245 255
237 245 255
237 245 255
237 245 255
237 245 255
237 245 255
237 245 255
237 245 255
237 245 255
237 245 255
237 245 255
236 237 248
206 103 108
210 0 0
205 0 0
215 0 0
210 0 0
207 0 0
205 0 0
213 0 0
214 0 0
206 0 0
206 0 0
210 0 0
210 0 0
201 0 0
216 0 0
215 0 0
216 0 0
208 0 0
209 0 0
215 0 0
217 0 0
215 0 0
207 0 0
207 0 0
220 0 0
214 0 0
218 0 0
218 0 0
220 0 0
219 0 0
219 0 0
221 0 0
225 0 0
214 0 0
222 0 0
221 0 0
221 0 0
223 0 0
224 0 0
221 0 0
222 0 0
218 0 0
219 0 0
230 0 0
217 0 0
219 0 0
217 0 0
223 0 0
222 0 0
228 0 0
221 0 0
220 0 0
220 0 0
227 0 0
218 0 0
221 0 0
227 0 0
223 0 0
226 0 0
225 0 0
225 0 0
216 0 0
222 0 0
225 0 0
219 0 0
225 0 0
226 0 0
223 0 0
226 0 0
216 0 0
225 0 0
227 0 0
224 0 0
226 0 0
227 0 0
222 0 0
225 0 0
220 0 0
223 0 0
222 0 0
227 0 0
224 0 0
223 0 0
231 0 0
229 0 0
223 0 0
227 0 0
226 0 0
227 0 0
225 0 0
228 0 0
224 0 0
224 0 0
225 0 0
225 0 0
219 0 0
223 0 0
225 0 0
226 0 0
225 0 0
220 0 0
222 0 0
222 0 0
225 0 0
221 0 0
222 0 0
224 0 0
225 0 0
225 0 0
228 0 0
230 0 0
225 0 0
224 0 0
225 0 0
229 0 0
225 0 0
225 0 0
227 0 0
227 0 0
223 0 0
225 0 0
230 0 0
230 0 0
226 0 0
230 0 0
228 0 0
223 0 0
229 0 0
225 0 0
226 0 0
225 0 0
225 0 0
225 0 0
225 0 0
224 0 0
228 0 0
223 0 0
225 0 0
227 0 0
228 0 0
230 0 0
225 0 0
225 0 0
224 0 0
226 0 0
224 0 0
230 0 0
223 0 0
225 0 0
229 0 0
225 0 0
225 0 0
226 0 0
229 0 0
227 0 0
224 0 0
225 0 0
223 0 0
223 0 0
227 0 0
224 0 0
225 0 0
226 0 0
228 0 0
226 0 0
225 0 0
227 0 0
225 0 0
224 0 0
228 0 0
226 0 0
224 0 0
227 0 0
221 0 0
227 0 0
226 0 0
226 0 0
229 0 0
227 0 0
0 0 255
0 0 255
0 0 254
0 0 255
0 0 255
0 0 255
0 0 255
0 0 253
0 0 255
0 0 253
0 0 255
0 0 255
0 0 255
0 0 252
0 0 255
0 0 255
0 0 254
0 0 255
0 0 255
0 0 253
0 0 255
0 0 254
0 0 254
0 0 255
0 0 254
0 0 254
0 0 255
0 0 253
0 0 255
0 0 255
0 0 254
0 0 255
0 0 255
0 0 253
0 0 254
0 0 253
0 0 250
0 0 255
0 0 254
0 0 254
0 0 254
0 0 252
0 0 254
0 0 253
0 0 255
0 0 254
0 0 255
0 0 253
0 0 253
0 0 254
0 0 254
0 0 254
0 0 254
0 0 250
0 0 253
0 0 255
0 0 254
0 0 254
0 0 254
0 0 253
0 0 253
0 0 252
0 0 253
0 0 255
0 0 255
0 0 252
0 0 254
0 0 254
0 0 248
0 0 254
0 0 255
0 0 252
0 0 255
0 0 250
0 0 255
0 0 253
0 0 252
0 0 252
0 0 252
0 0 252
0 0 252
0 0 254
0 0 253
0 0 249
0 0 248
0 0 250
0 0 249
0 0 253
0 0 250
0 0 253
0 0 252
0 0 250
0 0 254
0 0 245
0 0 250
0 0 254
0 0 249
0 0 249
0 0 249
0 0 246
0 0 245
0 0 249
0 0 249
0 0 255
0 0 254
0 0 245
0 0 253
0 0 253
0 0 246
0 0 249
0 0 252
0 0 252
0 0 250
0 0 250
0 0 250
0 0 250
0 0 252
0 0 245
0 0 250
0 0 250
0 0 249
0 0 250
0 0 246
0 0 242
0 0 245
0 0 242
0 0 245
0 0 241
0 0 249
0 0 248
0 0 245
0 0 242
0 0 248
0 0 248
0 0 246
0 0 245
0 0 242
0 0 248
0 0 248
0 0 236
0 0 242
0 0 249
0 0 241
0 0 238
0 0 246
0 0 237
0 0 244
0 0 244
0 0 241
0 0 237
0 0 233
0 0 237
0 0 236
0 0 245
0 0 240
0 0 242
0 0 249
0 0 236
0 0 227
0 0 234
0 0 230
0 0 221
0 0 241
0 0 234
0 0 238
0 0 236
0 0 226
0 0 245
0 0 237
0 0 227
0 0 240
0 0 231
0 0 224
0 0 237
0 0 221
0 0 224
0 0 224
58 60 223
225 232 253
237 245 255
237 245 255
237 245 255
237 245 255
237 245 255
237 245 255
237 245 255
237 245 255
237 245 255
237 245 255
237 245 255
237 245 255
237 245 255
237 245 255
237 245 255
237 245 255
237 245 255
237 245 255
237 245 255
237 245 255
237 245 255
237 245 255
237 245 255
237 245 255
237 245 255
237 245 255
237 245 255
237 245 255
237 245 255
237 245 255
237 245 255
237 245 255
237 245 255
237 245 255
237 245 255
237 245 255
237 245 255
237 245 255
237 245 255
237 245 255
237 245 255
237 245 255
233 225 236
210 49 51
216 0 0
205 0 0
201 0 0
204 0 0
205 0 0
214 0 0
213 0 0
217 0 0
213 0 0
211 0 0
200 0 0
225 0 0
217 0 0
206 0 0
216 0 0
222 0 0
214 0 0
220 0 0
208 0 0
224 0 0
222 0 0
223 0 0
212 0 0
208 0 0
224 0 0
215 0 0
218 0 0
221 0 0
218 0 0
221 0 0
225 0 0
219 0 0
221 0 0
217 0 0
222 0 0
215 0 0
226 0 0
213 0 0
217 0 0
224 0 0
220 0 0
220 0 0
221 0 0
217 0 0
215 0 0
225 0 0
216 0 0
226 0 0
219 0 0
226 0 0
221 0 0
216 0 0
219 0 0
215 0 0
218 0 0
221 0 0
219 0 0
223 0 0
213 0 0
217 0 0
225 0 0
224 0 0
222 0 0
220 0 0
224 0 0
222 0 0
227 0 0
219 0 0
223 0 0
224 0 0
219 0 0
221 0 0
226 0 0
226 0 0
229 0 0
221 0 0
223 0 0
225 0 0
227 0 0
225 0 0
223 0 0
223 0 0
229 0 0
229 0 0
226 0 0
224 0 0
223 0 0
228 0 0
222 0 0
227 0 0
226 0 0
220 0 0
226 0 0
226 0 0
221 0 0
227 0 0
220 0 0
228 0 0
224 0 0
227 0 0
224 0 0
231 0 0
226 0 0
223 0 0
222 0 0
226 0 0
228 0 0
221 0 0
222 0 0
226 0 0
224 0 0
223 0 0
224 0 0
229 0 0
228 0 0
224 0 0
225 0 0
226 0 0
225 0 0
225 0 0
228 0 0
226 0 0
227 0 0
223 0 0
229 0 0
227 0 0
226 0 0
227 0 0
228 0 0
224 0 0
224 0 0
225 0 0
230 0 0
226 0 0
227 0 0
227 0 0
225 0 0
227 0 0
228 0 0
226 0 0
223 0 0
224 0 0
228 0 0
223 0 0
221 0 0
226 0 0
227 0 0
221 0 0
222 0 0
229 0 0
227 0 0
223 0 0
227 0 0
229 0 0
225 0 0
223 0 0
227 0 0
227 0 0
224 0 0
225 0 0
225 0 0
227 0 0
229 0 0
225 0 0
228 0 0
225 0 0
227 0 0
228 0 0
227 0 0
229 0 0
225 0 0
226 0 0
227 0 0
227 0 0
225 0 0
229 0 0
227 0 0
0 0 255
0 0 255
0 0 255
0 0 255
0 0 255
0 0 253
0 0 255
0 0 255
0 0 255
0 0 255
0 0 255
0 0 255
0 0 254
0 0 254
0 0 254
0 0 255
0 0 255
0 0 254
0 0 255
0 0 255
0 0 255
0 0 255
0 0 254
0 0 254
0 0 254
0 0 255
0 0 254
0 0 255
0 0 255
0 0 255
0 0 254
0 0 254
0 0 253
0 0 255
0 0 254
0 0 255
0 0 254
0 0 253
0 0 253
0 0 254
0 0 255
0 0 252
0 0 253
0 0 255
0 0 254
0 0 254
0 0 253
0 0 254
0 0 254
0 0 253
0 0 254
0 0 252
0 0 253
0 0 252
0 0 253
0 0 250
0 0 255
0 0 255
0 0 254
0 0 252
0 0 252
0 0 254
0 0 255
0 0 252
0 0 252
0 0 255
0 0 254
0 0 252
0 0 254
0 0 253
0 0 254
0 0 252
0 0 253
0 0 254
0 0 255
0 0 250
0 0 246
0 0 252
0 0 248
0 0 248
0 0 254
0 0 249
0 0 252
0 0 252
0 0 252
0 0 254
0 0 250
0 0 254
0 0 248
0 0 254
0 0 253
0 0 252
0 0 252
0 0 250
0 0 252
0 0 246
0 0 249
0 0 248
0 0 249
0 0 252
0 0 249
0 0 250
0 0 254
0 0 253
0 0 253
0 0 244
0 0 249
0 0 246
0 0 249
0 0 253
0 0 253
0 0 248
0 0 249
0 0 246
0 0 252
0 0 250
0 0 244
0 0 252
0 0 248
0 0 249
0 0 241
0 0 244
0 0 246
0 0 248
0 0 244
0 0 240
0 0 246
0 0 248
0 0 249
0 0 244
0 0 246
0 0 245
0 0 241
0 0 248
0 0 246
0 0 241
0 0 238
0 0 250
0 0 244
0 0 237
0 0 240
0 0 252
0 0 242
0 0 245
0 0 240
0 0 242
0 0 244
0 0 246
0 0 242
0 0 242
0 0 244
0 0 244
0 0 231
0 0 241
0 0 236
0 0 236
0 0 241
0 0 242
0 0 237
0 0 234
0 0 233
0 0 240
0 0 236
0 0 233
0 0 237
0 0 220
0 0 227
0 0 220
0 0 233
0 0 224
0 0 228
0 0 230
0 0 231
0 0 221
0 0 227
0 0 228
53 54 227
212 219 250
237 245 255
237 245 255
237 245 255
237 245 255
237 245 255
237 245 255
237 245 255
237 245 255
237 245 255
237 245 255
237 245 255
237 245 255
237 245 255
237 245 255
238 245 255
238 245 255
238 245 255
238 245 255
238 245 255
238 245 255
238 245 255
238 245 255
238 245 255
238 245 255
238 245 255
238 245 255
238 245 255
238 245 255
238 245 255
238 245 255
238 245 255
237 245 255
237 245 255
237 245 255
237 245 255
237 245 255
237 245 255
237 245 255
237 245 255
237 245 255
237 245 255
237 245 255
237 245 255
237 245 255
236 215 224
218 24 25
217 0 0
201 0 0
208 0 0
213 0 0
219 0 0
212 0 0
219 0 0
213 0 0
209 0 0
208 0 0
220 0 0
217 0 0
208 0 0
225 0 0
213 0 0
219 0 0
214 0 0
214 0 0
202 0 0
218 0 0
215 0 0
225 0 0
221 0 0
212 0 0
221 0 0
221 0 0
217 0 0
213 0 0
219 0 0
225 0 0
222 0 0
220 0 0
215 0 0
216 0 0
218 0 0
214 0 0
221 0 0
218 0 0
224 0 0
218 0 0
220 0 0
218 0 0
219 0 0
219 0 0
223 0 0
220 0 0
224 0 0
222 0 0
224 0 0
223 0 0
219 0 0
224 0 0
220 0 0
217 0 0
221 0 0
216 0 0
219 0 0
219 0 0
222 0 0
222 0 0
223 0 0
226 0 0
220 0 0
224 0 0
221 0 0
226 0 0
226 0 0
228 0 0
225 0 0
224 0 0
224 0 0
225 0 0
221 0 0
222 0 0
215 0 0
221 0 0
227 0 0
221 0 0
217 0 0
226 0 0
226 0 0
224 0 0
230 0 0
225 0 0
226 0 0
223 0 0
221 0 0
223 0 0
225 0 0
226 0 0
224 0 0
224 0 0
223 0 0
229 0 0
223 0 0
224 0 0
230 0 0
225 0 0
223 0 0
225 0 0
228 0 0
229 0 0
222 0 0
227 0 0
228 0 0
227 0 0
227 0 0
225 0 0
223 0 0
228 0 0
228 0 0
223 0 0
229 0 0
225 0 0
226 0 0
228 0 0
226 0 0
228 0 0
227 0 0
223 0 0
226 0 0
228 0 0
227 0 0
225 0 0
227 0 0
225 0 0
224 0 0
224 0 0
225 0 0
226 0 0
229 0 0
226 0 0
221 0 0
226 0 0
224 0 0
230 0 0
228 0 0
228 0 0
226 0 0
229 0 0
222 0 0
225 0 0
227 0 0
230 0 0
226 0 0
225 0 0
226 0 0
230 0 0
228 0 0
227 0 0
228 0 0
226 0 0
227 0 0
225 0 0
224 0 0
226 0 0
225 0 0
223 0 0
227 0 0
225 0 0
225 0 0
228 0 0
226 0 0
229 0 0
227 0 0
227 0 0
227 0 0
226 0 0
226 0 0
226 0 0
228 0 0
221 0 0
225 0 0
226 0 0
228 0 0
225 0 0
0 0 255
0 0 255
0 0 255
0 0 255
0 0 255
0 0 255
0 0 254
0 0 254
0 0 255
0 0 255
0 0 255
0 0 254
0 0 255
0 0 255
0 0 255
0 0 255
0 0 254
0 0 255
0 0 254
0 0 254
0 0 255
0 0 255
0 0 254
0 0 255
0 0 254
0 0 255
0 0 254
0 0 253
0 0 254
0 0 255
0 0 253
0 0 254
0 0 255
0 0 255
0 0 255
0 0 254
0 0 255
0 0 253
0 0 255
0 0 255
0 0 254
0 0 255
0 0 252
0 0 255
0 0 255
0 0 254
0 0 254
0 0 255
0 0 255
0 0 254
0 0 255
0 0 254
0 0 253
0 0 254
0 0 255
0 0 252
0 0 249
0 0 253
0 0 255
0 0 252
0 0 254
0 0 254
0 0 255
0 0 255
0 0 248
0 0 255
0 0 254
0 0 253
0 0 253
0 0 253
0 0 250
0 0 253
0 0 249
0 0 255
0 0 254
0 0 255
0 0 252
0 0 255
0 0 252
0 0 254
0 0 253
0 0 253
0 0 248
0 0 250
0 0 252
0 0 248
0 0 250
0 0 252
0 0 248
0 0 250
0 0 250
0 0 252
0 0 252
0 0 252
0 0 249
0 0 245
0 0 250
0 0 249
0 0 253
0 0 250
0 0 254
0 0 249
0 0 250
0 0 252
0 0 253
0 0 250
0 0 248
0 0 246
0 0 249
0 0 250
0 0 246
0 0 249
0 0 248
0 0 245
0 0 248
0 0 250
0 0 248
0 0 244
0 0 246
0 0 249
0 0 244
0 0 252
0 0 242
0 0 250
0 0 246
0 0 250
0 0 250
0 0 246
0 0 250
0 0 252
0 0 240
0 0 246
0 0 244
0 0 250
0 0 242
0 0 237
0 0 242
0 0 246
0 0 246
0 0 249
0 0 238
0 0 240
0 0 242
0 0 246
0 0 238
0 0 248
0 0 237
0 0 236
0 0 237
0 0 244
0 0 236
0 0 236
0 0 241
0 0 233
0 0 242
0 0 231
0 0 228
0 0 237
0 0 237
0 0 237
0 0 238
0 0 241
0 0 236
0 0 230
0 0 231
0 0 234
0 0 244
0 0 230
0 0 228
0 0 230
0 0 237
0 0 237
0 0 231
0 0 230
0 0 233
0 0 233
176 181 245
237 245 255
238 245 255
238 245 255
238 245 255
238 245 255
238 245 255
238 245 255
238 245 255
238 245 255
238 245 255
238 245 255
238 245 255
238 245 255
238 245 255
238 245 255
238 245 255
238 245 255
238 245 255
238 245 255
238 245 255
238 245 255
238 245 255
238 245 255
238 245 255
238 245 255
238 245 255
238 245 255
238 245 255
238 245 255
238 245 255
238 245 255
238 245 255
238 245 255
238 245 255
238 245 255
238 245 255
238 245 255
238 245 255
238 245 255
238 245 255
238 245 255
238 245 255
238 245 255
238 245 255
238 245 255
238 245 255
228 200 209
217 0 0
209 0 0
218 0 0
204 0 0
212 0 0
212 0 0
215 0 0
216 0 0
212 0 0
214 0 0
227 0 0
215 0 0
216 0 0
214 0 0
219 0 0
221 0 0
222 0 0
201 0 0
219 0 0
218 0 0
218 0 0
210 0 0
221 0 0
219 0 0
217 0 0
223 0 0
212 0 0
215 0 0
220 0 0
223 0 0
215 0 0
221 0 0
226 0 0
223 0 0
226 0 0
224 0 0
223 0 0
220 0 0
225 0 0
222 0 0
222 0 0
225 0 0
217 0 0
223 0 0
216 0 0
220 0 0
223 0 0
215 0 0
212 0 0
223 0 0
229 0 0
224 0 0
219 0 0
219 0 0
226 0 0
225 0 0
227 0 0
224 0 0
224 0 0
225 0 0
222 0 0
222 0 0
218 0 0
224 0 0
220 0 0
224 0 0
229 0 0
221 0 0
227 0 0
222 0 0
225 0 0
224 0 0
220 0 0
226 0 0
227 0 0
224 0 0
226 0 0
222 0 0
226 0 0
220 0 0
220 0 0
228 0 0
225 0 0
225 0 0
225 0 0
226 0 0
229 0 0
230 0 0
225 0 0
228 0 0
225 0 0
226 0 0
226 0 0
225 0 0
224 0 0
221 0 0
232 0 0
226 0 0
226 0 0
224 0 0
227 0 0
223 0 0
222 0 0
225 0 0
227 0 0
226 0 0
228 0 0
226 0 0
227 0 0
224 0 0
228 0 0
226 0 0
225 0 0
221 0 0
226 0 0
228 0 0
227 0 0
224 0 0
227 0 0
226 0 0
226 0 0
228 0 0
227 0 0
227 0 0
226 0 0
229 0 0
228 0 0
227 0 0
227 0 0
227 0 0
223 0 0
226 0 0
222 0 0
225 0 0
229 0 0
226 0 0
224 0 0
227 0 0
224 0 0
223 0 0
226 0 0
226 0 0
225 0 0
226 0 0
228 0 0
228 0 0
228 0 0
226 0 0
229 0 0
226 0 0
225 0 0
228 0 0
228 0 0
225 0 0
226 0 0
229 0 0
229 0 0
231 0 0
229 0 0
225 0 0
225 0 0
226 0 0
226 0 0
226 0 0
228 0 0
224 0 0
228 0 0
227 0 0
225 0 0
228 0 0
227 0 0
226 0 0
224 0 0
228 0 0
228 0 0
221 0 0
0 0 254
0 0 255
0 0 255
0 0 255
0 0 255
0 0 255
0 0 255
0 0 253
0 0 255
0 0 254
0 0 255
0 0 255
0 0 254
0 0 255
0 0 255
0 0 255
0 0 255
0 0 255
0 0 255
0 0 255
0 0 254
0 0 255
0 0 254
0 0 254
0 0 254
0 0 255
0 0 255
0 0 254
0 0 254
0 0 255
0 0 255
0 0 253
0 0 255
0 0 255
0 0 255
0 0 255
0 0 253
0 0 254
0 0 254
0 0 254
0 0 253
0 0 252
0 0 255
0 0 254
0 0 254
0 0 253
0 0 255
0 0 250
0 0 253
0 0 255
0 0 250
0 0 254
0 0 254
0 0 255
0 0 253
0 0 254
0 0 254
0 0 254
0 0 252
0 0 254
0 0 250
0 0 254
0 0 253
0 0 255
0 0 254
0 0 254
0 0 254
0 0 252
0 0 254
0 0 250
0 0 252
0 0 255
0 0 254
0 0 255
0 0 253
0 0 252
0 0 249
0 0 250
0 0 253
0 0 253
0 0 249
0 0 250
0 0 253
0 0 252
0 0 254
0 0 252
0 0 252
0 0 254
0 0 253
0 0 253
0 0 253
0 0 250
0 0 249
0 0 250
0 0 254
0 0 246
0 0 252
0 0 253
0 0 253
0 0 252
0 0 250
0 0 253
0 0 248
0 0 249
0 0 250
0 0 253
0 0 252
0 0 248
0 0 253
0 0 246
0 0 250
0 0 246
0 0 249
0 0 249
0 0 252
0 0 250
0 0 250
0 0 252
0 0 241
0 0 253
0 0 252
0 0 240
0 0 244
0 0 245
0 0 246
0 0 249
0 0 248
0 0 250
0 0 246
0 0 242
0 0 242
0 0 246
0 0 244
0 0 237
0 0 246
0 0 242
0 0 246
0 0 246
0 0 252
0 0 241
0 0 240
0 0 237
0 0 248
0 0 238
0 0 245
0 0 238
0 0 236
0 0 241
0 0 234
0 0 244
0 0 237
0 0 234
0 0 238
0 0 241
0 0 231
0 0 241
0 0 234
0 0 240
0 0 228
0 0 241
0 0 240
0 0 233
0 0 238
0 0 236
0 0 231
0 0 228
0 0 237
0 0 226
0 0 226
0 0 234
0 0 221
0 0 230
0 0 220
0 0 231
0 0 236
166 171 245
238 245 255
238 245 255
238 245 255
238 245 255
238 245 255
238 245 255
238 245 255
238 245 255
238 245 255
238 245 255
238 245 255
238 245 255
238 245 255
238 245 255
238 245 255
238 245 255
238 245 255
238 245 255
238 245 255
238 245 255
238 245 255
238 245 255
238 245 255
238 245 255
238 245 255
238 245 255
238 245 255
238 245 255
238 245 255
238 245 255
238 245 255
238 245 255
238 245 255
238 245 255
238 245 255
238 245 255
238 245 255
238 245 255
238 245 255
238 245 255
238 245 255
238 245 255
238 245 255
238 245 255
238 245 255
238 245 255
238 245 255
238 245 255
229 178 186
212 0 0
225 0 0
213 0 0
212 0 0
215 0 0
222 0 0
215 0 0
224 0 0
212 0 0
213 0 0
213 0 0
218 0 0
224 0 0
221 0 0
215 0 0
229 0 0
217 0 0
223 0 0
226 0 0
216 0 0
215 0 0
225 0 0
216 0 0
221 0 0
227 0 0
222 0 0
218 0 0
228 0 0
220 0 0
217 0 0
223 0 0
228 0 0
223 0 0
221 0 0
212 0 0
223 0 0
228 0 0
228 0 0
221 0 0
213 0 0
216 0 0
219 0 0
219 0 0
222 0 0
218 0 0
217 0 0
224 0 0
223 0 0
223 0 0
221 0 0
219 0 0
217 0 0
226 0 0
224 0 0
225 0 0
225 0 0
225 0 0
220 0 0
223 0 0
221 0 0
225 0 0
228 0 0
222 0 0
224 0 0
226 0 0
222 0 0
227 0 0
223 0 0
225 0 0
225 0 0
227 0 0
223 0 0
228 0 0
229 0 0
225 0 0
223 0 0
229 0 0
226 0 0
223 0 0
227 0 0
226 0 0
227 0 0
228 0 0
224 0 0
232 0 0
228 0 0
225 0 0
227 0 0
227 0 0
224 0 0
222 0 0
219 0 0
219 0 0
228 0 0
229 0 0
228 0 0
228 0 0
226 0 0
226 0 0
222 0 0
222 0 0
226 0 0
224 0 0
226 0 0
228 0 0
225 0 0
227 0 0
226 0 0
224 0 0
226 0 0
227 0 0
223 0 0
229 0 0
224 0 0
226 0 0
226 0 0
221 0 0
228 0 0
229 0 0
226 0 0
225 0 0
230 0 0
224 0 0
228 0 0
228 0 0
225 0 0
227 0 0
229 0 0
225 0 0
229 0 0
227 0 0
225 0 0
227 0 0
226 0 0
226 0 0
226 0 0
223 0 0
226 0 0
226 0 0
226 0 0
226 0 0
227 0 0
224 0 0
228 0 0
225 0 0
227 0 0
228 0 0
224 0 0
227 0 0
225 0 0
227 0 0
227 0 0
230 0 0
226 0 0
224 0 0
227 0 0
227 0 0
227 0 0
231 0 0
229 0 0
227 0 0
227 0 0
229 0 0
227 0 0
223 0 0
227 0 0
230 0 0
228 0 0
224 0 0
227 0 0
225 0 0
224 0 0
223 0 0
225 0 0
224 0 0
0 0 255
0 0 255
0 0 255
0 0 255
0 0 255
0 0 255
0 0 255
0 0 254
0 0 255
0 0 255
0 0 255
0 0 254
0 0 254
0 0 255
0 0 255
0 0 255
0 0 255
0 0 254
0 0 255
0 0 254
0 0 254
0 0 255
0 0 255
0 0 254
0 0 255
0 0 254
0 0 255
0 0 255
0 0 255
0 0 254
0 0 254
0 0 255
0 0 255
0 0 255
0 0 255
0 0 254
0 0 253
0 0 254
0 0 255
0 0 254
0 0 255
0 0 254
0 0 254
0 0 254
0 0 252
0 0 253
0 0 250
0 0 254
0 0 255
0 0 254
0 0 254
0 0 254
0 0 254
0 0 254
0 0 254
0 0 254
0 0 252
0 0 249
0 0 254
0 0 255
0 0 253
0 0 253
0 0 254
0 0 252
0 0 253
0 0 254
0 0 253
0 0 254
0 0 252
0 0 250
0 0 254
0 0 255
0 0 252
0 0 255
0 0 248
0 0 250
0 0 252
0 0 254
0 0 250
0 0 254
0 0 250
0 0 255
0 0 252
0 0 255
0 0 252
0 0 250
0 0 252
0 0 255
0 0 252
0 0 252
0 0 253
0 0 253
0 0 252
0 0 248
0 0 252
0 0 253
0 0 248
0 0 252
0 0 249
0 0 248
0 0 250
0 0 252
0 0 252
0 0 253
0 0 252
0 0 250
0 0 246
0 0 248
0 0 249
0 0 245
0 0 248
0 0 249
0 0 246
0 0 244
0 0 252
0 0 250
0 0 249
0 0 249
0 0 249
0 0 248
0 0 248
0 0 250
0 0 249
0 0 248
0 0 244
0 0 242
0 0 241
0 0 248
0 0 249
0 0 242
0 0 249
0 0 244
0 0 245
0 0 242
0 0 244
0 0 241
0 0 244
0 0 249
0 0 246
0 0 242
0 0 245
0 0 236
0 0 244
0 0 242
0 0 244
0 0 245
0 0 240
0 0 241
0 0 242
0 0 244
0 0 237
0 0 245
0 0 241
0 0 241
0 0 242
0 0 241
0 0 237
0 0 244
0 0 241
0 0 233
0 0 238
0 0 228
0 0 244
0 0 238
0 0 238
0 0 230
0 0 231
0 0 238
0 0 240
0 0 238
0 0 227
0 0 227
0 0 226
0 0 227
161 166 236
238 245 255
238 245 255
238 245 255
238 245 255
238 245 255
238 245 255
238 245 255
238 245 255
238 245 255
238 245 255
238 245 255
238 245 255
238 245 255
238 245 255
238 245 255
238 245 255
238 245 255
238 245 255
238 245 255
238 245 255
238 245 255
238 245 255
238 245 255
238 245 255
238 245 255
238 245 255
238 245 255
238 245 255
238 245 255
238 245 255
238 245 255
238 245 255
238 245 255
238 245 255
238 245 255
238 245 255
238 245 255
238 245 255
238 245 255
238 245 255
238 245 255
238 245 255
238 245 255
238 245 255
238 245 255
238 245 255
238 245 255
238 245 255
238 245 255
238 245 255
226 155 161
217 0 0
214 0 0
222 0 0
221 0 0
209 0 0
214 0 0
213 0 0
215 0 0
221 0 0
212 0 0
212 0 0
228 0 0
218 0 0
207 0 0
222 0 0
222 0 0
218 0 0
218 0 0
207 0 0
218 0 0
217 0 0
215 0 0
216 0 0
220 0 0
217 0 0
218 0 0
214 0 0
215 0 0
222 0 0
220 0 0
220 0 0
224 0 0
214 0 0
220 0 0
219 0 0
221 0 0
224 0 0
223 0 0
226 0 0
222 0 0
221 0 0
223 0 0
229 0 0
224 0 0
224 0 0
221 0 0
220 0 0
225 0 0
224 0 0
226 0 0
223 0 0
222 0 0
228 0 0
224 0 0
228 0 0
220 0 0
226 0 0
222 0 0
214 0 0
223 0 0
226 0 0
220 0 0
229 0 0
227 0 0
222 0 0
226 0 0
224 0 0
222 0 0
222 0 0
226 0 0
223 0 0
222 0 0
218 0 0
226 0 0
229 0 0
230 0 0
225 0 0
222 0 0
229 0 0
226 0 0
226 0 0
225 0 0
220 0 0
230 0 0
221 0 0
227 0 0
223 0 0
230 0 0
224 0 0
226 0 0
230 0 0
226 0 0
224 0 0
230 0 0
227 0 0
226 0 0
228 0 0
225 0 0
223 0 0
229 0 0
223 0 0
228 0 0
225 0 0
227 0 0
226 0 0
227 0 0
224 0 0
229 0 0
226 0 0
228 0 0
222 0 0
221 0 0
226 0 0
224 0 0
227 0 0
227 0 0
227 0 0
227 0 0
224 0 0
224 0 0
225 0 0
229 0 0
227 0 0
225 0 0
227 0 0
227 0 0
229 0 0
226 0 0
224 0 0
228 0 0
225 0 0
227 0 0
230 0 0
229 0 0
222 0 0
227 0 0
230 0 0
228 0 0
227 0 0
227 0 0
225 0 0
228 0 0
226 0 0
228 0 0
222 0 0
230 0 0
228 0 0
228 0 0
225 0 0
226 0 0
225 0 0
224 0 0
227 0 0
228 0 0
227 0 0
227 0 0
222 0 0
228 0 0
224 0 0
225 0 0
226 0 0
227 0 0
226 0 0
226 0 0
225 0 0
229 0 0
229 0 0
227 0 0
231 0 0
227 0 0
227 0 0
229 0 0
229 0 0
229 0 0
0 0 255
0 0 255
0 0 254
0 0 255
0 0 255
0 0 255
0 0 255
0 0 255
0 0 255
0 0 254
0 0 255
0 0 255
0 0 255
0 0 255
0 0 255
0 0 255
0 0 255
0 0 255
0 0 254
0 0 255
0 0 254
0 0 255
0 0 254
0 0 255
0 0 254
0 0 254
0 0 255
0 0 255
0 0 255
0 0 254
0 0 255
0 0 254
0 0 255
0 0 255
0 0 255
0 0 255
0 0 255
0 0 255
0 0 254
0 0 255
0 0 253
0 0 255
0 0 254
0 0 255
0 0 254
0 0 254
0 0 255
0 0 255
0 0 253
0 0 252
0 0 254
0 0 252
0 0 253
0 0 252
0 0 254
0 0 253
0 0 253
0 0 253
0 0 254
0 0 255
0 0 253
0 0 252
0 0 250
0 0 255
0 0 254
0 0 255
0 0 255
0 0 254
0 0 252
0 0 255
0 0 255
0 0 252
0 0 253
0 0 250
0 0 254
0 0 254
0 0 255
0 0 254
0 0 253
0 0 253
0 0 253
0 0 254
0 0 255
0 0 250
0 0 254
0 0 250
0 0 250
0 0 254
0 0 252
0 0 249
0 0 253
0 0 253
0 0 253
0 0 250
0 0 252
0 0 250
0 0 248
0 0 253
0 0 254
0 0 249
0 0 249
0 0 249
0 0 254
0 0 250
0 0 248
0 0 253
0 0 250
0 0 252
0 0 252
0 0 246
0 0 253
0 0 252
0 0 248
0 0 253
0 0 252
0 0 246
0 0 250
0 0 245
0 0 253
0 0 250
0 0 242
0 0 246
0 0 244
0 0 250
0 0 245
0 0 245
0 0 253
0 0 242
0 0 250
0 0 248
0 0 245
0 0 245
0 0 241
0 0 252
0 0 245
0 0 242
0 0 245
0 0 248
0 0 244
0 0 245
0 0 228
0 0 242
0 0 244
0 0 241
0 0 238
0 0 240
0 0 237
0 0 245
0 0 241
0 0 240
0 0 227
0 0 244
0 0 237
0 0 231
0 0 240
0 0 236
0 0 237
0 0 242
0 0 238
0 0 240
0 0 240
0 0 228
0 0 237
0 0 227
0 0 238
0 0 237
0 0 242
0 0 230
0 0 234
0 0 236
0 0 234
0 0 230
0 0 228
150 155 245
236 243 255
238 245 255
238 245 255
238 245 255
238 245 255
238 245 255
238 245 255
238 245 255
238 245 255
238 245 255
238 245 255
238 245 255
238 245 255
238 245 255
238 245 255
238 245 255
238 245 255
238 245 255
238 245 255
238 245 255
238 245 255
238 245 255
238 245 255
238 245 255
238 245 255
238 245 255
238 245 255
238 245 255
238 245 255
238 245 255
238 245 255
238 245 255
238 245 255
238 245 255
238 245 255
238 245 255
238 245 255
238 245 255
238 245 255
238 245 255
238 245 255
238 245 255
238 245 255
238 245 255
238 245 255
238 245 255
238 245 255
238 245 255
238 245 255
238 245 255
238 245 255
238 245 255
229 143 149
213 0 0
216 0 0
214 0 0
209 0 0
215 0 0
214 0 0
218 0 0
217 0 0
215 0 0
205 0 0
219 0 0
214 0 0
218 0 0
217 0 0
218 0 0
216 0 0
210 0 0
220 0 0
223 0 0
218 0 0
217 0 0
210 0 0
221 0 0
222 0 0
216 0 0
220 0 0
212 0 0
221 0 0
219 0 0
225 0 0
223 0 0
223 0 0
225 0 0
220 0 0
224 0 0
221 0 0
222 0 0
227 0 0
208 0 0
228 0 0
223 0 0
226 0 0
228 0 0
218 0 0
225 0 0
227 0 0
219 0 0
224 0 0
222 0 0
221 0 0
224 0 0
225 0 0
223 0 0
223 0 0
228 0 0
226 0 0
224 0 0
226 0 0
222 0 0
222 0 0
229 0 0
225 0 0
225 0 0
227 0 0
221 0 0
227 0 0
223 0 0
225 0 0
222 0 0
227 0 0
230 0 0
224 0 0
225 0 0
232 0 0
228 0 0
225 0 0
229 0 0
230 0 0
224 0 0
222 0 0
221 0 0
227 0 0
230 0 0
221 0 0
224 0 0
230 0 0
228 0 0
230 0 0
228 0 0
231 0 0
224 0 0
225 0 0
224 0 0
229 0 0
226 0 0
225 0 0
224 0 0
223 0 0
225 0 0
231 0 0
228 0 0
225 0 0
220 0 0
226 0 0
226 0 0
229 0 0
230 0 0
223 0 0
226 0 0
227 0 0
227 0 0
226 0 0
224 0 0
223 0 0
225 0 0
229 0 0
225 0 0
225 0 0
228 0 0
226 0 0
229 0 0
225 0 0
229 0 0
220 0 0
225 0 0
225 0 0
228 0 0
233 0 0
225 0 0
228 0 0
228 0 0
223 0 0
230 0 0
228 0 0
227 0 0
226 0 0
226 0 0
229 0 0
225 0 0
227 0 0
225 0 0
226 0 0
230 0 0
227 0 0
223 0 0
224 0 0
226 0 0
224 0 0
230 0 0
228 0 0
228 0 0
228 0 0
227 0 0
228 0 0
224 0 0
225 0 0
229 0 0
229 0 0
227 0 0
226 0 0
228 0 0
225 0 0
227 0 0
223 0 0
224 0 0
229 0 0
228 0 0
230 0 0
229 0 0
227 0 0
231 0 0
225 0 0
227 0 0
0 0 255
0 0 255
0 0 254
0 0 255
0 0 255
0 0 254
0 0 255
0 0 255
0 0 255
0 0 252
0 0 254
0 0 254
0 0 255
0 0 255
0 0 254
0 0 255
0 0 255
0 0 254
0 0 255
0 0 255
0 0 253
0 0 255
0 0 254
0 0 255
0 0 255
0 0 253
0 0 255
0 0 255
0 0 253
0 0 255
0 0 255
0 0 253
0 0 255
0 0 255
0 0 255
0 0 254
0 0 253
0 0 255
0 0 252
0 0 254
0 0 253
0 0 253
0 0 253
0 0 255
0 0 254
0 0 254
0 0 255
0 0 254
0 0 250
0 0 254
0 0 255
0 0 255
0 0 255
0 0 252
0 0 253
0 0 250
0 0 254
0 0 254
0 0 252
0 0 253
0 0 252
0 0 254
0 0 254
0 0 254
0 0 252
0 0 254
0 0 253
0 0 253
0 0 254
0 0 254
0 0 254
0 0 253
0 0 254
0 0 248
0 0 253
0 0 253
0 0 254
0 0 252
0 0 255
0 0 253
0 0 253
0 0 252
0 0 248
0 0 252
0 0 254
0 0 252
0 0 250
0 0 252
0 0 248
0 0 252
0 0 253
0 0 252
0 0 249
0 0 250
0 0 253
0 0 253
0 0 246
0 0 253
0 0 250
0 0 253
0 0 248
0 0 249
0 0 250
0 0 254
0 0 249
0 0 248
0 0 250
0 0 249
0 0 246
0 0 254
0 0 245
0 0 246
0 0 246
0 0 252
0 0 252
0 0 249
0 0 250
0 0 252
0 0 245
0 0 253
0 0 248
0 0 249
0 0 253
0 0 248
0 0 252
0 0 248
0 0 248
0 0 252
0 0 250
0 0 245
0 0 245
0 0 249
0 0 238
0 0 242
0 0 242
0 0 246
0 0 246
0 0 242
0 0 241
0 0 249
0 0 237
0 0 244
0 0 237
0 0 245
0 0 248
0 0 240
0 0 238
0 0 240
0 0 240
0 0 238
0 0 240
0 0 241
0 0 245
0 0 237
0 0 238
0 0 240
0 0 233
0 0 240
0 0 233
0 0 237
0 0 242
0 0 238
0 0 241
0 0 234
0 0 241
0 0 236
0 0 238
0 0 244
0 0 227
0 0 236
0 0 224
0 0 233
116 120 244
236 243 254
238 245 255
238 245 255
238 245 255
238 245 255
238 245 255
238 245 255
238 245 255
238 245 255
238 245 255
238 245 255
238 245 255
238 245 255
238 245 255
238 245 255
239 245 255
239 245 255
239 245 255
239 245 255
239 245 255
239 245 255
239 245 255
239 245 255
239 245 255
239 245 255
239 245 255
239 245 255
239 245 255
239 245 255
239 245 255
239 245 255
239 245 255
239 245 255
239 245 255
239 245 255
239 245 255
239 245 255
239 245 255
239 245 255
239 245 255
238 245 255
238 245 255
238 245 255
238 245 255
238 245 255
238 245 255
238 245 255
238 245 255
238 245 255
238 245 255
238 245 255
238 245 255
238 245 255
238 244 254
227 147 153
216 0 0
216 0 0
206 0 0
217 0 0
219 0 0
212 0 0
221 0 0
229 0 0
207 0 0
217 0 0
221 0 0
217 0 0
218 0 0
224 0 0
221 0 0
217 0 0
217 0 0
227 0 0
220 0 0
219 0 0
225 0 0
224 0 0
229 0 0
225 0 0
226 0 0
223 0 0
218 0 0
220 0 0
213 0 0
223 0 0
223 0 0
224 0 0
222 0 0
227 0 0
223 0 0
223 0 0
221 0 0
222 0 0
223 0 0
226 0 0
215 0 0
222 0 0
225 0 0
223 0 0
223 0 0
225 0 0
221 0 0
221 0 0
216 0 0
228 0 0
223 0 0
225 0 0
225 0 0
221 0 0
224 0 0
223 0 0
227 0 0
227 0 0
228 0 0
231 0 0
225 0 0
223 0 0
224 0 0
220 0 0
223 0 0
222 0 0
225 0 0
221 0 0
227 0 0
226 0 0
229 0 0
225 0 0
223 0 0
225 0 0
230 0 0
224 0 0
227 0 0
226 0 0
221 0 0
225 0 0
226 0 0
224 0 0
228 0 0
227 0 0
230 0 0
228 0 0
228 0 0
224 0 0
229 0 0
226 0 0
225 0 0
225 0 0
228 0 0
229 0 0
223 0 0
227 0 0
227 0 0
224 0 0
228 0 0
228 0 0
227 0 0
228 0 0
228 0 0
225 0 0
228 0 0
228 0 0
223 0 0
223 0 0
227 0 0
229 0 0
230 0 0
226 0 0
226 0 0
229 0 0
226 0 0
223 0 0
227 0 0
229 0 0
227 0 0
227 0 0
225 0 0
227 0 0
230 0 0
224 0 0
227 0 0
229 0 0
226 0 0
226 0 0
227 0 0
230 0 0
225 0 0
227 0 0
226 0 0
230 0 0
225 0 0
226 0 0
229 0 0
227 0 0
229 0 0
228 0 0
226 0 0
232 0 0
228 0 0
227 0 0
226 0 0
228 0 0
228 0 0
231 0 0
224 0 0
230 0 0
227 0 0
229 0 0
227 0 0
228 0 0
226 0 0
225 0 0
225 0 0
227 0 0
225 0 0
230 0 0
227 0 0
226 0 0
225 0 0
230 0 0
228 0 0
226 0 0
230 0 0
227 0 0
225 0 0
224 0 0
228 0 0
227 0 0
0 0 255
0 0 255
0 0 255
0 0 255
0 0 255
0 0 253
0 0 255
0 0 255
0 0 255
0 0 254
0 0 255
0 0 255
0 0 254
0 0 254
0 0 255
0 0 255
0 0 255
0 0 255
0 0 254
0 0 255
0 0 254
0 0 255
0 0 254
0 0 255
0 0 255
0 0 255
0 0 255
0 0 254
0 0 254
0 0 254
0 0 254
0 0 253
0 0 255
0 0 255
0 0 254
0 0 255
0 0 255
0 0 254
0 0 255
0 0 255
0 0 254
0 0 254
0 0 254
0 0 254
0 0 254
0 0 253
0 0 254
0 0 253
0 0 254
0 0 253
0 0 254
0 0 255
0 0 255
0 0 252
0 0 253
0 0 254
0 0 255
0 0 253
0 0 254
0 0 255
0 0 255
0 0 253
0 0 250
0 0 254
0 0 254
0 0 254
0 0 254
0 0 252
0 0 252
0 0 252
0 0 255
0 0 254
0 0 253
0 0 255
0 0 254
0 0 250
0 0 255
0 0 254
0 0 253
0 0 254
0 0 253
0 0 250
0 0 253
0 0 250
0 0 253
0 0 254
0 0 249
0 0 253
0 0 249
0 0 254
0 0 249
0 0 254
0 0 250
0 0 248
0 0 252
0 0 244
0 0 249
0 0 246
0 0 252
0 0 252
0 0 248
0 0 252
0 0 254
0 0 250
0 0 253
0 0 249
0 0 249
0 0 249
0 0 253
0 0 245
0 0 244
0 0 242
0 0 249
0 0 248
0 0 249
0 0 246
0 0 245
0 0 241
0 0 249
0 0 249
0 0 253
0 0 252
0 0 245
0 0 245
0 0 241
0 0 248
0 0 246
0 0 250
0 0 245
0 0 249
0 0 241
0 0 250
0 0 241
0 0 238
0 0 252
0 0 245
0 0 248
0 0 252
0 0 245
0 0 245
0 0 241
0 0 249
0 0 248
0 0 236
0 0 245
0 0 241
0 0 242
0 0 240
0 0 244
0 0 242
0 0 242
0 0 238
0 0 248
0 0 237
0 0 240
0 0 238
0 0 242
0 0 238
0 0 231
0 0 236
0 0 242
0 0 238
0 0 242
0 0 233
0 0 233
0 0 233
0 0 238
0 0 237
0 0 234
0 0 230
0 0 244
121 125 245
234 240 255
238 245 255
238 245 255
238 245 255
239 245 255
239 245 255
239 245 255
239 245 255
239 245 255
239 246 255
239 246 255
239 246 255
239 246 255
239 246 255
239 246 255
239 246 255
239 246 255
239 246 255
239 246 255
239 246 255
239 246 255
239 246 255
239 246 255
239 246 255
239 246 255
239 246 255
239 246 255
239 246 255
239 246 255
239 246 255
239 246 255
239 246 255
239 246 255
239 246 255
239 246 255
239 246 255
239 246 255
239 246 255
239 246 255
239 246 255
239 246 255
239 246 255
239 246 255
239 246 255
239 246 255
239 246 255
239 246 255
239 245 255
239 245 255
239 245 255
239 245 255
239 245 255
238 245 255
238 245 255
238 245 255
237 242 252
232 139 144
224 0 0
220 0 0
207 0 0
222 0 0
222 0 0
217 0 0
221 0 0
218 0 0
212 0 0
213 0 0
215 0 0
222 0 0
224 0 0
217 0 0
213 0 0
223 0 0
223 0 0
220 0 0
224 0 0
216 0 0
220 0 0
221 0 0
224 0 0
222 0 0
220 0 0
224 0 0
221 0 0
220 0 0
227 0 0
228 0 0
218 0 0
223 0 0
227 0 0
224 0 0
225 0 0
225 0 0
222 0 0
227 0 0
224 0 0
231 0 0
225 0 0
224 0 0
218 0 0
227 0 0
226 0 0
224 0 0
221 0 0
222 0 0
222 0 0
228 0 0
224 0 0
229 0 0
228 0 0
219 0 0
228 0 0
224 0 0
226 0 0
228 0 0
226 0 0
223 0 0
223 0 0
225 0 0
219 0 0
221 0 0
228 0 0
223 0 0
224 0 0
229 0 0
220 0 0
225 0 0
222 0 0
224 0 0
228 0 0
227 0 0
228 0 0
224 0 0
224 0 0
225 0 0
229 0 0
229 0 0
226 0 0
231 0 0
228 0 0
228 0 0
227 0 0
225 0 0
225 0 0
228 0 0
229 0 0
228 0 0
225 0 0
229 0 0
226 0 0
229 0 0
226 0 0
228 0 0
228 0 0
230 0 0
228 0 0
226 0 0
230 0 0
228 0 0
228 0 0
227 0 0
228 0 0
226 0 0
228 0 0
227 0 0
229 0 0
229 0 0
232 0 0
225 0 0
223 0 0
227 0 0
227 0 0
229 0 0
224 0 0
230 0 0
226 0 0
229 0 0
225 0 0
228 0 0
230 0 0
224 0 0
226 0 0
227 0 0
227 0 0
230 0 0
226 0 0
227 0 0
225 0 0
230 0 0
226 0 0
227 0 0
225 0 0
230 0 0
227 0 0
230 0 0
228 0 0
230 0 0
226 0 0
226 0 0
227 0 0
227 0 0
228 0 0
228 0 0
227 0 0
230 0 0
227 0 0
228 0 0
226 0 0
226 0 0
227 0 0
229 0 0
226 0 0
226 0 0
227 0 0
227 0 0
229 0 0
228 0 0
226 0 0
226 0 0
225 0 0
224 0 0
226 0 0
227 0 0
227 0 0
228 0 0
231 0 0
229 0 0
225 0 0
0 0 254
0 0 255
0 0 255
0 0 254
0 0 255
0 0 255
0 0 255
0 0 255
0 0 255
0 0 255
0 0 255
0 0 255
0 0 255
0 0 254
0 0 253
0 0 255
0 0 255
0 0 253
0 0 255
0 0 255
0 0 254
0 0 255
0 0 255
0 0 255
0 0 255
0 0 253
0 0 255
0 0 254
0 0 255
0 0 255
0 0 255
0 0 255
0 0 255
0 0 253
0 0 255
0 0 254
0 0 254
0 0 254
0 0 255
0 0 255
0 0 254
0 0 255
0 0 255
0 0 254
0 0 254
0 0 255
0 0 255
0 0 254
0 0 255
0 0 255
0 0 255
0 0 254
0 0 255
0 0 254
0 0 252
0 0 253
0 0 254
0 0 254
0 0 254
0 0 254
0 0 253
0 0 253
0 0 255
0 0 254
0 0 255
0 0 255
0 0 249
0 0 252
0 0 252
0 0 253
0 0 255
0 0 253
0 0 252
0 0 253
0 0 254
0 0 252
0 0 253
0 0 254
0 0 252
0 0 254
0 0 255
0 0 253
0 0 253
0 0 246
0 0 249
0 0 254
0 0 253
0 0 250
0 0 253
0 0 252
0 0 249
0 0 253
0 0 253
0 0 255
0 0 252
0 0 253
0 0 250
0 0 253
0 0 249
0 0 252
0 0 249
0 0 249
0 0 246
0 0 252
0 0 250
0 0 250
0 0 252
0 0 249
0 0 250
0 0 252
0 0 249
0 0 249
0 0 254
0 0 250
0 0 253
0 0 248
0 0 246
0 0 242
0 0 248
0 0 252
0 0 246
0 0 252
0 0 246
0 0 252
0 0 249
0 0 250
0 0 244
0 0 250
0 0 245
0 0 248
0 0 245
0 0 244
0 0 248
0 0 246
0 0 242
0 0 242
0 0 248
0 0 244
0 0 246
0 0 246
0 0 242
0 0 250
0 0 241
0 0 248
0 0 246
0 0 246
0 0 240
0 0 242
0 0 245
0 0 238
0 0 237
0 0 250
0 0 245
0 0 241
0 0 238
0 0 244
0 0 236
0 0 241
0 0 240
0 0 240
0 0 236
0 0 242
0 0 240
0 0 233
0 0 230
0 0 236
0 0 238
0 0 233
0 0 230
0 0 238
130 134 244
235 242 255
239 246 255
239 246 255
239 246 255
239 246 255
239 246 255
239 246 255
239 246 255
239 246 255
239 246 255
239 246 255
239 246 255
239 246 255
239 246 255
239 246 255
239 246 255
239 246 255
239 246 255
239 246 255
239 246 255
239 246 255
239 246 255
239 246 255
239 246 255
239 246 255
239 246 255
239 246 255
239 246 255
239 246 255
239 246 255
239 246 255
239 246 255
239 246 255
239 246 255
239 246 255
239 246 255
239 246 255
239 246 255
239 246 255
239 246 255
239 246 255
239 246 255
239 246 255
239 246 255
239 246 255
239 246 255
239 246 255
239 246 255
239 246 255
239 246 255
239 246 255
239 246 255
239 246 255
239 246 255
239 246 255
239 246 255
239 246 255
237 238 248
221 136 142
214 0 0
224 0 0
223 0 0
228 0 0
215 0 0
218 0 0
220 0 0
211 0 0
228 0 0
220 0 0
211 0 0
224 0 0
218 0 0
219 0 0
222 0 0
225 0 0
224 0 0
227 0 0
222 0 0
214 0 0
218 0 0
229 0 0
224 0 0
223 0 0
230 0 0
222 0 0
226 0 0
229 0 0
225 0 0
222 0 0
223 0 0
223 0 0
217 0 0
216 0 0
216 0 0
225 0 0
226 0 0
219 0 0
224 0 0
222 0 0
218 0 0
223 0 0
220 0 0
223 0 0
224 0 0
218 0 0
230 0 0
230 0 0
226 0 0
232 0 0
219 0 0
226 0 0
222 0 0
223 0 0
227 0 0
224 0 0
226 0 0
223 0 0
224 0 0
225 0 0
232 0 0
228 0 0
227 0 0
222 0 0
219 0 0
227 0 0
225 0 0
225 0 0
220 0 0
223 0 0
229 0 0
227 0 0
226 0 0
229 0 0
229 0 0
230 0 0
229 0 0
224 0 0
227 0 0
226 0 0
223 0 0
229 0 0
223 0 0
223 0 0
227 0 0
226 0 0
226 0 0
226 0 0
225 0 0
229 0 0
222 0 0
226 0 0
225 0 0
224 0 0
226 0 0
231 0 0
227 0 0
228 0 0
227 0 0
225 0 0
229 0 0
228 0 0
230 0 0
228 0 0
229 0 0
230 0 0
229 0 0
229 0 0
229 0 0
231 0 0
229 0 0
228 0 0
226 0 0
226 0 0
226 0 0
230 0 0
227 0 0
222 0 0
228 0 0
228 0 0
225 0 0
226 0 0
231 0 0
226 0 0
230 0 0
227 0 0
227 0 0
227 0 0
229 0 0
227 0 0
228 0 0
227 0 0
225 0 0
230 0 0
229 0 0
227 0 0
228 0 0
229 0 0
226 0 0
228 0 0
225 0 0
227 0 0
226 0 0
229 0 0
230 0 0
228 0 0
228 0 0
229 0 0
227 0 0
226 0 0
225 0 0
227 0 0
231 0 0
224 0 0
225 0 0
229 0 0
229 0 0
227 0 0
229 0 0
230 0 0
232 0 0
228 0 0
228 0 0
228 0 0
229 0 0
227 0 0
227 0 0
227 0 0
225 0 0
229 0 0
0 0 255
0 0 255
0 0 255
0 0 255
0 0 255
0 0 255
0 0 255
0 0 255
0 0 255
0 0 255
0 0 254
0 0 255
0 0 254
0 0 254
0 0 255
0 0 254
0 0 255
0 0 254
0 0 255
0 0 255
0 0 254
0 0 255
0 0 255
0 0 253
0 0 254
0 0 254
0 0 255
0 0 255
0 0 254
0 0 253
0 0 255
0 0 253
0 0 255
0 0 255
0 0 255
0 0 252
0 0 254
0 0 254
0 0 255
0 0 254
0 0 255
0 0 255
0 0 255
0 0 253
0 0 254
0 0 255
0 0 252
0 0 253
0 0 252
0 0 253
0 0 250
0 0 249
0 0 255
0 0 253
0 0 253
0 0 255
0 0 255
0 0 254
0 0 253
0 0 252
0 0 253
0 0 252
0 0 253
0 0 253
0 0 253
0 0 255
0 0 253
0 0 254
0 0 248
0 0 252
0 0 252
0 0 254
0 0 254
0 0 253
0 0 254
0 0 255
0 0 252
0 0 253
0 0 254
0 0 253
0 0 250
0 0 253
0 0 250
0 0 254
0 0 254
0 0 250
0 0 253
0 0 255
0 0 252
0 0 253
0 0 253
0 0 250
0 0 253
0 0 248
0 0 252
0 0 250
0 0 252
0 0 255
0 0 253
0 0 254
0 0 250
0 0 252
0 0 252
0 0 248
0 0 245
0 0 252
0 0 250
0 0 250
0 0 250
0 0 246
0 0 249
0 0 253
0 0 253
0 0 253
0 0 250
0 0 249
0 0 250
0 0 252
0 0 253
0 0 248
0 0 246
0 0 250
0 0 248
0 0 248
0 0 249
0 0 245
0 0 248
0 0 248
0 0 250
0 0 246
0 0 237
0 0 248
0 0 248
0 0 249
0 0 246
0 0 245
0 0 246
0 0 242
0 0 245
0 0 248
0 0 245
0 0 245
0 0 245
0 0 241
0 0 240
0 0 245
0 0 250
0 0 245
0 0 246
0 0 245
0 0 234
0 0 231
0 0 242
0 0 234
0 0 237
0 0 234
0 0 233
0 0 242
0 0 245
0 0 226
0 0 230
0 0 233
0 0 244
0 0 238
0 0 238
0 0 234
0 0 236
0 0 224
0 0 240
112 115 244
236 243 255
239 246 255
239 246 255
239 246 255
239 246 255
239 246 255
239 246 255
239 246 255
239 246 255
239 246 255
239 246 255
239 246 255
239 246 255
239 246 255
239 246 255
239 246 255
239 246 255
239 246 255
239 246 255
239 246 255
239 246 255
239 246 255
239 246 255
239 246 255
239 246 255
239 246 255
239 246 255
239 246 255
239 246 255
239 246 255
239 246 255
239 246 255
239 246 255
239 246 255
239 246 255
239 246 255
239 246 255
239 246 255
239 246 255
239 246 255
239 246 255
239 246 255
239 246 255
239 246 255
239 246 255
239 246 255
239 246 255
239 246 255
239 246 255
239 246 255
239 246 255
239 246 255
239 246 255
239 246 255
239 246 255
239 246 255
239 246 255
239 246 255
239 246 255
239 242 252
217 125 130
219 0 0
218 0 0
218 0 0
221 0 0
227 0 0
219 0 0
223 0 0
218 0 0
225 0 0
213 0 0
223 0 0
220 0 0
215 0 0
223 0 0
216 0 0
225 0 0
221 0 0
219 0 0
217 0 0
225 0 0
220 0 0
220 0 0
219 0 0
229 0 0
227 0 0
228 0 0
215 0 0
216 0 0
226 0 0
225 0 0
223 0 0
216 0 0
221 0 0
219 0 0
224 0 0
226 0 0
225 0 0
222 0 0
226 0 0
223 0 0
223 0 0
228 0 0
222 0 0
219 0 0
224 0 0
223 0 0
228 0 0
226 0 0
218 0 0
226 0 0
226 0 0
230 0 0
228 0 0
227 0 0
222 0 0
230 0 0
227 0 0
226 0 0
220 0 0
227 0 0
216 0 0
227 0 0
224 0 0
222 0 0
231 0 0
227 0 0
228 0 0
223 0 0
223 0 0
226 0 0
225 0 0
226 0 0
224 0 0
225 0 0
227 0 0
225 0 0
228 0 0
228 0 0
223 0 0
224 0 0
225 0 0
229 0 0
224 0 0
228 0 0
226 0 0
226 0 0
229 0 0
222 0 0
225 0 0
225 0 0
224 0 0
228 0 0
230 0 0
228 0 0
231 0 0
228 0 0
229 0 0
225 0 0
229 0 0
227 0 0
228 0 0
229 0 0
228 0 0
226 0 0
225 0 0
226 0 0
225 0 0
222 0 0
229 0 0
226 0 0
228 0 0
226 0 0
228 0 0
229 0 0
228 0 0
225 0 0
223 0 0
225 0 0
227 0 0
229 0 0
228 0 0
230 0 0
226 0 0
227 0 0
227 0 0
232 0 0
229 0 0
229 0 0
226 0 0
230 0 0
228 0 0
229 0 0
224 0 0
232 0 0
225 0 0
229 0 0
229 0 0
227 0 0
227 0 0
223 0 0
226 0 0
228 0 0
225 0 0
229 0 0
229 0 0
231 0 0
232 0 0
226 0 0
228 0 0
229 0 0
229 0 0
228 0 0
228 0 0
231 0 0
225 0 0
227 0 0
228 0 0
228 0 0
226 0 0
228 0 0
226 0 0
226 0 0
226 0 0
228 0 0
227 0 0
229 0 0
229 0 0
225 0 0
227 0 0
0 0 255
0 0 255
0 0 255
0 0 255
0 0 255
0 0 255
0 0 255
0 0 254
0 0 255
0 0 255
0 0 255
0 0 253
0 0 255
0 0 254
0 0 255
0 0 255
0 0 255
0 0 255
0 0 255
0 0 254
0 0 255
0 0 255
0 0 254
0 0 255
0 0 254
0 0 255
0 0 254
0 0 253
0 0 254
0 0 255
0 0 254
0 0 254
0 0 255
0 0 255
0 0 254
0 0 253
0 0 254
0 0 254
0 0 255
0 0 254
0 0 255
0 0 255
0 0 255
0 0 254
0 0 255
0 0 255
0 0 254
0 0 255
0 0 254
0 0 254
0 0 254
0 0 253
0 0 255
0 0 254
0 0 252
0 0 253
0 0 254
0 0 255
0 0 253
0 0 253
0 0 253
0 0 255
0 0 255
0 0 253
0 0 253
0 0 253
0 0 254
0 0 255
0 0 253
0 0 252
0 0 254
0 0 250
0 0 252
0 0 255
0 0 253
0 0 255
0 0 253
0 0 255
0 0 246
0 0 252
0 0 255
0 0 252
0 0 250
0 0 253
0 0 252
0 0 248
0 0 252
0 0 250
0 0 252
0 0 248
0 0 253
0 0 254
0 0 252
0 0 246
0 0 254
0 0 252
0 0 250
0 0 250
0 0 242
0 0 249
0 0 252
0 0 252
0 0 254
0 0 249
0 0 250
0 0 254
0 0 249
0 0 248
0 0 244
0 0 245
0 0 250
0 0 252
0 0 253
0 0 245
0 0 250
0 0 249
0 0 246
0 0 250
0 0 254
0 0 252
0 0 246
0 0 248
0 0 248
0 0 249
0 0 250
0 0 241
0 0 246
0 0 249
0 0 245
0 0 244
0 0 244
0 0 250
0 0 242
0 0 244
0 0 246
0 0 246
0 0 245
0 0 244
0 0 244
0 0 237
0 0 246
0 0 252
0 0 245
0 0 245
0 0 245
0 0 236
0 0 245
0 0 238
0 0 241
0 0 250
0 0 231
0 0 238
0 0 242
0 0 245
0 0 238
0 0 241
0 0 240
0 0 238
0 0 240
0 0 238
0 0 236
0 0 240
0 0 236
0 0 231
0 0 236
0 0 230
0 0 238
0 0 242
131 134 244
234 241 255
239 246 255
239 246 255
239 246 255
239 246 255
239 246 255
239 246 255
239 246 255
239 246 255
239 246 255
239 246 255
239 246 255
239 246 255
239 246 255
239 246 255
239 246 255
239 246 255
239 246 255
239 246 255
239 246 255
239 246 255
239 246 255
239 246 255
239 246 255
239 246 255
239 246 255
239 246 255
239 246 255
239 246 255
239 246 255
239 246 255
239 246 255
239 246 255
239 246 255
239 246 255
239 246 255
239 246 255
239 246 255
239 246 255
239 246 255
239 246 255
239 246 255
239 246 255
239 246 255
239 246 255
239 246 255
239 246 255
239 246 255
239 246 255
239 246 255
239 246 255
239 246 255
239 246 255
239 246 255
239 246 255
239 246 255
239 246 255
239 246 255
239 246 255
239 246 255
239 246 255
238 243 253
231 137 142
222 0 0
227 0 0
220 0 0
222 0 0
220 0 0
217 0 0
215 0 0
226 0 0
219 0 0
227 0 0
223 0 0
216 0 0
225 0 0
223 0 0
223 0 0
223 0 0
225 0 0
218 0 0
221 0 0
223 0 0
225 0 0
220 0 0
225 0 0
231 0 0
221 0 0
222 0 0
219 0 0
216 0 0
224 0 0
216 0 0
224 0 0
229 0 0
220 0 0
225 0 0
222 0 0
228 0 0
227 0 0
221 0 0
224 0 0
229 0 0
219 0 0
226 0 0
226 0 0
223 0 0
226 0 0
225 0 0
228 0 0
224 0 0
229 0 0
223 0 0
225 0 0
227 0 0
220 0 0
221 0 0
222 0 0
224 0 0
225 0 0
224 0 0
226 0 0
230 0 0
230 0 0
229 0 0
225 0 0
223 0 0
225 0 0
229 0 0
223 0 0
222 0 0
228 0 0
223 0 0
224 0 0
224 0 0
230 0 0
224 0 0
226 0 0
226 0 0
224 0 0
223 0 0
228 0 0
223 0 0
224 0 0
231 0 0
227 0 0
229 0 0
226 0 0
228 0 0
226 0 0
228 0 0
223 0 0
224 0 0
225 0 0
222 0 0
227 0 0
227 0 0
229 0 0
226 0 0
229 0 0
225 0 0
223 0 0
227 0 0
229 0 0
227 0 0
231 0 0
225 0 0
227 0 0
222 0 0
231 0 0
229 0 0
228 0 0
221 0 0
226 0 0
232 0 0
225 0 0
230 0 0
229 0 0
227 0 0
227 0 0
229 0 0
227 0 0
227 0 0
230 0 0
227 0 0
226 0 0
226 0 0
228 0 0
225 0 0
227 0 0
230 0 0
227 0 0
226 0 0
226 0 0
225 0 0
224 0 0
231 0 0
226 0 0
227 0 0
227 0 0
230 0 0
227 0 0
227 0 0
230 0 0
226 0 0
229 0 0
227 0 0
224 0 0
229 0 0
227 0 0
228 0 0
228 0 0
229 0 0
226 0 0
231 0 0
230 0 0
227 0 0
228 0 0
230 0 0
227 0 0
227 0 0
229 0 0
223 0 0
227 0 0
227 0 0
228 0 0
226 0 0
225 0 0
229 0 0
227 0 0
229 0 0
0 0 255
0 0 255
0 0 254
0 0 255
0 0 255
0 0 254
0 0 255
0 0 254
0 0 255
0 0 255
0 0 255
0 0 254
0 0 255
0 0 255
0 0 255
0 0 255
0 0 255
0 0 255
0 0 254
0 0 255
0 0 255
0 0 255
0 0 255
0 0 254
0 0 255
0 0 254
0 0 255
0 0 255
0 0 254
0 0 252
0 0 255
0 0 254
0 0 253
0 0 254
0 0 254
0 0 255
0 0 255
0 0 254
0 0 254
0 0 254
0 0 254
0 0 254
0 0 255
0 0 255
0 0 253
0 0 254
0 0 253
0 0 253
0 0 254
0 0 254
0 0 255
0 0 254
0 0 254
0 0 255
0 0 253
0 0 255
0 0 254
0 0 253
0 0 255
0 0 252
0 0 253
0 0 252
0 0 254
0 0 254
0 0 253
0 0 252
0 0 252
0 0 250
0 0 253
0 0 250
0 0 254
0 0 254
0 0 253
0 0 254
0 0 250
0 0 255
0 0 254
0 0 250
0 0 250
0 0 253
0 0 252
0 0 253
0 0 253
0 0 254
0 0 252
0 0 250
0 0 253
0 0 253
0 0 255
0 0 250
0 0 250
0 0 250
0 0 250
0 0 250
0 0 252
0 0 254
0 0 252
0 0 246
0 0 254
0 0 253
0 0 254
0 0 254
0 0 249
0 0 253
0 0 249
0 0 252
0 0 252
0 0 248
0 0 253
0 0 249
0 0 250
0 0 250
0 0 253
0 0 253
0 0 246
0 0 253
0 0 248
0 0 242
0 0 250
0 0 249
0 0 248
0 0 244
0 0 250
0 0 248
0 0 249
0 0 246
0 0 248
0 0 250
0 0 246
0 0 252
0 0 248
0 0 246
0 0 252
0 0 242
0 0 245
0 0 246
0 0 244
0 0 248
0 0 240
0 0 244
0 0 244
0 0 249
0 0 248
0 0 241
0 0 238
0 0 244
0 0 241
0 0 240
0 0 245
0 0 246
0 0 237
0 0 233
0 0 242
0 0 240
0 0 241
0 0 250
0 0 244
0 0 238
0 0 237
0 0 240
0 0 248
0 0 237
0 0 241
0 0 234
0 0 236
0 0 227
0 0 231
147 151 248
238 245 255
239 246 255
239 246 255
239 246 255
239 246 255
239 246 255
239 246 255
239 246 255
239 246 255
239 246 255
239 246 255
239 246 255
239 246 255
239 246 255
239 246 255
239 246 255
239 246 255
239 246 255
239 246 255
239 246 255
239 246 255
239 246 255
240 246 255
240 246 255
240 246 255
240 246 255
240 246 255
240 246 255
240 246 255
240 246 255
240 246 255
240 246 255
240 246 255
240 246 255
240 246 255
240 246 255
240 246 255
240 246 255
240 246 255
240 246 255
240 246 255
240 246 255
239 246 255
239 246 255
239 246 255
239 246 255
239 246 255
239 246 255
239 246 255
239 246 255
239 246 255
239 246 255
239 246 255
239 246 255
239 246 255
239 246 255
239 246 255
239 246 255
239 246 255
239 246 255
239 246 255
239 246 255
239 246 255
239 246 255
235 163 169
222 0 0
222 0 0
217 0 0
217 0 0
225 0 0
212 0 0
225 0 0
219 0 0
221 0 0
225 0 0
219 0 0
228 0 0
224 0 0
227 0 0
216 0 0
223 0 0
228 0 0
221 0 0
223 0 0
226 0 0
226 0 0
224 0 0
223 0 0
227 0 0
224 0 0
227 0 0
226 0 0
225 0 0
228 0 0
223 0 0
213 0 0
231 0 0
225 0 0
227 0 0
220 0 0
220 0 0
224 0 0
222 0 0
221 0 0
223 0 0
226 0 0
229 0 0
219 0 0
225 0 0
214 0 0
222 0 0
231 0 0
225 0 0
229 0 0
229 0 0
223 0 0
228 0 0
223 0 0
227 0 0
229 0 0
221 0 0
229 0 0
228 0 0
229 0 0
226 0 0
225 0 0
227 0 0
224 0 0
220 0 0
224 0 0
218 0 0
228 0 0
223 0 0
222 0 0
222 0 0
226 0 0
222 0 0
226 0 0
223 0 0
228 0 0
222 0 0
226 0 0
226 0 0
227 0 0
228 0 0
224 0 0
220 0 0
227 0 0
225 0 0
228 0 0
231 0 0
225 0 0
224 0 0
229 0 0
218 0 0
224 0 0
227 0 0
232 0 0
225 0 0
221 0 0
227 0 0
230 0 0
224 0 0
221 0 0
225 0 0
227 0 0
225 0 0
229 0 0
228 0 0
229 0 0
225 0 0
224 0 0
230 0 0
226 0 0
227 0 0
230 0 0
229 0 0
228 0 0
228 0 0
228 0 0
226 0 0
229 0 0
225 0 0
227 0 0
226 0 0
226 0 0
225 0 0
227 0 0
227 0 0
229 0 0
226 0 0
224 0 0
229 0 0
225 0 0
228 0 0
227 0 0
228 0 0
227 0 0
228 0 0
227 0 0
229 0 0
228 0 0
229 0 0
223 0 0
230 0 0
228 0 0
226 0 0
230 0 0
228 0 0
226 0 0
227 0 0
226 0 0
231 0 0
229 0 0
228 0 0
228 0 0
228 0 0
230 0 0
228 0 0
228 0 0
233 0 0
227 0 0
226 0 0
227 0 0
226 0 0
229 0 0
229 0 0
226 0 0
228 0 0
225 0 0
232 0 0
226 0 0
0 0 255
0 0 253
0 0 255
0 0 255
0 0 255
0 0 255
0 0 255
0 0 254
0 0 255
0 0 255
0 0 255
0 0 255
0 0 255
0 0 255
0 0 255
0 0 254
0 0 255
0 0 250
0 0 255
0 0 255
0 0 254
0 0 254
0 0 253
0 0 255
0 0 255
0 0 255
0 0 255
0 0 255
0 0 255
0 0 255
0 0 254
0 0 255
0 0 255
0 0 255
0 0 254
0 0 255
0 0 252
0 0 253
0 0 254
0 0 253
0 0 253
0 0 254
0 0 255
0 0 250
0 0 253
0 0 255
0 0 253
0 0 255
0 0 255
0 0 254
0 0 254
0 0 254
0 0 254
0 0 255
0 0 253
0 0 254
0 0 253
0 0 253
0 0 254
0 0 253
0 0 254
0 0 254
0 0 253
0 0 254
0 0 253
0 0 255
0 0 253
0 0 254
0 0 252
0 0 254
0 0 254
0 0 253
0 0 250
0 0 255
0 0 253
0 0 250
0 0 252
0 0 252
0 0 253
0 0 254
0 0 253
0 0 252
0 0 250
0 0 253
0 0 250
0 0 244
0 0 250
0 0 254
0 0 252
0 0 250
0 0 253
0 0 250
0 0 253
0 0 250
0 0 255
0 0 252
0 0 254
0 0 250
0 0 249
0 0 253
0 0 250
0 0 252
0 0 253
0 0 244
0 0 248
0 0 250
0 0 248
0 0 255
0 0 252
0 0 246
0 0 253
0 0 249
0 0 252
0 0 245
0 0 250
0 0 248
0 0 249
0 0 246
0 0 250
0 0 250
0 0 245
0 0 249
0 0 249
0 0 249
0 0 245
0 0 241
0 0 246
0 0 249
0 0 249
0 0 250
0 0 242
0 0 245
0 0 246
0 0 249
0 0 240
0 0 245
0 0 250
0 0 245
0 0 246
0 0 245
0 0 248
0 0 248
0 0 238
0 0 246
0 0 242
0 0 240
0 0 244
0 0 237
0 0 248
0 0 249
0 0 244
0 0 242
0 0 240
0 0 246
0 0 242
0 0 230
0 0 248
0 0 233
0 0 238
0 0 242
0 0 245
0 0 234
0 0 240
0 0 233
0 0 240
0 0 245
166 170 238
237 243 253
239 246 255
239 246 255
239 246 255
239 246 255
239 246 255
239 246 255
239 246 255
239 246 255
239 246 255
239 246 255
240 246 255
240 246 255
240 246 255
240 246 255
240 246 255
240 246 255
240 246 255
240 246 255
240 246 255
240 246 255
240 246 255
240 246 255
240 246 255
240 246 255
240 246 255
240 246 255
240 246 255
240 246 255
240 246 255
240 246 255
240 246 255
240 246 255
240 246 255
240 246 255
240 246 255
240 246 255
240 246 255
240 246 255
240 246 255
240 246 255
240 246 255
240 246 255
240 246 255
240 246 255
240 246 255
240 246 255
240 246 255
240 246 255
240 246 255
240 246 255
240 246 255
240 246 255
240 246 255
240 246 255
239 246 255
239 246 255
239 246 255
239 246 255
239 246 255
239 246 255
239 246 255
239 246 255
239 246 255
239 246 255
239 246 255
230 165 171
218 0 0
228 0 0
221 0 0
217 0 0
222 0 0
228 0 0
225 0 0
222 0 0
225 0 0
222 0 0
216 0 0
218 0 0
224 0 0
218 0 0
221 0 0
222 0 0
216 0 0
230 0 0
227 0 0
226 0 0
222 0 0
226 0 0
222 0 0
227 0 0
219 0 0
230 0 0
221 0 0
224 0 0
220 0 0
218 0 0
225 0 0
212 0 0
223 0 0
222 0 0
227 0 0
226 0 0
226 0 0
226 0 0
229 0 0
229 0 0
227 0 0
224 0 0
232 0 0
228 0 0
232 0 0
228 0 0
225 0 0
229 0 0
224 0 0
225 0 0
224 0 0
223 0 0
223 0 0
227 0 0
224 0 0
226 0 0
223 0 0
223 0 0
225 0 0
232 0 0
228 0 0
225 0 0
220 0 0
225 0 0
226 0 0
226 0 0
227 0 0
230 0 0
224 0 0
225 0 0
225 0 0
221 0 0
230 0 0
229 0 0
226 0 0
226 0 0
224 0 0
228 0 0
223 0 0
224 0 0
230 0 0
229 0 0
226 0 0
223 0 0
230 0 0
229 0 0
224 0 0
229 0 0
229 0 0
225 0 0
230 0 0
222 0 0
229 0 0
230 0 0
226 0 0
228 0 0
228 0 0
228 0 0
228 0 0
227 0 0
224 0 0
227 0 0
229 0 0
230 0 0
231 0 0
229 0 0
230 0 0
224 0 0
225 0 0
227 0 0
226 0 0
226 0 0
228 0 0
226 0 0
228 0 0
227 0 0
228 0 0
229 0 0
230 0 0
230 0 0
225 0 0
228 0 0
228 0 0
230 0 0
227 0 0
231 0 0
226 0 0
226 0 0
226 0 0
226 0 0
231 0 0
232 0 0
227 0 0
230 0 0
227 0 0
229 0 0
227 0 0
230 0 0
225 0 0
231 0 0
228 0 0
229 0 0
228 0 0
226 0 0
229 0 0
228 0 0
231 0 0
225 0 0
229 0 0
223 0 0
227 0 0
231 0 0
229 0 0
229 0 0
232 0 0
228 0 0
227 0 0
229 0 0
227 0 0
229 0 0
229 0 0
224 0 0
225 0 0
227 0 0
228 0 0
230 0 0
0 0 254
0 0 254
0 0 255
0 0 254
0 0 255
0 0 255
0 0 255
0 0 254
0 0 255
0 0 255
0 0 254
0 0 255
0 0 255
0 0 255
0 0 254
0 0 255
0 0 255
0 0 255
0 0 254
0 0 252
0 0 254
0 0 255
0 0 255
0 0 254
0 0 254
0 0 255
0 0 254
0 0 254
0 0 254
0 0 255
0 0 255
0 0 254
0 0 255
0 0 254
0 0 255
0 0 255
0 0 252
0 0 254
0 0 255
0 0 255
0 0 254
0 0 255
0 0 255
0 0 253
0 0 250
0 0 255
0 0 249
0 0 254
0 0 255
0 0 253
0 0 254
0 0 254
0 0 253
0 0 249
0 0 255
0 0 255
0 0 253
0 0 255
0 0 252
0 0 254
0 0 253
0 0 254
0 0 253
0 0 253
0 0 253
0 0 254
0 0 253
0 0 253
0 0 253
0 0 255
0 0 252
0 0 255
0 0 253
0 0 253
0 0 253
0 0 250
0 0 253
0 0 254
0 0 252
0 0 253
0 0 252
0 0 252
0 0 254
0 0 248
0 0 250
0 0 250
0 0 253
0 0 250
0 0 250
0 0 254
0 0 252
0 0 253
0 0 254
0 0 250
0 0 253
0 0 253
0 0 250
0 0 246
0 0 253
0 0 249
0 0 249
0 0 246
0 0 248
0 0 250
0 0 254
0 0 254
0 0 253
0 0 253
0 0 245
0 0 252
0 0 253
0 0 245
0 0 250
0 0 252
0 0 253
0 0 250
0 0 248
0 0 249
0 0 252
0 0 250
0 0 248
0 0 245
0 0 248
0 0 248
0 0 245
0 0 248
0 0 238
0 0 246
0 0 244
0 0 246
0 0 246
0 0 246
0 0 252
0 0 248
0 0 237
0 0 250
0 0 245
0 0 244
0 0 248
0 0 248
0 0 241
0 0 244
0 0 244
0 0 245
0 0 240
0 0 245
0 0 240
0 0 245
0 0 246
0 0 241
0 0 233
0 0 241
0 0 245
0 0 241
0 0 240
0 0 237
0 0 244
0 0 238
0 0 242
0 0 240
0 0 238
0 0 240
0 0 244
0 0 237
23 24 238
179 184 245
239 246 255
239 246 255
239 246 255
239 246 255
240 246 255
240 246 255
240 246 255
240 246 255
240 246 255
240 246 255
240 246 255
240 246 255
240 246 255
240 246 255
240 246 255
240 246 255
240 246 255
240 246 255
240 246 255
240 246 255
240 246 255
240 246 255
240 246 255
240 246 255
240 246 255
240 246 255
240 246 255
240 246 255
240 246 255
240 246 255
240 246 255
240 246 255
240 246 255
240 246 255
240 246 255
240 246 255
240 246 255
240 246 255
240 246 255
240 246 255
240 246 255
240 246 255
240 246 255
240 246 255
240 246 255
240 246 255
240 246 255
240 246 255
240 246 255
240 246 255
240 246 255
240 246 255
240 246 255
240 246 255
240 246 255
240 246 255
240 246 255
240 246 255
240 246 255
240 246 255
240 246 255
240 246 255
240 246 255
240 246 255
239 246 255
239 246 255
239 246 255
239 246 255
238 194 201
225 0 0
223 0 0
222 0 0
229 0 0
228 0 0
220 0 0
213 0 0
229 0 0
220 0 0
223 0 0
211 0 0
228 0 0
225 0 0
220 0 0
228 0 0
221 0 0
221 0 0
226 0 0
221 0 0
228 0 0
230 0 0
224 0 0
222 0 0
221 0 0
224 0 0
221 0 0
221 0 0
223 0 0
226 0 0
225 0 0
228 0 0
222 0 0
227 0 0
226 0 0
217 0 0
219 0 0
226 0 0
223 0 0
227 0 0
223 0 0
227 0 0
231 0 0
227 0 0
224 0 0
227 0 0
224 0 0
222 0 0
222 0 0
219 0 0
232 0 0
229 0 0
227 0 0
229 0 0
226 0 0
229 0 0
224 0 0
225 0 0
229 0 0
226 0 0
224 0 0
229 0 0
226 0 0
228 0 0
226 0 0
228 0 0
218 0 0
227 0 0
229 0 0
227 0 0
229 0 0
226 0 0
227 0 0
230 0 0
229 0 0
227 0 0
226 0 0
230 0 0
228 0 0
227 0 0
223 0 0
223 0 0
226 0 0
228 0 0
224 0 0
228 0 0
230 0 0
225 0 0
225 0 0
227 0 0
227 0 0
230 0 0
222 0 0
223 0 0
229 0 0
226 0 0
226 0 0
231 0 0
228 0 0
225 0 0
227 0 0
226 0 0
225 0 0
230 0 0
230 0 0
229 0 0
232 0 0
229 0 0
229 0 0
227 0 0
227 0 0
226 0 0
227 0 0
226 0 0
226 0 0
231 0 0
228 0 0
229 0 0
227 0 0
224 0 0
231 0 0
230 0 0
227 0 0
223 0 0
229 0 0
225 0 0
230 0 0
227 0 0
224 0 0
231 0 0
228 0 0
228 0 0
231 0 0
227 0 0
228 0 0
227 0 0
227 0 0
230 0 0
229 0 0
226 0 0
233 0 0
226 0 0
228 0 0
225 0 0
229 0 0
227 0 0
227 0 0
228 0 0
225 0 0
225 0 0
224 0 0
229 0 0
231 0 0
230 0 0
228 0 0
227 0 0
225 0 0
226 0 0
228 0 0
229 0 0
228 0 0
227 0 0
229 0 0
227 0 0
225 0 0
231 0 0
0 0 254
0 0 255
0 0 255
0 0 255
0 0 255
0 0 255
0 0 255
0 0 255
0 0 255
0 0 255
0 0 254
0 0 255
0 0 255
0 0 254
0 0 255
0 0 254
0 0 255
0 0 254
0 0 254
0 0 255
0 0 255
0 0 255
0 0 254
0 0 255
0 0 255
0 0 254
0 0 253
0 0 253
0 0 253
0 0 253
0 0 255
0 0 254
0 0 254
0 0 253
0 0 254
0 0 254
0 0 254
0 0 255
0 0 254
0 0 255
0 0 254
0 0 255
0 0 253
0 0 254
0 0 254
0 0 255
0 0 254
0 0 255
0 0 254
0 0 252
0 0 254
0 0 255
0 0 253
0 0 253
0 0 252
0 0 250
0 0 254
0 0 254
0 0 255
0 0 252
0 0 252
0 0 248
0 0 254
0 0 252
0 0 254
0 0 250
0 0 249
0 0 250
0 0 252
0 0 253
0 0 252
0 0 253
0 0 255
0 0 252
0 0 254
0 0 248
0 0 255
0 0 254
0 0 254
0 0 254
0 0 254
0 0 254
0 0 255
0 0 253
0 0 253
0 0 250
0 0 253
0 0 253
0 0 254
0 0 253
0 0 254
0 0 253
0 0 252
0 0 253
0 0 252
0 0 253
0 0 250
0 0 254
0 0 250
0 0 253
0 0 253
0 0 244
0 0 250
0 0 249
0 0 253
0 0 252
0 0 253
0 0 254
0 0 248
0 0 254
0 0 249
0 0 250
0 0 253
0 0 252
0 0 250
0 0 250
0 0 252
0 0 253
0 0 248
0 0 245
0 0 250
0 0 244
0 0 244
0 0 248
0 0 246
0 0 246
0 0 252
0 0 244
0 0 252
0 0 245
0 0 248
0 0 249
0 0 252
0 0 246
0 0 244
0 0 246
0 0 248
0 0 250
0 0 245
0 0 244
0 0 240
0 0 249
0 0 249
0 0 244
0 0 246
0 0 245
0 0 246
0 0 241
0 0 238
0 0 244
0 0 246
0 0 246
0 0 245
0 0 244
0 0 240
0 0 244
0 0 246
0 0 241
0 0 241
0 0 230
0 0 238
0 0 240
0 0 244
41 42 236
203 209 249
240 246 255
240 246 255
240 246 255
240 246 255
240 246 255
240 246 255
240 246 255
240 246 255
240 246 255
240 246 255
240 246 255
240 246 255
240 246 255
240 246 255
240 246 255
240 246 255
240 246 255
240 246 255
240 246 255
240 246 255
240 246 255
240 246 255
240 246 255
240 246 255
240 246 255
240 246 255
240 246 255
240 246 255
240 246 255
240 246 255
240 246 255
240 246 255
240 246 255
240 246 255
240 246 255
240 246 255
240 246 255
240 246 255
240 246 255
240 246 255
240 246 255
240 246 255
240 246 255
240 246 255
240 246 255
240 246 255
240 246 255
240 246 255
240 246 255
240 246 255
240 246 255
240 246 255
240 246 255
240 246 255
240 246 255
240 246 255
240 246 255
240 246 255
240 246 255
240 246 255
240 246 255
240 246 255
240 246 255
240 246 255
240 246 255
240 246 255
240 246 255
240 246 255
240 246 255
240 246 255
236 198 206
230 42 44
224 0 0
223 0 0
227 0 0
229 0 0
223 0 0
225 0 0
216 0 0
230 0 0
226 0 0
225 0 0
215 0 0
222 0 0
219 0 0
217 0 0
229 0 0
222 0 0
223 0 0
216 0 0
217 0 0
224 0 0
223 0 0
221 0 0
226 0 0
234 0 0
226 0 0
228 0 0
227 0 0
228 0 0
224 0 0
224 0 0
230 0 0
227 0 0
224 0 0
223 0 0
227 0 0
229 0 0
225 0 0
231 0 0
226 0 0
227 0 0
224 0 0
228 0 0
224 0 0
228 0 0
224 0 0
226 0 0
228 0 0
227 0 0
228 0 0
221 0 0
222 0 0
230 0 0
225 0 0
228 0 0
229 0 0
229 0 0
231 0 0
223 0 0
225 0 0
232 0 0
227 0 0
231 0 0
234 0 0
228 0 0
228 0 0
226 0 0
224 0 0
230 0 0
227 0 0
231 0 0
228 0 0
226 0 0
225 0 0
223 0 0
224 0 0
227 0 0
222 0 0
231 0 0
229 0 0
225 0 0
227 0 0
224 0 0
231 0 0
226 0 0
230 0 0
224 0 0
226 0 0
223 0 0
227 0 0
224 0 0
228 0 0
227 0 0
229 0 0
229 0 0
227 0 0
231 0 0
229 0 0
228 0 0
229 0 0
229 0 0
229 0 0
229 0 0
227 0 0
228 0 0
227 0 0
226 0 0
228 0 0
227 0 0
228 0 0
227 0 0
229 0 0
230 0 0
227 0 0
225 0 0
231 0 0
229 0 0
227 0 0
230 0 0
231 0 0
231 0 0
230 0 0
229 0 0
232 0 0
228 0 0
231 0 0
224 0 0
224 0 0
227 0 0
229 0 0
226 0 0
230 0 0
225 0 0
229 0 0
232 0 0
229 0 0
228 0 0
229 0 0
226 0 0
229 0 0
227 0 0
231 0 0
225 0 0
231 0 0
231 0 0
227 0 0
227 0 0
222 0 0
227 0 0
224 0 0
226 0 0
227 0 0
230 0 0
227 0 0
227 0 0
227 0 0
230 0 0
231 0 0
228 0 0
228 0 0
229 0 0
227 0 0
227 0 0
230 0 0
0 0 255
0 0 255
0 0 254
0 0 255
0 0 255
0 0 255
0 0 255
0 0 255
0 0 255
0 0 254
0 0 254
0 0 255
0 0 255
0 0 255
0 0 254
0 0 255
0 0 255
0 0 253
0 0 254
0 0 255
0 0 255
0 0 255
0 0 255
0 0 255
0 0 254
0 0 254
0 0 254
0 0 255
0 0 254
0 0 252
0 0 254
0 0 254
0 0 254
0 0 254
0 0 254
0 0 254
0 0 255
0 0 254
0 0 255
0 0 255
0 0 254
0 0 255
0 0 254
0 0 255
0 0 255
0 0 254
0 0 254
0 0 253
0 0 255
0 0 254
0 0 255
0 0 254
0 0 254
0 0 254
0 0 255
0 0 253
0 0 250
0 0 254
0 0 255
0 0 254
0 0 253
0 0 253
0 0 255
0 0 254
0 0 255
0 0 253
0 0 252
0 0 254
0 0 253
0 0 252
0 0 249
0 0 252
0 0 253
0 0 253
0 0 253
0 0 254
0 0 252
0 0 249
0 0 253
0 0 253
0 0 253
0 0 249
0 0 254
0 0 254
0 0 252
0 0 254
0 0 252
0 0 254
0 0 254
0 0 255
0 0 252
0 0 253
0 0 250
0 0 253
0 0 254
0 0 249
0 0 252
0 0 252
0 0 252
0 0 249
0 0 248
0 0 252
0 0 248
0 0 249
0 0 249
0 0 249
0 0 245
0 0 252
0 0 253
0 0 250
0 0 250
0 0 253
0 0 249
0 0 254
0 0 250
0 0 250
0 0 249
0 0 252
0 0 249
0 0 246
0 0 250
0 0 248
0 0 249
0 0 248
0 0 245
0 0 250
0 0 241
0 0 249
0 0 246
0 0 248
0 0 250
0 0 253
0 0 250
0 0 249
0 0 249
0 0 244
0 0 249
0 0 246
0 0 248
0 0 248
0 0 248
0 0 245
0 0 248
0 0 252
0 0 241
0 0 246
0 0 244
0 0 245
0 0 242
0 0 241
0 0 240
0 0 244
0 0 237
0 0 244
0 0 237
0 0 246
0 0 245
0 0 245
0 0 242
0 0 241
0 0 237
0 0 236
83 85 240
214 220 254
240 246 255
240 246 255
240 246 255
240 246 255
240 246 255
240 246 255
240 246 255
240 246 255
240 246 255
240 246 255
240 246 255
240 246 255
240 246 255
240 246 255
240 246 255
240 246 255
240 246 255
240 246 255
240 246 255
240 246 255
240 246 255
240 246 255
240 246 255
240 246 255
240 246 255
240 246 255
240 246 255
240 246 255
240 246 255
240 246 255
240 246 255
240 246 255
240 246 255
240 246 255
240 246 255
240 246 255
240 246 255
240 246 255
240 246 255
240 246 255
240 246 255
240 246 255
240 246 255
240 246 255
240 246 255
240 246 255
240 246 255
240 246 255
240 246 255
240 246 255
240 246 255
240 246 255
240 246 255
240 246 255
240 246 255
240 246 255
240 246 255
240 246 255
240 246 255
240 246 255
240 246 255
240 246 255
240 246 255
240 246 255
240 246 255
240 246 255
240 246 255
240 246 255
240 246 255
240 246 255
240 246 255
240 246 255
239 216 224
235 73 76
228 0 0
225 0 0
228 0 0
222 0 0
225 0 0
227 0 0
225 0 0
220 0 0
224 0 0
223 0 0
223 0 0
225 0 0
222 0 0
230 0 0
221 0 0
230 0 0
226 0 0
223 0 0
228 0 0
228 0 0
227 0 0
226 0 0
228 0 0
229 0 0
230 0 0
223 0 0
227 0 0
227 0 0
227 0 0
222 0 0
227 0 0
227 0 0
227 0 0
224 0 0
231 0 0
227 0 0
232 0 0
232 0 0
224 0 0
226 0 0
224 0 0
226 0 0
227 0 0
222 0 0
220 0 0
225 0 0
224 0 0
227 0 0
226 0 0
225 0 0
225 0 0
230 0 0
231 0 0
230 0 0
227 0 0
219 0 0
226 0 0
226 0 0
224 0 0
226 0 0
229 0 0
231 0 0
231 0 0
229 0 0
229 0 0
231 0 0
232 0 0
229 0 0
225 0 0
231 0 0
227 0 0
227 0 0
228 0 0
226 0 0
227 0 0
229 0 0
225 0 0
227 0 0
227 0 0
229 0 0
230 0 0
224 0 0
229 0 0
230 0 0
228 0 0
224 0 0
228 0 0
226 0 0
228 0 0
229 0 0
227 0 0
229 0 0
229 0 0
227 0 0
229 0 0
226 0 0
230 0 0
226 0 0
229 0 0
228 0 0
226 0 0
227 0 0
227 0 0
227 0 0
230 0 0
233 0 0
228 0 0
230 0 0
228 0 0
227 0 0
231 0 0
231 0 0
226 0 0
230 0 0
230 0 0
228 0 0
227 0 0
229 0 0
228 0 0
227 0 0
229 0 0
223 0 0
225 0 0
228 0 0
228 0 0
228 0 0
228 0 0
225 0 0
229 0 0
229 0 0
228 0 0
229 0 0
226 0 0
232 0 0
230 0 0
229 0 0
228 0 0
228 0 0
230 0 0
230 0 0
228 0 0
229 0 0
231 0 0
227 0 0
229 0 0
229 0 0
229 0 0
228 0 0
229 0 0
230 0 0
227 0 0
229 0 0
228 0 0
231 0 0
227 0 0
230 0 0
229 0 0
230 0 0
229 0 0
229 0 0
227 0 0
225 0 0
0 0 255
0 0 255
0 0 255
0 0 254
0 0 254
0 0 255
0 0 255
0 0 255
0 0 255
0 0 254
0 0 255
0 0 254
0 0 255
0 0 255
0 0 254
0 0 255
0 0 255
0 0 255
0 0 255
0 0 255
0 0 255
0 0 255
0 0 255
0 0 255
0 0 254
0 0 255
0 0 254
0 0 255
0 0 255
0 0 254
0 0 254
0 0 253
0 0 254
0 0 253
0 0 255
0 0 255
0 0 254
0 0 255
0 0 254
0 0 253
0 0 254
0 0 255
0 0 255
0 0 255
0 0 252
0 0 255
0 0 254
0 0 250
0 0 253
0 0 253
0 0 254
0 0 250
0 0 252
0 0 254
0 0 254
0 0 254
0 0 253
0 0 253
0 0 254
0 0 254
0 0 253
0 0 254
0 0 253
0 0 253
0 0 255
0 0 254
0 0 255
0 0 253
0 0 254
0 0 254
0 0 253
0 0 254
0 0 252
0 0 252
0 0 252
0 0 254
0 0 250
0 0 249
0 0 252
0 0 252
0 0 254
0 0 249
0 0 254
0 0 253
0 0 250
0 0 255
0 0 253
0 0 248
0 0 249
0 0 254
0 0 249
0 0 252
0 0 250
0 0 252
0 0 254
0 0 254
0 0 255
0 0 248
0 0 253
0 0 250
0 0 252
0 0 246
0 0 249
0 0 250
0 0 249
0 0 250
0 0 254
0 0 248
0 0 250
0 0 246
0 0 250
0 0 253
0 0 250
0 0 253
0 0 250
0 0 248
0 0 250
0 0 249
0 0 250
0 0 245
0 0 253
0 0 254
0 0 250
0 0 252
0 0 246
0 0 248
0 0 246
0 0 252
0 0 237
0 0 244
0 0 245
0 0 245
0 0 252
0 0 248
0 0 246
0 0 244
0 0 245
0 0 245
0 0 248
0 0 252
0 0 245
0 0 248
0 0 246
0 0 241
0 0 248
0 0 255
0 0 250
0 0 248
0 0 240
0 0 238
0 0 244
0 0 241
0 0 244
0 0 241
0 0 240
0 0 248
0 0 244
0 0 238
0 0 249
0 0 242
0 0 238
96 98 242
218 224 254
240 246 255
240 246 255
240 246 255
240 246 255
240 246 255
240 246 255
240 246 255
240 246 255
240 246 255
240 246 255
240 246 255
240 246 255
240 246 255
240 246 255
240 246 255
240 246 255
240 246 255
240 246 255
240 246 255
240 247 255
240 247 255
240 247 255
240 247 255
240 247 255
240 247 255
240 247 255
240 247 255
240 247 255
240 247 255
240 247 255
240 247 255
240 247 255
240 247 255
240 247 255
240 247 255
240 247 255
240 247 255
240 247 255
240 247 255
240 247 255
240 247 255
240 247 255
240 247 255
240 247 255
240 247 255
240 247 255
240 247 255
240 247 255
240 247 255
240 247 255
240 247 255
240 247 255
240 247 255
240 247 255
240 247 255
240 246 255
240 246 255
240 246 255
240 246 255
240 246 255
240 246 255
240 246 255
240 246 255
240 246 255
240 246 255
240 246 255
240 246 255
240 246 255
240 246 255
240 246 255
240 246 255
240 246 255
240 246 255
240 246 255
240 227 236
234 107 111
225 0 0
219 0 0
217 0 0
217 0 0
225 0 0
227 0 0
229 0 0
228 0 0
222 0 0
223 0 0
222 0 0
224 0 0
226 0 0
224 0 0
229 0 0
229 0 0
225 0 0
224 0 0
225 0 0
225 0 0
223 0 0
228 0 0
229 0 0
229 0 0
228 0 0
228 0 0
227 0 0
220 0 0
216 0 0
220 0 0
225 0 0
228 0 0
230 0 0
230 0 0
230 0 0
224 0 0
227 0 0
233 0 0
229 0 0
227 0 0
228 0 0
230 0 0
225 0 0
225 0 0
227 0 0
223 0 0
229 0 0
231 0 0
226 0 0
229 0 0
223 0 0
223 0 0
227 0 0
230 0 0
231 0 0
230 0 0
217 0 0
225 0 0
225 0 0
228 0 0
226 0 0
228 0 0
225 0 0
228 0 0
232 0 0
225 0 0
231 0 0
230 0 0
227 0 0
231 0 0
230 0 0
230 0 0
224 0 0
231 0 0
225 0 0
224 0 0
225 0 0
225 0 0
231 0 0
229 0 0
225 0 0
227 0 0
231 0 0
227 0 0
229 0 0
230 0 0
231 0 0
228 0 0
229 0 0
223 0 0
227 0 0
230 0 0
228 0 0
225 0 0
228 0 0
228 0 0
230 0 0
228 0 0
230 0 0
227 0 0
230 0 0
227 0 0
226 0 0
230 0 0
225 0 0
228 0 0
229 0 0
225 0 0
229 0 0
228 0 0
228 0 0
230 0 0
233 0 0
225 0 0
229 0 0
229 0 0
227 0 0
226 0 0
230 0 0
227 0 0
228 0 0
231 0 0
229 0 0
229 0 0
229 0 0
227 0 0
225 0 0
228 0 0
226 0 0
230 0 0
230 0 0
232 0 0
228 0 0
226 0 0
228 0 0
232 0 0
228 0 0
229 0 0
230 0 0
230 0 0
228 0 0
228 0 0
227 0 0
229 0 0
228 0 0
230 0 0
226 0 0
228 0 0
229 0 0
228 0 0
228 0 0
229 0 0
226 0 0
229 0 0
228 0 0
230 0 0
229 0 0
232 0 0
227 0 0
228 0 0
229 0 0
0 0 255
0 0 255
0 0 255
0 0 254
0 0 255
0 0 255
0 0 254
0 0 255
0 0 255
0 0 255
0 0 255
0 0 255
0 0 255
0 0 255
0 0 253
0 0 255
0 0 255
0 0 255
0 0 253
0 0 255
0 0 255
0 0 255
0 0 253
0 0 254
0 0 254
0 0 255
0 0 252
0 0 255
0 0 254
0 0 254
0 0 253
0 0 255
0 0 255
0 0 255
0 0 255
0 0 254
0 0 254
0 0 252
0 0 254
0 0 255
0 0 254
0 0 254
0 0 255
0 0 255
0 0 253
0 0 255
0 0 255
0 0 254
0 0 253
0 0 254
0 0 255
0 0 253
0 0 252
0 0 252
0 0 255
0 0 255
0 0 253
0 0 250
0 0 255
0 0 254
0 0 254
0 0 255
0 0 253
0 0 255
0 0 252
0 0 255
0 0 254
0 0 252
0 0 254
0 0 253
0 0 253
0 0 250
0 0 253
0 0 253
0 0 253
0 0 253
0 0 254
0 0 255
0 0 252
0 0 250
0 0 252
0 0 252
0 0 254
0 0 249
0 0 250
0 0 253
0 0 252
0 0 249
0 0 253
0 0 249
0 0 254
0 0 249
0 0 255
0 0 253
0 0 249
0 0 253
0 0 250
0 0 254
0 0 250
0 0 250
0 0 254
0 0 254
0 0 250
0 0 252
0 0 250
0 0 252
0 0 249
0 0 249
0 0 249
0 0 250
0 0 248
0 0 245
0 0 252
0 0 253
0 0 250
0 0 252
0 0 248
0 0 244
0 0 242
0 0 249
0 0 250
0 0 244
0 0 252
0 0 248
0 0 250
0 0 250
0 0 248
0 0 248
0 0 249
0 0 249
0 0 252
0 0 248
0 0 241
0 0 250
0 0 246
0 0 246
0 0 246
0 0 248
0 0 248
0 0 238
0 0 249
0 0 241
0 0 249
0 0 250
0 0 241
0 0 242
0 0 246
0 0 246
0 0 242
0 0 246
0 0 236
0 0 245
0 0 245
0 0 237
0 0 244
0 0 244
0 0 242
0 0 241
0 0 245
0 0 240
148 152 253
230 236 254
240 246 255
240 246 255
240 246 255
240 246 255
240 246 255
240 246 255
240 246 255
240 246 255
240 246 255
240 246 255
240 246 255
240 246 255
240 247 255
240 247 255
240 247 255
240 247 255
240 247 255
240 247 255
240 247 255
240 247 255
241 247 255
241 247 255
241 247 255
241 247 255
241 247 255
241 247 255
241 247 255
241 247 255
241 247 255
241 247 255
241 247 255
241 247 255
241 247 255
241 247 255
241 247 255
241 247 255
241 247 255
241 247 255
241 247 255
241 247 255
241 247 255
241 247 255
241 247 255
241 247 255
241 247 255
241 247 255
241 247 255
241 247 255
241 247 255
241 247 255
241 247 255
241 247 255
241 247 255
241 247 255
241 247 255
240 247 255
240 247 255
240 247 255
240 247 255
240 247 255
240 247 255
240 247 255
240 247 255
240 247 255
240 246 255
240 246 255
240 246 255
240 246 255
240 246 255
240 246 255
240 246 255
240 246 255
240 246 255
240 246 255
240 246 255
240 246 255
240 244 253
233 146 151
229 0 0
221 0 0
232 0 0
227 0 0
224 0 0
217 0 0
224 0 0
225 0 0
223 0 0
220 0 0
228 0 0
226 0 0
229 0 0
220 0 0
223 0 0
228 0 0
220 0 0
229 0 0
224 0 0
227 0 0
226 0 0
224 0 0
223 0 0
230 0 0
227 0 0
226 0 0
227 0 0
223 0 0
226 0 0
221 0 0
230 0 0
226 0 0
223 0 0
229 0 0
227 0 0
228 0 0
221 0 0
228 0 0
223 0 0
228 0 0
221 0 0
222 0 0
227 0 0
227 0 0
227 0 0
227 0 0
228 0 0
230 0 0
225 0 0
227 0 0
226 0 0
225 0 0
224 0 0
225 0 0
225 0 0
229 0 0
230 0 0
230 0 0
226 0 0
230 0 0
225 0 0
226 0 0
227 0 0
225 0 0
224 0 0
230 0 0
231 0 0
229 0 0
222 0 0
231 0 0
232 0 0
228 0 0
231 0 0
231 0 0
231 0 0
228 0 0
227 0 0
228 0 0
228 0 0
229 0 0
228 0 0
228 0 0
231 0 0
227 0 0
231 0 0
231 0 0
231 0 0
232 0 0
231 0 0
224 0 0
232 0 0
230 0 0
224 0 0
230 0 0
227 0 0
224 0 0
231 0 0
230 0 0
228 0 0
228 0 0
225 0 0
231 0 0
230 0 0
228 0 0
230 0 0
232 0 0
230 0 0
226 0 0
229 0 0
230 0 0
227 0 0
230 0 0
224 0 0
229 0 0
226 0 0
231 0 0
229 0 0
227 0 0
227 0 0
228 0 0
231 0 0
229 0 0
231 0 0
230 0 0
229 0 0
230 0 0
226 0 0
227 0 0
229 0 0
230 0 0
230 0 0
228 0 0
227 0 0
229 0 0
226 0 0
230 0 0
227 0 0
231 0 0
229 0 0
230 0 0
229 0 0
231 0 0
228 0 0
231 0 0
229 0 0
229 0 0
231 0 0
227 0 0
227 0 0
226 0 0
231 0 0
230 0 0
228 0 0
229 0 0
227 0 0
229 0 0
232 0 0
229 0 0
229 0 0
227 0 0
0 0 254
0 0 255
0 0 254
0 0 255
0 0 255
0 0 255
0 0 255
0 0 255
0 0 255
0 0 254
0 0 254
0 0 255
0 0 255
0 0 255
0 0 254
0 0 254
0 0 255
0 0 255
0 0 255
0 0 255
0 0 255
0 0 255
0 0 255
0 0 255
0 0 255
0 0 255
0 0 254
0 0 255
0 0 254
0 0 255
0 0 253
0 0 255
0 0 254
0 0 255
0 0 253
0 0 255
0 0 254
0 0 255
0 0 254
0 0 254
0 0 254
0 0 255
0 0 255
0 0 254
0 0 255
0 0 254
0 0 255
0 0 254
0 0 254
0 0 253
0 0 255
0 0 252
0 0 255
0 0 253
0 0 255
0 0 254
0 0 254
0 0 254
0 0 254
0 0 253
0 0 253
0 0 254
0 0 252
0 0 253
0 0 255
0 0 254
0 0 255
0 0 254
0 0 254
0 0 255
0 0 255
0 0 254
0 0 253
0 0 253
0 0 253
0 0 253
0 0 254
0 0 255
0 0 253
0 0 253
0 0 254
0 0 254
0 0 255
0 0 252
0 0 253
0 0 254
0 0 254
0 0 252
0 0 254
0 0 249
0 0 250
0 0 253
0 0 252
0 0 253
0 0 253
0 0 250
0 0 250
0 0 253
0 0 252
0 0 250
0 0 254
0 0 252
0 0 249
0 0 248
0 0 253
0 0 252
0 0 250
0 0 254
0 0 250
0 0 253
0 0 246
0 0 252
0 0 253
0 0 254
0 0 246
0 0 248
0 0 253
0 0 246
0 0 249
0 0 245
0 0 249
0 0 253
0 0 254
0 0 250
0 0 245
0 0 245
0 0 248
0 0 248
0 0 245
0 0 245
0 0 242
0 0 246
0 0 250
0 0 249
0 0 250
0 0 249
0 0 246
0 0 244
0 0 246
0 0 245
0 0 248
0 0 245
0 0 246
0 0 250
0 0 250
0 0 242
0 0 249
0 0 250
0 0 246
0 0 245
0 0 240
0 0 241
0 0 241
0 0 244
0 0 248
0 0 245
0 0 236
0 0 245
24 24 241
166 171 250
240 246 255
240 246 255
240 246 255
240 246 255
240 246 255
240 246 255
240 246 255
240 246 255
240 247 255
240 247 255
240 247 255
240 247 255
240 247 255
240 247 255
240 247 255
241 247 255
241 247 255
241 247 255
241 247 255
241 247 255
241 247 255
241 247 255
241 247 255
241 247 255
241 247 255
241 247 255
241 247 255
241 247 255
241 247 255
241 247 255
241 247 255
241 247 255
241 247 255
241 247 255
241 247 255
241 247 255
241 247 255
241 247 255
241 247 255
241 247 255
241 247 255
241 247 255
241 247 255
241 247 255
241 247 255
241 247 255
241 247 255
241 247 255
241 247 255
241 247 255
241 247 255
241 247 255
241 247 255
241 247 255
241 247 255
241 247 255
241 247 255
241 247 255
241 247 255
241 247 255
241 247 255
241 247 255
241 247 255
241 247 255
241 247 255
241 247 255
240 247 255
240 247 255
240 247 255
240 247 255
240 247 255
240 247 255
240 247 255
240 246 255
240 246 255
240 246 255
240 246 255
240 246 255
240 246 255
240 246 255
236 181 188
227 0 0
232 0 0
229 0 0
230 0 0
223 0 0
225 0 0
223 0 0
221 0 0
225 0 0
234 0 0
226 0 0
221 0 0
223 0 0
235 0 0
230 0 0
227 0 0
227 0 0
223 0 0
231 0 0
226 0 0
231 0 0
226 0 0
219 0 0
225 0 0
223 0 0
228 0 0
225 0 0
227 0 0
227 0 0
227 0 0
227 0 0
229 0 0
232 0 0
225 0 0
226 0 0
226 0 0
229 0 0
226 0 0
228 0 0
226 0 0
228 0 0
224 0 0
226 0 0
231 0 0
232 0 0
232 0 0
225 0 0
226 0 0
229 0 0
225 0 0
229 0 0
229 0 0
227 0 0
225 0 0
224 0 0
232 0 0
229 0 0
224 0 0
231 0 0
230 0 0
227 0 0
229 0 0
226 0 0
228 0 0
227 0 0
227 0 0
229 0 0
230 0 0
229 0 0
228 0 0
230 0 0
227 0 0
231 0 0
231 0 0
227 0 0
228 0 0
225 0 0
228 0 0
228 0 0
224 0 0
222 0 0
227 0 0
228 0 0
229 0 0
223 0 0
231 0 0
229 0 0
227 0 0
227 0 0
229 0 0
230 0 0
228 0 0
227 0 0
225 0 0
225 0 0
225 0 0
230 0 0
228 0 0
229 0 0
228 0 0
230 0 0
231 0 0
226 0 0
230 0 0
229 0 0
229 0 0
224 0 0
229 0 0
227 0 0
227 0 0
231 0 0
233 0 0
228 0 0
228 0 0
229 0 0
228 0 0
229 0 0
228 0 0
232 0 0
229 0 0
227 0 0
227 0 0
231 0 0
230 0 0
233 0 0
231 0 0
227 0 0
230 0 0
232 0 0
227 0 0
231 0 0
227 0 0
230 0 0
229 0 0
227 0 0
230 0 0
230 0 0
228 0 0
230 0 0
229 0 0
231 0 0
230 0 0
230 0 0
228 0 0
227 0 0
229 0 0
228 0 0
227 0 0
228 0 0
227 0 0
229 0 0
229 0 0
229 0 0
225 0 0
227 0 0
225 0 0
229 0 0
229 0 0
230 0 0
0 0 255
0 0 255
0 0 255
0 0 254
0 0 255
0 0 255
0 0 254
0 0 255
0 0 254
0 0 255
0 0 255
0 0 255
0 0 255
0 0 255
0 0 255
0 0 255
0 0 254
0 0 255
0 0 255
0 0 255
0 0 255
0 0 254
0 0 255
0 0 254
0 0 253
0 0 255
0 0 255
0 0 255
0 0 255
0 0 255
0 0 255
0 0 255
0 0 255
0 0 255
0 0 254
0 0 255
0 0 255
0 0 255
0 0 250
0 0 255
0 0 254
0 0 254
0 0 255
0 0 255
0 0 254
0 0 255
0 0 252
0 0 255
0 0 253
0 0 252
0 0 254
0 0 255
0 0 253
0 0 254
0 0 253
0 0 255
0 0 254
0 0 252
0 0 253
0 0 253
0 0 253
0 0 255
0 0 252
0 0 255
0 0 254
0 0 252
0 0 255
0 0 253
0 0 253
0 0 255
0 0 254
0 0 255
0 0 249
0 0 255
0 0 250
0 0 255
0 0 248
0 0 253
0 0 252
0 0 250
0 0 255
0 0 254
0 0 255
0 0 246
0 0 253
0 0 254
0 0 250
0 0 254
0 0 254
0 0 252
0 0 252
0 0 252
0 0 252
0 0 252
0 0 252
0 0 254
0 0 254
0 0 249
0 0 253
0 0 254
0 0 254
0 0 252
0 0 253
0 0 252
0 0 253
0 0 252
0 0 249
0 0 252
0 0 253
0 0 249
0 0 254
0 0 246
0 0 252
0 0 249
0 0 252
0 0 250
0 0 254
0 0 253
0 0 245
0 0 249
0 0 246
0 0 248
0 0 252
0 0 254
0 0 248
0 0 252
0 0 240
0 0 250
0 0 245
0 0 252
0 0 250
0 0 250
0 0 245
0 0 250
0 0 242
0 0 245
0 0 242
0 0 249
0 0 244
0 0 244
0 0 237
0 0 249
0 0 246
0 0 246
0 0 249
0 0 246
0 0 248
0 0 248
0 0 245
0 0 242
0 0 245
0 0 242
0 0 245
0 0 244
0 0 240
0 0 248
0 0 241
63 65 244
204 209 254
240 246 255
240 246 255
240 246 255
240 247 255
240 247 255
240 247 255
240 247 255
240 247 255
240 247 255
241 247 255
241 247 255
241 247 255
241 247 255
241 247 255
241 247 255
241 247 255
241 247 255
241 247 255
241 247 255
241 247 255
241 247 255
241 247 255
241 247 255
241 247 255
241 247 255
241 247 255
241 247 255
241 247 255
241 247 255
241 247 255
241 247 255
241 247 255
241 247 255
241 247 255
241 247 255
241 247 255
241 247 255
241 247 255
241 247 255
241 247 255
241 247 255
241 247 255
241 247 255
241 247 255
241 247 255
241 247 255
241 247 255
241 247 255
241 247 255
241 247 255
241 247 255
241 247 255
241 247 255
241 247 255
241 247 255
241 247 255
241 247 255
241 247 255
241 247 255
241 247 255
241 247 255
241 247 255
241 247 255
241 247 255
241 247 255
241 247 255
241 247 255
241 247 255
241 247 255
241 247 255
241 247 255
241 247 255
241 247 255
240 247 255
240 247 255
240 247 255
240 247 255
240 247 255
240 247 255
240 246 255
240 246 255
240 246 255
236 197 204
230 49 51
230 0 0
229 0 0
229 0 0
228 0 0
233 0 0
220 0 0
231 0 0
228 0 0
227 0 0
224 0 0
222 0 0
226 0 0
228 0 0
218 0 0
231 0 0
227 0 0
224 0 0
232 0 0
222 0 0
230 0 0
224 0 0
221 0 0
225 0 0
227 0 0
228 0 0
224 0 0
226 0 0
226 0 0
229 0 0
224 0 0
223 0 0
226 0 0
231 0 0
224 0 0
229 0 0
228 0 0
228 0 0
226 0 0
225 0 0
232 0 0
227 0 0
225 0 0
227 0 0
231 0 0
229 0 0
227 0 0
228 0 0
225 0 0
230 0 0
225 0 0
229 0 0
230 0 0
229 0 0
228 0 0
228 0 0
229 0 0
228 0 0
227 0 0
229 0 0
225 0 0
228 0 0
228 0 0
229 0 0
224 0 0
233 0 0
226 0 0
225 0 0
223 0 0
226 0 0
228 0 0
226 0 0
225 0 0
229 0 0
230 0 0
227 0 0
229 0 0
229 0 0
229 0 0
228 0 0
234 0 0
226 0 0
228 0 0
231 0 0
226 0 0
227 0 0
226 0 0
231 0 0
231 0 0
231 0 0
227 0 0
226 0 0
228 0 0
228 0 0
230 0 0
228 0 0
226 0 0
228 0 0
229 0 0
229 0 0
229 0 0
228 0 0
228 0 0
225 0 0
228 0 0
230 0 0
227 0 0
228 0 0
229 0 0
231 0 0
227 0 0
229 0 0
231 0 0
229 0 0
226 0 0
228 0 0
229 0 0
231 0 0
226 0 0
228 0 0
230 0 0
231 0 0
229 0 0
232 0 0
230 0 0
226 0 0
230 0 0
227 0 0
229 0 0
228 0 0
232 0 0
229 0 0
229 0 0
230 0 0
229 0 0
231 0 0
225 0 0
228 0 0
227 0 0
227 0 0
229 0 0
230 0 0
230 0 0
231 0 0
229 0 0
229 0 0
229 0 0
228 0 0
229 0 0
226 0 0
231 0 0
228 0 0
228 0 0
229 0 0
230 0 0
230 0 0
230 0 0
227 0 0
0 0 255
0 0 255
0 0 255
0 0 254
0 0 255
0 0 255
0 0 255
0 0 255
0 0 255
0 0 255
0 0 254
0 0 254
0 0 255
0 0 255
0 0 254
0 0 255
0 0 255
0 0 254
0 0 255
0 0 255
0 0 254
0 0 255
0 0 254
0 0 255
0 0 254
0 0 255
0 0 255
0 0 255
0 0 255
0 0 255
0 0 255
0 0 255
0 0 254
0 0 255
0 0 255
0 0 254
0 0 255
0 0 255
0 0 254
0 0 254
0 0 254
0 0 253
0 0 255
0 0 254
0 0 255
0 0 255
0 0 255
0 0 254
0 0 255
0 0 255
0 0 255
0 0 255
0 0 254
0 0 253
0 0 253
0 0 254
0 0 254
0 0 254
0 0 254
0 0 254
0 0 250
0 0 250
0 0 253
0 0 255
0 0 254
0 0 255
0 0 254
0 0 254
0 0 253
0 0 255
0 0 254
0 0 252
0 0 255
0 0 254
0 0 254
0 0 252
0 0 254
0 0 253
0 0 254
0 0 252
0 0 254
0 0 254
0 0 253
0 0 252
0 0 255
0 0 252
0 0 252
0 0 254
0 0 255
0 0 249
0 0 253
0 0 254
0 0 253
0 0 250
0 0 253
0 0 249
0 0 250
0 0 252
0 0 253
0 0 253
0 0 249
0 0 253
0 0 254
0 0 253
0 0 249
0 0 255
0 0 249
0 0 250
0 0 249
0 0 254
0 0 245
0 0 250
0 0 248
0 0 254
0 0 250
0 0 245
0 0 253
0 0 252
0 0 249
0 0 248
0 0 252
0 0 252
0 0 253
0 0 248
0 0 246
0 0 250
0 0 250
0 0 246
0 0 244
0 0 252
0 0 252
0 0 246
0 0 248
0 0 246
0 0 238
0 0 240
0 0 246
0 0 246
0 0 252
0 0 241
0 0 249
0 0 244
0 0 249
0 0 252
0 0 246
0 0 241
0 0 246
0 0 249
0 0 242
0 0 244
0 0 238
0 0 245
0 0 241
0 0 249
0 0 240
0 0 245
99 101 248
232 238 255
240 247 255
240 247 255
240 247 255
240 247 255
240 247 255
241 247 255
241 247 255
241 247 255
241 247 255
241 247 255
241 247 255
241 247 255
241 247 255
241 247 255
241 247 255
241 247 255
241 247 255
241 247 255
241 247 255
241 247 255
241 247 255
241 247 255
241 247 255
241 247 255
241 247 255
241 247 255
241 247 255
241 247 255
241 247 255
241 247 255
241 247 255
241 247 255
241 247 255
241 247 255
241 247 255
241 247 255
241 247 255
241 247 255
241 247 255
241 247 255
241 247 255
241 247 255
241 247 255
241 247 255
241 247 255
241 247 255
241 247 255
241 247 255
241 247 255
241 247 255
241 247 255
241 247 255
241 247 255
241 247 255
241 247 255
241 247 255
241 247 255
241 247 255
241 247 255
241 247 255
241 247 255
241 247 255
241 247 255
241 247 255
241 247 255
241 247 255
241 247 255
241 247 255
241 247 255
241 247 255
241 247 255
241 247 255
241 247 255
241 247 255
241 247 255
241 247 255
241 247 255
241 247 255
241 247 255
240 247 255
240 247 255
240 247 255
240 247 255
240 247 255
239 231 240
233 123 128
232 0 0
227 0 0
229 0 0
225 0 0
225 0 0
233 0 0
230 0 0
229 0 0
227 0 0
228 0 0
218 0 0
225 0 0
219 0 0
235 0 0
222 0 0
232 0 0
228 0 0
230 0 0
227 0 0
229 0 0
228 0 0
224 0 0
227 0 0
227 0 0
229 0 0
225 0 0
223 0 0
227 0 0
233 0 0
226 0 0
226 0 0
223 0 0
230 0 0
229 0 0
227 0 0
227 0 0
228 0 0
226 0 0
233 0 0
223 0 0
227 0 0
230 0 0
227 0 0
225 0 0
233 0 0
230 0 0
229 0 0
232 0 0
227 0 0
230 0 0
230 0 0
227 0 0
230 0 0
228 0 0
229 0 0
225 0 0
226 0 0
225 0 0
236 0 0
229 0 0
228 0 0
232 0 0
232 0 0
230 0 0
232 0 0
225 0 0
228 0 0
231 0 0
230 0 0
231 0 0
228 0 0
231 0 0
232 0 0
228 0 0
227 0 0
227 0 0
230 0 0
229 0 0
230 0 0
229 0 0
227 0 0
231 0 0
228 0 0
227 0 0
226 0 0
229 0 0
226 0 0
229 0 0
228 0 0
226 0 0
229 0 0
231 0 0
229 0 0
226 0 0
230 0 0
229 0 0
229 0 0
228 0 0
229 0 0
228 0 0
227 0 0
231 0 0
230 0 0
231 0 0
227 0 0
227 0 0
228 0 0
229 0 0
228 0 0
231 0 0
229 0 0
231 0 0
227 0 0
230 0 0
229 0 0
229 0 0
225 0 0
228 0 0
230 0 0
228 0 0
229 0 0
231 0 0
229 0 0
229 0 0
231 0 0
231 0 0
230 0 0
231 0 0
232 0 0
230 0 0
226 0 0
229 0 0
230 0 0
227 0 0
224 0 0
227 0 0
228 0 0
230 0 0
225 0 0
229 0 0
229 0 0
231 0 0
229 0 0
229 0 0
227 0 0
232 0 0
232 0 0
231 0 0
231 0 0
227 0 0
229 0 0
229 0 0
232 0 0
230 0 0
228 0 0
228 0 0
0 0 255
0 0 255
0 0 255
0 0 255
0 0 255
0 0 255
0 0 254
0 0 254
0 0 255
0 0 255
0 0 255
0 0 255
0 0 255
0 0 255
0 0 254
0 0 255
0 0 255
0 0 255
0 0 255
0 0 255
0 0 255
0 0 255
0 0 253
0 0 255
0 0 255
0 0 254
0 0 253
0 0 254
0 0 255
0 0 254
0 0 254
0 0 255
0 0 255
0 0 255
0 0 255
0 0 255
0 0 252
0 0 255
0 0 253
0 0 255
0 0 253
0 0 255
0 0 255
0 0 252
0 0 252
0 0 255
0 0 255
0 0 254
0 0 254
0 0 255
0 0 255
0 0 255
0 0 254
0 0 252
0 0 255
0 0 252
0 0 253
0 0 255
0 0 255
0 0 254
0 0 253
0 0 255
0 0 254
0 0 254
0 0 250
0 0 255
0 0 253
0 0 249
0 0 253
0 0 249
0 0 254
0 0 253
0 0 252
0 0 254
0 0 253
0 0 250
0 0 254
0 0 253
0 0 252
0 0 253
0 0 254
0 0 253
0 0 253
0 0 252
0 0 253
0 0 254
0 0 254
0 0 254
0 0 254
0 0 254
0 0 253
0 0 252
0 0 253
0 0 252
0 0 248
0 0 249
0 0 252
0 0 252
0 0 250
0 0 255
0 0 252
0 0 250
0 0 253
0 0 253
0 0 248
0 0 250
0 0 254
0 0 248
0 0 254
0 0 250
0 0 246
0 0 252
0 0 248
0 0 252
0 0 248
0 0 249
0 0 246
0 0 248
0 0 245
0 0 249
0 0 248
0 0 249
0 0 249
0 0 248
0 0 250
0 0 244
0 0 250
0 0 250
0 0 252
0 0 250
0 0 249
0 0 246
0 0 244
0 0 249
0 0 245
0 0 250
0 0 246
0 0 248
0 0 248
0 0 252
0 0 246
0 0 249
0 0 246
0 0 246
0 0 244
0 0 249
0 0 240
0 0 248
0 0 252
0 0 241
0 0 246
0 0 245
0 0 250
0 0 249
0 0 237
157 162 249
237 243 255
240 247 255
241 247 255
241 247 255
241 247 255
241 247 255
241 247 255
241 247 255
241 247 255
241 247 255
241 247 255
241 247 255
241 247 255
241 247 255
241 247 255
241 247 255
241 247 255
241 247 255
241 247 255
241 247 255
241 247 255
241 247 255
241 247 255
241 247 255
241 247 255
241 247 255
241 247 255
241 247 255
241 247 255
241 247 255
241 247 255
241 247 255
241 247 255
241 247 255
241 247 255
241 247 255
241 247 255
241 247 255
241 247 255
241 247 255
241 247 255
241 247 255
241 247 255
241 247 255
241 247 255
241 247 255
241 247 255
241 247 255
241 247 255
241 247 255
241 247 255
241 247 255
241 247 255
241 247 255
241 247 255
241 247 255
241 247 255
241 247 255
241 247 255
241 247 255
241 247 255
241 247 255
241 247 255
241 247 255
241 247 255
241 247 255
241 247 255
241 247 255
241 247 255
241 247 255
241 247 255
241 247 255
241 247 255
241 247 255
241 247 255
241 247 255
241 247 255
241 247 255
241 247 255
241 247 255
241 247 255
241 247 255
241 247 255
241 247 255
241 247 255
241 247 255
240 247 255
240 245 254
228 171 177
230 24 25
228 0 0
232 0 0
233 0 0
226 0 0
218 0 0
225 0 0
230 0 0
225 0 0
226 0 0
228 0 0
231 0 0
232 0 0
227 0 0
226 0 0
220 0 0
229 0 0
229 0 0
224 0 0
224 0 0
231 0 0
225 0 0
228 0 0
226 0 0
222 0 0
226 0 0
225 0 0
231 0 0
230 0 0
226 0 0
230 0 0
231 0 0
229 0 0
225 0 0
223 0 0
230 0 0
229 0 0
231 0 0
222 0 0
227 0 0
226 0 0
230 0 0
229 0 0
231 0 0
227 0 0
232 0 0
230 0 0
225 0 0
231 0 0
225 0 0
231 0 0
230 0 0
232 0 0
230 0 0
227 0 0
231 0 0
229 0 0
231 0 0
231 0 0
231 0 0
234 0 0
230 0 0
226 0 0
225 0 0
230 0 0
228 0 0
228 0 0
224 0 0
228 0 0
232 0 0
231 0 0
228 0 0
226 0 0
228 0 0
223 0 0
229 0 0
232 0 0
227 0 0
224 0 0
230 0 0
227 0 0
228 0 0
230 0 0
228 0 0
233 0 0
229 0 0
228 0 0
230 0 0
228 0 0
227 0 0
225 0 0
229 0 0
232 0 0
231 0 0
231 0 0
230 0 0
227 0 0
226 0 0
227 0 0
226 0 0
227 0 0
229 0 0
228 0 0
229 0 0
231 0 0
228 0 0
229 0 0
231 0 0
227 0 0
229 0 0
230 0 0
227 0 0
230 0 0
230 0 0
230 0 0
232 0 0
227 0 0
227 0 0
231 0 0
230 0 0
228 0 0
231 0 0
227 0 0
230 0 0
231 0 0
232 0 0
226 0 0
232 0 0
227 0 0
229 0 0
232 0 0
228 0 0
229 0 0
229 0 0
230 0 0
229 0 0
225 0 0
230 0 0
234 0 0
231 0 0
232 0 0
229 0 0
231 0 0
234 0 0
232 0 0
229 0 0
230 0 0
234 0 0
228 0 0
230 0 0
233 0 0
229 0 0
229 0 0
229 0 0
230 0 0
0 0 255
0 0 255
0 0 255
0 0 255
0 0 255
0 0 255
0 0 255
0 0 255
0 0 255
0 0 255
0 0 255
0 0 255
0 0 254
0 0 255
0 0 254
0 0 255
0 0 255
0 0 254
0 0 255
0 0 255
0 0 254
0 0 254
0 0 254
0 0 253
0 0 255
0 0 255
0 0 254
0 0 255
0 0 254
0 0 255
0 0 255
0 0 255
0 0 254
0 0 254
0 0 254
0 0 254
0 0 255
0 0 255
0 0 254
0 0 252
0 0 254
0 0 255
0 0 255
0 0 255
0 0 255
0 0 254
0 0 254
0 0 255
0 0 254
0 0 255
0 0 255
0 0 255
0 0 255
0 0 255
0 0 253
0 0 255
0 0 253
0 0 253
0 0 254
0 0 254
0 0 255
0 0 253
0 0 254
0 0 254
0 0 249
0 0 253
0 0 253
0 0 255
0 0 253
0 0 252
0 0 254
0 0 255
0 0 250
0 0 254
0 0 253
0 0 253
0 0 252
0 0 252
0 0 254
0 0 254
0 0 254
0 0 254
0 0 252
0 0 249
0 0 254
0 0 253
0 0 255
0 0 252
0 0 252
0 0 253
0 0 250
0 0 253
0 0 252
0 0 252
0 0 253
0 0 250
0 0 250
0 0 252
0 0 255
0 0 252
0 0 253
0 0 254
0 0 255
0 0 250
0 0 248
0 0 250
0 0 252
0 0 250
0 0 253
0 0 249
0 0 248
0 0 252
0 0 244
0 0 253
0 0 254
0 0 252
0 0 250
0 0 249
0 0 248
0 0 252
0 0 252
0 0 252
0 0 246
0 0 250
0 0 253
0 0 242
0 0 246
0 0 246
0 0 246
0 0 254
0 0 248
0 0 252
0 0 241
0 0 252
0 0 246
0 0 250
0 0 248
0 0 252
0 0 249
0 0 245
0 0 246
0 0 244
0 0 250
0 0 244
0 0 249
0 0 242
0 0 248
0 0 252
0 0 242
0 0 241
0 0 244
0 0 246
0 0 245
76 78 248
207 212 254
241 247 255
241 247 255
241 247 255
241 247 255
241 247 255
241 247 255
241 247 255
241 247 255
241 247 255
241 247 255
241 247 255
241 247 255
241 247 255
241 247 255
241 247 255
241 247 255
241 247 255
241 247 255
241 247 255
241 247 255
241 247 255
241 247 255
241 247 255
241 247 255
241 247 255
241 247 255
241 247 255
241 247 255
241 247 255
241 247 255
241 247 255
241 247 255
241 247 255
241 247 255
241 247 255
241 247 255
241 247 255
241 247 255
241 247 255
241 247 255
241 247 255
241 247 255
242 247 255
242 247 255
242 247 255
242 247 255
242 247 255
242 247 255
241 247 255
241 247 255
241 247 255
241 247 255
241 247 255
241 247 255
241 247 255
241 247 255
241 247 255
241 247 255
241 247 255
241 247 255
241 247 255
241 247 255
241 247 255
241 247 255
241 247 255
241 247 255
241 247 255
241 247 255
241 247 255
241 247 255
241 247 255
241 247 255
241 247 255
241 247 255
241 247 255
241 247 255
241 247 255
241 247 255
241 247 255
241 247 255
241 247 255
241 247 255
241 247 255
241 247 255
241 247 255
241 247 255
241 247 255
241 247 255
241 247 255
241 247 255
237 209 217
232 74 76
232 0 0
222 0 0
230 0 0
224 0 0
230 0 0
227 0 0
225 0 0
229 0 0
224 0 0
228 0 0
223 0 0
217 0 0
229 0 0
231 0 0
224 0 0
225 0 0
227 0 0
225 0 0
234 0 0
222 0 0
225 0 0
230 0 0
222 0 0
228 0 0
229 0 0
223 0 0
231 0 0
229 0 0
227 0 0
228 0 0
227 0 0
230 0 0
222 0 0
225 0 0
228 0 0
225 0 0
232 0 0
229 0 0
229 0 0
225 0 0
233 0 0
231 0 0
228 0 0
231 0 0
225 0 0
232 0 0
230 0 0
229 0 0
231 0 0
231 0 0
233 0 0
230 0 0
227 0 0
233 0 0
232 0 0
229 0 0
226 0 0
233 0 0
228 0 0
230 0 0
228 0 0
232 0 0
232 0 0
228 0 0
227 0 0
231 0 0
232 0 0
226 0 0
230 0 0
230 0 0
229 0 0
229 0 0
226 0 0
220 0 0
230 0 0
229 0 0
227 0 0
227 0 0
229 0 0
229 0 0
228 0 0
231 0 0
225 0 0
229 0 0
230 0 0
230 0 0
223 0 0
230 0 0
227 0 0
227 0 0
226 0 0
230 0 0
229 0 0
229 0 0
227 0 0
229 0 0
229 0 0
227 0 0
227 0 0
225 0 0
229 0 0
229 0 0
230 0 0
232 0 0
231 0 0
229 0 0
229 0 0
228 0 0
231 0 0
230 0 0
228 0 0
225 0 0
230 0 0
230 0 0
229 0 0
228 0 0
229 0 0
230 0 0
229 0 0
230 0 0
229 0 0
232 0 0
230 0 0
230 0 0
227 0 0
232 0 0
227 0 0
229 0 0
230 0 0
227 0 0
230 0 0
229 0 0
230 0 0
229 0 0
232 0 0
231 0 0
232 0 0
229 0 0
229 0 0
230 0 0
233 0 0
228 0 0
229 0 0
229 0 0
228 0 0
232 0 0
230 0 0
230 0 0
229 0 0
226 0 0
228 0 0
229 0 0
230 0 0
0 0 253
0 0 255
0 0 255
0 0 255
0 0 254
0 0 255
0 0 255
0 0 255
0 0 255
0 0 255
0 0 255
0 0 255
0 0 255
0 0 255
0 0 254
0 0 255
0 0 255
0 0 255
0 0 255
0 0 255
0 0 255
0 0 255
0 0 253
0 0 255
0 0 254
0 0 255
0 0 255
0 0 255
0 0 255
0 0 255
0 0 255
0 0 255
0 0 254
0 0 254
0 0 255
0 0 253
0 0 253
0 0 255
0 0 255
0 0 255
0 0 253
0 0 254
0 0 252
0 0 255
0 0 254
0 0 253
0 0 255
0 0 253
0 0 255
0 0 254
0 0 255
0 0 252
0 0 255
0 0 254
0 0 254
0 0 253
0 0 252
0 0 254
0 0 255
0 0 254
0 0 254
0 0 253
0 0 255
0 0 253
0 0 254
0 0 254
0 0 254
0 0 254
0 0 252
0 0 253
0 0 253
0 0 255
0 0 254
0 0 254
0 0 254
0 0 254
0 0 254
0 0 253
0 0 253
0 0 253
0 0 253
0 0 250
0 0 249
0 0 252
0 0 254
0 0 248
0 0 252
0 0 248
0 0 254
0 0 254
0 0 250
0 0 255
0 0 252
0 0 254
0 0 253
0 0 250
0 0 252
0 0 250
0 0 254
0 0 252
0 0 254
0 0 252
0 0 250
0 0 248
0 0 253
0 0 252
0 0 245
0 0 250
0 0 246
0 0 253
0 0 246
0 0 241
0 0 253
0 0 248
0 0 245
0 0 250
0 0 253
0 0 248
0 0 248
0 0 250
0 0 250
0 0 254
0 0 248
0 0 250
0 0 252
0 0 249
0 0 252
0 0 252
0 0 249
0 0 249
0 0 250
0 0 246
0 0 246
0 0 245
0 0 252
0 0 250
0 0 246
0 0 248
0 0 237
0 0 249
0 0 248
0 0 248
0 0 245
0 0 246
0 0 240
0 0 250
0 0 241
0 0 249
0 0 242
0 0 242
0 0 249
0 0 244
134 137 245
224 230 253
241 247 255
241 247 255
241 247 255
241 247 255
241 247 255
241 247 255
241 247 255
241 247 255
241 247 255
241 247 255
241 247 255
241 247 255
241 247 255
241 247 255
241 247 255
241 247 255
241 247 255
241 247 255
241 247 255
241 247 255
241 247 255
241 247 255
241 247 255
241 247 255
241 247 255
241 247 255
241 247 255
241 247 255
242 247 255
242 247 255
242 247 255
242 247 255
242 247 255
242 247 255
242 247 255
242 247 255
242 247 255
242 247 255
242 247 255
242 247 255
242 247 255
242 247 255
242 247 255
242 247 255
242 247 255
242 247 255
242 247 255
242 247 255
242 247 255
242 247 255
242 247 255
242 247 255
242 247 255
242 247 255
242 247 255
242 247 255
242 247 255
242 247 255
242 247 255
242 247 255
242 247 255
242 247 255
242 247 255
242 247 255
242 247 255
241 247 255
241 247 255
241 247 255
241 247 255
241 247 255
241 247 255
241 247 255
241 247 255
241 247 255
241 247 255
241 247 255
241 247 255
241 247 255
241 247 255
241 247 255
241 247 255
241 247 255
241 247 255
241 247 255
241 247 255
241 247 255
241 247 255
241 247 255
241 247 255
241 247 255
241 247 255
241 247 255
240 234 242
235 135 140
234 0 0
228 0 0
227 0 0
229 0 0
230 0 0
225 0 0
234 0 0
230 0 0
223 0 0
237 0 0
228 0 0
230 0 0
230 0 0
234 0 0
223 0 0
227 0 0
225 0 0
234 0 0
228 0 0
229 0 0
232 0 0
231 0 0
227 0 0
227 0 0
230 0 0
228 0 0
229 0 0
226 0 0
226 0 0
226 0 0
230 0 0
225 0 0
224 0 0
227 0 0
226 0 0
226 0 0
224 0 0
230 0 0
226 0 0
229 0 0
231 0 0
225 0 0
230 0 0
232 0 0
229 0 0
225 0 0
225 0 0
226 0 0
231 0 0
233 0 0
229 0 0
225 0 0
232 0 0
228 0 0
228 0 0
231 0 0
227 0 0
231 0 0
226 0 0
227 0 0
230 0 0
231 0 0
230 0 0
229 0 0
229 0 0
231 0 0
225 0 0
226 0 0
230 0 0
230 0 0
230 0 0
231 0 0
228 0 0
227 0 0
231 0 0
231 0 0
229 0 0
229 0 0
234 0 0
230 0 0
230 0 0
230 0 0
229 0 0
232 0 0
228 0 0
231 0 0
231 0 0
227 0 0
229 0 0
231 0 0
228 0 0
229 0 0
227 0 0
229 0 0
226 0 0
227 0 0
231 0 0
228 0 0
230 0 0
231 0 0
231 0 0
230 0 0
224 0 0
232 0 0
230 0 0
228 0 0
228 0 0
228 0 0
228 0 0
229 0 0
230 0 0
225 0 0
231 0 0
230 0 0
228 0 0
229 0 0
230 0 0
228 0 0
231 0 0
228 0 0
229 0 0
228 0 0
230 0 0
229 0 0
231 0 0
228 0 0
233 0 0
226 0 0
228 0 0
229 0 0
231 0 0
229 0 0
231 0 0
229 0 0
230 0 0
228 0 0
229 0 0
228 0 0
227 0 0
230 0 0
231 0 0
229 0 0
228 0 0
231 0 0
228 0 0
228 0 0
230 0 0
227 0 0
230 0 0
230 0 0
230 0 0
230 0 0
0 0 255
0 0 254
0 0 255
0 0 255
0 0 255
0 0 255
0 0 255
0 0 255
0 0 255
0 0 255
0 0 255
0 0 255
0 0 255
0 0 255
0 0 255
0 0 255
0 0 253
0 0 255
0 0 255
0 0 255
0 0 255
0 0 255
0 0 255
0 0 255
0 0 255
0 0 255
0 0 255
0 0 255
0 0 254
0 0 254
0 0 255
0 0 255
0 0 254
0 0 255
0 0 255
0 0 255
0 0 255
0 0 255
0 0 255
0 0 254
0 0 255
0 0 255
0 0 254
0 0 253
0 0 254
0 0 254
0 0 253
0 0 254
0 0 255
0 0 252
0 0 255
0 0 253
0 0 254
0 0 253
0 0 255
0 0 253
0 0 253
0 0 255
0 0 253
0 0 253
0 0 254
0 0 255
0 0 254
0 0 255
0 0 255
0 0 254
0 0 254
0 0 255
0 0 255
0 0 254
0 0 253
0 0 254
0 0 253
0 0 254
0 0 253
0 0 254
0 0 255
0 0 254
0 0 250
0 0 254
0 0 254
0 0 255
0 0 253
0 0 254
0 0 255
0 0 252
0 0 253
0 0 253
0 0 254
0 0 253
0 0 254
0 0 252
0 0 253
0 0 252
0 0 248
0 0 254
0 0 248
0 0 254
0 0 249
0 0 250
0 0 254
0 0 249
0 0 255
0 0 252
0 0 254
0 0 253
0 0 252
0 0 252
0 0 253
0 0 253
0 0 253
0 0 254
0 0 248
0 0 250
0 0 255
0 0 245
0 0 248
0 0 246
0 0 254
0 0 253
0 0 253
0 0 249
0 0 252
0 0 253
0 0 248
0 0 252
0 0 252
0 0 246
0 0 249
0 0 249
0 0 249
0 0 252
0 0 252
0 0 244
0 0 252
0 0 248
0 0 249
0 0 252
0 0 249
0 0 248
0 0 242
0 0 250
0 0 252
0 0 245
0 0 245
0 0 248
0 0 244
0 0 248
0 0 246
0 0 253
72 74 249
188 193 248
241 247 255
241 247 255
241 247 255
241 247 255
241 247 255
241 247 255
241 247 255
241 247 255
241 247 255
241 247 255
241 247 255
241 247 255
241 247 255
241 247 255
241 247 255
241 247 255
241 247 255
241 247 255
241 247 255
241 247 255
241 247 255
241 247 255
242 247 255
242 247 255
242 247 255
242 247 255
242 247 255
242 247 255
242 247 255
242 247 255
242 247 255
242 247 255
242 247 255
242 247 255
242 247 255
242 247 255
242 247 255
242 247 255
242 247 255
242 247 255
242 247 255
242 247 255
242 247 255
242 247 255
242 247 255
242 247 255
242 247 255
242 247 255
242 247 255
242 247 255
242 247 255
242 247 255
242 247 255
242 247 255
242 247 255
242 247 255
242 247 255
242 247 255
242 247 255
242 247 255
242 247 255
242 247 255
242 247 255
242 247 255
242 247 255
242 247 255
242 247 255
242 247 255
242 247 255
242 247 255
242 247 255
242 247 255
242 247 255
241 247 255
241 247 255
241 247 255
241 247 255
241 247 255
241 247 255
241 247 255
241 247 255
241 247 255
241 247 255
241 247 255
241 247 255
241 247 255
241 247 255
241 247 255
241 247 255
241 247 255
241 247 255
241 247 255
241 247 255
241 247 255
241 247 255
241 247 255
240 202 209
229 49 51
235 0 0
233 0 0
230 0 0
231 0 0
230 0 0
229 0 0
229 0 0
226 0 0
230 0 0
229 0 0
226 0 0
231 0 0
227 0 0
232 0 0
230 0 0
230 0 0
235 0 0
233 0 0
229 0 0
230 0 0
229 0 0
229 0 0
227 0 0
226 0 0
223 0 0
232 0 0
229 0 0
228 0 0
226 0 0
230 0 0
231 0 0
230 0 0
231 0 0
230 0 0
236 0 0
232 0 0
229 0 0
232 0 0
230 0 0
226 0 0
231 0 0
228 0 0
231 0 0
228 0 0
227 0 0
234 0 0
230 0 0
231 0 0
230 0 0
226 0 0
230 0 0
232 0 0
230 0 0
231 0 0
229 0 0
227 0 0
233 0 0
226 0 0
226 0 0
228 0 0
230 0 0
227 0 0
229 0 0
231 0 0
230 0 0
231 0 0
229 0 0
231 0 0
231 0 0
229 0 0
228 0 0
230 0 0
231 0 0
233 0 0
229 0 0
229 0 0
233 0 0
228 0 0
230 0 0
230 0 0
231 0 0
233 0 0
233 0 0
226 0 0
229 0 0
227 0 0
231 0 0
230 0 0
229 0 0
226 0 0
229 0 0
226 0 0
232 0 0
226 0 0
230 0 0
231 0 0
232 0 0
229 0 0
228 0 0
230 0 0
229 0 0
231 0 0
224 0 0
230 0 0
233 0 0
227 0 0
230 0 0
233 0 0
226 0 0
231 0 0
228 0 0
231 0 0
226 0 0
230 0 0
231 0 0
230 0 0
226 0 0
231 0 0
227 0 0
227 0 0
232 0 0
225 0 0
232 0 0
230 0 0
231 0 0
231 0 0
229 0 0
229 0 0
231 0 0
230 0 0
227 0 0
227 0 0
230 0 0
230 0 0
230 0 0
232 0 0
228 0 0
231 0 0
228 0 0
231 0 0
230 0 0
230 0 0
230 0 0
230 0 0
231 0 0
230 0 0
232 0 0
231 0 0
227 0 0
231 0 0
0 0 254
0 0 254
0 0 255
0 0 255
0 0 255
0 0 255
0 0 254
0 0 255
0 0 255
0 0 255
0 0 254
0 0 253
0 0 255
0 0 255
0 0 255
0 0 255
0 0 255
0 0 255
0 0 255
0 0 255
0 0 255
0 0 254
0 0 254
0 0 254
0 0 255
0 0 255
0 0 255
0 0 255
0 0 254
0 0 254
0 0 255
0 0 255
0 0 254
0 0 253
0 0 255
0 0 254
0 0 254
0 0 255
0 0 255
0 0 255
0 0 255
0 0 255
0 0 255
0 0 255
0 0 255
0 0 254
0 0 253
0 0 255
0 0 255
0 0 254
0 0 254
0 0 254
0 0 255
0 0 252
0 0 255
0 0 253
0 0 254
0 0 254
0 0 252
0 0 253
0 0 255
0 0 253
0 0 255
0 0 254
0 0 253
0 0 255
0 0 254
0 0 253
0 0 255
0 0 250
0 0 253
0 0 254
0 0 250
0 0 253
0 0 250
0 0 255
0 0 253
0 0 252
0 0 250
0 0 254
0 0 250
0 0 254
0 0 254
0 0 253
0 0 255
0 0 253
0 0 255
0 0 253
0 0 255
0 0 253
0 0 252
0 0 250
0 0 249
0 0 253
0 0 246
0 0 254
0 0 252
0 0 255
0 0 253
0 0 253
0 0 252
0 0 253
0 0 254
0 0 250
0 0 249
0 0 252
0 0 253
0 0 252
0 0 253
0 0 254
0 0 250
0 0 252
0 0 245
0 0 250
0 0 254
0 0 249
0 0 249
0 0 245
0 0 250
0 0 253
0 0 252
0 0 249
0 0 252
0 0 250
0 0 254
0 0 250
0 0 245
0 0 254
0 0 252
0 0 246
0 0 246
0 0 252
0 0 248
0 0 250
0 0 246
0 0 250
0 0 248
0 0 252
0 0 249
0 0 249
0 0 248
0 0 241
0 0 249
0 0 241
0 0 249
0 0 245
0 0 250
0 0 241
0 0 252
125 128 248
227 233 255
241 247 255
241 247 255
241 247 255
241 247 255
241 247 255
241 247 255
241 247 255
241 247 255
241 247 255
241 247 255
241 247 255
241 247 255
241 247 255
241 247 255
241 247 255
241 247 255
241 247 255
241 247 255
242 247 255
242 247 255
242 247 255
242 247 255
242 247 255
242 247 255
242 247 255
242 247 255
242 247 255
242 247 255
242 247 255
242 247 255
242 247 255
242 247 255
242 247 255
242 247 255
242 247 255
242 247 255
242 247 255
242 247 255
242 247 255
242 247 255
242 247 255
242 247 255
242 247 255
242 247 255
242 247 255
242 247 255
242 247 255
242 247 255
242 247 255
242 247 255
242 247 255
242 247 255
242 247 255
242 247 255
242 247 255
242 247 255
242 247 255
242 247 255
242 247 255
242 247 255
242 247 255
242 247 255
242 247 255
242 247 255
242 247 255
242 247 255
242 247 255
242 247 255
242 247 255
242 247 255
242 247 255
242 247 255
242 247 255
242 247 255
242 247 255
242 247 255
242 247 255
242 247 255
242 247 255
242 247 255
242 247 255
241 247 255
241 247 255
241 247 255
241 247 255
241 247 255
241 247 255
241 247 255
241 247 255
241 247 255
241 247 255
241 247 255
241 247 255
241 247 255
241 247 255
241 247 255
241 247 255
241 247 255
240 225 233
236 139 144
235 0 0
232 0 0
229 0 0
234 0 0
232 0 0
229 0 0
231 0 0
232 0 0
236 0 0
234 0 0
231 0 0
222 0 0
237 0 0
231 0 0
227 0 0
231 0 0
231 0 0
229 0 0
226 0 0
223 0 0
228 0 0
232 0 0
232 0 0
228 0 0
232 0 0
228 0 0
230 0 0
235 0 0
232 0 0
227 0 0
230 0 0
227 0 0
231 0 0
229 0 0
227 0 0
230 0 0
228 0 0
232 0 0
232 0 0
229 0 0
227 0 0
229 0 0
229 0 0
234 0 0
229 0 0
232 0 0
225 0 0
234 0 0
233 0 0
233 0 0
228 0 0
226 0 0
230 0 0
228 0 0
231 0 0
232 0 0
229 0 0
227 0 0
234 0 0
228 0 0
229 0 0
234 0 0
229 0 0
230 0 0
231 0 0
228 0 0
231 0 0
229 0 0
230 0 0
231 0 0
229 0 0
232 0 0
227 0 0
230 0 0
229 0 0
231 0 0
229 0 0
229 0 0
232 0 0
231 0 0
234 0 0
230 0 0
228 0 0
229 0 0
230 0 0
226 0 0
228 0 0
228 0 0
230 0 0
227 0 0
232 0 0
228 0 0
231 0 0
229 0 0
232 0 0
229 0 0
229 0 0
229 0 0
230 0 0
232 0 0
230 0 0
231 0 0
232 0 0
233 0 0
230 0 0
233 0 0
228 0 0
227 0 0
232 0 0
230 0 0
228 0 0
233 0 0
232 0 0
230 0 0
232 0 0
232 0 0
226 0 0
232 0 0
230 0 0
229 0 0
229 0 0
227 0 0
228 0 0
231 0 0
228 0 0
228 0 0
231 0 0
230 0 0
228 0 0
227 0 0
227 0 0
228 0 0
230 0 0
231 0 0
228 0 0
230 0 0
232 0 0
230 0 0
230 0 0
230 0 0
229 0 0
230 0 0
228 0 0
230 0 0
231 0 0
228 0 0
232 0 0
232 0 0
227 0 0
0 0 255
0 0 255
0 0 255
0 0 254
0 0 255
0 0 255
0 0 255
0 0 255
0 0 255
0 0 255
0 0 254
0 0 255
0 0 255
0 0 255
0 0 254
0 0 255
0 0 255
0 0 255
0 0 255
0 0 254
0 0 255
0 0 254
0 0 255
0 0 255
0 0 255
0 0 254
0 0 255
0 0 255
0 0 255
0 0 254
0 0 254
0 0 255
0 0 255
0 0 253
0 0 254
0 0 255
0 0 255
0 0 254
0 0 255
0 0 255
0 0 253
0 0 255
0 0 253
0 0 255
0 0 252
0 0 253
0 0 255
0 0 255
0 0 255
0 0 254
0 0 253
0 0 254
0 0 254
0 0 253
0 0 254
0 0 255
0 0 252
0 0 254
0 0 255
0 0 254
0 0 255
0 0 254
0 0 254
0 0 253
0 0 255
0 0 254
0 0 254
0 0 255
0 0 252
0 0 254
0 0 255
0 0 253
0 0 254
0 0 253
0 0 254
0 0 250
0 0 254
0 0 255
0 0 255
0 0 253
0 0 252
0 0 252
0 0 252
0 0 254
0 0 252
0 0 255
0 0 255
0 0 250
0 0 252
0 0 249
0 0 249
0 0 252
0 0 253
0 0 254
0 0 250
0 0 252
0 0 254
0 0 249
0 0 253
0 0 249
0 0 249
0 0 254
0 0 254
0 0 253
0 0 249
0 0 253
0 0 253
0 0 252
0 0 250
0 0 252
0 0 250
0 0 254
0 0 253
0 0 254
0 0 253
0 0 246
0 0 246
0 0 245
0 0 248
0 0 248
0 0 245
0 0 249
0 0 253
0 0 252
0 0 249
0 0 249
0 0 248
0 0 252
0 0 253
0 0 252
0 0 249
0 0 248
0 0 249
0 0 250
0 0 242
0 0 245
0 0 246
0 0 252
0 0 250
0 0 249
0 0 246
0 0 250
0 0 242
0 0 248
0 0 249
0 0 245
0 0 249
76 78 250
185 190 252
241 247 255
241 247 255
241 247 255
241 247 255
241 247 255
241 247 255
241 247 255
241 247 255
241 247 255
241 247 255
241 247 255
241 247 255
241 247 255
241 247 255
242 247 255
242 247 255
242 247 255
242 247 255
242 247 255
242 247 255
242 247 255
242 247 255
242 247 255
242 247 255
242 247 255
242 247 255
242 247 255
242 247 255
242 247 255
242 247 255
242 247 255
242 247 255
242 247 255
242 247 255
242 247 255
242 248 255
242 248 255
242 248 255
242 248 255
242 248 255
242 248 255
242 248 255
242 248 255
242 248 255
242 248 255
242 248 255
242 248 255
242 248 255
242 248 255
242 248 255
242 248 255
242 248 255
242 248 255
242 248 255
242 248 255
242 248 255
242 248 255
242 248 255
242 248 255
242 248 255
242 248 255
242 248 255
242 248 255
242 248 255
242 248 255
242 248 255
242 248 255
242 247 255
242 247 255
242 247 255
242 247 255
242 247 255
242 247 255
242 247 255
242 247 255
242 247 255
242 247 255
242 247 255
242 247 255
242 247 255
242 247 255
242 247 255
242 247 255
242 247 255
242 247 255
242 247 255
242 247 255
241 247 255
241 247 255
241 247 255
241 247 255
241 247 255
241 247 255
241 247 255
241 247 255
241 247 255
241 247 255
241 247 255
241 247 255
241 247 255
241 247 255
241 247 255
239 190 196
233 69 72
233 0 0
229 0 0
233 0 0
231 0 0
226 0 0
235 0 0
233 0 0
229 0 0
227 0 0
226 0 0
230 0 0
234 0 0
232 0 0
230 0 0
231 0 0
226 0 0
231 0 0
230 0 0
230 0 0
233 0 0
231 0 0
231 0 0
228 0 0
230 0 0
232 0 0
229 0 0
231 0 0
232 0 0
228 0 0
231 0 0
236 0 0
233 0 0
233 0 0
226 0 0
228 0 0
230 0 0
230 0 0
228 0 0
230 0 0
231 0 0
231 0 0
233 0 0
227 0 0
235 0 0
232 0 0
230 0 0
231 0 0
231 0 0
233 0 0
228 0 0
231 0 0
232 0 0
228 0 0
230 0 0
231 0 0
228 0 0
231 0 0
225 0 0
230 0 0
229 0 0
231 0 0
231 0 0
230 0 0
229 0 0
231 0 0
229 0 0
230 0 0
229 0 0
232 0 0
229 0 0
226 0 0
234 0 0
231 0 0
231 0 0
229 0 0
231 0 0
231 0 0
233 0 0
231 0 0
228 0 0
229 0 0
228 0 0
231 0 0
234 0 0
232 0 0
228 0 0
229 0 0
228 0 0
226 0 0
232 0 0
231 0 0
231 0 0
230 0 0
227 0 0
225 0 0
230 0 0
227 0 0
227 0 0
228 0 0
230 0 0
231 0 0
230 0 0
231 0 0
229 0 0
232 0 0
231 0 0
230 0 0
232 0 0
229 0 0
230 0 0
230 0 0
230 0 0
231 0 0
227 0 0
229 0 0
230 0 0
229 0 0
229 0 0
229 0 0
227 0 0
229 0 0
228 0 0
231 0 0
228 0 0
230 0 0
230 0 0
229 0 0
230 0 0
231 0 0
230 0 0
228 0 0
230 0 0
230 0 0
225 0 0
226 0 0
230 0 0
233 0 0
224 0 0
228 0 0
232 0 0
229 0 0
230 0 0
230 0 0
228 0 0
230 0 0
229 0 0
227 0 0
0 0 255
0 0 255
0 0 255
0 0 255
0 0 255
0 0 255
0 0 255
0 0 255
0 0 254
0 0 255
0 0 254
0 0 255
0 0 255
0 0 255
0 0 255
0 0 254
0 0 255
0 0 255
0 0 255
0 0 255
0 0 254
0 0 255
0 0 255
0 0 255
0 0 254
0 0 255
0 0 255
0 0 254
0 0 255
0 0 255
0 0 253
0 0 255
0 0 255
0 0 253
0 0 254
0 0 255
0 0 255
0 0 254
0 0 254
0 0 255
0 0 254
0 0 253
0 0 255
0 0 254
0 0 254
0 0 255
0 0 252
0 0 255
0 0 254
0 0 254
0 0 255
0 0 250
0 0 254
0 0 254
0 0 253
0 0 255
0 0 255
0 0 255
0 0 254
0 0 254
0 0 255
0 0 254
0 0 255
0 0 252
0 0 255
0 0 255
0 0 252
0 0 254
0 0 253
0 0 252
0 0 254
0 0 254
0 0 253
0 0 253
0 0 254
0 0 250
0 0 255
0 0 255
0 0 254
0 0 253
0 0 253
0 0 254
0 0 254
0 0 255
0 0 252
0 0 254
0 0 254
0 0 253
0 0 249
0 0 253
0 0 254
0 0 249
0 0 252
0 0 254
0 0 252
0 0 254
0 0 252
0 0 253
0 0 254
0 0 246
0 0 254
0 0 253
0 0 248
0 0 253
0 0 252
0 0 252
0 0 249
0 0 253
0 0 250
0 0 253
0 0 249
0 0 252
0 0 253
0 0 248
0 0 246
0 0 253
0 0 248
0 0 253
0 0 248
0 0 250
0 0 249
0 0 252
0 0 252
0 0 248
0 0 252
0 0 253
0 0 250
0 0 248
0 0 250
0 0 249
0 0 249
0 0 248
0 0 252
0 0 249
0 0 248
0 0 246
0 0 253
0 0 244
0 0 250
0 0 248
0 0 246
0 0 246
0 0 248
0 0 253
0 0 245
0 0 252
142 146 250
234 239 255
241 247 255
241 247 255
241 247 255
241 247 255
241 247 255
241 247 255
241 247 255
241 247 255
241 247 255
241 247 255
241 247 255
242 247 255
242 247 255
242 247 255
242 247 255
242 247 255
242 247 255
242 247 255
242 247 255
242 247 255
242 247 255
242 247 255
242 247 255
242 247 255
242 247 255
242 247 255
242 247 255
242 247 255
242 248 255
242 248 255
242 248 255
242 248 255
242 248 255
242 248 255
242 248 255
242 248 255
242 248 255
242 248 255
242 248 255
242 248 255
242 248 255
242 248 255
242 248 255
242 248 255
242 248 255
242 248 255
242 248 255
242 248 255
242 248 255
242 248 255
242 248 255
242 248 255
242 248 255
242 248 255
242 248 255
242 248 255
242 248 255
242 248 255
242 248 255
242 248 255
242 248 255
242 248 255
242 248 255
242 248 255
242 248 255
242 248 255
242 248 255
242 248 255
242 248 255
242 248 255
242 248 255
242 248 255
242 248 255
242 248 255
242 248 255
242 248 255
242 247 255
242 247 255
242 247 255
242 247 255
242 247 255
242 247 255
242 247 255
242 247 255
242 247 255
242 247 255
242 247 255
242 247 255
242 247 255
242 247 255
242 247 255
242 247 255
242 247 255
241 247 255
241 247 255
241 247 255
241 247 255
241 247 255
241 247 255
241 247 255
241 247 255
241 247 255
241 247 255
241 247 255
240 239 248
239 154 159
233 34 36
234 0 0
231 0 0
230 0 0
239 0 0
231 0 0
234 0 0
227 0 0
236 0 0
229 0 0
223 0 0
230 0 0
225 0 0
224 0 0
232 0 0
230 0 0
234 0 0
232 0 0
236 0 0
231 0 0
227 0 0
226 0 0
236 0 0
230 0 0
228 0 0
226 0 0
232 0 0
234 0 0
227 0 0
229 0 0
233 0 0
228 0 0
233 0 0
231 0 0
234 0 0
232 0 0
232 0 0
234 0 0
233 0 0
233 0 0
227 0 0
234 0 0
234 0 0
228 0 0
228 0 0
235 0 0
228 0 0
231 0 0
228 0 0
231 0 0
230 0 0
231 0 0
232 0 0
224 0 0
231 0 0
224 0 0
231 0 0
229 0 0
231 0 0
231 0 0
226 0 0
230 0 0
228 0 0
228 0 0
224 0 0
230 0 0
231 0 0
231 0 0
233 0 0
234 0 0
231 0 0
225 0 0
229 0 0
227 0 0
228 0 0
231 0 0
229 0 0
229 0 0
232 0 0
230 0 0
229 0 0
231 0 0
232 0 0
232 0 0
231 0 0
230 0 0
228 0 0
230 0 0
230 0 0
232 0 0
226 0 0
234 0 0
231 0 0
232 0 0
232 0 0
231 0 0
230 0 0
235 0 0
231 0 0
233 0 0
230 0 0
232 0 0
229 0 0
233 0 0
231 0 0
229 0 0
233 0 0
229 0 0
231 0 0
232 0 0
231 0 0
228 0 0
227 0 0
228 0 0
232 0 0
228 0 0
228 0 0
226 0 0
229 0 0
231 0 0
229 0 0
228 0 0
229 0 0
228 0 0
228 0 0
230 0 0
230 0 0
229 0 0
227 0 0
228 0 0
230 0 0
234 0 0
232 0 0
227 0 0
229 0 0
230 0 0
228 0 0
232 0 0
228 0 0
231 0 0
230 0 0
228 0 0
231 0 0
232 0 0
228 0 0
230 0 0
0 0 255
0 0 254
0 0 255
0 0 255
0 0 255
0 0 254
0 0 255
0 0 255
0 0 255
0 0 255
0 0 254
0 0 254
0 0 255
0 0 255
0 0 255
0 0 255
0 0 255
0 0 255
0 0 255
0 0 255
0 0 254
0 0 255
0 0 254
0 0 255
0 0 254
0 0 255
0 0 255
0 0 255
0 0 255
0 0 253
0 0 255
0 0 254
0 0 253
0 0 255
0 0 254
0 0 255
0 0 253
0 0 254
0 0 254
0 0 253
0 0 255
0 0 254
0 0 255
0 0 254
0 0 255
0 0 255
0 0 254
0 0 253
0 0 254
0 0 253
0 0 254
0 0 255
0 0 254
0 0 255
0 0 254
0 0 253
0 0 254
0 0 254
0 0 254
0 0 253
0 0 255
0 0 255
0 0 255
0 0 254
0 0 253
0 0 254
0 0 255
0 0 255
0 0 255
0 0 255
0 0 253
0 0 255
0 0 255
0 0 249
0 0 254
0 0 255
0 0 254
0 0 255
0 0 252
0 0 254
0 0 254
0 0 254
0 0 255
0 0 253
0 0 249
0 0 253
0 0 253
0 0 254
0 0 255
0 0 254
0 0 253
0 0 252
0 0 255
0 0 254
0 0 254
0 0 254
0 0 250
0 0 252
0 0 252
0 0 252
0 0 250
0 0 248
0 0 252
0 0 248
0 0 254
0 0 250
0 0 249
0 0 253
0 0 248
0 0 249
0 0 253
0 0 249
0 0 249
0 0 252
0 0 250
0 0 249
0 0 250
0 0 252
0 0 250
0 0 253
0 0 254
0 0 249
0 0 249
0 0 248
0 0 248
0 0 248
0 0 249
0 0 248
0 0 253
0 0 250
0 0 250
0 0 252
0 0 252
0 0 248
0 0 250
0 0 250
0 0 248
0 0 252
0 0 249
0 0 249
0 0 245
0 0 250
0 0 249
0 0 246
108 110 250
209 214 254
241 247 255
241 247 255
241 247 255
241 247 255
241 247 255
241 247 255
241 247 255
241 247 255
241 247 255
242 247 255
242 247 255
242 247 255
242 247 255
242 247 255
242 247 255
242 247 255
242 247 255
242 247 255
242 247 255
242 247 255
242 247 255
242 247 255
242 247 255
242 247 255
242 248 255
242 248 255
242 248 255
242 248 255
242 248 255
242 248 255
242 248 255
242 248 255
242 248 255
242 248 255
242 248 255
242 248 255
242 248 255
242 248 255
242 248 255
242 248 255
242 248 255
242 248 255
242 248 255
242 248 255
242 248 255
242 248 255
242 248 255
242 248 255
242 248 255
242 248 255
242 248 255
242 248 255
242 248 255
242 248 255
242 248 255
242 248 255
242 248 255
242 248 255
242 248 255
242 248 255
242 248 255
242 248 255
242 248 255
242 248 255
242 248 255
242 248 255
242 248 255
242 248 255
242 248 255
242 248 255
242 248 255
242 248 255
242 248 255
242 248 255
242 248 255
242 248 255
242 248 255
242 248 255
242 248 255
242 248 255
242 248 255
242 248 255
242 248 255
242 248 255
242 247 255
242 247 255
242 247 255
242 247 255
242 247 255
242 247 255
242 247 255
242 247 255
242 247 255
242 247 255
242 247 255
242 247 255
242 247 255
242 247 255
242 247 255
241 247 255
241 247 255
241 247 255
241 247 255
241 247 255
241 247 255
241 247 255
241 247 255
241 247 255
241 211 218
235 69 72
235 0 0
229 0 0
235 0 0
237 0 0
233 0 0
228 0 0
229 0 0
231 0 0
231 0 0
229 0 0
228 0 0
224 0 0
231 0 0
235 0 0
229 0 0
229 0 0
228 0 0
233 0 0
233 0 0
233 0 0
232 0 0
229 0 0
232 0 0
235 0 0
233 0 0
230 0 0
230 0 0
232 0 0
234 0 0
233 0 0
228 0 0
229 0 0
227 0 0
228 0 0
230 0 0
232 0 0
231 0 0
228 0 0
230 0 0
226 0 0
233 0 0
231 0 0
230 0 0
229 0 0
230 0 0
225 0 0
230 0 0
229 0 0
227 0 0
233 0 0
227 0 0
229 0 0
230 0 0
232 0 0
232 0 0
231 0 0
229 0 0
230 0 0
227 0 0
232 0 0
231 0 0
230 0 0
230 0 0
231 0 0
231 0 0
231 0 0
229 0 0
234 0 0
234 0 0
226 0 0
231 0 0
231 0 0
235 0 0
232 0 0
234 0 0
232 0 0
232 0 0
230 0 0
230 0 0
231 0 0
231 0 0
233 0 0
230 0 0
229 0 0
233 0 0
230 0 0
229 0 0
230 0 0
228 0 0
227 0 0
231 0 0
229 0 0
228 0 0
228 0 0
231 0 0
228 0 0
230 0 0
226 0 0
230 0 0
234 0 0
229 0 0
231 0 0
230 0 0
231 0 0
230 0 0
233 0 0
232 0 0
231 0 0
233 0 0
228 0 0
229 0 0
228 0 0
228 0 0
232 0 0
231 0 0
228 0 0
227 0 0
230 0 0
227 0 0
230 0 0
230 0 0
229 0 0
227 0 0
231 0 0
231 0 0
230 0 0
232 0 0
232 0 0
229 0 0
229 0 0
230 0 0
230 0 0
233 0 0
232 0 0
236 0 0
231 0 0
228 0 0
231 0 0
230 0 0
231 0 0
230 0 0
227 0 0
228 0 0
229 0 0
0 0 255
0 0 255
0 0 254
0 0 255
0 0 255
0 0 255
0 0 255
0 0 254
0 0 255
0 0 255
0 0 254
0 0 255
0 0 255
0 0 255
0 0 255
0 0 255
0 0 255
0 0 255
0 0 255
0 0 255
0 0 254
0 0 254
0 0 255
0 0 255
0 0 255
0 0 255
0 0 255
0 0 255
0 0 255
0 0 254
0 0 255
0 0 255
0 0 255
0 0 255
0 0 254
0 0 255
0 0 255
0 0 255
0 0 255
0 0 255
0 0 255
0 0 254
0 0 254
0 0 255
0 0 254
0 0 255
0 0 254
0 0 253
0 0 254
0 0 254
0 0 255
0 0 254
0 0 255
0 0 253
0 0 255
0 0 255
0 0 254
0 0 254
0 0 254
0 0 255
0 0 253
0 0 255
0 0 255
0 0 253
0 0 255
0 0 254
0 0 255
0 0 254
0 0 252
0 0 254
0 0 254
0 0 252
0 0 255
0 0 255
0 0 254
0 0 254
0 0 253
0 0 253
0 0 253
0 0 255
0 0 255
0 0 253
0 0 253
0 0 254
0 0 255
0 0 254
0 0 253
0 0 255
0 0 253
0 0 252
0 0 252
0 0 252
0 0 252
0 0 255
0 0 254
0 0 252
0 0 254
0 0 252
0 0 253
0 0 249
0 0 249
0 0 254
0 0 253
0 0 250
0 0 249
0 0 249
0 0 252
0 0 253
0 0 254
0 0 252
0 0 253
0 0 249
0 0 253
0 0 254
0 0 248
0 0 246
0 0 252
0 0 245
0 0 249
0 0 248
0 0 250
0 0 250
0 0 248
0 0 252
0 0 246
0 0 242
0 0 249
0 0 248
0 0 248
0 0 253
0 0 246
0 0 252
0 0 249
0 0 252
0 0 253
0 0 248
0 0 249
0 0 252
0 0 250
0 0 253
0 0 248
0 0 249
48 49 249
180 185 252
240 246 255
241 247 255
241 247 255
241 247 255
241 247 255
241 247 255
241 247 255
241 247 255
242 247 255
242 247 255
242 247 255
242 247 255
242 247 255
242 247 255
242 247 255
242 247 255
242 247 255
242 247 255
242 247 255
242 247 255
242 247 255
242 247 255
242 248 255
242 248 255
242 248 255
242 248 255
242 248 255
242 248 255
242 248 255
242 248 255
242 248 255
242 248 255
242 248 255
242 248 255
242 248 255
242 248 255
242 248 255
242 248 255
242 248 255
242 248 255
242 248 255
243 248 255
243 248 255
243 248 255
243 248 255
243 248 255
243 248 255
243 248 255
243 248 255
243 248 255
243 248 255
243 248 255
243 248 255
243 248 255
243 248 255
243 248 255
243 248 255
243 248 255
243 248 255
243 248 255
243 248 255
243 248 255
243 248 255
243 248 255
243 248 255
243 248 255
243 248 255
243 248 255
243 248 255
243 248 255
243 248 255
242 248 255
242 248 255
242 248 255
242 248 255
242 248 255
242 248 255
242 248 255
242 248 255
242 248 255
242 248 255
242 248 255
242 248 255
242 248 255
242 248 255
242 248 255
242 248 255
242 248 255
242 248 255
242 248 255
242 248 255
242 247 255
242 247 255
242 247 255
242 247 255
242 247 255
242 247 255
242 247 255
242 247 255
242 247 255
242 247 255
242 247 255
242 247 255
242 247 255
242 247 255
241 247 255
241 247 255
241 247 255
241 247 255
241 247 255
241 247 255
241 243 252
236 173 179
236 0 0
238 0 0
234 0 0
234 0 0
235 0 0
234 0 0
229 0 0
236 0 0
234 0 0
229 0 0
232 0 0
229 0 0
233 0 0
228 0 0
231 0 0
232 0 0
234 0 0
232 0 0
236 0 0
233 0 0
231 0 0
229 0 0
234 0 0
230 0 0
230 0 0
234 0 0
233 0 0
234 0 0
229 0 0
228 0 0
227 0 0
231 0 0
231 0 0
231 0 0
226 0 0
233 0 0
229 0 0
232 0 0
229 0 0
229 0 0
230 0 0
231 0 0
233 0 0
230 0 0
228 0 0
229 0 0
236 0 0
235 0 0
229 0 0
231 0 0
232 0 0
232 0 0
229 0 0
235 0 0
230 0 0
227 0 0
235 0 0
227 0 0
229 0 0
231 0 0
232 0 0
230 0 0
231 0 0
232 0 0
229 0 0
229 0 0
232 0 0
233 0 0
231 0 0
231 0 0
232 0 0
229 0 0
231 0 0
229 0 0
235 0 0
231 0 0
234 0 0
228 0 0
228 0 0
229 0 0
230 0 0
225 0 0
229 0 0
229 0 0
231 0 0
229 0 0
233 0 0
229 0 0
228 0 0
232 0 0
229 0 0
230 0 0
230 0 0
230 0 0
235 0 0
232 0 0
232 0 0
231 0 0
229 0 0
230 0 0
228 0 0
231 0 0
229 0 0
227 0 0
232 0 0
231 0 0
233 0 0
231 0 0
232 0 0
227 0 0
235 0 0
231 0 0
230 0 0
231 0 0
230 0 0
228 0 0
232 0 0
228 0 0
230 0 0
233 0 0
231 0 0
228 0 0
230 0 0
230 0 0
228 0 0
232 0 0
230 0 0
232 0 0
227 0 0
226 0 0
228 0 0
233 0 0
231 0 0
228 0 0
229 0 0
230 0 0
228 0 0
231 0 0
229 0 0
232 0 0
227 0 0
230 0 0
230 0 0
0 0 254
0 0 255
0 0 254
0 0 255
0 0 255
0 0 255
0 0 255
0 0 255
0 0 255
0 0 254
0 0 255
0 0 255
0 0 255
0 0 255
0 0 255
0 0 255
0 0 255
0 0 255
0 0 255
0 0 255
0 0 254
0 0 255
0 0 255
0 0 254
0 0 255
0 0 254
0 0 254
0 0 255
0 0 255
0 0 255
0 0 254
0 0 254
0 0 254
0 0 255
0 0 255
0 0 255
0 0 255
0 0 253
0 0 255
0 0 255
0 0 254
0 0 255
0 0 255
0 0 254
0 0 254
0 0 254
0 0 255
0 0 254
0 0 255
0 0 254
0 0 253
0 0 254
0 0 255
0 0 253
0 0 254
0 0 254
0 0 255
0 0 255
0 0 255
0 0 255
0 0 253
0 0 253
0 0 252
0 0 255
0 0 255
0 0 254
0 0 254
0 0 255
0 0 255
0 0 255
0 0 252
0 0 254
0 0 253
0 0 254
0 0 250
0 0 254
0 0 255
0 0 255
0 0 252
0 0 255
0 0 252
0 0 254
0 0 253
0 0 254
0 0 254
0 0 254
0 0 253
0 0 255
0 0 253
0 0 253
0 0 252
0 0 254
0 0 253
0 0 250
0 0 254
0 0 253
0 0 254
0 0 253
0 0 254
0 0 252
0 0 253
0 0 250
0 0 253
0 0 252
0 0 254
0 0 253
0 0 250
0 0 250
0 0 249
0 0 252
0 0 249
0 0 252
0 0 253
0 0 248
0 0 253
0 0 253
0 0 248
0 0 254
0 0 249
0 0 253
0 0 250
0 0 248
0 0 249
0 0 254
0 0 250
0 0 254
0 0 250
0 0 249
0 0 252
0 0 252
0 0 250
0 0 250
0 0 250
0 0 249
0 0 253
0 0 250
0 0 252
0 0 248
0 0 249
0 0 248
0 0 248
156 160 252
230 236 255
241 247 255
241 247 255
241 247 255
241 247 255
241 247 255
242 247 255
242 247 255
242 247 255
242 247 255
242 247 255
242 247 255
242 247 255
242 247 255
242 247 255
242 247 255
242 247 255
242 247 255
242 247 255
242 248 255
242 248 255
242 248 255
242 248 255
242 248 255
242 248 255
242 248 255
242 248 255
242 248 255
242 248 255
242 248 255
242 248 255
242 248 255
242 248 255
242 248 255
242 248 255
243 248 255
243 248 255
243 248 255
243 248 255
243 248 255
243 248 255
243 248 255
243 248 255
243 248 255
243 248 255
243 248 255
243 248 255
243 248 255
243 248 255
243 248 255
243 248 255
243 248 255
243 248 255
243 248 255
243 248 255
243 248 255
243 248 255
243 248 255
243 248 255
243 248 255
243 248 255
243 248 255
243 248 255
243 248 255
243 248 255
243 248 255
243 248 255
243 248 255
243 248 255
243 248 255
243 248 255
243 248 255
243 248 255
243 248 255
243 248 255
243 248 255
243 248 255
243 248 255
243 248 255
243 248 255
243 248 255
242 248 255
242 248 255
242 248 255
242 248 255
242 248 255
242 248 255
242 248 255
242 248 255
242 248 255
242 248 255
242 248 255
242 248 255
242 248 255
242 248 255
242 248 255
242 248 255
242 247 255
242 247 255
242 247 255
242 247 255
242 247 255
242 247 255
242 247 255
242 247 255
242 247 255
242 247 255
242 247 255
242 247 255
242 247 255
241 247 255
241 247 255
241 247 255
241 247 255
241 247 255
241 237 245
237 158 163
232 0 0
235 0 0
236 0 0
230 0 0
231 0 0
234 0 0
233 0 0
233 0 0
235 0 0
229 0 0
232 0 0
233 0 0
229 0 0
229 0 0
235 0 0
231 0 0
231 0 0
233 0 0
231 0 0
235 0 0
232 0 0
234 0 0
231 0 0
232 0 0
236 0 0
230 0 0
234 0 0
232 0 0
235 0 0
226 0 0
229 0 0
228 0 0
231 0 0
233 0 0
228 0 0
222 0 0
231 0 0
232 0 0
233 0 0
231 0 0
234 0 0
227 0 0
233 0 0
229 0 0
234 0 0
229 0 0
232 0 0
230 0 0
232 0 0
229 0 0
234 0 0
227 0 0
233 0 0
229 0 0
231 0 0
231 0 0
227 0 0
226 0 0
231 0 0
232 0 0
233 0 0
229 0 0
229 0 0
232 0 0
232 0 0
232 0 0
230 0 0
230 0 0
231 0 0
237 0 0
233 0 0
231 0 0
232 0 0
230 0 0
231 0 0
233 0 0
230 0 0
229 0 0
233 0 0
228 0 0
228 0 0
227 0 0
227 0 0
231 0 0
230 0 0
231 0 0
230 0 0
231 0 0
225 0 0
229 0 0
230 0 0
229 0 0
230 0 0
226 0 0
234 0 0
231 0 0
231 0 0
231 0 0
231 0 0
226 0 0
233 0 0
229 0 0
232 0 0
229 0 0
231 0 0
230 0 0
231 0 0
230 0 0
232 0 0
234 0 0
229 0 0
231 0 0
229 0 0
232 0 0
226 0 0
228 0 0
230 0 0
230 0 0
230 0 0
229 0 0
233 0 0
231 0 0
229 0 0
230 0 0
228 0 0
231 0 0
230 0 0
230 0 0
231 0 0
231 0 0
232 0 0
231 0 0
230 0 0
229 0 0
230 0 0
228 0 0
232 0 0
231 0 0
228 0 0
228 0 0
232 0 0
0 0 255
0 0 255
0 0 255
0 0 254
0 0 255
0 0 254
0 0 255
0 0 254
0 0 255
0 0 255
0 0 255
0 0 255
0 0 255
0 0 255
0 0 255
0 0 255
0 0 255
0 0 255
0 0 254
0 0 255
0 0 255
0 0 255
0 0 255
0 0 255
0 0 255
0 0 252
0 0 255
0 0 255
0 0 254
0 0 254
0 0 254
0 0 255
0 0 254
0 0 255
0 0 255
0 0 254
0 0 255
0 0 255
0 0 253
0 0 255
0 0 255
0 0 255
0 0 254
0 0 255
0 0 254
0 0 254
0 0 253
0 0 253
0 0 255
0 0 254
0 0 254
0 0 253
0 0 253
0 0 253
0 0 255
0 0 254
0 0 254
0 0 253
0 0 254
0 0 254
0 0 255
0 0 254
0 0 255
0 0 254
0 0 252
0 0 254
0 0 253
0 0 254
0 0 254
0 0 255
0 0 254
0 0 249
0 0 252
0 0 249
0 0 252
0 0 254
0 0 250
0 0 254
0 0 255
0 0 254
0 0 255
0 0 252
0 0 253
0 0 255
0 0 254
0 0 253
0 0 253
0 0 253
0 0 252
0 0 253
0 0 253
0 0 254
0 0 253
0 0 252
0 0 253
0 0 254
0 0 252
0 0 253
0 0 255
0 0 250
0 0 252
0 0 252
0 0 252
0 0 252
0 0 254
0 0 254
0 0 250
0 0 253
0 0 252
0 0 253
0 0 253
0 0 254
0 0 249
0 0 250
0 0 250
0 0 250
0 0 246
0 0 253
0 0 252
0 0 252
0 0 253
0 0 250
0 0 252
0 0 250
0 0 252
0 0 253
0 0 255
0 0 252
0 0 252
0 0 253
0 0 244
0 0 248
0 0 248
0 0 250
0 0 254
0 0 250
0 0 252
0 0 252
0 0 255
108 110 252
212 217 254
241 247 255
241 247 255
241 247 255
241 247 255
242 247 255
242 247 255
242 247 255
242 247 255
242 247 255
242 247 255
242 247 255
242 247 255
242 247 255
242 247 255
242 247 255
242 247 255
242 248 255
242 248 255
242 248 255
242 248 255
242 248 255
242 248 255
242 248 255
242 248 255
242 248 255
242 248 255
242 248 255
242 248 255
242 248 255
242 248 255
243 248 255
243 248 255
243 248 255
243 248 255
243 248 255
243 248 255
243 248 255
243 248 255
243 248 255
243 248 255
243 248 255
243 248 255
243 248 255
243 248 255
243 248 255
243 248 255
243 248 255
243 248 255
243 248 255
243 248 255
243 248 255
243 248 255
243 248 255
243 248 255
243 248 255
243 248 255
243 248 255
243 248 255
243 248 255
243 248 255
243 248 255
243 248 255
243 248 255
243 248 255
243 248 255
243 248 255
243 248 255
243 248 255
243 248 255
243 248 255
243 248 255
243 248 255
243 248 255
243 248 255
243 248 255
243 248 255
243 248 255
243 248 255
243 248 255
243 248 255
243 248 255
243 248 255
243 248 255
243 248 255
243 248 255
243 248 255
243 248 255
243 248 255
242 248 255
242 248 255
242 248 255
242 248 255
242 248 255
242 248 255
242 248 255
242 248 255
242 248 255
242 248 255
242 248 255
242 248 255
242 248 255
242 248 255
242 247 255
242 247 255
242 247 255
242 247 255
242 247 255
242 247 255
242 247 255
242 247 255
242 247 255
242 247 255
242 247 255
242 247 255
241 247 255
241 247 255
241 247 255
241 247 255
241 217 224
237 99 102
231 0 0
231 0 0
234 0 0
238 0 0
235 0 0
234 0 0
233 0 0
234 0 0
231 0 0
233 0 0
229 0 0
229 0 0
233 0 0
227 0 0
232 0 0
235 0 0
231 0 0
229 0 0
229 0 0
231 0 0
233 0 0
232 0 0
233 0 0
235 0 0
226 0 0
232 0 0
231 0 0
231 0 0
230 0 0
230 0 0
231 0 0
228 0 0
232 0 0
235 0 0
233 0 0
227 0 0
230 0 0
229 0 0
228 0 0
231 0 0
231 0 0
230 0 0
233 0 0
234 0 0
234 0 0
228 0 0
234 0 0
232 0 0
229 0 0
235 0 0
230 0 0
235 0 0
236 0 0
230 0 0
231 0 0
228 0 0
233 0 0
234 0 0
233 0 0
231 0 0
233 0 0
232 0 0
233 0 0
233 0 0
226 0 0
233 0 0
228 0 0
230 0 0
234 0 0
231 0 0
228 0 0
231 0 0
234 0 0
230 0 0
233 0 0
234 0 0
232 0 0
229 0 0
233 0 0
232 0 0
232 0 0
232 0 0
231 0 0
230 0 0
229 0 0
231 0 0
231 0 0
232 0 0
229 0 0
232 0 0
230 0 0
231 0 0
231 0 0
234 0 0
229 0 0
232 0 0
232 0 0
231 0 0
232 0 0
234 0 0
232 0 0
232 0 0
231 0 0
228 0 0
228 0 0
229 0 0
228 0 0
231 0 0
232 0 0
231 0 0
230 0 0
230 0 0
231 0 0
231 0 0
230 0 0
229 0 0
230 0 0
231 0 0
230 0 0
230 0 0
233 0 0
232 0 0
231 0 0
232 0 0
231 0 0
229 0 0
231 0 0
230 0 0
233 0 0
230 0 0
233 0 0
230 0 0
232 0 0
230 0 0
229 0 0
227 0 0
231 0 0
233 0 0
232 0 0
0 0 255
0 0 255
0 0 255
0 0 255
0 0 255
0 0 255
0 0 255
0 0 255
0 0 255
0 0 255
0 0 255
0 0 255
0 0 255
0 0 255
0 0 255
0 0 255
0 0 255
0 0 255
0 0 255
0 0 254
0 0 253
0 0 255
0 0 255
0 0 254
0 0 254
0 0 255
0 0 255
0 0 255
0 0 255
0 0 255
0 0 255
0 0 254
0 0 255
0 0 255
0 0 255
0 0 252
0 0 255
0 0 254
0 0 255
0 0 255
0 0 255
0 0 254
0 0 252
0 0 254
0 0 255
0 0 255
0 0 255
0 0 253
0 0 253
0 0 253
0 0 254
0 0 253
0 0 255
0 0 255
0 0 253
0 0 254
0 0 254
0 0 252
0 0 253
0 0 254
0 0 254
0 0 254
0 0 255
0 0 254
0 0 255
0 0 254
0 0 253
0 0 255
0 0 254
0 0 254
0 0 255
0 0 253
0 0 253
0 0 255
0 0 252
0 0 253
0 0 255
0 0 254
0 0 254
0 0 250
0 0 253
0 0 255
0 0 255
0 0 254
0 0 254
0 0 254
0 0 252
0 0 253
0 0 255
0 0 255
0 0 253
0 0 253
0 0 252
0 0 253
0 0 254
0 0 250
0 0 253
0 0 250
0 0 253
0 0 253
0 0 253
0 0 253
0 0 254
0 0 253
0 0 255
0 0 254
0 0 254
0 0 253
0 0 253
0 0 250
0 0 246
0 0 253
0 0 253
0 0 253
0 0 254
0 0 253
0 0 254
0 0 249
0 0 252
0 0 253
0 0 253
0 0 255
0 0 253
0 0 252
0 0 248
0 0 252
0 0 250
0 0 253
0 0 249
0 0 245
0 0 254
0 0 252
0 0 250
0 0 249
0 0 248
0 0 250
0 0 253
99 102 252
196 201 255
241 247 255
241 247 255
242 247 255
242 247 255
242 247 255
242 247 255
242 247 255
242 247 255
242 247 255
242 247 255
242 247 255
242 247 255
242 247 255
242 247 255
242 248 255
242 248 255
242 248 255
242 248 255
242 248 255
242 248 255
242 248 255
242 248 255
242 248 255
242 248 255
242 248 255
242 248 255
242 248 255
243 248 255
243 248 255
243 248 255
243 248 255
243 248 255
243 248 255
243 248 255
243 248 255
243 248 255
243 248 255
243 248 255
243 248 255
243 248 255
243 248 255
243 248 255
243 248 255
243 248 255
243 248 255
243 248 255
243 248 255
243 248 255
243 248 255
243 248 255
243 248 255
243 248 255
243 248 255
243 248 255
243 248 255
243 248 255
243 248 255
243 248 255
243 248 255
243 248 255
243 248 255
243 248 255
243 248 255
243 248 255
243 248 255
243 248 255
243 248 255
243 248 255
243 248 255
243 248 255
243 248 255
243 248 255
243 248 255
243 248 255
243 248 255
243 248 255
243 248 255
243 248 255
243 248 255
243 248 255
243 248 255
243 248 255
243 248 255
243 248 255
243 248 255
243 248 255
243 248 255
243 248 255
243 248 255
243 248 255
243 248 255
243 248 255
243 248 255
243 248 255
243 248 255
242 248 255
242 248 255
242 248 255
242 248 255
242 248 255
242 248 255
242 248 255
242 248 255
242 248 255
242 248 255
242 248 255
242 248 255
242 248 255
242 247 255
242 247 255
242 247 255
242 247 255
242 247 255
242 247 255
242 247 255
242 247 255
242 247 255
242 247 255
242 247 255
242 247 255
241 247 255
241 247 255
242 201 207
239 102 105
235 0 0
235 0 0
235 0 0
235 0 0
234 0 0
229 0 0
235 0 0
233 0 0
228 0 0
230 0 0
232 0 0
229 0 0
233 0 0
231 0 0
231 0 0
226 0 0
229 0 0
234 0 0
233 0 0
228 0 0
227 0 0
227 0 0
232 0 0
230 0 0
233 0 0
231 0 0
234 0 0
230 0 0
232 0 0
234 0 0
229 0 0
235 0 0
230 0 0
233 0 0
234 0 0
227 0 0
232 0 0
230 0 0
230 0 0
232 0 0
234 0 0
231 0 0
232 0 0
232 0 0
227 0 0
232 0 0
235 0 0
232 0 0
229 0 0
232 0 0
232 0 0
232 0 0
230 0 0
229 0 0
232 0 0
233 0 0
230 0 0
233 0 0
231 0 0
234 0 0
231 0 0
234 0 0
234 0 0
232 0 0
231 0 0
230 0 0
230 0 0
231 0 0
231 0 0
230 0 0
231 0 0
233 0 0
229 0 0
231 0 0
232 0 0
230 0 0
225 0 0
233 0 0
230 0 0
231 0 0
232 0 0
234 0 0
231 0 0
230 0 0
232 0 0
232 0 0
232 0 0
230 0 0
232 0 0
231 0 0
234 0 0
228 0 0
230 0 0
232 0 0
231 0 0
230 0 0
230 0 0
232 0 0
230 0 0
231 0 0
230 0 0
230 0 0
228 0 0
233 0 0
233 0 0
230 0 0
233 0 0
230 0 0
230 0 0
228 0 0
228 0 0
228 0 0
229 0 0
229 0 0
232 0 0
232 0 0
234 0 0
233 0 0
230 0 0
228 0 0
228 0 0
229 0 0
229 0 0
229 0 0
234 0 0
227 0 0
232 0 0
230 0 0
231 0 0
227 0 0
230 0 0
233 0 0
228 0 0
232 0 0
232 0 0
235 0 0
229 0 0
0 0 255
0 0 255
0 0 255
0 0 255
0 0 255
0 0 254
0 0 255
0 0 255
0 0 255
0 0 255
0 0 255
0 0 254
0 0 255
0 0 255
0 0 255
0 0 255
0 0 255
0 0 255
0 0 255
0 0 255
0 0 254
0 0 255
0 0 254
0 0 254
0 0 255
0 0 255
0 0 253
0 0 255
0 0 255
0 0 255
0 0 255
0 0 254
0 0 253
0 0 254
0 0 255
0 0 254
0 0 255
0 0 255
0 0 255
0 0 255
0 0 254
0 0 254
0 0 255
0 0 255
0 0 253
0 0 255
0 0 255
0 0 254
0 0 253
0 0 253
0 0 255
0 0 255
0 0 253
0 0 254
0 0 254
0 0 255
0 0 255
0 0 253
0 0 253
0 0 254
0 0 255
0 0 255
0 0 252
0 0 254
0 0 254
0 0 253
0 0 253
0 0 253
0 0 253
0 0 255
0 0 254
0 0 255
0 0 255
0 0 255
0 0 252
0 0 253
0 0 255
0 0 254
0 0 255
0 0 252
0 0 254
0 0 255
0 0 254
0 0 254
0 0 255
0 0 253
0 0 255
0 0 254
0 0 254
0 0 255
0 0 254
0 0 250
0 0 252
0 0 252
0 0 252
0 0 254
0 0 254
0 0 250
0 0 253
0 0 252
0 0 249
0 0 253
0 0 253
0 0 253
0 0 252
0 0 250
0 0 249
0 0 254
0 0 250
0 0 252
0 0 252
0 0 250
0 0 253
0 0 250
0 0 250
0 0 250
0 0 253
0 0 250
0 0 252
0 0 249
0 0 248
0 0 252
0 0 248
0 0 252
0 0 252
0 0 250
0 0 250
0 0 246
0 0 253
0 0 253
0 0 252
0 0 254
0 0 253
0 0 252
0 0 253
64 65 253
190 195 254
241 247 255
242 247 255
242 247 255
242 247 255
242 247 255
242 247 255
242 247 255
242 247 255
242 247 255
242 247 255
242 247 255
242 247 255
242 247 255
242 248 255
242 248 255
242 248 255
242 248 255
242 248 255
242 248 255
242 248 255
242 248 255
242 248 255
242 248 255
242 248 255
242 248 255
243 248 255
243 248 255
243 248 255
243 248 255
243 248 255
243 248 255
243 248 255
243 248 255
243 248 255
243 248 255
243 248 255
243 248 255
243 248 255
243 248 255
243 248 255
243 248 255
243 248 255
243 248 255
243 248 255
243 248 255
243 248 255
243 248 255
243 248 255
243 248 255
243 248 255
243 248 255
243 248 255
243 248 255
243 248 255
243 248 255
243 248 255
243 248 255
243 248 255
243 248 255
243 248 255
243 248 255
243 248 255
243 248 255
243 248 255
243 248 255
243 248 255
243 248 255
243 248 255
243 248 255
243 248 255
243 248 255
243 248 255
243 248 255
243 248 255
243 248 255
243 248 255
243 248 255
243 248 255
243 248 255
243 248 255
243 248 255
243 248 255
243 248 255
243 248 255
243 248 255
243 248 255
243 248 255
243 248 255
243 248 255
243 248 255
243 248 255
243 248 255
243 248 255
243 248 255
243 248 255
243 248 255
243 248 255
243 248 255
243 248 255
243 248 255
243 248 255
242 248 255
242 248 255
242 248 255
242 248 255
242 248 255
242 248 255
242 248 255
242 248 255
242 248 255
242 248 255
242 248 255
242 248 255
242 247 255
242 247 255
242 247 255
242 247 255
242 247 255
242 247 255
242 247 255
242 247 255
242 247 255
242 247 255
242 247 255
242 247 255
241 243 252
236 173 179
235 74 76
232 0 0
235 0 0
232 0 0
234 0 0
233 0 0
233 0 0
232 0 0
234 0 0
234 0 0
235 0 0
236 0 0
228 0 0
229 0 0
236 0 0
236 0 0
232 0 0
234 0 0
237 0 0
232 0 0
228 0 0
225 0 0
228 0 0
234 0 0
234 0 0
233 0 0
234 0 0
231 0 0
231 0 0
231 0 0
233 0 0
235 0 0
229 0 0
234 0 0
235 0 0
226 0 0
228 0 0
233 0 0
229 0 0
233 0 0
230 0 0
233 0 0
229 0 0
232 0 0
231 0 0
232 0 0
234 0 0
235 0 0
233 0 0
229 0 0
227 0 0
229 0 0
230 0 0
233 0 0
232 0 0
234 0 0
231 0 0
232 0 0
230 0 0
231 0 0
229 0 0
231 0 0
233 0 0
230 0 0
230 0 0
231 0 0
232 0 0
233 0 0
230 0 0
232 0 0
230 0 0
232 0 0
233 0 0
230 0 0
231 0 0
234 0 0
232 0 0
229 0 0
229 0 0
233 0 0
231 0 0
231 0 0
232 0 0
231 0 0
233 0 0
232 0 0
233 0 0
232 0 0
227 0 0
231 0 0
234 0 0
234 0 0
230 0 0
232 0 0
232 0 0
233 0 0
228 0 0
230 0 0
231 0 0
231 0 0
231 0 0
231 0 0
228 0 0
233 0 0
231 0 0
228 0 0
230 0 0
230 0 0
232 0 0
231 0 0
229 0 0
230 0 0
233 0 0
231 0 0
230 0 0
231 0 0
229 0 0
230 0 0
233 0 0
231 0 0
230 0 0
233 0 0
232 0 0
231 0 0
230 0 0
231 0 0
234 0 0
231 0 0
228 0 0
232 0 0
235 0 0
231 0 0
232 0 0
232 0 0
232 0 0
232 0 0
0 0 255
0 0 255
0 0 255
0 0 255
0 0 255
0 0 255
0 0 255
0 0 255
0 0 255
0 0 255
0 0 255
0 0 255
0 0 255
0 0 255
0 0 254
0 0 255
0 0 255
0 0 255
0 0 255
0 0 255
0 0 255
0 0 255
0 0 255
0 0 255
0 0 255
0 0 255
0 0 254
0 0 255
0 0 255
0 0 255
0 0 254
0 0 254
0 0 255
0 0 255
0 0 254
0 0 255
0 0 254
0 0 254
0 0 255
0 0 254
0 0 255
0 0 255
0 0 255
0 0 255
0 0 254
0 0 255
0 0 255
0 0 253
0 0 255
0 0 255
0 0 254
0 0 253
0 0 254
0 0 255
0 0 254
0 0 254
0 0 254
0 0 254
0 0 254
0 0 255
0 0 254
0 0 254
0 0 250
0 0 254
0 0 254
0 0 255
0 0 253
0 0 253
0 0 254
0 0 253
0 0 254
0 0 254
0 0 254
0 0 255
0 0 254
0 0 254
0 0 254
0 0 254
0 0 253
0 0 255
0 0 252
0 0 252
0 0 253
0 0 255
0 0 252
0 0 252
0 0 250
0 0 252
0 0 254
0 0 252
0 0 255
0 0 254
0 0 254
0 0 254
0 0 253
0 0 252
0 0 253
0 0 254
0 0 254
0 0 255
0 0 250
0 0 254
0 0 254
0 0 253
0 0 249
0 0 252
0 0 250
0 0 254
0 0 250
0 0 250
0 0 252
0 0 249
0 0 249
0 0 253
0 0 253
0 0 253
0 0 252
0 0 254
0 0 252
0 0 253
0 0 250
0 0 254
0 0 248
0 0 254
0 0 252
0 0 253
0 0 249
0 0 252
0 0 250
0 0 253
0 0 250
0 0 250
0 0 252
68 70 254
184 188 253
233 238 255
242 247 255
242 247 255
242 247 255
242 247 255
242 247 255
242 247 255
242 247 255
242 247 255
242 247 255
242 247 255
242 247 255
242 248 255
242 248 255
242 248 255
242 248 255
242 248 255
242 248 255
242 248 255
242 248 255
242 248 255
242 248 255
242 248 255
243 248 255
243 248 255
243 248 255
243 248 255
243 248 255
243 248 255
243 248 255
243 248 255
243 248 255
243 248 255
243 248 255
243 248 255
243 248 255
243 248 255
243 248 255
243 248 255
243 248 255
243 248 255
243 248 255
243 248 255
243 248 255
243 248 255
243 248 255
243 248 255
243 248 255
243 248 255
243 248 255
243 248 255
243 248 255
243 248 255
243 248 255
243 248 255
243 248 255
243 248 255
243 248 255
243 248 255
243 248 255
243 248 255
243 248 255
243 248 255
243 248 255
243 248 255
243 248 255
243 248 255
243 248 255
243 248 255
243 248 255
243 248 255
243 248 255
243 248 255
243 248 255
243 248 255
243 248 255
243 248 255
243 248 255
243 248 255
243 248 255
243 248 255
243 248 255
243 248 255
243 248 255
243 248 255
243 248 255
243 248 255
243 248 255
243 248 255
243 248 255
243 248 255
243 248 255
243 248 255
243 248 255
243 248 255
243 248 255
243 248 255
243 248 255
243 248 255
243 248 255
243 248 255
243 248 255
243 248 255
243 248 255
243 248 255
243 248 255
243 248 255
242 248 255
242 248 255
242 248 255
242 248 255
242 248 255
242 248 255
242 248 255
242 248 255
242 248 255
242 248 255
242 248 255
242 248 255
242 247 255
242 247 255
242 247 255
242 247 255
242 247 255
242 247 255
242 247 255
242 247 255
242 247 255
242 247 255
241 242 250
240 180 186
235 65 67
232 0 0
236 0 0
236 0 0
233 0 0
236 0 0
236 0 0
235 0 0
236 0 0
230 0 0
230 0 0
234 0 0
235 0 0
233 0 0
230 0 0
228 0 0
232 0 0
234 0 0
232 0 0
234 0 0
236 0 0
231 0 0
232 0 0
234 0 0
233 0 0
237 0 0
228 0 0
235 0 0
230 0 0
229 0 0
237 0 0
233 0 0
234 0 0
233 0 0
232 0 0
231 0 0
229 0 0
233 0 0
234 0 0
231 0 0
229 0 0
236 0 0
230 0 0
234 0 0
230 0 0
230 0 0
233 0 0
233 0 0
231 0 0
232 0 0
234 0 0
231 0 0
233 0 0
233 0 0
231 0 0
235 0 0
229 0 0
230 0 0
234 0 0
233 0 0
224 0 0
233 0 0
236 0 0
233 0 0
231 0 0
233 0 0
227 0 0
232 0 0
232 0 0
232 0 0
232 0 0
232 0 0
234 0 0
231 0 0
233 0 0
235 0 0
234 0 0
231 0 0
230 0 0
230 0 0
233 0 0
230 0 0
232 0 0
232 0 0
234 0 0
229 0 0
229 0 0
230 0 0
231 0 0
230 0 0
231 0 0
229 0 0
229 0 0
229 0 0
233 0 0
230 0 0
230 0 0
230 0 0
233 0 0
232 0 0
231 0 0
231 0 0
232 0 0
230 0 0
235 0 0
234 0 0
233 0 0
232 0 0
231 0 0
230 0 0
233 0 0
233 0 0
231 0 0
231 0 0
234 0 0
229 0 0
230 0 0
231 0 0
231 0 0
230 0 0
232 0 0
231 0 0
228 0 0
228 0 0
231 0 0
232 0 0
229 0 0
230 0 0
229 0 0
230 0 0
236 0 0
231 0 0
231 0 0
231 0 0
0 0 255
0 0 255
0 0 255
0 0 255
0 0 255
0 0 255
0 0 255
0 0 255
0 0 255
0 0 255
0 0 254
0 0 255
0 0 255
0 0 255
0 0 255
0 0 254
0 0 254
0 0 255
0 0 255
0 0 255
0 0 255
0 0 254
0 0 255
0 0 255
0 0 255
0 0 255
0 0 255
0 0 255
0 0 255
0 0 255
0 0 255
0 0 255
0 0 255
0 0 254
0 0 255
0 0 255
0 0 255
0 0 255
0 0 255
0 0 255
0 0 255
0 0 255
0 0 255
0 0 255
0 0 255
0 0 254
0 0 252
0 0 255
0 0 255
0 0 255
0 0 253
0 0 255
0 0 252
0 0 254
0 0 254
0 0 254
0 0 255
0 0 254
0 0 254
0 0 255
0 0 255
0 0 255
0 0 255
0 0 253
0 0 254
0 0 255
0 0 254
0 0 255
0 0 254
0 0 253
0 0 255
0 0 255
0 0 255
0 0 253
0 0 255
0 0 253
0 0 253
0 0 255
0 0 253
0 0 253
0 0 252
0 0 252
0 0 254
0 0 253
0 0 255
0 0 252
0 0 255
0 0 252
0 0 250
0 0 253
0 0 253
0 0 255
0 0 254
0 0 255
0 0 253
0 0 255
0 0 253
0 0 253
0 0 254
0 0 252
0 0 254
0 0 254
0 0 250
0 0 253
0 0 254
0 0 252
0 0 253
0 0 253
0 0 253
0 0 250
0 0 252
0 0 253
0 0 249
0 0 254
0 0 249
0 0 255
0 0 254
0 0 253
0 0 252
0 0 250
0 0 249
0 0 252
0 0 253
0 0 254
0 0 254
0 0 253
0 0 250
0 0 248
0 0 250
0 0 253
0 0 250
72 74 253
167 171 255
239 245 255
242 247 255
242 247 255
242 247 255
242 247 255
242 247 255
242 247 255
242 247 255
242 247 255
242 247 255
242 248 255
242 248 255
242 248 255
242 248 255
242 248 255
242 248 255
242 248 255
242 248 255
242 248 255
242 248 255
242 248 255
242 248 255
243 248 255
243 248 255
243 248 255
243 248 255
243 248 255
243 248 255
243 248 255
243 248 255
243 248 255
243 248 255
243 248 255
243 248 255
243 248 255
243 248 255
243 248 255
243 248 255
243 248 255
243 248 255
243 248 255
243 248 255
243 248 255
243 248 255
243 248 255
243 248 255
243 248 255
243 248 255
243 248 255
243 248 255
243 248 255
243 248 255
243 248 255
243 248 255
243 248 255
243 248 255
243 248 255
243 248 255
243 248 255
243 248 255
243 248 255
243 248 255
243 248 255
243 248 255
243 248 255
243 248 255
243 248 255
243 248 255
243 248 255
243 248 255
243 248 255
243 248 255
243 248 255
243 248 255
243 248 255
243 248 255
243 248 255
243 248 255
243 248 255
243 248 255
243 248 255
243 248 255
243 248 255
243 248 255
243 248 255
243 248 255
243 248 255
243 248 255
243 248 255
243 248 255
243 248 255
243 248 255
243 248 255
243 248 255
243 248 255
243 248 255
243 248 255
243 248 255
243 248 255
243 248 255
243 248 255
243 248 255
243 248 255
243 248 255
243 248 255
243 248 255
243 248 255
243 248 255
243 248 255
243 248 255
243 248 255
243 248 255
243 248 255
242 248 255
242 248 255
242 248 255
242 248 255
242 248 255
242 248 255
242 248 255
242 248 255
242 248 255
242 248 255
242 248 255
242 247 255
242 247 255
242 247 255
242 247 255
242 247 255
242 247 255
242 247 255
242 247 255
242 247 255
241 243 252
240 166 171
241 78 80
240 0 0
234 0 0
235 0 0
233 0 0
236 0 0
235 0 0
236 0 0
231 0 0
236 0 0
229 0 0
232 0 0
236 0 0
234 0 0
235 0 0
231 0 0
234 0 0
232 0 0
234 0 0
233 0 0
233 0 0
232 0 0
234 0 0
233 0 0
226 0 0
234 0 0
232 0 0
233 0 0
234 0 0
229 0 0
238 0 0
230 0 0
233 0 0
236 0 0
232 0 0
230 0 0
232 0 0
230 0 0
227 0 0
235 0 0
235 0 0
232 0 0
226 0 0
234 0 0
230 0 0
235 0 0
232 0 0
235 0 0
230 0 0
230 0 0
233 0 0
228 0 0
237 0 0
235 0 0
232 0 0
232 0 0
230 0 0
231 0 0
233 0 0
231 0 0
233 0 0
233 0 0
233 0 0
233 0 0
235 0 0
232 0 0
228 0 0
232 0 0
233 0 0
232 0 0
231 0 0
233 0 0
233 0 0
232 0 0
233 0 0
232 0 0
232 0 0
230 0 0
232 0 0
233 0 0
232 0 0
233 0 0
231 0 0
229 0 0
232 0 0
229 0 0
234 0 0
229 0 0
232 0 0
230 0 0
233 0 0
232 0 0
231 0 0
231 0 0
235 0 0
231 0 0
231 0 0
230 0 0
234 0 0
233 0 0
232 0 0
230 0 0
231 0 0
229 0 0
233 0 0
230 0 0
232 0 0
231 0 0
231 0 0
232 0 0
231 0 0
230 0 0
232 0 0
230 0 0
232 0 0
231 0 0
232 0 0
231 0 0
231 0 0
231 0 0
230 0 0
231 0 0
231 0 0
232 0 0
231 0 0
233 0 0
231 0 0
233 0 0
231 0 0
229 0 0
230 0 0
231 0 0
0 0 255
0 0 255
0 0 255
0 0 255
0 0 255
0 0 255
0 0 255
0 0 255
0 0 255
0 0 255
0 0 255
0 0 255
0 0 255
0 0 255
0 0 254
0 0 255
0 0 255
0 0 255
0 0 255
0 0 255
0 0 254
0 0 255
0 0 255
0 0 255
0 0 254
0 0 255
0 0 255
0 0 254
0 0 255
0 0 255
0 0 254
0 0 254
0 0 255
0 0 254
0 0 253
0 0 254
0 0 255
0 0 255
0 0 255
0 0 254
0 0 255
0 0 255
0 0 253
0 0 255
0 0 255
0 0 255
0 0 253
0 0 255
0 0 254
0 0 253
0 0 254
0 0 254
0 0 255
0 0 255
0 0 255
0 0 255
0 0 254
0 0 254
0 0 254
0 0 250
0 0 255
0 0 254
0 0 253
0 0 254
0 0 255
0 0 254
0 0 253
0 0 255
0 0 255
0 0 254
0 0 254
0 0 255
0 0 253
0 0 254
0 0 254
0 0 254
0 0 255
0 0 252
0 0 252
0 0 254
0 0 253
0 0 255
0 0 255
0 0 254
0 0 253
0 0 253
0 0 253
0 0 253
0 0 255
0 0 254
0 0 252
0 0 254
0 0 255
0 0 254
0 0 252
0 0 253
0 0 254
0 0 253
0 0 252
0 0 252
0 0 254
0 0 253
0 0 254
0 0 249
0 0 253
0 0 253
0 0 254
0 0 252
0 0 254
0 0 250
0 0 254
0 0 250
0 0 253
0 0 252
0 0 254
0 0 255
0 0 254
0 0 253
0 0 249
0 0 253
0 0 255
0 0 253
0 0 249
0 0 249
0 0 254
0 0 249
0 0 245
0 0 253
0 0 254
72 74 254
174 178 255
235 241 255
242 247 255
242 247 255
242 247 255
242 247 255
242 247 255
242 247 255
242 247 255
242 247 255
242 248 255
242 248 255
242 248 255
242 248 255
242 248 255
242 248 255
242 248 255
242 248 255
242 248 255
242 248 255
242 248 255
243 248 255
243 248 255
243 248 255
243 248 255
243 248 255
243 248 255
243 248 255
243 248 255
243 248 255
243 248 255
243 248 255
243 248 255
243 248 255
243 248 255
243 248 255
243 248 255
243 248 255
243 248 255
243 248 255
243 248 255
243 248 255
243 248 255
243 248 255
243 248 255
243 248 255
243 248 255
243 248 255
243 248 255
243 248 255
243 248 255
243 248 255
243 248 255
243 248 255
243 248 255
244 248 255
244 248 255
244 248 255
244 248 255
244 248 255
244 248 255
244 248 255
244 248 255
244 248 255
244 248 255
244 248 255
244 248 255
244 248 255
244 248 255
244 248 255
244 248 255
244 248 255
244 248 255
244 248 255
244 248 255
244 248 255
244 248 255
244 248 255
244 248 255
244 248 255
244 248 255
244 248 255
244 248 255
244 248 255
244 248 255
243 248 255
243 248 255
243 248 255
243 248 255
243 248 255
243 248 255
243 248 255
243 248 255
243 248 255
243 248 255
243 248 255
243 248 255
243 248 255
243 248 255
243 248 255
243 248 255
243 248 255
243 248 255
243 248 255
243 248 255
243 248 255
243 248 255
243 248 255
243 248 255
243 248 255
243 248 255
243 248 255
243 248 255
243 248 255
243 248 255
243 248 255
243 248 255
243 248 255
243 248 255
242 248 255
242 248 255
242 248 255
242 248 255
242 248 255
242 248 255
242 248 255
242 248 255
242 248 255
242 248 255
242 248 255
242 247 255
242 247 255
242 247 255
242 247 255
242 247 255
242 247 255
242 247 255
242 247 255
242 244 252
239 173 179
235 65 67
237 0 0
233 0 0
238 0 0
241 0 0
232 0 0
233 0 0
234 0 0
229 0 0
232 0 0
232 0 0
233 0 0
234 0 0
233 0 0
229 0 0
229 0 0
234 0 0
233 0 0
233 0 0
236 0 0
230 0 0
233 0 0
235 0 0
235 0 0
236 0 0
234 0 0
234 0 0
233 0 0
235 0 0
233 0 0
232 0 0
229 0 0
233 0 0
234 0 0
231 0 0
229 0 0
231 0 0
233 0 0
228 0 0
227 0 0
231 0 0
237 0 0
232 0 0
231 0 0
234 0 0
229 0 0
229 0 0
233 0 0
233 0 0
235 0 0
231 0 0
235 0 0
233 0 0
231 0 0
232 0 0
231 0 0
233 0 0
231 0 0
231 0 0
231 0 0
231 0 0
230 0 0
231 0 0
233 0 0
231 0 0
234 0 0
233 0 0
232 0 0
233 0 0
233 0 0
231 0 0
232 0 0
232 0 0
235 0 0
232 0 0
234 0 0
231 0 0
235 0 0
229 0 0
232 0 0
231 0 0
235 0 0
231 0 0
230 0 0
231 0 0
233 0 0
230 0 0
232 0 0
232 0 0
231 0 0
232 0 0
235 0 0
232 0 0
232 0 0
231 0 0
233 0 0
230 0 0
230 0 0
231 0 0
230 0 0
233 0 0
229 0 0
230 0 0
235 0 0
234 0 0
231 0 0
231 0 0
230 0 0
227 0 0
232 0 0
233 0 0
231 0 0
231 0 0
232 0 0
233 0 0
233 0 0
233 0 0
224 0 0
232 0 0
233 0 0
232 0 0
230 0 0
231 0 0
230 0 0
231 0 0
228 0 0
231 0 0
232 0 0
229 0 0
231 0 0
0 0 254
0 0 255
0 0 255
0 0 255
0 0 255
0 0 255
0 0 255
0 0 255
0 0 255
0 0 255
0 0 255
0 0 255
0 0 255
0 0 255
0 0 254
0 0 255
0 0 255
0 0 255
0 0 255
0 0 255
0 0 255
0 0 254
0 0 255
0 0 255
0 0 255
0 0 254
0 0 254
0 0 255
0 0 255
0 0 255
0 0 255
0 0 254
0 0 255
0 0 255
0 0 254
0 0 255
0 0 254
0 0 255
0 0 255
0 0 255
0 0 255
0 0 254
0 0 255
0 0 255
0 0 253
0 0 254
0 0 254
0 0 254
0 0 254
0 0 253
0 0 255
0 0 254
0 0 254
0 0 255
0 0 254
0 0 255
0 0 254
0 0 253
0 0 255
0 0 254
0 0 255
0 0 255
0 0 255
0 0 255
0 0 254
0 0 255
0 0 254
0 0 255
0 0 255
0 0 255
0 0 255
0 0 254
0 0 255
0 0 255
0 0 253
0 0 252
0 0 253
0 0 255
0 0 254
0 0 253
0 0 254
0 0 252
0 0 253
0 0 255
0 0 253
0 0 250
0 0 252
0 0 253
0 0 253
0 0 252
0 0 254
0 0 254
0 0 253
0 0 253
0 0 254
0 0 253
0 0 250
0 0 254
0 0 250
0 0 252
0 0 250
0 0 253
0 0 255
0 0 250
0 0 252
0 0 250
0 0 254
0 0 253
0 0 253
0 0 253
0 0 252
0 0 254
0 0 253
0 0 248
0 0 253
0 0 253
0 0 255
0 0 252
0 0 253
0 0 252
0 0 254
0 0 254
0 0 254
0 0 250
0 0 252
0 0 254
0 0 246
76 78 254
177 182 255
234 240 255
242 247 255
242 247 255
242 247 255
242 247 255
242 247 255
242 247 255
242 247 255
242 248 255
242 248 255
242 248 255
242 248 255
242 248 255
242 248 255
242 248 255
242 248 255
242 248 255
242 248 255
242 248 255
243 248 255
243 248 255
243 248 255
243 248 255
243 248 255
243 248 255
243 248 255
243 248 255
243 248 255
243 248 255
243 248 255
243 248 255
243 248 255
243 248 255
243 248 255
243 248 255
243 248 255
243 248 255
243 248 255
243 248 255
243 248 255
243 248 255
243 248 255
243 248 255
243 248 255
243 248 255
243 248 255
243 248 255
243 248 255
244 248 255
244 248 255
244 248 255
244 248 255
244 248 255
244 248 255
244 248 255
244 248 255
244 248 255
244 248 255
244 248 255
244 248 255
244 248 255
244 248 255
244 248 255
244 248 255
244 249 255
244 249 255
244 249 255
244 249 255
244 249 255
244 249 255
244 249 255
244 249 255
244 249 255
244 249 255
244 249 255
244 249 255
244 249 255
244 249 255
244 248 255
244 248 255
244 248 255
244 248 255
244 248 255
244 248 255
244 248 255
244 248 255
244 248 255
244 248 255
244 248 255
244 248 255
244 248 255
244 248 255
244 248 255
244 248 255
243 248 255
243 248 255
243 248 255
243 248 255
243 248 255
243 248 255
243 248 255
243 248 255
243 248 255
243 248 255
243 248 255
243 248 255
243 248 255
243 248 255
243 248 255
243 248 255
243 248 255
243 248 255
243 248 255
243 248 255
243 248 255
243 248 255
243 248 255
243 248 255
243 248 255
243 248 255
243 248 255
243 248 255
243 248 255
242 248 255
242 248 255
242 248 255
242 248 255
242 248 255
242 248 255
242 248 255
242 248 255
242 248 255
242 248 255
242 247 255
242 247 255
242 247 255
242 247 255
242 247 255
242 247 255
242 247 255
242 247 255
241 244 252
238 187 193
240 95 99
237 0 0
237 0 0
239 0 0
236 0 0
239 0 0
237 0 0
236 0 0
236 0 0
231 0 0
233 0 0
235 0 0
236 0 0
229 0 0
233 0 0
232 0 0
230 0 0
231 0 0
236 0 0
229 0 0
233 0 0
231 0 0
229 0 0
233 0 0
233 0 0
235 0 0
233 0 0
234 0 0
227 0 0
233 0 0
232 0 0
233 0 0
236 0 0
232 0 0
235 0 0
232 0 0
234 0 0
233 0 0
228 0 0
234 0 0
235 0 0
232 0 0
233 0 0
231 0 0
234 0 0
232 0 0
233 0 0
234 0 0
234 0 0
230 0 0
234 0 0
231 0 0
233 0 0
233 0 0
234 0 0
234 0 0
232 0 0
228 0 0
234 0 0
231 0 0
233 0 0
235 0 0
232 0 0
232 0 0
232 0 0
232 0 0
226 0 0
230 0 0
232 0 0
233 0 0
233 0 0
230 0 0
229 0 0
228 0 0
232 0 0
232 0 0
234 0 0
232 0 0
232 0 0
229 0 0
229 0 0
234 0 0
233 0 0
230 0 0
232 0 0
234 0 0
230 0 0
232 0 0
233 0 0
229 0 0
228 0 0
230 0 0
235 0 0
232 0 0
231 0 0
230 0 0
234 0 0
233 0 0
232 0 0
230 0 0
230 0 0
233 0 0
231 0 0
229 0 0
232 0 0
232 0 0
232 0 0
233 0 0
232 0 0
235 0 0
235 0 0
233 0 0
231 0 0
233 0 0
230 0 0
233 0 0
233 0 0
233 0 0
231 0 0
233 0 0
232 0 0
231 0 0
232 0 0
233 0 0
231 0 0
234 0 0
234 0 0
229 0 0
0 0 255
0 0 255
0 0 255
0 0 255
0 0 255
0 0 255
0 0 255
0 0 255
0 0 255
0 0 255
0 0 254
0 0 255
0 0 255
0 0 255
0 0 255
0 0 255
0 0 255
0 0 255
0 0 255
0 0 255
0 0 254
0 0 255
0 0 255
0 0 254
0 0 255
0 0 255
0 0 254
0 0 255
0 0 255
0 0 255
0 0 253
0 0 255
0 0 255
0 0 254
0 0 254
0 0 255
0 0 255
0 0 254
0 0 254
0 0 254
0 0 254
0 0 255
0 0 253
0 0 255
0 0 254
0 0 255
0 0 255
0 0 255
0 0 255
0 0 255
0 0 255
0 0 254
0 0 255
0 0 254
0 0 254
0 0 255
0 0 255
0 0 255
0 0 255
0 0 255
0 0 255
0 0 254
0 0 254
0 0 253
0 0 253
0 0 255
0 0 252
0 0 255
0 0 252
0 0 254
0 0 255
0 0 255
0 0 255
0 0 255
0 0 253
0 0 255
0 0 255
0 0 254
0 0 255
0 0 254
0 0 254
0 0 250
0 0 255
0 0 254
0 0 253
0 0 255
0 0 252
0 0 253
0 0 254
0 0 253
0 0 253
0 0 254
0 0 255
0 0 255
0 0 254
0 0 255
0 0 254
0 0 253
0 0 254
0 0 255
0 0 255
0 0 253
0 0 254
0 0 248
0 0 252
0 0 252
0 0 252
0 0 253
0 0 254
0 0 252
0 0 250
0 0 252
0 0 246
0 0 255
0 0 255
0 0 253
0 0 252
0 0 254
0 0 249
0 0 250
0 0 255
0 0 253
0 0 253
0 0 253
0 0 253
105 107 255
201 205 255
240 246 255
242 247 255
242 247 255
242 247 255
242 247 255
242 247 255
242 247 255
242 247 255
242 248 255
242 248 255
242 248 255
242 248 255
242 248 255
242 248 255
242 248 255
242 248 255
242 248 255
242 248 255
243 248 255
243 248 255
243 248 255
243 248 255
243 248 255
243 248 255
243 248 255
243 248 255
243 248 255
243 248 255
243 248 255
243 248 255
243 248 255
243 248 255
243 248 255
243 248 255
243 248 255
243 248 255
243 248 255
243 248 255
243 248 255
243 248 255
243 248 255
243 248 255
243 248 255
243 248 255
243 248 255
244 248 255
244 248 255
244 248 255
244 248 255
244 248 255
244 248 255
244 248 255
244 248 255
244 248 255
244 248 255
244 249 255
244 249 255
244 249 255
244 249 255
244 249 255
244 249 255
244 249 255
244 249 255
244 249 255
244 249 255
244 249 255
244 249 255
244 249 255
244 249 255
244 249 255
244 249 255
244 249 255
244 249 255
244 249 255
244 249 255
244 249 255
244 249 255
244 249 255
244 249 255
244 249 255
244 249 255
244 249 255
244 249 255
244 249 255
244 249 255
244 249 255
244 249 255
244 249 255
244 249 255
244 249 255
244 249 255
244 249 255
244 248 255
244 248 255
244 248 255
244 248 255
244 248 255
244 248 255
244 248 255
244 248 255
244 248 255
243 248 255
243 248 255
243 248 255
243 248 255
243 248 255
243 248 255
243 248 255
243 248 255
243 248 255
243 248 255
243 248 255
243 248 255
243 248 255
243 248 255
243 248 255
243 248 255
243 248 255
243 248 255
243 248 255
243 248 255
243 248 255
243 248 255
243 248 255
243 248 255
243 248 255
243 248 255
243 248 255
242 248 255
242 248 255
242 248 255
242 248 255
242 248 255
242 248 255
242 248 255
242 248 255
242 248 255
242 248 255
242 247 255
242 247 255
242 247 255
242 247 255
242 247 255
242 247 255
242 247 255
242 247 255
240 210 217
238 107 111
235 0 0
234 0 0
234 0 0
233 0 0
239 0 0
238 0 0
234 0 0
234 0 0
233 0 0
236 0 0
234 0 0
232 0 0
234 0 0
236 0 0
236 0 0
232 0 0
237 0 0
237 0 0
234 0 0
231 0 0
232 0 0
236 0 0
233 0 0
233 0 0
229 0 0
233 0 0
235 0 0
230 0 0
237 0 0
232 0 0
233 0 0
233 0 0
234 0 0
230 0 0
231 0 0
233 0 0
232 0 0
234 0 0
231 0 0
237 0 0
233 0 0
234 0 0
235 0 0
232 0 0
234 0 0
235 0 0
226 0 0
233 0 0
234 0 0
231 0 0
230 0 0
233 0 0
232 0 0
230 0 0
229 0 0
231 0 0
233 0 0
230 0 0
235 0 0
233 0 0
231 0 0
233 0 0
231 0 0
233 0 0
232 0 0
226 0 0
235 0 0
235 0 0
235 0 0
234 0 0
234 0 0
232 0 0
229 0 0
231 0 0
231 0 0
232 0 0
231 0 0
235 0 0
233 0 0
235 0 0
232 0 0
229 0 0
230 0 0
229 0 0
232 0 0
230 0 0
233 0 0
232 0 0
232 0 0
232 0 0
233 0 0
232 0 0
233 0 0
229 0 0
233 0 0
232 0 0
234 0 0
235 0 0
231 0 0
234 0 0
231 0 0
232 0 0
233 0 0
230 0 0
232 0 0
233 0 0
233 0 0
230 0 0
234 0 0
232 0 0
229 0 0
232 0 0
233 0 0
229 0 0
230 0 0
233 0 0
230 0 0
232 0 0
231 0 0
233 0 0
234 0 0
232 0 0
233 0 0
231 0 0
231 0 0
0 0 255
0 0 255
0 0 255
0 0 255
0 0 255
0 0 255
0 0 255
0 0 254
0 0 255
0 0 255
0 0 255
0 0 255
0 0 254
0 0 255
0 0 255
0 0 255
0 0 255
0 0 254
0 0 255
0 0 255
0 0 255
0 0 255
0 0 255
0 0 255
0 0 255
0 0 255
0 0 255
0 0 255
0 0 255
0 0 254
0 0 255
0 0 254
0 0 255
0 0 255
0 0 255
0 0 255
0 0 255
0 0 255
0 0 254
0 0 253
0 0 254
0 0 254
0 0 254
0 0 254
0 0 254
0 0 253
0 0 255
0 0 254
0 0 254
0 0 255
0 0 254
0 0 253
0 0 254
0 0 254
0 0 254
0 0 255
0 0 255
0 0 255
0 0 254
0 0 254
0 0 253
0 0 254
0 0 255
0 0 253
0 0 255
0 0 255
0 0 255
0 0 254
0 0 255
0 0 252
0 0 255
0 0 255
0 0 254
0 0 252
0 0 254
0 0 252
0 0 254
0 0 254
0 0 254
0 0 254
0 0 254
0 0 255
0 0 254
0 0 253
0 0 254
0 0 252
0 0 254
0 0 252
0 0 253
0 0 254
0 0 252
0 0 252
0 0 250
0 0 253
0 0 254
0 0 253
0 0 254
0 0 249
0 0 253
0 0 252
0 0 255
0 0 250
0 0 253
0 0 249
0 0 253
0 0 249
0 0 252
0 0 254
0 0 254
0 0 254
0 0 255
0 0 254
0 0 254
0 0 254
0 0 250
0 0 250
0 0 255
0 0 254
0 0 248
0 0 252
0 0 252
0 0 254
41 42 253
141 144 254
212 217 254
242 247 255
242 247 255
242 247 255
242 247 255
242 247 255
242 247 255
242 247 255
242 248 255
242 248 255
242 248 255
242 248 255
242 248 255
242 248 255
242 248 255
242 248 255
242 248 255
242 248 255
243 248 255
243 248 255
243 248 255
243 248 255
243 248 255
243 248 255
243 248 255
243 248 255
243 248 255
243 248 255
243 248 255
243 248 255
243 248 255
243 248 255
243 248 255
243 248 255
243 248 255
243 248 255
243 248 255
243 248 255
243 248 255
243 248 255
243 248 255
243 248 255
243 248 255
244 248 255
244 248 255
244 248 255
244 248 255
244 248 255
244 248 255
244 248 255
244 248 255
244 249 255
244 249 255
244 249 255
244 249 255
244 249 255
244 249 255
244 249 255
244 249 255
244 249 255
244 249 255
244 249 255
244 249 255
244 249 255
244 249 255
244 249 255
244 249 255
244 249 255
244 249 255
244 249 255
244 249 255
244 249 255
244 249 255
244 249 255
244 249 255
244 249 255
244 249 255
244 249 255
244 249 255
244 249 255
244 249 255
244 249 255
244 249 255
244 249 255
244 249 255
244 249 255
244 249 255
244 249 255
244 249 255
244 249 255
244 249 255
244 249 255
244 249 255
244 249 255
244 249 255
244 249 255
244 249 255
244 249 255
244 249 255
244 249 255
244 248 255
244 248 255
244 248 255
244 248 255
244 248 255
244 248 255
244 248 255
244 248 255
244 248 255
243 248 255
243 248 255
243 248 255
243 248 255
243 248 255
243 248 255
243 248 255
243 248 255
243 248 255
243 248 255
243 248 255
243 248 255
243 248 255
243 248 255
243 248 255
243 248 255
243 248 255
243 248 255
243 248 255
243 248 255
243 248 255
243 248 255
243 248 255
243 248 255
243 248 255
242 248 255
242 248 255
242 248 255
242 248 255
242 248 255
242 248 255
242 248 255
242 248 255
242 248 255
242 248 255
242 247 255
242 247 255
242 247 255
242 247 255
242 247 255
242 247 255
242 247 255
241 220 227
241 150 155
237 35 36
237 0 0
236 0 0
238 0 0
236 0 0
234 0 0
236 0 0
235 0 0
238 0 0
233 0 0
227 0 0
236 0 0
236 0 0
233 0 0
236 0 0
237 0 0
230 0 0
235 0 0
232 0 0
232 0 0
236 0 0
232 0 0
235 0 0
235 0 0
232 0 0
233 0 0
230 0 0
231 0 0
237 0 0
236 0 0
230 0 0
233 0 0
233 0 0
234 0 0
232 0 0
231 0 0
233 0 0
229 0 0
235 0 0
234 0 0
233 0 0
231 0 0
235 0 0
231 0 0
235 0 0
235 0 0
229 0 0
231 0 0
234 0 0
234 0 0
233 0 0
233 0 0
232 0 0
232 0 0
234 0 0
232 0 0
235 0 0
230 0 0
233 0 0
233 0 0
231 0 0
233 0 0
229 0 0
231 0 0
233 0 0
232 0 0
237 0 0
231 0 0
235 0 0
229 0 0
230 0 0
233 0 0
229 0 0
230 0 0
234 0 0
234 0 0
233 0 0
230 0 0
233 0 0
232 0 0
230 0 0
236 0 0
230 0 0
233 0 0
233 0 0
231 0 0
231 0 0
235 0 0
233 0 0
232 0 0
232 0 0
232 0 0
228 0 0
229 0 0
231 0 0
231 0 0
234 0 0
230 0 0
230 0 0
233 0 0
230 0 0
231 0 0
233 0 0
234 0 0
231 0 0
235 0 0
231 0 0
235 0 0
232 0 0
230 0 0
229 0 0
236 0 0
232 0 0
230 0 0
232 0 0
229 0 0
233 0 0
232 0 0
229 0 0
231 0 0
236 0 0
229 0 0
232 0 0
0 0 255
0 0 255
0 0 255
0 0 255
0 0 254
0 0 255
0 0 255
0 0 255
0 0 255
0 0 255
0 0 255
0 0 255
0 0 255
0 0 255
0 0 255
0 0 255
0 0 254
0 0 255
0 0 255
0 0 255
0 0 254
0 0 255
0 0 255
0 0 255
0 0 253
0 0 255
0 0 255
0 0 255
0 0 254
0 0 255
0 0 255
0 0 255
0 0 255
0 0 255
0 0 255
0 0 255
0 0 255
0 0 255
0 0 255
0 0 255
0 0 255
0 0 255
0 0 255
0 0 255
0 0 255
0 0 255
0 0 254
0 0 255
0 0 255
0 0 254
0 0 255
0 0 254
0 0 254
0 0 254
0 0 255
0 0 254
0 0 253
0 0 255
0 0 255
0 0 254
0 0 254
0 0 254
0 0 252
0 0 255
0 0 254
0 0 254
0 0 255
0 0 254
0 0 255
0 0 255
0 0 255
0 0 255
0 0 252
0 0 253
0 0 253
0 0 253
0 0 253
0 0 253
0 0 254
0 0 254
0 0 254
0 0 255
0 0 252
0 0 255
0 0 254
0 0 254
0 0 255
0 0 252
0 0 253
0 0 252
0 0 255
0 0 252
0 0 254
0 0 254
0 0 253
0 0 254
0 0 255
0 0 252
0 0 255
0 0 253
0 0 252
0 0 254
0 0 254
0 0 254
0 0 253
0 0 255
0 0 252
0 0 254
0 0 255
0 0 250
0 0 254
0 0 255
0 0 254
0 0 253
0 0 250
0 0 250
0 0 253
0 0 253
0 0 255
0 0 253
64 65 254
177 182 254
221 227 254
242 247 255
242 247 255
242 247 255
242 247 255
242 247 255
242 247 255
242 248 255
242 248 255
242 248 255
242 248 255
242 248 255
242 248 255
242 248 255
242 248 255
242 248 255
242 248 255
243 248 255
243 248 255
243 248 255
243 248 255
243 248 255
243 248 255
243 248 255
243 248 255
243 248 255
243 248 255
243 248 255
243 248 255
243 248 255
243 248 255
243 248 255
243 248 255
243 248 255
243 248 255
243 248 255
243 248 255
243 248 255
243 248 255
243 248 255
243 248 255
244 248 255
244 248 255
244 248 255
244 248 255
244 248 255
244 248 255
244 248 255
244 249 255
244 249 255
244 249 255
244 249 255
244 249 255
244 249 255
244 249 255
244 249 255
244 249 255
244 249 255
244 249 255
244 249 255
244 249 255
244 249 255
244 249 255
244 249 255
244 249 255
244 249 255
244 249 255
244 249 255
244 249 255
244 249 255
244 249 255
244 249 255
244 249 255
244 249 255
244 249 255
244 249 255
244 249 255
244 249 255
244 249 255
244 249 255
244 249 255
244 249 255
244 249 255
244 249 255
244 249 255
244 249 255
244 249 255
244 249 255
244 249 255
244 249 255
244 249 255
244 249 255
244 249 255
244 249 255
244 249 255
244 249 255
244 249 255
244 249 255
244 249 255
244 249 255
244 249 255
244 249 255
244 249 255
244 249 255
244 249 255
244 249 255
244 249 255
244 249 255
244 248 255
244 248 255
244 248 255
244 248 255
244 248 255
244 248 255
244 248 255
243 248 255
243 248 255
243 248 255
243 248 255
243 248 255
243 248 255
243 248 255
243 248 255
243 248 255
243 248 255
243 248 255
243 248 255
243 248 255
243 248 255
243 248 255
243 248 255
243 248 255
243 248 255
243 248 255
243 248 255
243 248 255
243 248 255
243 248 255
243 248 255
242 248 255
242 248 255
242 248 255
242 248 255
242 248 255
242 248 255
242 248 255
242 248 255
242 248 255
242 248 255
242 247 255
242 247 255
242 247 255
242 247 255
242 247 255
242 247 255
242 241 249
241 173 179
237 92 95
236 0 0
235 0 0
234 0 0
237 0 0
238 0 0
236 0 0
235 0 0
237 0 0
236 0 0
236 0 0
234 0 0
233 0 0
234 0 0
237 0 0
231 0 0
236 0 0
234 0 0
231 0 0
237 0 0
230 0 0
234 0 0
233 0 0
235 0 0
234 0 0
235 0 0
233 0 0
237 0 0
234 0 0
229 0 0
233 0 0
238 0 0
235 0 0
235 0 0
235 0 0
231 0 0
231 0 0
230 0 0
234 0 0
231 0 0
231 0 0
234 0 0
231 0 0
233 0 0
234 0 0
233 0 0
234 0 0
234 0 0
232 0 0
234 0 0
235 0 0
232 0 0
234 0 0
234 0 0
233 0 0
232 0 0
236 0 0
229 0 0
234 0 0
235 0 0
230 0 0
233 0 0
233 0 0
232 0 0
234 0 0
231 0 0
234 0 0
233 0 0
231 0 0
232 0 0
234 0 0
233 0 0
236 0 0
232 0 0
229 0 0
228 0 0
231 0 0
234 0 0
231 0 0
232 0 0
233 0 0
232 0 0
237 0 0
233 0 0
229 0 0
234 0 0
234 0 0
235 0 0
233 0 0
231 0 0
233 0 0
234 0 0
234 0 0
234 0 0
233 0 0
234 0 0
232 0 0
232 0 0
232 0 0
231 0 0
236 0 0
232 0 0
230 0 0
236 0 0
233 0 0
232 0 0
232 0 0
232 0 0
232 0 0
232 0 0
230 0 0
232 0 0
231 0 0
235 0 0
234 0 0
234 0 0
230 0 0
232 0 0
233 0 0
230 0 0
234 0 0
0 0 255
0 0 255
0 0 255
0 0 255
0 0 255
0 0 255
0 0 255
0 0 255
0 0 255
0 0 255
0 0 255
0 0 255
0 0 255
0 0 255
0 0 255
0 0 255
0 0 255
0 0 255
0 0 255
0 0 254
0 0 254
0 0 255
0 0 255
0 0 255
0 0 255
0 0 255
0 0 255
0 0 254
0 0 255
0 0 254
0 0 255
0 0 255
0 0 254
0 0 255
0 0 255
0 0 255
0 0 255
0 0 255
0 0 255
0 0 255
0 0 255
0 0 255
0 0 255
0 0 255
0 0 254
0 0 254
0 0 255
0 0 253
0 0 255
0 0 254
0 0 255
0 0 254
0 0 255
0 0 254
0 0 255
0 0 254
0 0 253
0 0 254
0 0 255
0 0 255
0 0 254
0 0 255
0 0 254
0 0 255
0 0 255
0 0 254
0 0 255
0 0 255
0 0 255
0 0 255
0 0 254
0 0 254
0 0 254
0 0 255
0 0 253
0 0 255
0 0 255
0 0 252
0 0 254
0 0 255
0 0 255
0 0 255
0 0 255
0 0 253
0 0 254
0 0 250
0 0 255
0 0 255
0 0 255
0 0 250
0 0 254
0 0 255
0 0 254
0 0 254
0 0 254
0 0 252
0 0 252
0 0 253
0 0 255
0 0 252
0 0 255
0 0 253
0 0 254
0 0 253
0 0 253
0 0 254
0 0 252
0 0 254
0 0 254
0 0 254
0 0 253
0 0 249
0 0 252
0 0 253
0 0 254
0 0 254
0 0 254
0 0 255
132 135 254
201 205 255
242 247 255
242 247 255
242 247 255
242 247 255
242 247 255
242 247 255
242 247 255
242 248 255
242 248 255
242 248 255
242 248 255
242 248 255
242 248 255
242 248 255
242 248 255
242 248 255
243 248 255
243 248 255
243 248 255
243 248 255
243 248 255
243 248 255
243 248 255
243 248 255
243 248 255
243 248 255
243 248 255
243 248 255
243 248 255
243 248 255
243 248 255
243 248 255
243 248 255
243 248 255
243 248 255
243 248 255
243 248 255
243 248 255
243 248 255
244 248 255
244 248 255
244 248 255
244 248 255
244 248 255
244 248 255
244 248 255
244 249 255
244 249 255
244 249 255
244 249 255
244 249 255
244 249 255
244 249 255
244 249 255
244 249 255
244 249 255
244 249 255
244 249 255
244 249 255
244 249 255
244 249 255
244 249 255
244 249 255
244 249 255
244 249 255
244 249 255
244 249 255
244 249 255
244 249 255
244 249 255
244 249 255
244 249 255
244 249 255
244 249 255
244 249 255
244 249 255
244 249 255
244 249 255
244 249 255
244 249 255
244 249 255
244 249 255
244 249 255
244 249 255
244 249 255
244 249 255
244 249 255
244 249 255
244 249 255
244 249 255
244 249 255
244 249 255
244 249 255
244 249 255
244 249 255
244 249 255
244 249 255
244 249 255
244 249 255
244 249 255
244 249 255
244 249 255
244 249 255
244 249 255
244 249 255
244 249 255
244 249 255
244 249 255
244 249 255
244 249 255
244 249 255
244 249 255
244 249 255
244 249 255
244 248 255
244 248 255
244 248 255
244 248 255
244 248 255
244 248 255
244 248 255
243 248 255
243 248 255
243 248 255
243 248 255
243 248 255
243 248 255
243 248 255
243 248 255
243 248 255
243 248 255
243 248 255
243 248 255
243 248 255
243 248 255
243 248 255
243 248 255
243 248 255
243 248 255
243 248 255
243 248 255
243 248 255
243 248 255
243 248 255
242 248 255
242 248 255
242 248 255
242 248 255
242 248 255
242 248 255
242 248 255
242 248 255
242 248 255
242 247 255
242 247 255
242 247 255
242 247 255
242 247 255
242 247 255
242 245 253
240 201 207
240 123 128
238 24 25
238 0 0
237 0 0
233 0 0
235 0 0
235 0 0
239 0 0
237 0 0
233 0 0
236 0 0
238 0 0
235 0 0
236 0 0
236 0 0
236 0 0
231 0 0
231 0 0
232 0 0
234 0 0
234 0 0
234 0 0
234 0 0
237 0 0
236 0 0
234 0 0
233 0 0
234 0 0
234 0 0
235 0 0
232 0 0
233 0 0
236 0 0
231 0 0
233 0 0
235 0 0
235 0 0
232 0 0
235 0 0
236 0 0
235 0 0
230 0 0
236 0 0
228 0 0
231 0 0
232 0 0
231 0 0
229 0 0
233 0 0
233 0 0
236 0 0
235 0 0
233 0 0
233 0 0
235 0 0
235 0 0
233 0 0
229 0 0
232 0 0
231 0 0
234 0 0
233 0 0
231 0 0
230 0 0
234 0 0
232 0 0
234 0 0
237 0 0
235 0 0
234 0 0
236 0 0
234 0 0
233 0 0
234 0 0
232 0 0
231 0 0
230 0 0
231 0 0
231 0 0
234 0 0
234 0 0
231 0 0
231 0 0
230 0 0
231 0 0
230 0 0
234 0 0
233 0 0
235 0 0
233 0 0
233 0 0
231 0 0
231 0 0
235 0 0
231 0 0
235 0 0
231 0 0
231 0 0
231 0 0
234 0 0
232 0 0
234 0 0
232 0 0
232 0 0
231 0 0
230 0 0
230 0 0
230 0 0
231 0 0
231 0 0
232 0 0
232 0 0
232 0 0
232 0 0
230 0 0
230 0 0
231 0 0
232 0 0
231 0 0
0 0 255
0 0 255
0 0 255
0 0 255
0 0 255
0 0 255
0 0 255
0 0 255
0 0 255
0 0 254
0 0 255
0 0 255
0 0 255
0 0 255
0 0 255
0 0 255
0 0 255
0 0 255
0 0 255
0 0 255
0 0 254
0 0 255
0 0 255
0 0 255
0 0 255
0 0 255
0 0 255
0 0 255
0 0 255
0 0 255
0 0 255
0 0 255
0 0 255
0 0 255
0 0 255
0 0 254
0 0 255
0 0 255
0 0 255
0 0 253
0 0 255
0 0 255
0 0 255
0 0 255
0 0 255
0 0 255
0 0 255
0 0 255
0 0 255
0 0 253
0 0 255
0 0 252
0 0 254
0 0 255
0 0 255
0 0 255
0 0 255
0 0 255
0 0 254
0 0 254
0 0 254
0 0 255
0 0 255
0 0 253
0 0 255
0 0 254
0 0 255
0 0 255
0 0 255
0 0 255
0 0 253
0 0 255
0 0 255
0 0 254
0 0 254
0 0 255
0 0 254
0 0 254
0 0 255
0 0 254
0 0 253
0 0 255
0 0 253
0 0 254
0 0 253
0 0 255
0 0 255
0 0 253
0 0 253
0 0 254
0 0 253
0 0 254
0 0 255
0 0 255
0 0 254
0 0 254
0 0 255
0 0 255
0 0 254
0 0 253
0 0 254
0 0 255
0 0 252
0 0 254
0 0 254
0 0 254
0 0 250
0 0 253
0 0 252
0 0 253
0 0 254
0 0 253
0 0 250
0 0 252
0 0 255
99 102 254
169 173 253
233 238 255
242 247 255
242 247 255
242 247 255
242 247 255
242 247 255
242 247 255
242 248 255
242 248 255
242 248 255
242 248 255
242 248 255
242 248 255
242 248 255
242 248 255
242 248 255
242 248 255
243 248 255
243 248 255
243 248 255
243 248 255
243 248 255
243 248 255
243 248 255
243 248 255
243 248 255
243 248 255
243 248 255
243 248 255
243 248 255
243 248 255
243 248 255
243 248 255
243 248 255
243 248 255
243 248 255
243 248 255
243 248 255
243 248 255
244 248 255
244 248 255
244 248 255
244 248 255
244 248 255
244 248 255
244 249 255
244 249 255
244 249 255
244 249 255
244 249 255
244 249 255
244 249 255
244 249 255
244 249 255
244 249 255
244 249 255
244 249 255
244 249 255
244 249 255
244 249 255
244 249 255
244 249 255
244 249 255
244 249 255
244 249 255
244 249 255
244 249 255
244 249 255
244 249 255
244 249 255
244 249 255
244 249 255
244 249 255
244 249 255
244 249 255
244 249 255
244 249 255
244 249 255
244 249 255
244 249 255
244 249 255
244 249 255
244 249 255
244 249 255
244 249 255
244 249 255
244 249 255
244 249 255
244 249 255
244 249 255
244 249 255
244 249 255
244 249 255
244 249 255
244 249 255
244 249 255
244 249 255
244 249 255
244 249 255
244 249 255
244 249 255
244 249 255
244 249 255
244 249 255
244 249 255
244 249 255
244 249 255
244 249 255
244 249 255
244 249 255
244 249 255
244 249 255
244 249 255
244 249 255
244 249 255
244 249 255
244 249 255
244 249 255
244 249 255
244 249 255
244 249 255
244 248 255
244 248 255
244 248 255
244 248 255
244 248 255
244 248 255
243 248 255
243 248 255
243 248 255
243 248 255
243 248 255
243 248 255
243 248 255
243 248 255
243 248 255
243 248 255
243 248 255
243 248 255
243 248 255
243 248 255
243 248 255
243 248 255
243 248 255
243 248 255
243 248 255
243 248 255
243 248 255
243 248 255
242 248 255
242 248 255
242 248 255
242 248 255
242 248 255
242 248 255
242 248 255
242 248 255
242 248 255
242 248 255
242 247 255
242 247 255
242 247 255
242 247 255
242 247 255
242 247 255
241 233 241
241 187 193
239 102 105
238 0 0
235 0 0
235 0 0
239 0 0
235 0 0
237 0 0
238 0 0
236 0 0
235 0 0
239 0 0
232 0 0
238 0 0
238 0 0
236 0 0
233 0 0
236 0 0
235 0 0
235 0 0
235 0 0
232 0 0
234 0 0
235 0 0
235 0 0
236 0 0
234 0 0
232 0 0
231 0 0
235 0 0
231 0 0
231 0 0
234 0 0
234 0 0
236 0 0
230 0 0
236 0 0
237 0 0
233 0 0
235 0 0
233 0 0
233 0 0
231 0 0
230 0 0
236 0 0
234 0 0
232 0 0
234 0 0
233 0 0
232 0 0
232 0 0
232 0 0
234 0 0
236 0 0
234 0 0
232 0 0
235 0 0
234 0 0
232 0 0
234 0 0
232 0 0
233 0 0
233 0 0
230 0 0
231 0 0
230 0 0
232 0 0
234 0 0
233 0 0
233 0 0
235 0 0
231 0 0
232 0 0
229 0 0
234 0 0
233 0 0
234 0 0
234 0 0
234 0 0
237 0 0
234 0 0
231 0 0
232 0 0
233 0 0
232 0 0
233 0 0
232 0 0
235 0 0
232 0 0
235 0 0
231 0 0
231 0 0
233 0 0
232 0 0
230 0 0
234 0 0
228 0 0
230 0 0
231 0 0
233 0 0
233 0 0
233 0 0
232 0 0
231 0 0
235 0 0
234 0 0
234 0 0
231 0 0
232 0 0
234 0 0
234 0 0
234 0 0
232 0 0
235 0 0
232 0 0
235 0 0
231 0 0
0 0 255
0 0 255
0 0 255
0 0 255
0 0 255
0 0 255
0 0 255
0 0 255
0 0 255
0 0 255
0 0 255
0 0 255
0 0 255
0 0 255
0 0 255
0 0 255
0 0 255
0 0 255
0 0 255
0 0 255
0 0 255
0 0 255
0 0 255
0 0 255
0 0 255
0 0 255
0 0 255
0 0 255
0 0 255
0 0 255
0 0 255
0 0 254
0 0 254
0 0 255
0 0 255
0 0 255
0 0 255
0 0 255
0 0 255
0 0 255
0 0 253
0 0 255
0 0 255
0 0 255
0 0 255
0 0 255
0 0 255
0 0 255
0 0 255
0 0 254
0 0 253
0 0 255
0 0 254
0 0 255
0 0 255
0 0 254
0 0 255
0 0 255
0 0 255
0 0 255
0 0 255
0 0 254
0 0 255
0 0 253
0 0 255
0 0 255
0 0 254
0 0 255
0 0 255
0 0 255
0 0 253
0 0 255
0 0 254
0 0 254
0 0 255
0 0 255
0 0 255
0 0 253
0 0 252
0 0 253
0 0 254
0 0 252
0 0 252
0 0 254
0 0 254
0 0 254
0 0 255
0 0 253
0 0 254
0 0 253
0 0 253
0 0 254
0 0 252
0 0 254
0 0 254
0 0 254
0 0 254
0 0 255
0 0 253
0 0 254
0 0 253
0 0 255
0 0 254
0 0 252
0 0 248
0 0 253
0 0 253
0 0 253
0 0 252
0 0 253
0 0 250
0 0 252
76 78 253
153 156 250
213 218 254
242 247 255
242 247 255
242 247 255
242 247 255
242 247 255
242 247 255
242 247 255
242 248 255
242 248 255
242 248 255
242 248 255
242 248 255
242 248 255
242 248 255
242 248 255
242 248 255
243 248 255
243 248 255
243 248 255
243 248 255
243 248 255
243 248 255
243 248 255
243 248 255
243 248 255
243 248 255
243 248 255
243 248 255
243 248 255
243 248 255
243 248 255
243 248 255
243 248 255
243 248 255
243 248 255
243 248 255
243 248 255
243 248 255
244 248 255
244 248 255
244 248 255
244 248 255
244 248 255
244 249 255
244 249 255
244 249 255
244 249 255
244 249 255
244 249 255
244 249 255
244 249 255
244 249 255
244 249 255
244 249 255
244 249 255
244 249 255
244 249 255
244 249 255
244 249 255
244 249 255
244 249 255
244 249 255
244 249 255
244 249 255
244 249 255
244 249 255
244 249 255
244 249 255
244 249 255
244 249 255
244 249 255
244 249 255
244 249 255
244 249 255
244 249 255
244 249 255
244 249 255
244 249 255
245 249 255
245 249 255
245 249 255
245 249 255
245 249 255
245 249 255
245 249 255
245 249 255
245 249 255
245 249 255
245 249 255
245 249 255
245 249 255
245 249 255
244 249 255
244 249 255
244 249 255
244 249 255
244 249 255
244 249 255
244 249 255
244 249 255
244 249 255
244 249 255
244 249 255
244 249 255
244 249 255
244 249 255
244 249 255
244 249 255
244 249 255
244 249 255
244 249 255
244 249 255
244 249 255
244 249 255
244 249 255
244 249 255
244 249 255
244 249 255
244 249 255
244 249 255
244 249 255
244 249 255
244 249 255
244 249 255
244 249 255
244 249 255
244 249 255
244 248 255
244 248 255
244 248 255
244 248 255
244 248 255
243 248 255
243 248 255
243 248 255
243 248 255
243 248 255
243 248 255
243 248 255
243 248 255
243 248 255
243 248 255
243 248 255
243 248 255
243 248 255
243 248 255
243 248 255
243 248 255
243 248 255
243 248 255
243 248 255
243 248 255
243 248 255
243 248 255
242 248 255
242 248 255
242 248 255
242 248 255
242 248 255
242 248 255
242 248 255
242 248 255
242 248 255
242 247 255
242 247 255
242 247 255
242 247 255
242 247 255
242 247 255
242 247 255
242 208 215
238 180 186
237 65 67
240 0 0
236 0 0
237 0 0
237 0 0
235 0 0
237 0 0
238 0 0
237 0 0
237 0 0
232 0 0
238 0 0
236 0 0
235 0 0
234 0 0
234 0 0
235 0 0
237 0 0
236 0 0
235 0 0
233 0 0
237 0 0
239 0 0
235 0 0
233 0 0
235 0 0
234 0 0
230 0 0
234 0 0
232 0 0
237 0 0
232 0 0
233 0 0
233 0 0
234 0 0
235 0 0
235 0 0
232 0 0
232 0 0
236 0 0
235 0 0
234 0 0
235 0 0
233 0 0
233 0 0
234 0 0
234 0 0
230 0 0
233 0 0
235 0 0
233 0 0
232 0 0
234 0 0
232 0 0
233 0 0
235 0 0
232 0 0
233 0 0
234 0 0
235 0 0
236 0 0
229 0 0
233 0 0
233 0 0
234 0 0
235 0 0
233 0 0
234 0 0
235 0 0
232 0 0
234 0 0
231 0 0
232 0 0
232 0 0
235 0 0
233 0 0
236 0 0
234 0 0
232 0 0
237 0 0
230 0 0
235 0 0
232 0 0
233 0 0
234 0 0
235 0 0
234 0 0
233 0 0
232 0 0
234 0 0
232 0 0
233 0 0
233 0 0
231 0 0
232 0 0
234 0 0
230 0 0
234 0 0
232 0 0
235 0 0
233 0 0
236 0 0
234 0 0
232 0 0
231 0 0
233 0 0
233 0 0
232 0 0
231 0 0
232 0 0
233 0 0
234 0 0
234 0 0
0 0 255
0 0 255
0 0 255
0 0 255
0 0 255
0 0 255
0 0 255
0 0 255
0 0 255
0 0 255
0 0 255
0 0 255
0 0 255
0 0 255
0 0 255
0 0 255
0 0 255
0 0 255
0 0 254
0 0 255
0 0 255
0 0 255
0 0 255
0 0 255
0 0 255
0 0 255
0 0 255
0 0 255
0 0 255
0 0 255
0 0 255
0 0 255
0 0 255
0 0 254
0 0 255
0 0 255
0 0 255
0 0 255
0 0 254
0 0 254
0 0 255
0 0 255
0 0 255
0 0 255
0 0 255
0 0 253
0 0 255
0 0 255
0 0 255
0 0 254
0 0 253
0 0 255
0 0 255
0 0 253
0 0 255
0 0 255
0 0 255
0 0 255
0 0 254
0 0 254
0 0 254
0 0 254
0 0 255
0 0 255
0 0 255
0 0 255
0 0 253
0 0 255
0 0 254
0 0 255
0 0 254
0 0 253
0 0 255
0 0 254
0 0 254
0 0 255
0 0 255
0 0 254
0 0 255
0 0 255
0 0 254
0 0 253
0 0 254
0 0 252
0 0 250
0 0 253
0 0 255
0 0 255
0 0 255
0 0 254
0 0 253
0 0 254
0 0 254
0 0 255
0 0 253
0 0 250
0 0 254
0 0 255
0 0 254
0 0 255
0 0 254
0 0 254
0 0 252
0 0 253
0 0 254
0 0 254
0 0 255
0 0 254
0 0 255
41 42 252
141 144 255
195 199 254
239 245 255
242 247 255
242 247 255
242 247 255
242 247 255
242 247 255
242 247 255
242 247 255
242 248 255
242 248 255
242 248 255
242 248 255
242 248 255
242 248 255
242 248 255
242 248 255
242 248 255
243 248 255
243 248 255
243 248 255
243 248 255
243 248 255
243 248 255
243 248 255
243 248 255
243 248 255
243 248 255
243 248 255
243 248 255
243 248 255
243 248 255
243 248 255
243 248 255
243 248 255
243 248 255
243 248 255
243 248 255
243 248 255
244 248 255
244 248 255
244 248 255
244 248 255
244 248 255
244 249 255
244 249 255
244 249 255
244 249 255
244 249 255
244 249 255
244 249 255
244 249 255
244 249 255
244 249 255
244 249 255
244 249 255
244 249 255
244 249 255
244 249 255
244 249 255
244 249 255
244 249 255
244 249 255
244 249 255
244 249 255
244 249 255
244 249 255
244 249 255
244 249 255
244 249 255
244 249 255
245 249 255
245 249 255
245 249 255
245 249 255
245 249 255
245 249 255
245 249 255
245 249 255
245 249 255
245 249 255
245 249 255
245 249 255
245 249 255
245 249 255
245 249 255
245 249 255
245 249 255
245 249 255
245 249 255
245 249 255
245 249 255
245 249 255
245 249 255
245 249 255
245 249 255
245 249 255
245 249 255
245 249 255
245 249 255
245 249 255
245 249 255
245 249 255
245 249 255
245 249 255
245 249 255
245 249 255
244 249 255
244 249 255
244 249 255
244 249 255
244 249 255
244 249 255
244 249 255
244 249 255
244 249 255
244 249 255
244 249 255
244 249 255
244 249 255
244 249 255
244 249 255
244 249 255
244 249 255
244 249 255
244 249 255
244 249 255
244 249 255
244 249 255
244 249 255
244 249 255
244 249 255
244 249 255
244 249 255
244 248 255
244 248 255
244 248 255
244 248 255
244 248 255
243 248 255
243 248 255
243 248 255
243 248 255
243 248 255
243 248 255
243 248 255
243 248 255
243 248 255
243 248 255
243 248 255
243 248 255
243 248 255
243 248 255
243 248 255
243 248 255
243 248 255
243 248 255
243 248 255
243 248 255
243 248 255
242 248 255
242 248 255
242 248 255
242 248 255
242 248 255
242 248 255
242 248 255
242 248 255
242 248 255
242 247 255
242 247 255
242 247 255
242 247 255
242 247 255
242 247 255
242 247 255
242 245 253
242 204 211
240 158 163
235 55 57
241 0 0
233 0 0
236 0 0
236 0 0
237 0 0
238 0 0
237 0 0
235 0 0
235 0 0
236 0 0
233 0 0
238 0 0
236 0 0
236 0 0
235 0 0
237 0 0
238 0 0
233 0 0
233 0 0
238 0 0
234 0 0
235 0 0
236 0 0
237 0 0
233 0 0
235 0 0
235 0 0
234 0 0
235 0 0
233 0 0
234 0 0
232 0 0
232 0 0
233 0 0
232 0 0
235 0 0
234 0 0
235 0 0
235 0 0
235 0 0
235 0 0
236 0 0
234 0 0
233 0 0
235 0 0
236 0 0
234 0 0
235 0 0
231 0 0
236 0 0
231 0 0
233 0 0
233 0 0
236 0 0
234 0 0
235 0 0
235 0 0
232 0 0
234 0 0
232 0 0
234 0 0
232 0 0
234 0 0
233 0 0
237 0 0
232 0 0
232 0 0
234 0 0
233 0 0
232 0 0
232 0 0
235 0 0
234 0 0
233 0 0
233 0 0
234 0 0
235 0 0
234 0 0
234 0 0
234 0 0
230 0 0
234 0 0
234 0 0
233 0 0
228 0 0
233 0 0
232 0 0
234 0 0
234 0 0
231 0 0
234 0 0
234 0 0
232 0 0
235 0 0
233 0 0
237 0 0
235 0 0
234 0 0
235 0 0
233 0 0
233 0 0
233 0 0
233 0 0
233 0 0
232 0 0
229 0 0
232 0 0
234 0 0
232 0 0
0 0 255
0 0 255
0 0 255
0 0 255
0 0 255
0 0 255
0 0 255
0 0 255
0 0 255
0 0 255
0 0 255
0 0 255
0 0 255
0 0 255
0 0 255
0 0 255
0 0 255
0 0 255
0 0 255
0 0 255
0 0 255
0 0 255
0 0 255
0 0 255
0 0 255
0 0 255
0 0 254
0 0 255
0 0 255
0 0 255
0 0 255
0 0 255
0 0 255
0 0 255
0 0 255
0 0 255
0 0 255
0 0 255
0 0 254
0 0 255
0 0 255
0 0 255
0 0 255
0 0 255
0 0 255
0 0 255
0 0 255
0 0 255
0 0 253
0 0 255
0 0 255
0 0 254
0 0 255
0 0 254
0 0 255
0 0 254
0 0 253
0 0 255
0 0 255
0 0 255
0 0 255
0 0 255
0 0 255
0 0 255
0 0 255
0 0 255
0 0 255
0 0 255
0 0 254
0 0 255
0 0 255
0 0 255
0 0 255
0 0 254
0 0 255
0 0 255
0 0 254
0 0 255
0 0 255
0 0 254
0 0 255
0 0 254
0 0 255
0 0 254
0 0 255
0 0 254
0 0 255
0 0 253
0 0 253
0 0 255
0 0 254
0 0 255
0 0 253
0 0 255
0 0 255
0 0 255
0 0 254
0 0 255
0 0 252
0 0 255
0 0 255
0 0 252
0 0 255
0 0 252
0 0 255
0 0 254
68 70 254
136 140 253
201 205 254
234 240 255
242 247 255
242 247 255
242 247 255
242 247 255
242 247 255
242 247 255
242 247 255
242 248 255
242 248 255
242 248 255
242 248 255
242 248 255
242 248 255
242 248 255
242 248 255
242 248 255
243 248 255
243 248 255
243 248 255
243 248 255
243 248 255
243 248 255
243 248 255
243 248 255
243 248 255
243 248 255
243 248 255
243 248 255
243 248 255
243 248 255
243 248 255
243 248 255
243 248 255
243 248 255
243 248 255
243 248 255
243 248 255
244 248 255
244 248 255
244 248 255
244 248 255
244 248 255
244 249 255
244 249 255
244 249 255
244 249 255
244 249 255
244 249 255
244 249 255
244 249 255
244 249 255
244 249 255
244 249 255
244 249 255
244 249 255
244 249 255
244 249 255
244 249 255
244 249 255
244 249 255
244 249 255
244 249 255
244 249 255
244 249 255
244 249 255
244 249 255
245 249 255
245 249 255
245 249 255
245 249 255
245 249 255
245 249 255
245 249 255
245 249 255
245 249 255
245 249 255
245 249 255
245 249 255
245 249 255
245 249 255
245 249 255
245 249 255
245 249 255
245 249 255
245 249 255
245 249 255
245 249 255
245 249 255
245 249 255
245 249 255
245 249 255
245 249 255
245 249 255
245 249 255
245 249 255
245 249 255
245 249 255
245 249 255
245 249 255
245 249 255
245 249 255
245 249 255
245 249 255
245 249 255
245 249 255
245 249 255
245 249 255
245 249 255
245 249 255
245 249 255
245 249 255
245 249 255
245 249 255
245 249 255
244 249 255
244 249 255
244 249 255
244 249 255
244 249 255
244 249 255
244 249 255
244 249 255
244 249 255
244 249 255
244 249 255
244 249 255
244 249 255
244 249 255
244 249 255
244 249 255
244 249 255
244 249 255
244 249 255
244 249 255
244 249 255
244 249 255
244 249 255
244 249 255
244 248 255
244 248 255
244 248 255
244 248 255
244 248 255
243 248 255
243 248 255
243 248 255
243 248 255
243 248 255
243 248 255
243 248 255
243 248 255
243 248 255
243 248 255
243 248 255
243 248 255
243 248 255
243 248 255
243 248 255
243 248 255
243 248 255
243 248 255
243 248 255
243 248 255
243 248 255
242 248 255
242 248 255
242 248 255
242 248 255
242 248 255
242 248 255
242 248 255
242 248 255
242 248 255
242 247 255
242 247 255
242 247 255
242 247 255
242 247 255
242 247 255
242 247 255
242 247 255
240 213 220
241 152 157
237 42 44
236 0 0
233 0 0
239 0 0
240 0 0
236 0 0
236 0 0
237 0 0
238 0 0
237 0 0
233 0 0
238 0 0
235 0 0
235 0 0
238 0 0
234 0 0
237 0 0
240 0 0
236 0 0
238 0 0
233 0 0
236 0 0
237 0 0
237 0 0
238 0 0
234 0 0
238 0 0
237 0 0
234 0 0
234 0 0
236 0 0
234 0 0
237 0 0
232 0 0
233 0 0
235 0 0
235 0 0
233 0 0
234 0 0
234 0 0
234 0 0
235 0 0
232 0 0
233 0 0
233 0 0
236 0 0
238 0 0
234 0 0
233 0 0
235 0 0
233 0 0
236 0 0
234 0 0
236 0 0
231 0 0
234 0 0
233 0 0
234 0 0
233 0 0
234 0 0
235 0 0
235 0 0
237 0 0
235 0 0
235 0 0
234 0 0
233 0 0
235 0 0
234 0 0
236 0 0
233 0 0
234 0 0
229 0 0
234 0 0
234 0 0
234 0 0
230 0 0
237 0 0
233 0 0
237 0 0
234 0 0
236 0 0
235 0 0
232 0 0
233 0 0
233 0 0
234 0 0
232 0 0
233 0 0
232 0 0
234 0 0
233 0 0
232 0 0
235 0 0
234 0 0
237 0 0
233 0 0
234 0 0
231 0 0
232 0 0
233 0 0
234 0 0
233 0 0
232 0 0
232 0 0
233 0 0
234 0 0
0 0 255
0 0 255
0 0 255
0 0 255
0 0 255
0 0 255
0 0 255
0 0 255
0 0 255
0 0 255
0 0 255
0 0 255
0 0 255
0 0 255
0 0 255
0 0 255
0 0 254
0 0 255
0 0 255
0 0 255
0 0 255
0 0 255
0 0 255
0 0 255
0 0 255
0 0 255
0 0 253
0 0 255
0 0 255
0 0 255
0 0 255
0 0 254
0 0 255
0 0 255
0 0 255
0 0 255
0 0 255
0 0 255
0 0 254
0 0 254
0 0 255
0 0 255
0 0 255
0 0 255
0 0 255
0 0 255
0 0 255
0 0 255
0 0 255
0 0 255
0 0 255
0 0 254
0 0 253
0 0 253
0 0 255
0 0 255
0 0 255
0 0 254
0 0 254
0 0 254
0 0 255
0 0 255
0 0 255
0 0 255
0 0 255
0 0 255
0 0 254
0 0 252
0 0 255
0 0 255
0 0 255
0 0 255
0 0 255
0 0 255
0 0 255
0 0 254
0 0 255
0 0 255
0 0 252
0 0 254
0 0 255
0 0 253
0 0 252
0 0 253
0 0 254
0 0 254
0 0 253
0 0 253
0 0 255
0 0 252
0 0 255
0 0 254
0 0 253
0 0 255
0 0 255
0 0 255
0 0 253
0 0 255
0 0 255
0 0 253
0 0 253
0 0 254
0 0 254
80 82 255
147 150 255
190 195 255
238 243 255
242 247 255
242 247 255
242 247 255
242 247 255
242 247 255
242 247 255
242 247 255
242 247 255
242 248 255
242 248 255
242 248 255
242 248 255
242 248 255
242 248 255
242 248 255
242 248 255
242 248 255
243 248 255
243 248 255
243 248 255
243 248 255
243 248 255
243 248 255
243 248 255
243 248 255
243 248 255
243 248 255
243 248 255
243 248 255
243 248 255
243 248 255
243 248 255
243 248 255
243 248 255
243 248 255
243 248 255
243 248 255
244 248 255
244 248 255
244 248 255
244 248 255
244 248 255
244 249 255
244 249 255
244 249 255
244 249 255
244 249 255
244 249 255
244 249 255
244 249 255
244 249 255
244 249 255
244 249 255
244 249 255
244 249 255
244 249 255
244 249 255
244 249 255
244 249 255
244 249 255
244 249 255
244 249 255
244 249 255
244 249 255
245 249 255
245 249 255
245 249 255
245 249 255
245 249 255
245 249 255
245 249 255
245 249 255
245 249 255
245 249 255
245 249 255
245 249 255
245 249 255
245 249 255
245 249 255
245 249 255
245 249 255
245 249 255
245 249 255
245 249 255
245 249 255
245 249 255
245 249 255
245 249 255
245 249 255
245 249 255
245 249 255
245 249 255
245 249 255
245 249 255
245 249 255
245 249 255
245 249 255
245 249 255
245 249 255
245 249 255
245 249 255
245 249 255
245 249 255
245 249 255
245 249 255
245 249 255
245 249 255
245 249 255
245 249 255
245 249 255
245 249 255
245 249 255
245 249 255
245 249 255
245 249 255
245 249 255
245 249 255
245 249 255
245 249 255
245 249 255
245 249 255
245 249 255
244 249 255
244 249 255
244 249 255
244 249 255
244 249 255
244 249 255
244 249 255
244 249 255
244 249 255
244 249 255
244 249 255
244 249 255
244 249 255
244 249 255
244 249 255
244 249 255
244 249 255
244 249 255
244 249 255
244 249 255
244 249 255
244 249 255
244 248 255
244 248 255
244 248 255
244 248 255
244 248 255
243 248 255
243 248 255
243 248 255
243 248 255
243 248 255
243 248 255
243 248 255
243 248 255
243 248 255
243 248 255
243 248 255
243 248 255
243 248 255
243 248 255
243 248 255
243 248 255
243 248 255
243 248 255
243 248 255
243 248 255
242 248 255
242 248 255
242 248 255
242 248 255
242 248 255
242 248 255
242 248 255
242 248 255
242 248 255
242 247 255
242 247 255
242 247 255
242 247 255
242 247 255
242 247 255
242 247 255
242 247 255
241 245 253
240 199 206
240 158 163
239 89 92
234 0 0
238 0 0
241 0 0
238 0 0
238 0 0
240 0 0
236 0 0
239 0 0
238 0 0
235 0 0
237 0 0
237 0 0
236 0 0
233 0 0
235 0 0
236 0 0
235 0 0
236 0 0
235 0 0
238 0 0
239 0 0
236 0 0
233 0 0
234 0 0
234 0 0
232 0 0
234 0 0
235 0 0
234 0 0
236 0 0
233 0 0
234 0 0
235 0 0
237 0 0
235 0 0
233 0 0
237 0 0
233 0 0
233 0 0
234 0 0
232 0 0
236 0 0
237 0 0
234 0 0
232 0 0
233 0 0
234 0 0
232 0 0
234 0 0
237 0 0
236 0 0
234 0 0
233 0 0
233 0 0
234 0 0
232 0 0
234 0 0
236 0 0
236 0 0
238 0 0
234 0 0
234 0 0
231 0 0
236 0 0
230 0 0
234 0 0
234 0 0
234 0 0
236 0 0
231 0 0
234 0 0
232 0 0
233 0 0
231 0 0
232 0 0
234 0 0
231 0 0
234 0 0
231 0 0
233 0 0
232 0 0
234 0 0
235 0 0
233 0 0
235 0 0
235 0 0
234 0 0
233 0 0
233 0 0
235 0 0
232 0 0
234 0 0
232 0 0
236 0 0
231 0 0
236 0 0
234 0 0
234 0 0
233 0 0
234 0 0
236 0 0
234 0 0
232 0 0
0 0 255
0 0 255
0 0 255
0 0 255
0 0 255
0 0 255
0 0 255
0 0 255
0 0 255
0 0 255
0 0 255
0 0 255
0 0 255
0 0 255
0 0 255
0 0 255
0 0 255
0 0 255
0 0 254
0 0 255
0 0 255
0 0 255
0 0 255
0 0 255
0 0 255
0 0 255
0 0 254
0 0 255
0 0 255
0 0 255
0 0 255
0 0 255
0 0 255
0 0 255
0 0 255
0 0 254
0 0 255
0 0 255
0 0 255
0 0 255
0 0 255
0 0 255
0 0 255
0 0 255
0 0 255
0 0 255
0 0 255
0 0 255
0 0 255
0 0 255
0 0 255
0 0 255
0 0 255
0 0 254
0 0 255
0 0 255
0 0 255
0 0 255
0 0 255
0 0 255
0 0 255
0 0 255
0 0 255
0 0 255
0 0 255
0 0 254
0 0 255
0 0 254
0 0 254
0 0 254
0 0 255
0 0 255
0 0 255
0 0 254
0 0 254
0 0 254
0 0 254
0 0 254
0 0 255
0 0 255
0 0 254
0 0 253
0 0 255
0 0 255
0 0 253
0 0 254
0 0 253
0 0 255
0 0 253
0 0 255
0 0 255
0 0 255
0 0 255
0 0 252
0 0 253
0 0 255
0 0 254
0 0 255
0 0 255
24 24 254
118 121 253
164 167 255
220 225 255
240 246 255
242 247 255
242 247 255
242 247 255
242 247 255
242 247 255
242 247 255
242 247 255
242 247 255
242 247 255
242 248 255
242 248 255
242 248 255
242 248 255
242 248 255
242 248 255
242 248 255
242 248 255
243 248 255
243 248 255
243 248 255
243 248 255
243 248 255
243 248 255
243 248 255
243 248 255
243 248 255
243 248 255
243 248 255
243 248 255
243 248 255
243 248 255
243 248 255
243 248 255
243 248 255
243 248 255
243 248 255
243 248 255
244 248 255
244 248 255
244 248 255
244 248 255
244 248 255
244 249 255
244 249 255
244 249 255
244 249 255
244 249 255
244 249 255
244 249 255
244 249 255
244 249 255
244 249 255
244 249 255
244 249 255
244 249 255
244 249 255
244 249 255
244 249 255
244 249 255
244 249 255
244 249 255
244 249 255
244 249 255
245 249 255
245 249 255
245 249 255
245 249 255
245 249 255
245 249 255
245 249 255
245 249 255
245 249 255
245 249 255
245 249 255
245 249 255
245 249 255
245 249 255
245 249 255
245 249 255
245 249 255
245 249 255
245 249 255
245 249 255
245 249 255
245 249 255
245 249 255
245 249 255
245 249 255
245 249 255
245 249 255
245 249 255
245 249 255
245 249 255
245 249 255
245 249 255
245 249 255
245 249 255
245 249 255
245 249 255
245 249 255
245 249 255
245 249 255
245 249 255
245 249 255
245 249 255
245 249 255
245 249 255
245 249 255
245 249 255
245 249 255
245 249 255
245 249 255
245 249 255
245 249 255
245 249 255
245 249 255
245 249 255
245 249 255
245 249 255
245 249 255
245 249 255
245 249 255
245 249 255
245 249 255
245 249 255
245 249 255
245 249 255
245 249 255
245 249 255
244 249 255
244 249 255
244 249 255
244 249 255
244 249 255
244 249 255
244 249 255
244 249 255
244 249 255
244 249 255
244 249 255
244 249 255
244 249 255
244 249 255
244 249 255
244 249 255
244 249 255
244 249 255
244 249 255
244 249 255
244 249 255
244 248 255
244 248 255
244 248 255
244 248 255
244 248 255
243 248 255
243 248 255
243 248 255
243 248 255
243 248 255
243 248 255
243 248 255
243 248 255
243 248 255
243 248 255
243 248 255
243 248 255
243 248 255
243 248 255
243 248 255
243 248 255
243 248 255
243 248 255
243 248 255
242 248 255
242 248 255
242 248 255
242 248 255
242 248 255
242 248 255
242 248 255
242 248 255
242 248 255
242 247 255
242 247 255
242 247 255
242 247 255
242 247 255
242 247 255
242 247 255
242 247 255
242 247 255
241 246 254
241 228 236
241 185 191
238 85 88
237 24 25
238 0 0
239 0 0
237 0 0
236 0 0
233 0 0
238 0 0
236 0 0
238 0 0
237 0 0
234 0 0
233 0 0
238 0 0
233 0 0
235 0 0
238 0 0
236 0 0
236 0 0
234 0 0
234 0 0
237 0 0
235 0 0
236 0 0
233 0 0
235 0 0
235 0 0
237 0 0
233 0 0
235 0 0
236 0 0
237 0 0
233 0 0
232 0 0
237 0 0
231 0 0
237 0 0
234 0 0
235 0 0
234 0 0
236 0 0
235 0 0
232 0 0
236 0 0
234 0 0
236 0 0
235 0 0
237 0 0
234 0 0
235 0 0
234 0 0
234 0 0
237 0 0
233 0 0
238 0 0
236 0 0
235 0 0
235 0 0
235 0 0
233 0 0
237 0 0
233 0 0
237 0 0
234 0 0
234 0 0
233 0 0
235 0 0
231 0 0
237 0 0
234 0 0
236 0 0
233 0 0
233 0 0
234 0 0
234 0 0
235 0 0
234 0 0
234 0 0
237 0 0
236 0 0
235 0 0
232 0 0
230 0 0
235 0 0
233 0 0
234 0 0
235 0 0
235 0 0
237 0 0
236 0 0
234 0 0
232 0 0
232 0 0
232 0 0
234 0 0
231 0 0
235 0 0
235 0 0
231 0 0
233 0 0
233 0 0
0 0 255
0 0 255
0 0 255
0 0 255
0 0 255
0 0 255
0 0 255
0 0 255
0 0 255
0 0 255
0 0 255
0 0 255
0 0 255
0 0 255
0 0 255
0 0 255
0 0 255
0 0 255
0 0 255
0 0 255
0 0 255
0 0 255
0 0 255
0 0 255
0 0 255
0 0 255
0 0 255
0 0 255
0 0 255
0 0 255
0 0 255
0 0 255
0 0 255
0 0 255
0 0 255
0 0 255
0 0 255
0 0 255
0 0 255
0 0 255
0 0 254
0 0 254
0 0 254
0 0 255
0 0 255
0 0 255
0 0 255
0 0 255
0 0 255
0 0 255
0 0 255
0 0 255
0 0 255
0 0 254
0 0 255
0 0 255
0 0 255
0 0 255
0 0 255
0 0 255
0 0 255
0 0 253
0 0 254
0 0 255
0 0 252
0 0 255
0 0 252
0 0 254
0 0 255
0 0 253
0 0 255
0 0 255
0 0 255
0 0 254
0 0 255
0 0 254
0 0 255
0 0 255
0 0 255
0 0 254
0 0 254
0 0 255
0 0 252
0 0 254
0 0 255
0 0 255
0 0 254
0 0 255
0 0 255
0 0 255
0 0 254
0 0 255
0 0 254
0 0 254
0 0 254
0 0 254
76 78 253
138 142 254
193 198 254
228 233 255
241 247 255
242 247 255
242 247 255
242 247 255
242 247 255
242 247 255
242 247 255
242 247 255
242 247 255
242 247 255
242 247 255
242 248 255
242 248 255
242 248 255
242 248 255
242 248 255
242 248 255
242 248 255
242 248 255
243 248 255
243 248 255
243 248 255
243 248 255
243 248 255
243 248 255
243 248 255
243 248 255
243 248 255
243 248 255
243 248 255
243 248 255
243 248 255
243 248 255
243 248 255
243 248 255
243 248 255
243 248 255
243 248 255
243 248 255
244 248 255
244 248 255
244 248 255
244 248 255
244 249 255
244 249 255
244 249 255
244 249 255
244 249 255
244 249 255
244 249 255
244 249 255
244 249 255
244 249 255
244 249 255
244 249 255
244 249 255
244 249 255
244 249 255
244 249 255
244 249 255
244 249 255
244 249 255
244 249 255
245 249 255
245 249 255
245 249 255
245 249 255
245 249 255
245 249 255
245 249 255
245 249 255
245 249 255
245 249 255
245 249 255
245 249 255
245 249 255
245 249 255
245 249 255
245 249 255
245 249 255
245 249 255
245 249 255
245 249 255
245 249 255
245 249 255
245 249 255
245 249 255
245 249 255
245 249 255
245 249 255
245 249 255
245 249 255
245 249 255
245 249 255
245 249 255
245 249 255
245 249 255
245 249 255
245 249 255
245 249 255
245 249 255
245 249 255
245 249 255
245 249 255
245 249 255
245 249 255
245 249 255
245 249 255
245 249 255
245 249 255
245 249 255
245 249 255
245 249 255
245 249 255
245 249 255
245 249 255
245 249 255
245 249 255
245 249 255
245 249 255
245 249 255
245 249 255
245 249 255
245 249 255
245 249 255
245 249 255
245 249 255
245 249 255
245 249 255
245 249 255
245 249 255
245 249 255
245 249 255
245 249 255
245 249 255
245 249 255
245 249 255
244 249 255
244 249 255
244 249 255
244 249 255
244 249 255
244 249 255
244 249 255
244 249 255
244 249 255
244 249 255
244 249 255
244 249 255
244 249 255
244 249 255
244 249 255
244 249 255
244 249 255
244 249 255
244 249 255
244 249 255
244 248 255
244 248 255
244 248 255
244 248 255
243 248 255
243 248 255
243 248 255
243 248 255
243 248 255
243 248 255
243 248 255
243 248 255
243 248 255
243 248 255
243 248 255
243 248 255
243 248 255
243 248 255
243 248 255
243 248 255
243 248 255
243 248 255
243 248 255
243 248 255
242 248 255
242 248 255
242 248 255
242 248 255
242 248 255
242 248 255
242 248 255
242 248 255
242 247 255
242 247 255
242 247 255
242 247 255
242 247 255
242 247 255
242 247 255
242 247 255
242 247 255
242 247 255
241 247 255
240 229 237
239 194 201
239 146 151
238 70 72
237 0 0
236 0 0
237 0 0
239 0 0
242 0 0
238 0 0
235 0 0
236 0 0
237 0 0
233 0 0
237 0 0
239 0 0
235 0 0
235 0 0
232 0 0
238 0 0
236 0 0
234 0 0
236 0 0
237 0 0
237 0 0
236 0 0
238 0 0
234 0 0
237 0 0
235 0 0
237 0 0
234 0 0
235 0 0
236 0 0
236 0 0
235 0 0
233 0 0
235 0 0
236 0 0
233 0 0
236 0 0
235 0 0
234 0 0
234 0 0
237 0 0
233 0 0
235 0 0
236 0 0
235 0 0
236 0 0
233 0 0
233 0 0
234 0 0
232 0 0
233 0 0
235 0 0
232 0 0
234 0 0
235 0 0
236 0 0
235 0 0
234 0 0
235 0 0
232 0 0
234 0 0
234 0 0
235 0 0
231 0 0
233 0 0
235 0 0
234 0 0
232 0 0
234 0 0
233 0 0
234 0 0
234 0 0
231 0 0
235 0 0
234 0 0
234 0 0
233 0 0
234 0 0
236 0 0
234 0 0
235 0 0
235 0 0
234 0 0
231 0 0
236 0 0
235 0 0
232 0 0
234 0 0
234 0 0
233 0 0
233 0 0
229 0 0
232 0 0
233 0 0
232 0 0
232 0 0
0 0 255
0 0 255
0 0 255
0 0 255
0 0 255
0 0 255
0 0 255
0 0 255
0 0 255
0 0 255
0 0 255
0 0 255
0 0 255
0 0 255
0 0 255
0 0 255
0 0 255
0 0 255
0 0 255
0 0 255
0 0 255
0 0 255
0 0 255
0 0 255
0 0 255
0 0 255
0 0 255
0 0 255
0 0 255
0 0 255
0 0 255
0 0 255
0 0 255
0 0 255
0 0 255
0 0 255
0 0 255
0 0 255
0 0 255
0 0 255
0 0 254
0 0 255
0 0 255
0 0 255
0 0 255
0 0 255
0 0 255
0 0 255
0 0 255
0 0 255
0 0 255
0 0 255
0 0 255
0 0 255
0 0 255
0 0 255
0 0 254
0 0 255
0 0 255
0 0 255
0 0 255
0 0 255
0 0 254
0 0 254
0 0 255
0 0 255
0 0 255
0 0 255
0 0 254
0 0 255
0 0 255
0 0 255
0 0 255
0 0 255
0 0 255
0 0 255
0 0 255
0 0 255
0 0 254
0 0 254
0 0 255
0 0 254
0 0 255
0 0 254
0 0 255
0 0 254
0 0 255
0 0 255
0 0 254
0 0 254
0 0 255
0 0 255
68 70 255
130 133 255
185 190 255
222 228 255
241 247 255
241 247 255
241 247 255
242 247 255
242 247 255
242 247 255
242 247 255
242 247 255
242 247 255
242 247 255
242 247 255
242 247 255
242 248 255
242 248 255
242 248 255
242 248 255
242 248 255
242 248 255
242 248 255
242 248 255
242 248 255
243 248 255
243 248 255
243 248 255
243 248 255
243 248 255
243 248 255
243 248 255
243 248 255
243 248 255
243 248 255
243 248 255
243 248 255
243 248 255
243 248 255
243 248 255
243 248 255
243 248 255
243 248 255
243 248 255
244 248 255
244 248 255
244 248 255
244 248 255
244 248 255
244 249 255
244 249 255
244 249 255
244 249 255
244 249 255
244 249 255
244 249 255
244 249 255
244 249 255
244 249 255
244 249 255
244 249 255
244 249 255
244 249 255
244 249 255
244 249 255
244 249 255
244 249 255
244 249 255
245 249 255
245 249 255
245 249 255
245 249 255
245 249 255
245 249 255
245 249 255
245 249 255
245 249 255
245 249 255
245 249 255
245 249 255
245 249 255
245 249 255
245 249 255
245 249 255
245 249 255
245 249 255
245 249 255
245 249 255
245 249 255
245 249 255
245 249 255
245 249 255
245 249 255
245 249 255
245 249 255
245 249 255
245 249 255
245 249 255
245 249 255
245 249 255
245 249 255
245 249 255
245 249 255
245 249 255
245 249 255
245 249 255
245 249 255
245 249 255
245 249 255
245 249 255
245 249 255
245 249 255
245 249 255
245 249 255
245 249 255
245 249 255
245 249 255
245 249 255
245 249 255
245 249 255
245 249 255
245 249 255
245 249 255
245 249 255
245 249 255
245 249 255
245 249 255
245 249 255
245 249 255
245 249 255
245 249 255
245 249 255
245 249 255
245 249 255
245 249 255
245 249 255
245 249 255
245 249 255
245 249 255
245 249 255
245 249 255
245 249 255
245 249 255
245 249 255
245 249 255
245 249 255
245 249 255
245 249 255
244 249 255
244 249 255
244 249 255
244 249 255
244 249 255
244 249 255
244 249 255
244 249 255
244 249 255
244 249 255
244 249 255
244 249 255
244 249 255
244 249 255
244 249 255
244 249 255
244 249 255
244 249 255
244 249 255
244 248 255
244 248 255
244 248 255
244 248 255
244 248 255
243 248 255
243 248 255
243 248 255
243 248 255
243 248 255
243 248 255
243 248 255
243 248 255
243 248 255
243 248 255
243 248 255
243 248 255
243 248 255
243 248 255
243 248 255
243 248 255
243 248 255
243 248 255
243 248 255
242 248 255
242 248 255
242 248 255
242 248 255
242 248 255
242 248 255
242 248 255
242 248 255
242 248 255
242 247 255
242 247 255
242 247 255
242 247 255
242 247 255
242 247 255
242 247 255
242 247 255
242 247 255
241 247 255
241 247 255
241 247 255
241 225 233
241 191 198
240 137 142
238 55 57
236 0 0
236 0 0
238 0 0
235 0 0
239 0 0
236 0 0
239 0 0
238 0 0
240 0 0
236 0 0
236 0 0
238 0 0
238 0 0
235 0 0
236 0 0
235 0 0
235 0 0
239 0 0
237 0 0
233 0 0
235 0 0
235 0 0
237 0 0
233 0 0
235 0 0
234 0 0
236 0 0
237 0 0
235 0 0
234 0 0
234 0 0
236 0 0
237 0 0
237 0 0
235 0 0
235 0 0
234 0 0
236 0 0
234 0 0
235 0 0
233 0 0
234 0 0
233 0 0
236 0 0
235 0 0
236 0 0
234 0 0
235 0 0
233 0 0
233 0 0
235 0 0
234 0 0
237 0 0
236 0 0
235 0 0
233 0 0
233 0 0
236 0 0
235 0 0
234 0 0
232 0 0
237 0 0
235 0 0
236 0 0
234 0 0
235 0 0
236 0 0
239 0 0
235 0 0
233 0 0
234 0 0
233 0 0
234 0 0
231 0 0
234 0 0
233 0 0
234 0 0
237 0 0
238 0 0
231 0 0
232 0 0
233 0 0
233 0 0
232 0 0
233 0 0
235 0 0
234 0 0
234 0 0
235 0 0
237 0 0
235 0 0
232 0 0
0 0 255
0 0 255
0 0 255
0 0 255
0 0 255
0 0 255
0 0 255
0 0 255
0 0 255
0 0 255
0 0 255
0 0 255
0 0 255
0 0 255
0 0 255
0 0 255
0 0 255
0 0 255
0 0 255
0 0 255
0 0 255
0 0 255
0 0 255
0 0 255
0 0 255
0 0 255
0 0 255
0 0 255
0 0 255
0 0 255
0 0 255
0 0 254
0 0 255
0 0 254
0 0 255
0 0 255
0 0 255
0 0 255
0 0 255
0 0 255
0 0 255
0 0 255
0 0 255
0 0 255
0 0 254
0 0 255
0 0 255
0 0 254
0 0 255
0 0 255
0 0 255
0 0 255
0 0 255
0 0 255
0 0 255
0 0 255
0 0 254
0 0 255
0 0 255
0 0 255
0 0 255
0 0 255
0 0 255
0 0 255
0 0 255
0 0 254
0 0 255
0 0 254
0 0 254
0 0 254
0 0 254
0 0 255
0 0 255
0 0 255
0 0 255
0 0 254
0 0 254
0 0 254
0 0 255
0 0 254
0 0 253
0 0 254
0 0 255
0 0 255
0 0 254
0 0 255
0 0 254
24 24 255
96 98 255
146 150 255
193 197 255
222 228 255
241 247 255
241 247 255
241 247 255
241 247 255
241 247 255
242 247 255
242 247 255
242 247 255
242 247 255
242 247 255
242 247 255
242 247 255
242 247 255
242 247 255
242 248 255
242 248 255
242 248 255
242 248 255
242 248 255
242 248 255
242 248 255
242 248 255
242 248 255
243 248 255
243 248 255
243 248 255
243 248 255
243 248 255
243 248 255
243 248 255
243 248 255
243 248 255
243 248 255
243 248 255
243 248 255
243 248 255
243 248 255
243 248 255
243 248 255
243 248 255
243 248 255
243 248 255
244 248 255
244 248 255
244 248 255
244 248 255
244 249 255
244 249 255
244 249 255
244 249 255
244 249 255
244 249 255
244 249 255
244 249 255
244 249 255
244 249 255
244 249 255
244 249 255
244 249 255
244 249 255
244 249 255
244 249 255
244 249 255
244 249 255
244 249 255
245 249 255
245 249 255
245 249 255
245 249 255
245 249 255
245 249 255
245 249 255
245 249 255
245 249 255
245 249 255
245 249 255
245 249 255
245 249 255
245 249 255
245 249 255
245 249 255
245 249 255
245 249 255
245 249 255
245 249 255
245 249 255
245 249 255
245 249 255
245 249 255
245 249 255
245 249 255
245 249 255
245 249 255
245 249 255
245 249 255
245 249 255
245 249 255
245 249 255
245 249 255
245 249 255
245 249 255
245 249 255
245 249 255
245 249 255
245 249 255
245 249 255
245 249 255
245 249 255
245 249 255
245 249 255
245 249 255
245 249 255
245 249 255
245 249 255
245 249 255
245 249 255
245 249 255
245 249 255
245 249 255
245 249 255
245 249 255
245 249 255
245 249 255
245 249 255
245 249 255
245 249 255
245 249 255
245 249 255
245 249 255
245 249 255
245 249 255
245 249 255
245 249 255
245 249 255
245 249 255
245 249 255
245 249 255
245 249 255
245 249 255
245 249 255
245 249 255
245 249 255
245 249 255
245 249 255
245 249 255
245 249 255
245 249 255
245 249 255
245 249 255
245 249 255
245 249 255
244 249 255
244 249 255
244 249 255
244 249 255
244 249 255
244 249 255
244 249 255
244 249 255
244 249 255
244 249 255
244 249 255
244 249 255
244 249 255
244 249 255
244 249 255
244 249 255
244 249 255
244 249 255
244 249 255
244 248 255
244 248 255
244 248 255
244 248 255
243 248 255
243 248 255
243 248 255
243 248 255
243 248 255
243 248 255
243 248 255
243 248 255
243 248 255
243 248 255
243 248 255
243 248 255
243 248 255
243 248 255
243 248 255
243 248 255
243 248 255
243 248 255
243 248 255
242 248 255
242 248 255
242 248 255
242 248 255
242 248 255
242 248 255
242 248 255
242 248 255
242 248 255
242 247 255
242 247 255
242 247 255
242 247 255
242 247 255
242 247 255
242 247 255
242 247 255
242 247 255
241 247 255
241 247 255
241 247 255
241 247 255
241 247 255
240 226 234
240 208 215
239 156 161
238 82 84
240 24 25
236 0 0
240 0 0
238 0 0
239 0 0
239 0 0
238 0 0
239 0 0
235 0 0
236 0 0
238 0 0
239 0 0
237 0 0
234 0 0
235 0 0
237 0 0
236 0 0
234 0 0
236 0 0
237 0 0
234 0 0
236 0 0
232 0 0
236 0 0
236 0 0
235 0 0
234 0 0
234 0 0
236 0 0
236 0 0
236 0 0
232 0 0
231 0 0
234 0 0
236 0 0
237 0 0
238 0 0
236 0 0
233 0 0
235 0 0
237 0 0
236 0 0
234 0 0
235 0 0
236 0 0
232 0 0
236 0 0
236 0 0
232 0 0
237 0 0
234 0 0
234 0 0
237 0 0
235 0 0
236 0 0
236 0 0
235 0 0
235 0 0
233 0 0
233 0 0
236 0 0
236 0 0
235 0 0
234 0 0
235 0 0
236 0 0
235 0 0
236 0 0
234 0 0
236 0 0
233 0 0
235 0 0
238 0 0
237 0 0
237 0 0
234 0 0
233 0 0
235 0 0
234 0 0
235 0 0
235 0 0
234 0 0
234 0 0
232 0 0
235 0 0
237 0 0
233 0 0
234 0 0
0 0 255
0 0 255
0 0 255
0 0 255
0 0 255
0 0 255
0 0 255
0 0 255
0 0 255
0 0 255
0 0 255
0 0 255
0 0 255
0 0 255
0 0 255
0 0 255
0 0 255
0 0 255
0 0 255
0 0 255
0 0 255
0 0 255
0 0 255
0 0 255
0 0 255
0 0 255
0 0 255
0 0 255
0 0 255
0 0 255
0 0 255
0 0 255
0 0 255
0 0 255
0 0 254
0 0 255
0 0 255
0 0 255
0 0 255
0 0 255
0 0 255
0 0 254
0 0 254
0 0 255
0 0 254
0 0 255
0 0 255
0 0 255
0 0 255
0 0 255
0 0 254
0 0 255
0 0 255
0 0 254
0 0 255
0 0 254
0 0 255
0 0 255
0 0 254
0 0 254
0 0 255
0 0 254
0 0 255
0 0 255
0 0 255
0 0 255
0 0 255
0 0 255
0 0 254
0 0 255
0 0 255
0 0 255
0 0 255
0 0 255
0 0 255
0 0 254
0 0 255
0 0 255
0 0 255
0 0 255
0 0 255
0 0 255
0 0 255
90 92 254
123 126 254
172 176 255
203 208 255
231 237 255
241 247 255
241 247 255
241 247 255
241 247 255
241 247 255
241 247 255
241 247 255
242 247 255
242 247 255
242 247 255
242 247 255
242 247 255
242 247 255
242 247 255
242 247 255
242 247 255
242 248 255
242 248 255
242 248 255
242 248 255
242 248 255
242 248 255
242 248 255
242 248 255
243 248 255
243 248 255
243 248 255
243 248 255
243 248 255
243 248 255
243 248 255
243 248 255
243 248 255
243 248 255
243 248 255
243 248 255
243 248 255
243 248 255
243 248 255
243 248 255
243 248 255
243 248 255
243 248 255
244 248 255
244 248 255
244 248 255
244 248 255
244 248 255
244 249 255
244 249 255
244 249 255
244 249 255
244 249 255
244 249 255
244 249 255
244 249 255
244 249 255
244 249 255
244 249 255
244 249 255
244 249 255
244 249 255
244 249 255
244 249 255
244 249 255
245 249 255
245 249 255
245 249 255
245 249 255
245 249 255
245 249 255
245 249 255
245 249 255
245 249 255
245 249 255
245 249 255
245 249 255
245 249 255
245 249 255
245 249 255
245 249 255
245 249 255
245 249 255
245 249 255
245 249 255
245 249 255
245 249 255
245 249 255
245 249 255
245 249 255
245 249 255
245 249 255
245 249 255
245 249 255
245 249 255
245 249 255
245 249 255
245 249 255
245 249 255
245 249 255
245 249 255
245 249 255
245 250 255
245 250 255
245 250 255
245 250 255
245 250 255
245 250 255
245 250 255
245 250 255
245 250 255
245 250 255
245 250 255
245 250 255
245 250 255
245 250 255
245 250 255
245 250 255
245 250 255
245 250 255
245 250 255
245 250 255
245 249 255
245 249 255
245 249 255
245 249 255
245 249 255
245 249 255
245 249 255
245 249 255
245 249 255
245 249 255
245 249 255
245 249 255
245 249 255
245 249 255
245 249 255
245 249 255
245 249 255
245 249 255
245 249 255
245 249 255
245 249 255
245 249 255
245 249 255
245 249 255
245 249 255
245 249 255
245 249 255
245 249 255
245 249 255
245 249 255
245 249 255
245 249 255
245 249 255
245 249 255
245 249 255
245 249 255
244 249 255
244 249 255
244 249 255
244 249 255
244 249 255
244 249 255
244 249 255
244 249 255
244 249 255
244 249 255
244 249 255
244 249 255
244 249 255
244 249 255
244 249 255
244 249 255
244 249 255
244 249 255
244 248 255
244 248 255
244 248 255
244 248 255
244 248 255
243 248 255
243 248 255
243 248 255
243 248 255
243 248 255
243 248 255
243 248 255
243 248 255
243 248 255
243 248 255
243 248 255
243 248 255
243 248 255
243 248 255
243 248 255
243 248 255
243 248 255
243 248 255
242 248 255
242 248 255
242 248 255
242 248 255
242 248 255
242 248 255
242 248 255
242 248 255
242 248 255
242 247 255
242 247 255
242 247 255
242 247 255
242 247 255
242 247 255
242 247 255
242 247 255
242 247 255
241 247 255
241 247 255
241 247 255
241 247 255
241 247 255
241 247 255
241 247 255
241 243 252
240 211 218
241 190 196
239 144 149
239 107 111
238 0 0
237 0 0
238 0 0
239 0 0
240 0 0
239 0 0
238 0 0
235 0 0
235 0 0
234 0 0
238 0 0
237 0 0
238 0 0
237 0 0
238 0 0
234 0 0
240 0 0
238 0 0
236 0 0
233 0 0
237 0 0
238 0 0
236 0 0
237 0 0
237 0 0
236 0 0
235 0 0
238 0 0
238 0 0
235 0 0
235 0 0
237 0 0
238 0 0
236 0 0
236 0 0
237 0 0
236 0 0
235 0 0
235 0 0
236 0 0
237 0 0
235 0 0
236 0 0
235 0 0
234 0 0
233 0 0
235 0 0
234 0 0
236 0 0
238 0 0
235 0 0
235 0 0
234 0 0
233 0 0
232 0 0
236 0 0
239 0 0
234 0 0
236 0 0
236 0 0
235 0 0
239 0 0
238 0 0
235 0 0
235 0 0
236 0 0
234 0 0
233 0 0
232 0 0
234 0 0
234 0 0
235 0 0
235 0 0
237 0 0
236 0 0
234 0 0
235 0 0
236 0 0
233 0 0
235 0 0
235 0 0
236 0 0
236 0 0
202 209 255
175 181 255
140 144 255
78 81 255
0 0 255
0 0 255
0 0 255
0 0 255
0 0 255
0 0 255
0 0 255
0 0 255
0 0 255
0 0 255
0 0 255
0 0 255
0 0 255
0 0 255
0 0 255
0 0 255
0 0 255
0 0 255
0 0 255
0 0 255
0 0 255
0 0 255
0 0 255
0 0 255
0 0 255
0 0 255
0 0 255
0 0 255
0 0 255
0 0 255
0 0 255
0 0 255
0 0 255
0 0 255
0 0 254
0 0 255
0 0 255
0 0 255
0 0 255
0 0 255
0 0 255
0 0 255
0 0 255
0 0 255
0 0 255
0 0 255
0 0 254
0 0 255
0 0 255
0 0 255
0 0 255
0 0 255
0 0 255
0 0 254
0 0 255
0 0 255
0 0 255
0 0 254
0 0 254
0 0 255
0 0 255
0 0 255
0 0 254
0 0 255
0 0 255
0 0 255
0 0 255
0 0 255
0 0 255
0 0 255
0 0 255
0 0 255
0 0 255
41 42 255
80 81 255
152 156 255
178 183 255
201 206 255
234 239 255
241 247 255
241 247 255
241 247 255
241 247 255
241 247 255
241 247 255
241 247 255
241 247 255
241 247 255
241 247 255
242 247 255
242 247 255
242 247 255
242 247 255
242 247 255
242 247 255
242 247 255
242 247 255
242 247 255
242 248 255
242 248 255
242 248 255
242 248 255
242 248 255
242 248 255
242 248 255
242 248 255
242 248 255
243 248 255
243 248 255
243 248 255
243 248 255
243 248 255
243 248 255
243 248 255
243 248 255
243 248 255
243 248 255
243 248 255
243 248 255
243 248 255
243 248 255
243 248 255
243 248 255
243 248 255
243 248 255
244 248 255
244 248 255
244 248 255
244 248 255
244 248 255
244 249 255
244 249 255
244 249 255
244 249 255
244 249 255
244 249 255
244 249 255
244 249 255
244 249 255
244 249 255
244 249 255
244 249 255
244 249 255
244 249 255
244 249 255
244 249 255
244 249 255
245 249 255
245 249 255
245 249 255
245 249 255
245 249 255
245 249 255
245 249 255
245 249 255
245 249 255
245 249 255
245 249 255
245 249 255
245 249 255
245 249 255
245 249 255
245 249 255
245 249 255
245 249 255
245 249 255
245 249 255
245 249 255
245 249 255
245 249 255
245 249 255
245 249 255
245 249 255
245 249 255
245 249 255
245 249 255
245 249 255
245 249 255
245 250 255
245 250 255
245 250 255
245 250 255
245 250 255
246 250 255
246 250 255
246 250 255
246 250 255
246 250 255
246 250 255
246 250 255
246 250 255
246 250 255
246 250 255
246 250 255
246 250 255
246 250 255
246 250 255
246 250 255
246 250 255
246 250 255
246 250 255
246 250 255
246 250 255
246 250 255
246 250 255
246 250 255
246 250 255
246 250 255
245 250 255
245 250 255
245 250 255
245 250 255
245 250 255
245 250 255
245 249 255
245 249 255
245 249 255
245 249 255
245 249 255
245 249 255
245 249 255
245 249 255
245 249 255
245 249 255
245 249 255
245 249 255
245 249 255
245 249 255
245 249 255
245 249 255
245 249 255
245 249 255
245 249 255
245 249 255
245 249 255
245 249 255
245 249 255
245 249 255
245 249 255
245 249 255
245 249 255
245 249 255
245 249 255
245 249 255
245 249 255
244 249 255
244 249 255
244 249 255
244 249 255
244 249 255
244 249 255
244 249 255
244 249 255
244 249 255
244 249 255
244 249 255
244 249 255
244 249 255
244 249 255
244 249 255
244 249 255
244 249 255
244 249 255
244 248 255
244 248 255
244 248 255
244 248 255
243 248 255
243 248 255
243 248 255
243 248 255
243 248 255
243 248 255
243 248 255
243 248 255
243 248 255
243 248 255
243 248 255
243 248 255
243 248 255
243 248 255
243 248 255
243 248 255
243 248 255
243 248 255
243 248 255
242 248 255
242 248 255
242 248 255
242 248 255
242 248 255
242 248 255
242 248 255
242 248 255
242 247 255
242 247 255
242 247 255
242 247 255
242 247 255
242 247 255
242 247 255
242 247 255
242 247 255
241 247 255
241 247 255
241 247 255
241 247 255
241 247 255
241 247 255
241 247 255
241 247 255
241 247 255
241 247 255
241 238 246
241 193 199
238 171 177
238 146 151
239 104 108
239 65 67
238 0 0
240 0 0
237 0 0
236 0 0
237 0 0
240 0 0
238 0 0
237 0 0
237 0 0
236 0 0
238 0 0
237 0 0
239 0 0
236 0 0
235 0 0
236 0 0
236 0 0
236 0 0
233 0 0
236 0 0
238 0 0
236 0 0
237 0 0
235 0 0
234 0 0
238 0 0
239 0 0
234 0 0
235 0 0
235 0 0
238 0 0
234 0 0
235 0 0
237 0 0
234 0 0
236 0 0
234 0 0
232 0 0
236 0 0
238 0 0
234 0 0
234 0 0
235 0 0
237 0 0
235 0 0
235 0 0
237 0 0
234 0 0
235 0 0
237 0 0
238 0 0
236 0 0
233 0 0
236 0 0
234 0 0
235 0 0
235 0 0
234 0 0
237 0 0
236 0 0
235 0 0
238 0 0
236 0 0
234 0 0
238 0 0
235 0 0
235 0 0
234 0 0
237 0 0
236 0 0
235 0 0
234 0 0
235 0 0
234 97 102
237 131 137
238 184 193
236 197 206
237 244 255
237 244 255
237 244 255
237 244 255
233 241 255
213 220 255
197 203 255
177 183 255
136 140 255
108 112 255
67 69 255
0 0 255
0 0 255
0 0 255
0 0 255
0 0 255
0 0 255
0 0 255
0 0 255
0 0 255
0 0 255
0 0 255
0 0 255
0 0 255
0 0 255
0 0 255
0 0 255
0 0 255
0 0 255
0 0 255
0 0 255
0 0 255
0 0 255
0 0 255
0 0 255
0 0 255
0 0 255
0 0 255
0 0 255
0 0 255
0 0 255
0 0 255
0 0 255
0 0 255
0 0 254
0 0 255
0 0 255
0 0 255
0 0 255
0 0 255
0 0 255
0 0 255
0 0 255
0 0 255
0 0 255
0 0 255
0 0 255
0 0 255
0 0 254
0 0 255
0 0 255
0 0 255
0 0 255
0 0 255
0 0 255
0 0 254
0 0 255
0 0 255
0 0 255
0 0 255
0 0 255
59 60 255
90 92 255
144 148 255
173 178 255
203 208 255
223 229 255
238 244 255
241 247 255
241 247 255
241 247 255
241 247 255
241 247 255
241 247 255
241 247 255
241 247 255
241 247 255
241 247 255
241 247 255
241 247 255
241 247 255
242 247 255
242 247 255
242 247 255
242 247 255
242 247 255
242 247 255
242 247 255
242 247 255
242 247 255
242 248 255
242 248 255
242 248 255
242 248 255
242 248 255
242 248 255
242 248 255
242 248 255
243 248 255
243 248 255
243 248 255
243 248 255
243 248 255
243 248 255
243 248 255
243 248 255
243 248 255
243 248 255
243 248 255
243 248 255
243 248 255
243 248 255
243 248 255
243 248 255
243 248 255
243 248 255
243 248 255
244 248 255
244 248 255
244 248 255
244 248 255
244 249 255
244 249 255
244 249 255
244 249 255
244 249 255
244 249 255
244 249 255
244 249 255
244 249 255
244 249 255
244 249 255
244 249 255
244 249 255
244 249 255
244 249 255
244 249 255
244 249 255
245 249 255
245 249 255
245 249 255
245 249 255
245 249 255
245 249 255
245 249 255
245 249 255
245 249 255
245 249 255
245 249 255
245 249 255
245 249 255
245 249 255
245 249 255
245 249 255
245 249 255
245 249 255
245 249 255
245 249 255
245 249 255
245 249 255
245 249 255
245 249 255
245 249 255
245 249 255
245 249 255
245 249 255
245 250 255
245 250 255
245 250 255
245 250 255
246 250 255
246 250 255
246 250 255
246 250 255
246 250 255
246 250 255
246 250 255
246 250 255
246 250 255
246 250 255
246 250 255
246 250 255
246 250 255
246 250 255
246 250 255
246 250 255
246 250 255
246 250 255
246 250 255
246 250 255
246 250 255
246 250 255
246 250 255
246 250 255
246 250 255
246 250 255
246 250 255
246 250 255
246 250 255
246 250 255
246 250 255
246 250 255
246 250 255
246 250 255
246 250 255
246 250 255
246 250 255
246 250 255
246 250 255
246 250 255
245 250 255
245 250 255
245 250 255
245 250 255
245 249 255
245 249 255
245 249 255
245 249 255
245 249 255
245 249 255
245 249 255
245 249 255
245 249 255
245 249 255
245 249 255
245 249 255
245 249 255
245 249 255
245 249 255
245 249 255
245 249 255
245 249 255
245 249 255
245 249 255
245 249 255
245 249 255
245 249 255
245 249 255
245 249 255
245 249 255
245 249 255
245 249 255
244 249 255
244 249 255
244 249 255
244 249 255
244 249 255
244 249 255
244 249 255
244 249 255
244 249 255
244 249 255
244 249 255
244 249 255
244 249 255
244 249 255
244 249 255
244 249 255
244 249 255
244 248 255
244 248 255
244 248 255
244 248 255
243 248 255
243 248 255
243 248 255
243 248 255
243 248 255
243 248 255
243 248 255
243 248 255
243 248 255
243 248 255
243 248 255
243 248 255
243 248 255
243 248 255
243 248 255
243 248 255
243 248 255
243 248 255
243 248 255
242 248 255
242 248 255
242 248 255
242 248 255
242 248 255
242 248 255
242 248 255
242 248 255
242 247 255
242 247 255
242 247 255
242 247 255
242 247 255
242 247 255
242 247 255
242 247 255
242 247 255
241 247 255
241 247 255
241 247 255
241 247 255
241 247 255
241 247 255
241 247 255
241 247 255
241 247 255
241 247 255
241 247 255
241 247 255
241 247 255
241 243 252
240 234 242
240 202 209
241 188 194
241 165 171
239 110 114
239 85 88
237 0 0
240 0 0
237 0 0
239 0 0
237 0 0
239 0 0
238 0 0
236 0 0
234 0 0
238 0 0
238 0 0
239 0 0
237 0 0
235 0 0
235 0 0
238 0 0
236 0 0
236 0 0
236 0 0
238 0 0
236 0 0
238 0 0
233 0 0
239 0 0
236 0 0
237 0 0
240 0 0
238 0 0
236 0 0
236 0 0
239 0 0
239 0 0
236 0 0
237 0 0
237 0 0
236 0 0
237 0 0
237 0 0
237 0 0
235 0 0
233 0 0
236 0 0
235 0 0
234 0 0
237 0 0
238 0 0
234 0 0
238 0 0
238 0 0
238 0 0
236 0 0
234 0 0
236 0 0
236 0 0
233 0 0
238 0 0
237 0 0
239 0 0
234 0 0
232 0 0
237 60 62
235 142 149
238 136 142
237 175 182
235 199 207
237 216 226
237 240 250
237 244 255
237 244 255
237 244 255
237 244 255
237 244 255
237 244 255
237 244 255
237 245 255
237 245 255
237 245 255
237 245 255
237 245 255
237 245 255
237 245 255
237 245 255
231 239 255
212 219 255
203 209 255
185 191 255
164 169 255
134 138 255
114 117 255
89 91 255
41 42 255
0 0 255
0 0 255
0 0 255
0 0 255
0 0 255
0 0 255
0 0 255
0 0 255
0 0 255
0 0 255
0 0 255
0 0 255
0 0 255
0 0 255
0 0 255
0 0 254
0 0 255
0 0 255
0 0 255
0 0 255
0 0 255
0 0 255
0 0 255
0 0 255
0 0 255
0 0 255
0 0 255
0 0 255
0 0 254
0 0 255
0 0 254
0 0 255
0 0 255
0 0 255
0 0 255
0 0 254
0 0 255
0 0 255
0 0 255
0 0 255
0 0 254
0 0 254
48 49 255
93 95 255
120 123 254
154 158 255
165 169 255
181 186 255
198 203 255
220 226 255
233 239 255
241 247 255
241 247 255
241 247 255
241 247 255
241 247 255
241 247 255
241 247 255
241 247 255
241 247 255
241 247 255
241 247 255
241 247 255
241 247 255
241 247 255
241 247 255
241 247 255
241 247 255
241 247 255
242 247 255
242 247 255
242 247 255
242 247 255
242 247 255
242 247 255
242 247 255
242 247 255
242 247 255
242 248 255
242 248 255
242 248 255
242 248 255
242 248 255
242 248 255
242 248 255
242 248 255
243 248 255
243 248 255
243 248 255
243 248 255
243 248 255
243 248 255
243 248 255
243 248 255
243 248 255
243 248 255
243 248 255
243 248 255
243 248 255
243 248 255
243 248 255
243 248 255
243 248 255
243 248 255
243 248 255
244 248 255
244 248 255
244 248 255
244 248 255
244 249 255
244 249 255
244 249 255
244 249 255
244 249 255
244 249 255
244 249 255
244 249 255
244 249 255
244 249 255
244 249 255
244 249 255
244 249 255
244 249 255
244 249 255
244 249 255
245 249 255
245 249 255
245 249 255
245 249 255
245 249 255
245 249 255
245 249 255
245 249 255
245 249 255
245 249 255
245 249 255
245 249 255
245 249 255
245 249 255
245 249 255
245 249 255
245 249 255
245 249 255
245 249 255
245 249 255
245 249 255
245 249 255
245 249 255
245 249 255
245 249 255
245 249 255
245 250 255
245 250 255
245 250 255
245 250 255
246 250 255
246 250 255
246 250 255
246 250 255
246 250 255
246 250 255
246 250 255
246 250 255
246 250 255
246 250 255
246 250 255
246 250 255
246 250 255
246 250 255
246 250 255
246 250 255
246 250 255
246 250 255
246 250 255
246 250 255
246 250 255
246 250 255
246 250 255
246 250 255
246 250 255
246 250 255
246 250 255
246 250 255
246 250 255
246 250 255
246 250 255
246 250 255
246 250 255
246 250 255
246 250 255
246 250 255
246 250 255
246 250 255
246 250 255
246 250 255
246 250 255
246 250 255
246 250 255
246 250 255
246 250 255
246 250 255
246 250 255
246 250 255
246 250 255
246 250 255
245 250 255
245 250 255
245 250 255
245 250 255
245 249 255
245 249 255
245 249 255
245 249 255
245 249 255
245 249 255
245 249 255
245 249 255
245 249 255
245 249 255
245 249 255
245 249 255
245 249 255
245 249 255
245 249 255
245 249 255
245 249 255
245 249 255
245 249 255
245 249 255
245 249 255
245 249 255
245 249 255
245 249 255
245 249 255
245 249 255
244 249 255
244 249 255
244 249 255
244 249 255
244 249 255
244 249 255
244 249 255
244 249 255
244 249 255
244 249 255
244 249 255
244 249 255
244 249 255
244 249 255
244 249 255
244 249 255
244 248 255
244 248 255
244 248 255
244 248 255
244 248 255
243 248 255
243 248 255
243 248 255
243 248 255
243 248 255
243 248 255
243 248 255
243 248 255
243 248 255
243 248 255
243 248 255
243 248 255
243 248 255
243 248 255
243 248 255
243 248 255
243 248 255
243 248 255
242 248 255
242 248 255
242 248 255
242 248 255
242 248 255
242 248 255
242 248 255
242 248 255
242 247 255
242 247 255
242 247 255
242 247 255
242 247 255
242 247 255
242 247 255
242 247 255
242 247 255
241 247 255
241 247 255
241 247 255
241 247 255
241 247 255
241 247 255
241 247 255
241 247 255
241 247 255
241 247 255
241 247 255
241 247 255
241 247 255
241 247 255
241 247 255
241 247 255
241 247 255
240 247 255
241 236 245
241 229 237
240 211 218
239 194 201
238 178 184
240 152 157
237 128 133
239 85 88
239 34 36
239 0 0
240 0 0
239 0 0
235 0 0
240 0 0
236 0 0
235 0 0
236 0 0
236 0 0
238 0 0
236 0 0
236 0 0
236 0 0
236 0 0
238 0 0
238 0 0
237 0 0
235 0 0
236 0 0
236 0 0
238 0 0
237 0 0
237 0 0
235 0 0
236 0 0
237 0 0
236 0 0
237 0 0
236 0 0
238 0 0
237 0 0
234 0 0
236 0 0
235 0 0
235 0 0
236 0 0
239 0 0
236 0 0
236 0 0
236 0 0
237 0 0
236 0 0
237 49 51
237 98 102
237 109 114
237 122 128
236 171 179
235 186 194
236 206 215
237 222 231
237 239 249
237 245 255
237 245 255
237 245 255
237 245 255
237 245 255
237 245 255
237 245 255
237 245 255
237 244 255
237 244 255
237 244 255
237 244 255
237 245 255
237 245 255
237 245 255
237 245 255
237 245 255
237 245 255
237 245 255
237 245 255
237 245 255
237 245 255
237 245 255
237 245 255
238 245 255
238 245 255
238 245 255
238 245 255
238 245 255
238 245 255
238 245 255
222 229 255
210 216 255
210 216 255
203 209 255
192 198 255
165 170 255
149 153 255
145 149 255
135 139 255
128 132 255
133 136 255
106 109 255
98 101 255
71 73 255
82 85 255
71 73 255
47 49 255
23 24 255
23 24 255
23 24 255
0 0 255
0 0 255
23 24 255
33 34 255
47 49 255
41 42 255
67 69 255
83 85 255
79 81 255
89 92 255
109 112 255
146 149 255
137 141 255
135 139 255
144 147 255
166 170 255
174 179 255
189 194 255
198 203 255
215 220 255
219 224 255
233 239 255
240 246 255
240 246 255
240 246 255
240 246 255
240 247 255
240 247 255
240 247 255
241 247 255
241 247 255
241 247 255
241 247 255
241 247 255
241 247 255
241 247 255
241 247 255
241 247 255
241 247 255
241 247 255
241 247 255
241 247 255
241 247 255
241 247 255
241 247 255
241 247 255
241 247 255
242 247 255
242 247 255
242 247 255
242 247 255
242 247 255
242 247 255
242 247 255
242 247 255
242 247 255
242 248 255
242 248 255
242 248 255
242 248 255
242 248 255
242 248 255
242 248 255
242 248 255
243 248 255
243 248 255
243 248 255
243 248 255
243 248 255
243 248 255
243 248 255
243 248 255
243 248 255
243 248 255
243 248 255
243 248 255
243 248 255
243 248 255
243 248 255
243 248 255
243 248 255
243 248 255
244 248 255
244 248 255
244 248 255
244 248 255
244 248 255
244 249 255
244 249 255
244 249 255
244 249 255
244 249 255
244 249 255
244 249 255
244 249 255
244 249 255
244 249 255
244 249 255
244 249 255
244 249 255
244 249 255
244 249 255
244 249 255
245 249 255
245 249 255
245 249 255
245 249 255
245 249 255
245 249 255
245 249 255
245 249 255
245 249 255
245 249 255
245 249 255
245 249 255
245 249 255
245 249 255
245 249 255
245 249 255
245 249 255
245 249 255
245 249 255
245 249 255
245 249 255
245 249 255
245 249 255
245 249 255
245 250 255
245 250 255
245 250 255
246 250 255
246 250 255
246 250 255
246 250 255
246 250 255
246 250 255
246 250 255
246 250 255
246 250 255
246 250 255
246 250 255
246 250 255
246 250 255
246 250 255
246 250 255
246 250 255
246 250 255
246 250 255
246 250 255
246 250 255
246 250 255
246 250 255
246 250 255
246 250 255
246 250 255
246 250 255
246 250 255
246 250 255
246 250 255
246 250 255
246 250 255
246 250 255
246 250 255
246 250 255
246 250 255
246 250 255
246 250 255
246 250 255
246 250 255
246 250 255
246 250 255
246 250 255
246 250 255
246 250 255
246 250 255
246 250 255
246 250 255
246 250 255
246 250 255
246 250 255
246 250 255
246 250 255
246 250 255
246 250 255
246 250 255
246 250 255
246 250 255
246 250 255
246 250 255
246 250 255
245 250 255
245 250 255
245 250 255
245 249 255
245 249 255
245 249 255
245 249 255
245 249 255
245 249 255
245 249 255
245 249 255
245 249 255
245 249 255
245 249 255
245 249 255
245 249 255
245 249 255
245 249 255
245 249 255
245 249 255
245 249 255
245 249 255
245 249 255
245 249 255
245 249 255
245 249 255
245 249 255
244 249 255
244 249 255
244 249 255
244 249 255
244 249 255
244 249 255
244 249 255
244 249 255
244 249 255
244 249 255
244 249 255
244 249 255
244 249 255
244 249 255
244 249 255
244 249 255
244 248 255
244 248 255
244 248 255
244 248 255
244 248 255
243 248 255
243 248 255
243 248 255
243 248 255
243 248 255
243 248 255
243 248 255
243 248 255
243 248 255
243 248 255
243 248 255
243 248 255
243 248 255
243 248 255
243 248 255
243 248 255
243 248 255
243 248 255
242 248 255
242 248 255
242 248 255
242 248 255
242 248 255
242 248 255
242 248 255
242 248 255
242 247 255
242 247 255
242 247 255
242 247 255
242 247 255
242 247 255
242 247 255
242 247 255
242 247 255
241 247 255
241 247 255
241 247 255
241 247 255
241 247 255
241 247 255
241 247 255
241 247 255
241 247 255
241 247 255
241 247 255
241 247 255
241 247 255
241 247 255
241 247 255
241 247 255
241 247 255
241 247 255
240 247 255
240 247 255
240 247 255
240 246 255
240 246 255
240 246 255
240 246 255
240 240 249
240 230 238
240 212 220
240 209 217
239 179 186
238 187 194
239 174 181
239 152 157
239 163 169
237 123 128
238 130 135
239 92 95
236 98 102
237 81 84
236 85 88
238 60 62
238 69 72
239 24 25
237 34 36
238 24 25
235 0 0
239 0 0
237 0 0
238 0 0
236 49 51
237 55 57
240 55 57
235 73 76
238 85 88
237 120 125
239 107 111
239 115 120
237 112 117
236 149 155
237 151 157
239 175 182
240 172 179
237 201 209
237 212 221
237 209 218
238 218 227
239 238 248
238 244 254
238 245 255
238 245 255
238 245 255
238 245 255
238 245 255
237 245 255
237 245 255
237 245 255
237 245 255
237 245 255
237 245 255
237 245 255
237 245 255
237 245 255
237 245 255
237 245 255
237 245 255
237 245 255
237 245 255
